tonegas/nnodely-applications/joint_friction_estimation/dataset/train/mpc_mujoco_episode_25 copy.csv
time,q1,q2,q3,q4,q5,q6,dq1,dq2,dq3,dq4,dq5,dq6,ddq1,ddq2,ddq3,ddq4,ddq5,ddq6,tau1,tau2,tau3,tau4,tau5,tau6
0.0,0.0,1.57,-1.57,0.0,0.0,0.0,0.0,0.0,0.0,0.0,0.0,0.0,-4.311010483323982,14.368560548107721,9.939547967924973,3.209416428439326,-0.5960625301788056,-3.7459597312938797e-06,-0.6006218532026413,4.571752350758114,-0.4957176422084508,-0.12049825714617868,-0.05388244031315845,-0.0006625098684905073
0.01,-0.00042874162325379174,1.5714356485842162,-1.5690071547447177,0.0003035283866685248,-5.1085764618490434e-05,-3.618967420022823e-07,-0.042874162325379175,0.14356485842161987,0.09928452552822403,0.03035283866685248,-0.0051085764618490435,-3.618967420022823e-05,-4.278367487696919,13.950117460459545,9.560812290282822,2.8999061325166764,-0.4995833958650202,-0.0035596568838378584,-0.6043609271433227,4.267609792224651,-0.6263397281178098,-0.14963191441015322,-0.05401718412618861,-0.0006761502512787188
0.02,-0.0012826750482350085,1.5742652151237226,-1.567060399992062,0.0008843737635484453,-0.00014725684428089264,-1.0994411275960626e-06,-0.08539334249812167,0.28295665395063285,0.19467547526557002,0.058084537687992044,-0.00961710796624022,-7.375443855937802e-05,-4.236246550446619,13.50662590651669,9.150100628832611,2.6303757231851677,-0.43703736398640913,-0.0035094623396210167,-0.6145128538156838,3.9129398829387396,-0.7632054971418603,-0.1791022435902131,-0.054491848386065335,-0.0006886897013987951
0.03,-0.0025574456611305654,1.5784444249502414,-1.56420152828179,0.0017192389274823805,-0.00028450034630493024,-2.1857065616065845e-06,-0.1274770612895557,0.41792098265187994,0.28588717102720523,0.08348651639339352,-0.01372435020240376,-0.00010862654340105221,-4.1855644349625,13.039327324324402,8.712909141260763,2.390623944957582,-0.3933294529103435,-0.002928600347262611,-0.6305148980849957,3.5121783692646797,-0.9056571030351397,-0.20881533195734614,-0.055256990551656886,-0.0006997913127460223
0.04,-0.0042479311927241265,1.5839265937284701,-1.5604747211808014,0.0027869826389230043,-0.00045988338070701096,-3.592705810158464e-06,-0.16904855315935616,0.5482168778228672,0.3726807100988586,0.1067743711440624,-0.017538303440208073,-0.00014069992485518795,-4.126747741018978,12.549685797286065,8.253999683831918,2.17312620671256,-0.359563349122368,-0.0022369668234978324,-0.6517497091895369,3.069964863927791,-1.0529416361914796,-0.2386558275460251,-0.05625528052737614,-0.0007090861527078194
0.05,-0.006348250981139332,1.5906627818398285,-1.5559261357888101,0.004068065193762954,-0.0006710195427499426,-5.293389283374202e-06,-0.21003197884152053,0.6736188111358422,0.4548585391991403,0.12810825548399493,-0.021113616204293157,-0.00017006834732157387,-4.059941006131107,12.039356429942023,7.7775747397022705,1.972390652560783,-0.3306158117113682,-0.0014873854709109846,-0.6775406570983218,2.59109229096301,-1.204225943420564,-0.26849083973047383,-0.05742346100901834,-0.0007161840144781241
0.06,-0.008851760111954545,1.598601966134778,-1.5506035325089165,0.005544148539703575,-0.000915763667801679,-7.260064382344177e-06,-0.25035091308152124,0.7939184294949524,0.532260327989369,0.14760833459406214,-0.024474412505173647,-0.0001966675098969975,-3.985141122672154,11.51015653493378,7.287406272923626,1.784463495488744,-0.3036597078725123,-0.000699346335984341,-0.7071474557565401,2.0804554082084676,-1.358612254281927,-0.29817394776458883,-0.05869429241213316,-0.0007206916581336686
0.07,-0.01175103682663605,1.6076912265642256,-1.5445559346557727,0.0071978131811562636,-0.0011920456119719422,-9.46355050342553e-06,-0.2899276714681507,0.9089260429447636,0.604759785314377,0.16536646414526884,-0.02762819441702632,-0.00022034861210813521,-3.9022853886231315,10.964038371949664,6.786928940521985,1.6065499097104805,-0.27725592253518627,0.00010234115272877986,-0.7397639277751268,1.5429987587122307,-1.5151543767205355,-0.3275492559250507,-0.05999848858645892,-0.0007222338378669994
0.08,-0.01503786884824685,1.617875945259561,-1.5378333132257342,0.009012362933006998,-0.0014977881390923799,-1.1873153291156002e-05,-0.32868320216108,1.0184718695335504,0.6722621430038516,0.18145497518507347,-0.030574252712043767,-0.0002409602787730472,-3.811309932325524,10.403062720607469,6.279305984137981,1.4367235546497454,-0.25079182829363944,0.00088957715839455,-0.7745193327094652,0.9836645943932023,-1.6728742066971969,-0.356455425524139,-0.06126663103684365,-0.0007204742719143646
0.09,-0.01870324250370029,1.629100015642361,-1.5304862922604539,0.010971695328341717,-0.0018308749423780854,-1.4457114774506713e-05,-0.3665373655453442,1.1224070382799962,0.7347020965280308,0.19593323953347194,-0.03330868032857057,-0.00025839614833507104,-3.7121886282459484,9.829372956960606,5.767474361513997,1.2737039614432248,-0.22413242938804956,0.0016359644938186424,-0.8104842183005159,0.4073414632700567,-1.830778282629717,-0.384729610694029,-0.06243103456522396,-0.000715134770599169
0.1,-0.02273733732199124,1.641306059141401,-1.5225658718326713,0.013060220645404512,-0.002189147671833141,-1.7183271208507537e-05,-0.40340948182909475,1.2206043499040191,0.7920420427782505,0.2088525317062795,-0.03582727294550557,-0.00027261564340008227,-3.604958566261389,9.24516955127044,5.254174289247985,1.1166858942365252,-0.19740305026695992,0.0023200070285531726,-0.8466812661731311,-0.18118575836267148,-1.9878741100285224,-0.41221122583157777,-0.06342752649808364,-0.0007060113718262773
0.11,-0.02712952791647672,1.6544356470965678,-1.5141231668758053,0.015262816470872246,-0.0025704187713737883,-2.001975091306225e-05,-0.4392190594485482,1.3129587955166833,0.8442704956866025,0.22025958254677336,-0.03812710995406473,-0.0002836479704554711,-3.4897357454709828,8.652685216606454,4.7419672866123825,0.965208562516068,-0.17085426721770602,0.002926514000606506,-0.8821011106424379,-0.7772834893422038,-2.1431859550213104,-0.4387454709175165,-0.06419709519507635,-0.000692986746178829
0.12,-0.031868394280068796,1.6684295254642905,-1.5052091609493146,0.01756480774811928,-0.002972491884994384,-2.293561648863646e-05,-0.47388663635920725,1.3993878367722778,0.8914005926490802,0.23019912772470336,-0.04020731136205958,-0.00029158655755742106,-3.366723288567098,8.054160657243418,4.233245937632102,0.8190554472895144,-0.14477894693892068,0.0034467422868000863,-0.9157226348274863,-1.3765140131882365,-2.295769876132328,-0.4641865597699735,-0.06468736106995315,-0.0006760384439968964
0.13,-0.03694174106176193,1.683227839976746,-1.495874474646845,0.019951964591034366,-0.0033931847315536996,-2.5901403018941158e-05,-0.5073346781693133,1.4798314512455584,0.933468630246948,0.23871568429150872,-0.042069284655931544,-0.00029657865303046974,-3.236213768501628,7.451821553082649,3.7302379410033843,0.6781776980027736,-0.11946275810528206,0.003877754535412725,-0.9465368341163456,-1.9746760087170685,-2.444727663791814,-0.488400581258777,-0.06485382556378415,-0.0006552427995136687
0.14,-0.04233662592077767,1.698770359513915,-1.4861691487628745,0.022410511943041472,-0.0038303513693513595,-2.8889533889748357e-05,-0.539488485901574,1.5542519537168946,0.970532588397059,0.24585473520071058,-0.04371666377976596,-0.0002988130870807198,-3.098586834400256,6.847856823832397,3.235006442718703,0.5426357352621523,-0.09515641980612344,0.004221359817567327,-0.9735729991463165,-2.5678404411537357,-2.5892194811791462,-0.5112679537041258,-0.0646608589766333,-0.0006307745354039722
0.15,-0.04803939665546726,1.714996695563094,-1.476142442581635,0.024927146554981988,-0.0042819020909124084,-3.187461427090757e-05,-0.5702770734689587,1.6226336049178978,1.002670618123965,0.2516634611940514,-0.04515507215610494,-0.0002985080381159213,-2.9543031469846976,6.244398561029154,2.7494482270365506,0.41255496313512197,-0.07206211641669391,0.004482902005085165,-0.9959257475419729,-3.152381146045772,-2.7284749638699264,-0.5326854305111044,-0.06408239726647666,-0.0006029023036252696
0.16,-0.05403573647638476,1.7318465157979173,-1.465842647772144,0.027489057840471575,-0.004745820055724112,-3.483361289628634e-05,-0.5996339820917499,1.6849820234823254,1.0299794809490916,0.2561911285489586,-0.046391796481170394,-0.0002958998625378769,-2.8038955188230306,5.643503868041636,2.275290976150922,0.28809245855186916,-0.05032906496147582,0.004670075246028471,-1.0127813324583963,-3.7249996345203193,-2.861802590424178,-0.5525676309017999,-0.06310232937235519,-0.0005719805722244838
0.17,-0.06031071653566921,1.7492597499927285,-1.4553169183947285,0.030083950016087622,-0.005220174336765228,-3.774594810583001e-05,-0.6274980059284454,1.7413234194811238,1.0525729377415505,0.2594892175616046,-0.04743542810411158,-0.000291233520954367,-2.647958073912567,5.047138817245401,1.8140905148152235,0.16941223407371098,-0.030054835708039462,0.004791875847391047,-1.0234416845198728,-4.282743797400919,-2.9885971757744825,-0.57084808193219,-0.06171456961824164,-0.0005384384100208407
0.18,-0.06684885463700431,1.7671767866945538,-1.4446111174715002,0.03270006360112567,-0.00570312942125816,-4.059349598967594e-05,-0.6538138101335096,1.791703670182526,1.0705800923228397,0.2616113585038047,-0.04829550844929319,-0.0002847547883845935,-2.4871341614637283,4.457164677012852,1.3672287120070363,0.05666722111106637,-0.011290086228665785,0.004857745583483952,-1.027344793718825,-4.823020354108685,-3.1083453887944534,-0.5874797716351181,-0.05992282319013724,-0.0005027658281679223
0.19,-0.07363417892874798,1.7855386592978393,-1.4337696804661493,0.03532619487898806,-0.0061929514295084795,-4.336053818013067e-05,-0.6785324291743667,1.8361872603285374,1.084143700535079,0.262613127786239,-0.04898220082503198,-0.0002767042190454724,-2.322103671951282,3.8753265018197633,0.9359125092885252,-0.05001346316149835,0.005954906151593775,0.00487692220794167,-1.024080291117214,-5.343601062976474,-3.2206292497809663,-0.6024352269572195,-0.057740065541195554,-0.0004654984051981105
0.2,-0.0806502953218686,1.8042872204002578,-1.4228354958742568,0.03795171234061034,-0.006688011440425293,-4.6033665282897346e-05,-0.7016116393120619,1.8748561102418464,1.0934184591892457,0.2625517461622275,-0.04950600109168138,-0.0002673127102766676,-2.153570309275146,3.303244117555118,0.5211743782291443,-0.1505330873154378,0.021703014832187506,0.004857987042605094,-1.0133994200382643,-5.842622876123746,-3.325127620785001,-0.615706143615435,-0.055187767968904046,-0.00042720094856073937
0.21,-0.08788045736678746,1.8233653035548845,-1.4118498029584325,0.04056656946308815,-0.007186786368448719,-4.8601649754937955e-05,-0.7230162044918859,1.907808315462666,1.098569291582429,0.2614857122477812,-0.049877492802342584,-0.00025679844720406103,-1.982249274959172,2.742405478673845,0.1238743719493387,-0.2448325994170677,0.03600306591254565,0.004808584542048466,-0.9952189608346721,-6.31858237504318,-3.4216157582820603,-0.6273026072880045,-0.05229491081449429,-0.0003884509318114818
0.22,-0.09530763736066336,1.8427168717691615,-1.400852106484893,0.04316131344149201,-0.0076878578461343884,-5.105529964355859e-05,-0.742717999387591,1.9351568214277157,1.0997696473539693,0.25947439784038584,-0.050107147768566895,-0.0002453649888620635,-1.8088557232526927,2.1941623209846672,-0.2552961752127003,-0.3328933455444205,0.0489231278239064,0.004735281967922611,-0.969619058549392,-6.770324958823931,-3.509963051458403,-0.6372519561865595,-0.04909683227880683,-0.0003498223962058001
0.23,-0.10291459753015454,1.8622871523289093,-1.3898801081393126,0.04572708970214155,-0.008189909545831665,-5.3387302265138445e-05,-0.7606960169491183,1.9570280559747706,1.097199834558019,0.25657762606495393,-0.05020516996972773,-0.0002332002621579857,-1.6340942539963175,1.6597279897099098,-0.6158093340138264,-0.41473777692260594,0.060544547289802964,0.004643536258974623,-0.9368352669806201,-7.197029368440928,-3.5901291169413128,-0.6455973433491987,-0.04563396450007957,-0.0003118709242824263
0.24,-0.11068396023546935,1.882022757741676,-1.3789696541277054,0.048255642191587185,-0.008691723334755394,-5.55920647748057e-05,-0.776936270531481,1.9735605412766635,1.0910454011607187,0.2528552489445631,-0.05018137889237279,-0.00022047625096672564,-1.4586496262153401,1.1401772858976376,-0.957293754543456,-0.49042860243904207,0.07095685025816145,0.0045377376072091025,-0.8972454387773532,-7.598188215274721,-3.662158460036671,-0.6523960626034698,-0.0419505093046046,-0.00027512018856897663
0.25,-0.11859827626134331,1.9018717927942477,-1.3681546983086947,0.050739309565127545,-0.009192174609014595,-5.766555673529422e-05,-0.7914316025873958,1.9849035052571689,1.0814955819010756,0.24836673735403625,-0.05004512742592017,-0.0002073491960488519,-1.2831788015474106,0.6364481461059929,-1.2795264803590114,-0.5600667596944642,0.08025353073042041,0.004421303557721523,-0.851352339157954,-7.973585237956383,-3.726173941613779,-0.6577177048449117,-0.03809310413613749,-0.00024005045910246485
0.26,-0.1266400903920745,1.9217839479012861,-1.3574672800612486,0.05317101749808327,-0.00969022709997678,-5.960515825704121e-05,-0.8041814130731175,1.9912155107038423,1.0687418247446143,0.2431707932955728,-0.04980524909621849,-0.0001939601521746988,-1.1083043637145282,0.14934495051272667,-1.5824235890165987,-0.6237885115015738,0.08852868846548212,0.004296802428693014,-0.7997630287084211,-8.32327003849489,-3.782369307651317,-0.6616422110486287,-0.03410952447333013,-0.00020708932746848444
0.27,-0.13479200360454005,1.9417105790838367,-1.3469375159697636,0.05554426741721295,-0.010184927394864566,-6.140951604322427e-05,-0.8151913212465562,1.992663118255053,1.052976409148489,0.23732499191296857,-0.04947002948877863,-0.00018043577861830671,-0.9346093084425825,-0.3204567572414655,-1.8660298666732975,-0.6817619214247443,0.09587443974630805,0.004166089741047818,-0.7431661447686799,-8.64753104772509,-3.831001044893267,-0.6642578854673911,-0.030047463047010167,-0.0001766047804415482
0.28,-0.1430367313499001,1.9616047750566403,-1.336593604308079,0.0578531220026418,-0.010675399365327846,-6.30784087059599e-05,-0.8244727745360063,1.9894195972803554,1.034391166168459,0.23088545854288495,-0.049047197046327935,-0.00016688926627356302,-0.7626331570773892,-0.7724043597998795,-2.1305077343639782,-0.7341829182546977,0.10237900674396183,0.004030445760298651,-0.6823082149277042,-8.946867443984615,-3.872379821582579,-0.6656594271308744,-0.025953418919736772,-0.00014890063991550084
0.29,-0.15135715752722276,1.9814214120213185,-1.3264618412263163,0.06009218784584977,-0.01116083865440396,-6.461262198758849e-05,-0.8320426177322653,1.9816636964678243,1.0131763081762752,0.2239065843207968,-0.04854392890761129,-0.0001534213281628594,-0.5928693158335692,-1.206061285093601,-2.3761256441803975,-0.7812711229245561,0.10812538490315138,0.0038907059626485108,-0.6179700699583384,-9.221960701190492,-3.9068617580264107,-0.6659460305380699,-0.021871721545952176,-0.00012421428308924317
0.3,-0.15973638387728104,2.001117196858742,-1.316566647489242,0.06225659566949799,-0.011640507334455168,-6.60138339860015e-05,-0.8379226350058275,1.969578483742351,0.9895193737074303,0.2164407823648221,-0.047966868005120865,-0.00014012119984130008,-0.42576358010598225,-1.6210993673303637,-2.6032461567719274,-0.8232655805514337,0.1131904898602798,0.003747379227555525,-0.5509443012140038,-9.473646377441817,-3.934839749485063,-0.6652195978978607,-0.017843706815530685,-0.00010271647165007922
0.31,-0.1681577746399213,2.020650699488925,-1.3069306045813056,0.06434197852263841,-0.012113728816489156,-6.728451010864047e-05,-0.8421390762640268,1.9533502630182749,0.9636042907936382,0.2085382853140426,-0.04732214820339889,-0.000127067612263897,-0.2617136684303506,-2.017290651535259,-2.812313899044706,-0.8604205138712153,0.11764469245669784,0.0036007508512638786,-0.4820145454728427,-9.702886677594577,-3.95673503557112,-0.6635830960156197,-0.013907054253750356,-8.451305316290733e-05
0.32,-0.17660499642211333,2.0399823752217294,-1.2975744989802485,0.06634444836232219,-0.012579883064500058,-6.842780723300277e-05,-0.8447221782192035,1.9331675732804523,0.9356105601057075,0.2002469839683773,-0.0466154248010901,-0.00011432971243623084,-0.10106966232763161,-2.394498828855022,-3.0038435842145295,-0.8930011914696436,0.12155166007891605,0.0034509691841921875,-0.4119371953187523,-9.910744237655061,-3.9729891781277935,-0.661139081515762,-0.010095287376329223,-6.964825267143696e-05
0.33,-0.18506205331516495,2.0590745779579493,-1.2885173734064497,0.06826057142171545,-0.01303840214668102,-6.94474864032201e-05,-0.8457056893051624,1.9092202736219779,0.9057125573798874,0.19161230593932604,-0.04585190821809628,-0.00010196791702173223,0.05586477473576006,-2.7526704732604093,-3.178408256842599,-0.9212799843144879,0.12496843324539711,0.003298115900535359,-0.341425941198665,-10.098357489802613,-3.984056575512409,-0.6579884090357879,-0.006437432950765799,-5.8109246962511634e-05
0.34,-0.19351331737827204,2.0778915651196144,-1.2797765838769457,0.07008734274724872,-0.013488766138015735,-7.034783331821064e-05,-0.8451264063107099,1.8816987161664949,0.8740789529503926,0.18267713255332674,-0.045036399133471364,-9.003469149905383e-05,0.20883052476635977,-3.0918262323499905,-3.336627904349691,-0.9455326667461765,0.12794567702004622,0.003142260746579695,-0.27113936588676396,-10.2669178784021,-3.9903976072378837,-0.6542291287365694,-0.002957829767132913,-4.9831706292451694e-05
0.35000000000000003,-0.20194355467167413,2.096399495192433,-1.271367861429173,0.07182216026457694,-0.01393049937528245,-7.113358584668549e-05,-0.8430237293402093,1.8507930072818968,0.8408722447772701,0.17348175173282276,-0.0441733237266714,-7.857525284748538e-05,0.3576106099673978,-3.412052106440318,-3.4791585547694828,-0.966035003002041,0.1305280568348406,0.0029835021065155454,-0.20167164389199135,-10.417649112906371,-3.9924724706241963,-0.6499555722470025,0.0003239264476599614,-4.470599612273311e-05
0.36,-0.21033794707663453,2.114566418753994,-1.2633053774277034,0.07346279870654421,-0.014363167055338355,-7.180986782218567e-05,-0.8394392404960405,1.8166923561560702,0.8062484001469558,0.16406384419672693,-0.04326676800559059,-6.762819755001832e-05,0.5020273687062062,-3.7134909316579403,-3.606681958987405,-0.9830596473165798,0.13275469732344725,0.002821995056744908,-0.1335462548160311,-10.551788565768629,-3.9907357417272533,-0.6452576201853448,0.003392918129347947,-4.258375161196121e-05
0.37,-0.21868211018195163,2.1323622638405304,-1.2556018114254066,0.07500738370709685,-0.01478637216017085,-7.238212841404009e-05,-0.8344163105317095,1.7795845086536404,0.7703566002296931,0.15445850005526401,-0.04232051048324941,-5.722605918544111e-05,0.6419393180155483,-3.996334164844943,-3.7198959350831187,-0.9968733744634015,0.1346596906655555,0.0026579686980232053,-0.067212505089026,-10.670570854331956,-3.9856316672106464,-0.6402201397543671,0.0062387388263504436,-4.328456712799393e-05
0.38,-0.22696210754859553,2.1497588164745283,-1.2482684206164671,0.0764543663341837,-0.01519975268713327,-7.285608642806285e-05,-0.8279997366643886,1.73965526339977,0.7333390808939432,0.14469826270868502,-0.04133805269624219,-4.73958014022759e-05,0.7772377982570491,-4.260814051149683,-3.819505433124027,-1.0077346481818417,0.13627262772232385,0.0024917345733416196,-0.003044568319357316,-10.775213586365636,-3.97759017250541,-0.634922577579601,0.008855242519860357,-4.660257881229491e-05
0.39,-0.2351644616863202,2.166729697136861,-1.2413151099905788,0.0778024983029853,-0.01560297915961036,-7.323767895652414e-05,-0.8202354137724654,1.6970880662332515,0.6953310625888436,0.13481319688015933,-0.04032264724770897,-3.815925284612918e-05,0.9078434854339417,-4.50719623948302,-3.9062143612035625,-1.015891527096258,0.13761913098010847,0.0023236879208696215,0.05865730021538093,-10.866905200045935,-3.967023554734814,-0.6294386908620466,0.011240227665674287,-5.23127574070663e-05
0.4,-0.24327616208974334,2.1832503339221003,-1.2347505023736378,0.07905080807904899,-0.015995752391722285,-7.353301386494544e-05,-0.8111700403423165,1.6520636785239315,0.6564607616940905,0.12483097760636944,-0.03927732321119232,-2.9533490842128562e-05,1.0337028464502347,-4.735772896762379,-3.980718197892392,-1.0215799013750733,0.1387213731128556,0.0021543034074400502,0.11766374730766715,-10.946794790742194,-3.9543238163628773,-0.623836398908107,0.01339507345416377,-6.017676867566273e-05
0.41000000000000003,-0.25128467068743987,2.1992979330655458,-1.2285820076188112,0.08019857804966833,-0.016377801480266876,-7.374832566959042e-05,-0.8008508597696511,1.6047599143445486,0.6168494754826542,0.11477699706193457,-0.038204908854458965,-2.1531180464498428e-05,1.1547846027070974,-4.946856359143692,-4.043697402678606,-1.0250220483557761,0.13959856897673006,0.0019841268101519205,0.1738118810914666,-11.015983788521158,-3.9398605870442305,-0.618177737006764,0.015324344408560831,-6.994829777537549e-05
0.42,-0.2591779250570561,2.2148514474766356,-1.2228158902915627,0.08124532291160531,-0.01674888199765347,-7.38899344220393e-05,-0.7893254369616257,1.555351441108994,0.5766117327248622,0.10467448619369889,-0.03710805173865957,-1.4160875244887715e-05,1.2710762580526225,-5.140773347273147,-4.095811624423556,-1.0264254915790012,0.14026743214475879,0.0018137639681852225,0.22699976957648282,-11.0755193310375,-3.9239795762518046,-0.6125188952594072,0.01703537770434354,-8.137777030519794e-05
0.43,-0.26694433975326826,2.2298915438568585,-1.2174573352719438,0.08219076939437472,-0.017108774360875264,-7.396420727405705e-05,-0.7766414696212154,1.504009638022277,0.5358555019618891,0.09454464827694131,-0.035989236322179284,-7.427285201775689e-06,1.3825807384258748,-5.317859762942314,-4.137694698303511,-1.025982144941235,0.14074258984158838,0.001643868138960669,0.2771802147317215,-11.126389165419155,-3.9070014973952016,-0.6069103261444418,0.018537865639453262,-9.421643534095909e-05
0.44,-0.27457280608444834,2.2444005689220274,-1.2125105107762193,0.08303483741105513,-0.01745728235340912,-7.397752244647532e-05,-0.7628466331180097,1.4509025065168806,0.4946824495724429,0.08440680166804174,-0.034850799253385564,-1.3315172418281213e-06,1.4893131826669896,-5.478456076317476,-4.169950414007986,-1.0238677219180161,0.1410369523929127,0.0014751266832386811,0.32435410151775834,-11.169517908733738,-3.889221404741441,-0.6013969061428298,0.019843443642631207,-0.00010821980388987032
0.45,-0.28205269065896416,2.2583625151896416,-1.2079786283769227,0.08377762270313613,-0.017794231779161396,-7.393623537029424e-05,-0.7479884574515812,1.3961946267613985,0.4531882399296555,0.07427852920809942,-0.03369494257522777,4.128707618108154e-06,1.5912979169473909,-5.622903306008087,-4.193149031968954,-1.0202413888584836,0.14116203519274606,0.0013082478660527697,0.3685635789157954,-11.205764498436034,-3.870908386943096,-0.5960181385081279,0.020965292179821612,-0.00012315045951592215
0.46,-0.28937383300382674,2.271762986732714,-1.203863999675136,0.08441938102235558,-0.018119469230056695,-7.384664680631932e-05,-0.7321142344862568,1.3400471543072585,0.4114628701786889,0.06417583192194537,-0.03252374508952985,8.95885639749194e-06,1.688565639112264,-5.75153958849738,-4.207824519907437,-1.0152456410624637,0.14112823274153286,0.0011439483474530165,0.40988528555930875,-11.23592067066865,-3.852305564838767,-0.5908083861068048,0.021917758988407584,-0.00013878027637812817
0.47000000000000003,-0.2965265425375357,2.2845891652424775,-1.2001680893506945,0.084960513870863,-0.018432860951476608,-7.371497278262315e-05,-0.7152709533708964,1.2826178509763608,0.3695910324441345,0.05411328485074111,-0.03133917214199143,1.31674023696168e-05,1.78115083388405,-5.864697328709897,-4.214472478776863,-1.0090063806493887,0.1409450456057666,0.0009829417911884075,0.44842378873981925,-11.260710314302536,-3.833630345946329,-0.5857971250790942,0.022716006296445965,-0.00015489209378249854
0.48,-0.3035015951559944,2.296829776684244,-1.1968915643848246,0.08540155580134703,-0.018734291792396676,-7.35473162175058e-05,-0.6975052618458735,1.2240611441766265,0.3276524965869846,0.044104193048404086,-0.03014308409200666,1.676565651173478e-05,1.869089435288777,-5.962700919564133,-4.213548725051551,-1.0016331759099906,0.1406212622111198,0.0008259288758174499,0.4843053643552284,-11.280789561151948,-3.8150748933199856,-0.5810092118009094,0.023375686109723785,-0.0001712809059454363
0.49,-0.3102902296657368,2.3084750587737997,-1.194034339315195,0.08574316326093505,-0.01902366422965665,-7.334964012024655e-05,-0.6788634509742426,1.1645282089555844,0.28572250696295354,0.03416074595880078,-0.028937243725997524,1.976760972592414e-05,1.9524167487497175,-6.04586501507715,-4.205468495007382,-0.9932196828691566,0.14016509825427192,0.000673588847314166,0.5176722081909612,-11.296747486987647,-3.7968067718595107,-0.5764651572103489,0.023912645296781183,-0.00018775463146979642
0.5,-0.3168841442728198,2.319516729446377,-1.1915956174454068,0.0859861049466214,-0.01930089745826005,-7.3127742283892e-05,-0.6593914607082968,1.1041670672577564,0.24387218697883645,0.02429416856863517,-0.02772332286033987,2.2189783635454646e-05,2.0311656419461643,-6.114493338781463,-4.1906062359704634,-0.9838442109788907,0.13958429722394072,0.0005265726465200071,0.5486771366130687,-11.309107313042407,-3.7789697404858673,-0.5721814039652169,0.024342661080028017,-0.00020413452957472253
0.51,-0.3232754933089258,2.3299479564367274,-1.189573927989456,0.08613125362560839,-0.019565926541873318,-7.288723140431079e-05,-0.6391349036106023,1.0431226990349998,0.20216894559508594,0.014514867898698632,-0.026502908361326794,2.4051087958121937e-05,2.1053650106504542,-6.168878006725366,-4.169295949238057,-0.9735704162108192,0.13888619606951202,0.00038549755584149636,0.5774788076924069,-11.318328013021782,-3.7616846636394317,-0.5681706031048726,0.024681206647171734,-0.0002202553299371718
0.52,-0.32945688434878057,2.339763328037397,-1.187967159186688,0.08617957936112955,-0.0198187016197345,-7.263350457838643e-05,-0.6181391039854752,0.9815371600669673,0.1606768802767972,0.00483257355211647,-0.025277507786118248,2.537268259243591e-05,2.175038523221332,-6.209299342008636,-4.141832049336745,-0.9624481061409043,0.13807776047934794,0.00025094321299434785,0.6042374719935438,-11.324806245688894,-3.745050520177708,-0.5644418878972788,0.024943245920000582,-0.00023596514062217255
0.53,-0.33542137584517245,2.3489588250531943,-1.186772587474193,0.08613214407295518,-0.020059187167946756,-7.237172615239738e-05,-0.5964491496391886,0.9195497015797529,0.11945717124950123,-0.004743528817437708,-0.024048554821225455,2.6177842598905067e-05,2.2402036451381813,-6.236026155536742,-4.108470704285299,-0.9505141429163437,0.1371655945101562,0.00012344880778059064,0.6291112455078651,-11.32887854748392,-3.72914549186003,-0.5610011433668762,0.02514305603942719,-0.00025112519448507566
0.54,-0.3411624753798976,2.3575317939232354,-1.1859869028514918,0.0859900973517384,-0.020287361314595513,-7.21068079093628e-05,-0.5741099534725141,0.8572968870041192,0.07856846227012013,-0.01420467212167745,-0.022817414664875683,2.6491824303458113e-05,2.300870942802708,-6.249316465351784,-4.069431621442339,-0.9377934311702347,0.1361559294914354,3.5112243310653213e-06,0.6522528850602753,-11.330823733060784,-3.714028117156194,-0.5578512706336398,0.025294075824648748,-0.00026560948905623023
0.55,-0.3466741386010587,2.3654809209381455,-1.1856062306167112,0.08575467343754457,-0.020503215209269596,-7.184339060185283e-05,-0.5511663221161155,0.7949127014910159,0.03806722347805046,-0.02354239141938242,-0.021585389467408293,2.6341730750996353e-05,2.3570436637216394,-6.249418624449136,-4.024900243218351,-0.9242999789546751,0.13505459717313073,-0.0001084161229076841,0.6738070384327653,-11.330865463851682,-3.6997384990833924,-0.554992445665218,0.025408778315909108,-0.00027930436864079304
0.56,-0.35195076888953214,2.3728062074391723,-1.185626149694224,0.08542718926522752,-0.020706752448377195,-7.158582685441015e-05,-0.5276630288473442,0.732528650102663,-0.001991907751271109,-0.032748417231705296,-0.020353723910759788,2.575637474426778e-05,2.408717588033609,-6.236572824362596,-3.975030316332184,-0.9100380205868532,0.1338669920473894,-0.0002119240081024376,0.6939079368285742,-11.329174955647005,-3.686299558163393,-0.5524223723713071,0.025498565489141183,-0.0002921080904967055
0.5700000000000001,-0.35698721777029707,2.379508945848413,-1.1860417078108718,0.08500904347270265,-0.020897988558125472,-7.133816547703049e-05,-0.5036448880764921,0.6702738409240738,-0.041555811664792164,-0.04181457925248699,-0.01912361097482788,2.47661377379654e-05,2.455881144095944,-6.2110129389862365,-3.9199467973459203,-0.895003190886225,0.13259802761336204,-0.00030664791434598104,0.712677495535997,-11.325873805601981,-3.673718323418708,-0.5501365301718091,0.02557368331116016,-0.00030393040975145645
0.58,-0.36177878605792185,2.385591696345357,-1.1868474338113149,0.08450171626256821,-0.021076950537186265,-7.110413724792876e-05,-0.4791568287624794,0.6082750496944344,-0.08057260004429662,-0.05073272101344431,-0.017896197906079235,2.3402822910171924e-05,2.4985157784579393,-6.17296867011248,-3.8597490558856684,-0.8791837406756038,0.13125209110354596,-0.0003922685580528551,0.7302237891446544,-11.321036926992532,-3.661987255624088,-0.5481284162669694,0.025643155461209443,-0.0003146922103897273
0.59,-0.36632122570005904,2.3910582639747773,-1.1880373474326091,0.08390677000291019,-0.021243676460915788,-7.08871422393095e-05,-0.45424396421371915,0.5466567629420136,-0.11899136212942504,-0.0594946259658015,-0.01667259237295242,2.1699500861926647e-05,2.5365965679969795,-6.122667953047059,-3.7945143352868644,-0.8625617835409152,0.1298330008443429,-0.0004685126059584821,0.7466398698583706,-11.314695586417058,-3.6510855978388257,-0.5463897828467372,0.025714734254926062,-0.0003243252023560301
0.6,-0.37061074225857,2.395913675944993,-1.1896049668836668,0.08322585044948601,-0.02139821514855806,-7.069023877382323e-05,-0.42895165585109685,0.48554119702157755,-0.15676194510577304,-0.0680919553424189,-0.01545386876422735,1.9690346548627664e-05,2.5700930592842846,-6.060339577492704,-3.7243014284085287,-0.8451145638369439,0.12834396998244202,-0.0005351536928409617,0.7620029008225258,-11.306840542981696,-3.6409807486141137,-0.544910869415033,0.025794867548152887,-0.0003327716977031709
0.61,-0.37464399794515246,2.4001641588539946,-1.1915433145965748,0.08246068846882183,-0.02154062589417182,-7.051613411062559e-05,-0.403325568658247,0.42504829090016194,-0.19383477129079352,-0.07651619806641764,-0.014241074561376132,1.7410466319763668e-05,2.5989703174050516,-5.986215975772391,-3.6491545241608563,-0.8268157356706283,0.12678757979881716,-0.0005920138365300698,0.7763735804769931,-11.297425292340055,-3.6316296532509487,-0.5436806302880064,0.025888680650316517,-0.00033998447188965733
0.62,-0.37841811510736173,2.4038171155641455,-1.1938449215336406,0.08161310214010674,-0.02167097826111777,-7.036717696838649e-05,-0.37741171622092895,0.36529567101508215,-0.23016069370657416,-0.08475863287150882,-0.013035236694594826,1.4895714223910167e-05,2.623190163532591,-5.900536127524044,-3.569107177951526,-0.8076366422864325,0.12516576523423595,-0.0006389652548145497,0.7897958383471224,-11.286369420332722,-3.6229802081363536,-0.5426869571683131,0.025999972522112468,-0.00034592670988358603
0.63,-0.3819306800419933,2.4068811014345,-1.1965018304462576,0.08068499911315558,-0.021789351938872246,-7.024535199698535e-05,-0.3512564934631613,0.30639858703545253,-0.265690891261683,-0.09281030269511581,-0.01183736777544749,1.2182497140114207e-05,2.6427125776191214,-5.803548527376018,-3.484186356960212,-0.7875475848166111,0.12347981461140733,-0.0006759325581136011,0.8022967870351895,-11.273562071451419,-3.614972672570721,-0.5419168965132657,0.026131225753975654,-0.00035057203075634653
0.64,-0.38517974699622337,2.4093657996134215,-1.199505598489003,0.07967837910018982,-0.0218958366597443,-7.015227630974353e-05,-0.32490669542300565,0.24846981789212821,-0.30037680427455604,-0.10066200129657597,-0.010648472087205424,9.307568724182087e-06,2.6574972397075163,-5.695514159978305,-3.3944165090109086,-0.7665190689261081,0.12173038484270293,-0.0007028952315732973,0.8138869191616807,-11.25886553652579,-3.6075410816832063,-0.5413568612160533,0.026283630006503238,-0.00035390457903374493
0.65,-0.3881638422029709,2.4112819950933817,-1.2028472995946025,0.0785953363807959,-0.021990532171819156,-7.008919818328318e-05,-0.29840952067475335,0.19161954799604652,-0.33417011055993623,-0.10830427193939257,-0.009469551207485737,6.3078126460354105e-06,2.6675051806940377,-5.576709425262367,-3.2998236020250484,-0.7445230174471504,0.11991753269595762,-0.0007198902714448119,0.8245605413655372,-11.242118961999271,-3.6006146530835803,-0.5409928359177993,0.026457118730343333,-0.00035591916630335363
0.66,-0.3908819677859204,2.4126415472347333,-1.206517527012314,0.07743806220220852,-0.022073548263187536,-7.005699802210845e-05,-0.2718125582949503,0.13595521413514802,-0.36702274177115674,-0.11572741785873766,-0.008301609136837865,3.2200161174734626e-06,2.672700510996728,-5.447428956105962,-3.2004390797646822,-0.7215339367660434,0.11804076197170232,-0.0007270148180836822,0.8342964399859536,-11.223142180053635,-3.5941191788899407,-0.5408105750753476,0.02665041906237052,-0.0003566214425457631
0.67,-0.39333360536176293,2.4134573604759075,-1.2105063964038116,0.0762088469610679,-0.02214500483130265,-7.00561916698977e-05,-0.2451637575842529,0.08158132411740462,-0.39888693914975937,-0.12292152411406192,-0.007145656811511615,8.06352210756484e-08,2.6730521936277922,-5.307988270819482,-3.0963036789827107,-0.697530024536416,0.11609908573882954,-0.0007244285830770858,0.8430587745430702,-11.201739654804305,-3.5879783937734824,-0.5407957927357154,0.026861114811368207,-0.0003560280734557116
0.68,-0.3955187191626768,2.413743352963934,-1.21480354987668,0.07491008205803619,-0.02220503199018878,-7.008693612911564e-05,-0.21851138009138338,0.02859924880263961,-0.4297153472868307,-0.12987649030317086,-0.006002715888612674,-3.0744459217946547e-06,2.6685358267471275,-5.158726204177063,-2.9874710533472006,-0.6724942062948145,0.11409110211891615,-0.0007123558690339538,0.8507981954864084,-11.177704534991012,-3.582115308746575,-0.5409343428230109,0.027085722397043266,-0.00035416689773605704
0.6900000000000001,-0.39743775850101815,2.4135144228612155,-1.2193981613162397,0.07354426132313367,-0.022253770207256756,-7.014903772549772e-05,-0.19190393383413532,-0.022893010271823895,-0.4594611439559672,-0.13658207349025234,-0.004873821706797789,-6.210159638207929e-06,2.6591353999961465,-5.000007063173168,-2.8740111507194817,-0.6464150888211933,0.11201508151351725,-0.0006910869745315185,0.8574531818154472,-11.150822798218785,-3.576453499657018,-0.541212388636089,0.02731977949129833,-0.00035107703706496523
0.7000000000000001,-0.3990916594007088,2.4127864121119296,-1.2242789433516954,0.0721139819173479,-0.022291370460707175,-7.024196272475147e-05,-0.16539008996906385,-0.07280107492858356,-0.4880782035455738,-0.14302794057857762,-0.003760025345041766,-9.29249992537618e-06,2.6448449888662875,-4.832222457349623,-2.756013292655645,-0.6192878185916086,0.10986906266948715,-0.0006609787910047404,0.8629515920793718,-11.120877466072121,-3.570918338804013,-0.5416165601930851,0.02755794593381252,-0.00034680893122164536
0.71,-0.4004818452258975,2.4115760674838715,-1.2294341562627853,0.07062194462493467,-0.02231799440795729,-7.036485037631618e-05,-0.13901858251887367,-0.12103446280580774,-0.5155212911089956,-0.149203729241323,-0.002662394725011347,-1.2288765156469905e-05,2.625670352113697,-4.65579275841398,-2.6335889084128024,-0.591114834513828,0.1076509545888289,-0.0006224544133104915,0.8672124189759794,-11.087652863552716,-3.5654381578158243,-0.5421340980484165,0.027794116261953626,-0.0003414242717537694
0.72,-0.4016102261470634,2.409900998738542,-1.2348516190985457,0.06907095346079159,-0.022333814555240212,-7.05165283240788e-05,-0.11283809211658367,-0.1675068745329653,-0.5417462835760332,-0.15509911641430751,-0.0015820147282920953,-1.516779477626174e-05,2.6016303988293386,-4.47116814991475,-2.5068738803041075,-0.5619065052471282,0.10535864103137982,-0.0005760016505417798,0.8701477333998154,-11.050938890512231,-3.5599453299712844,-0.5427529822533725,0.028021542917820653,-0.00033499580959579935
0.73,-0.40247919729766235,2.407779633823189,-1.2405187232409471,0.06746391452824017,-0.022339014418510796,-7.069553028816677e-05,-0.08689711505989844,-0.2121364915352955,-0.5667104142401447,-0.16070389325514195,-0.000519986327058594,-1.7900196408798078e-05,2.572758494219533,-4.278829234863149,-2.3760304629183677,-0.5316816428352791,0.1029900842481446,-0.0005221703187677229,0.8716647985091255,-11.010535267303789,-3.55437726053977,-0.5434620452353052,0.028232968885663012,-0.00032760701518054106
0.74,-0.40309163549045596,2.4052311710226553,-1.246422448603579,0.06580383407436684,-0.022333788666056478,-7.090011588578773e-05,-0.06124381927936308,-0.25484628005340393,-0.5903725362631987,-0.16600804538733377,0.0005225752454316986,-2.045855976209574e-05,2.539103576417533,-4.079287177252684,-2.241248745421907,-0.5004678860671916,0.10054342461331167,-0.00046156831139393395,0.8716683284264156,-10.966255711993725,-3.5486772744745902,-0.5442510675326497,0.028420768186360454,-0.00031935157376231056
0.75,-0.403450894381472,2.4022755280554313,-1.2525493826099217,0.06409381570258754,-0.02231834323374611,-7.11282924248058e-05,-0.035925889101604186,-0.29556429672241546,-0.6126934006342643,-0.17100183717792886,0.0015445432310368997,-2.2817653901807503e-05,2.500731060667429,-3.8730833622403886,-2.102747633758316,-0.46830194891280463,0.09801707301450158,-0.0003948564409743116,0.8700628598539853,-10.917932002380542,-3.5427953919231703,-0.5451108555407493,0.028577092329265488,-0.0003103327037791159
0.76,-0.40356079799073885,2.398933288146421,-1.258885742047817,0.06233705671513023,-0.022292895404636352,-7.137783847167077e-05,-0.01099036092668082,-0.33422399090101734,-0.6336359437895384,-0.17567589874573147,0.002544782910975725,-2.4954604686497453e-05,2.457723511901047,-3.6607885690932407,-1.9607753378859005,-0.435229731481801,0.09540979317868548,-0.0003227421374254469,0.8667551985197933,-10.865417872963222,-3.5366889834963273,-0.5460333006912576,0.028694020513811133,-0.00030066229196575706
0.77,-0.4034256325120355,2.395225643157623,-1.2654173978473604,0.06053684357147224,-0.022257673845663895,-7.164632896713452e-05,0.013516547870336994,-0.37076449887980284,-0.6531655799543449,-0.18002131436579882,0.003522155897245716,-2.6849049546374958e-05,2.410181071936105,-3.4430016606196587,-1.8156093580209305,-0.40130629320227484,0.09272077156582981,-0.0002459721212345889,0.8616568963526425,-10.808592695060351,-3.5303232990333058,-0.5470114197976006,0.028763711102382045,-0.0002904598453878224
0.78,-0.4030501363683924,2.391174333906289,-1.2721299027794621,0.05869654646220907,-0.022212918595343172,-7.193116163956569e-05,0.03754961436431034,-0.405130925133398,-0.6712504932101798,-0.18402971092631681,0.004475525032072279,-2.8483267243116608e-05,2.3582216331070747,-3.2203478024210255,-1.6675559729610745,-0.3665956901932024,0.08994967301261347,-0.00016532422535531222,0.8546867100198903,-10.747364887638946,-3.5236718656557318,-0.5480393766397099,0.02877855166980385,-0.00027985126735697127
0.79,-0.4024394884954037,2.3868015878471693,-1.2790085220226897,0.05681961301114302,-0.022158880997716703,-7.222958444749447e-05,0.06106478729887251,-0.43727460591196804,-0.687861924322756,-0.18769334510660513,0.005403759762646994,-2.984228079287856e-05,2.3019807559257,-2.9934762346413084,-1.5169492426750013,-0.3311706811062951,0.08709668093303868,-8.159857023276595e-05,0.8457729873428523,-10.681675007162921,-3.516716753156008,-0.5491124852202927,0.028731304789408066,-0.0002689674710395466
0.8,-0.40159929485999346,2.3821300543402475,-1.286038266497599,0.05490956113134085,-0.0220958235792167,-7.25387237706803e-05,0.08401936354101969,-0.4671533506922013,-0.7029744474909275,-0.19100518798021726,0.006305741850000369,-3.09139323185832e-05,2.241611334173243,-2.7630576276839207,-1.3641495462094593,-0.2951123079081075,0.08416252155315718,4.391681474987842e-06,0.8348559255043905,-10.61149846695642,-3.5094487071332843,-0.550227195487475,0.028615246654231558,-0.00025794285119409827
0.81,-0.4005355732475348,2.3771827377670443,-1.2932039288214863,0.05296997107329984,-0.022024019866537493,-7.285561306265409e-05,0.10637216124586368,-0.4947316573203026,-0.7165662323887289,-0.19395900580410097,0.007180371267920647,-3.1688929197379006e-05,2.1772830164659918,-2.52978106135591,-1.2095416843242286,-0.2585093601220336,0.08114847233419731,9.182973397202365e-05,0.8218896441956814,-10.536847840190918,-3.501867152686777,-0.5513810626694231,0.028424295664121017,-0.0002469136405760756
0.8200000000000001,-0.39925473637458475,2.3719829287963248,-1.3004901216931706,0.05100447671497673,-0.021943754145034015,-7.31772216775386e-05,0.12808368729500402,-0.519980897071964,-0.7286192871684231,-0.19654943583231108,0.008026572150347803,-3.216086148845038e-05,2.109181398631035,-2.294350673861664,-1.0535325838757448,-0.2214577329126861,0.0780563553888598,0.0001799044987131626,0.8068440181531555,-10.457774705585502,-3.493980073810788,-0.5525727016897847,0.028153128240624076,-0.00023601618284863475
0.8300000000000001,-0.39776357340744367,2.36655413413316,-1.3078813184778098,0.04901675615408546,-0.021855321158500328,-7.35004835892915e-05,0.14911629671410667,-0.5428794663164874,-0.7391196784639172,-0.19877205608912665,0.008843298653368638,-3.232619117529049e-05,2.0375070060171927,-2.0574820328156664,-0.8965486476291971,-0.184059690968974,0.07488851729539547,0.00026781961782271213,0.7897062170509235,-10.374371001143993,-3.4858037758187517,-0.5538017284134545,0.027797279362036804,-0.0002253851580842928
0.84,-0.39606922998778915,2.360920005113239,-1.3153618957265256,0.04701052167259523,-0.021759025752396913,-7.382232573221553e-05,0.16943434196545265,-0.563412901992125,-0.7480577248715817,-0.20062344814902308,0.00962954061034151,-3.2184214292402266e-05,1.9624740890046082,-1.8198982848399323,-0.7390327987077696,-0.1464230514371705,0.07164779721639825,0.0003548019706048622,0.7704819064616519,-10.286769858585194,-3.4773625400732904,-0.5550686896971233,0.027353225636293402,-0.00021515179992318288
0.85,-0.3941791868853594,2.3551042655266006,-1.3229161773353066,0.04498950915162391,-0.021655182463647085,-7.41396957065081e-05,0.18900431024297357,-0.5815739586638152,-0.7554281608780985,-0.20210125209713203,0.010384328874982841,-3.173699742925706e-05,1.8843092583513752,-1.5823261432607663,-0.5814412731601526,-0.10866030011636507,0.0683374856424166,0.0004401094604810918,0.7491960714777081,-10.195145899351385,-3.46868818194323,-0.5563749843772744,0.026818449140071587,-0.00020544214501618194
0.86,-0.3921012374137294,2.3491306390713165,-1.3305284800227053,0.04295746702181943,-0.021544115060980227,-7.444958861143591e-05,0.2077949471630048,-0.5973626455283919,-0.7612302687398668,-0.20320421298044813,0.011106740266685648,-3.098929049278162e-05,1.8032499895460556,-1.3454917748935253,-0.42424021706161863,-0.07088765574456213,0.06496127635335824,0.0005230379642300609,0.7258934343657827,-10.099714981977742,-3.4598195241914267,-0.5577227774122429,0.026191480734564104,-0.00019637535543778184
0.87,-0.38984346375837714,2.3430227768479033,-1.3381831597865286,0.040918144839781644,-0.021426156040442047,-7.474907278976645e-05,0.2257773655352216,-0.6107862223413143,-0.7654679763823201,-0.20393221820377808,0.01179590205381792,-2.994841783305499e-05,1.719543026972315,-1.1101166469117922,-0.2679021461274307,-0.03322409748310706,0.06152321433751773,0.0006029273086224918,0.7006384489641637,-10.000733399916326,-3.450801798880733,-0.5591149094006845,0.02547192210401575,-0.00018806215328905787
0.88,-0.3874142123763167,2.3368041853094197,-1.3458646589861942,0.03887528158506158,-0.02130164608110963,-7.503531429033166e-05,0.2429251382060457,-0.6218591538483597,-0.768149919966559,-0.20428632547200623,0.012450995933241765,-2.8624150056521424e-05,1.6334427194251513,-0.8769133934111403,-0.11290232602753214,0.004209629355630629,0.058027642429410164,0.0006791662477856897,0.6735148669726936,-9.898496538369871,-3.4416859913525517,-0.560554803626647,0.024660446331654023,-0.00018060340378408033
0.89,-0.384822068633495,2.3304981550804036,-1.3535575536897086,0.03683259377477859,-0.021170933466241274,-7.530559987911943e-05,0.2592143742821711,-0.6306030229016015,-0.7692894703514463,-0.2042687810282985,0.013071261486835494,-2.7028558878776472e-05,1.5452093183672113,-0.6465817586009429,0.040284869494254805,0.0412920146558271,0.05447914930481268,0.0007511963954153211,0.6446248843017364,-9.793337008034847,-3.4325281398855165,-0.5620463726355883,0.02375877740651387,-0.00017408887885361229
0.9,-0.38207583084993607,2.324127691050319,-1.361246600922197,0.03479376349394501,-0.021034373475068504,-7.5557358453226e-05,0.2746237783558928,-0.637046403008466,-0.7689047232488319,-0.20388302808335848,0.013655999117277055,-2.5175857410656734e-05,1.4551072693304001,-0.4198046697428366,0.19118956786720515,0.07790177790308822,0.05088252124025949,0.0008185151569901072,0.6140878886621826,-9.685622282625866,-3.4233886043053148,-0.5635939261347079,0.022769649620802045,-0.00016859622790064754
0.91,-0.3791844839233532,2.317715444134376,-1.368916785456357,0.03276242643923715,-0.020892327750219035,-7.578818073485299e-05,0.28913469265828995,-0.641224691594306,-0.7670184534159956,-0.20313370547078569,0.014204572484946746,-2.308222816269936e-05,1.3634035251382166,-0.19724448817407586,0.3393499228139062,0.1139188425077784,0.04724269971903183,0.0008806777053929626,0.5820388420070415,-9.575751875415868,-3.4143313161316193,-0.5652020817466208,0.021696748348577138,-0.00016419017604935536
0.92,-0.376157172699818,2.311283645076945,-1.376553365793779,0.030742160072280512,-0.02074516364537095,-7.599583714429642e-05,0.3027311223535194,-0.6431799057430947,-0.7636580337421767,-0.20202663669566398,0.014716410484808436,-2.076564094434363e-05,1.2703659072380122,0.020460518796354975,0.48431550808287394,0.149225278026756,0.04356474654368547,0.0009372980945057674,0.5486263427059721,-9.464154097567487,-3.405423021869932,-0.5668756798420428,0.020544634171890397,-0.00016092196332489315
0.93,-0.37300317525530874,2.3048540406508473,-1.3841419189993414,0.028736471975627485,-0.02059325355721251,-7.617829377080933e-05,0.3153997444509261,-0.6429604426097756,-0.7588553205562417,-0.2005688096653027,0.015191008815843985,-1.824566265129082e-05,1.1762615385169277,0.23269944844651674,0.6256505374936392,0.18370619949727507,0.03985381765139717,0.0009880496083618517,0.5140104219432157,-9.351282447573794,-3.3967325298527054,-0.5686197033513981,0.019318652722674204,-0.00015882903099195068
0.9400000000000001,-0.36973187624484827,2.298447832580189,-1.3916683840683708,0.02674878850061565,-0.020436974245155167,-7.633372637836795e-05,0.3271299010460476,-0.6406208070658254,-0.7526465069029481,-0.19876834750118358,0.015627931205734236,-1.554326075586251e-05,1.081355367654323,0.4388917454512869,0.7629368744856776,0.21725061448895922,0.036115146320600644,0.001032664471001754,0.4783601363551496,-9.237611686533873,-3.3883299696786224,-0.5704392031241985,0.018024832923583593,-0.00015793495407342138
0.9500000000000001,-0.3663527404668203,2.292085619485758,-1.3991191035273767,0.02478244379133562,-0.020276706141558038,-7.64605323994466e-05,0.33791357780279707,-0.6362213094431348,-0.7450719459005878,-0.19663447092800296,0.016026810359712994,-1.2680602107865252e-05,0.9859088014692646,0.6384898733637346,0.8957768002159785,0.24975220988602143,0.03235403595296571,0.001070933034327981,0.4418510240590591,-9.123633658160665,-3.3802860718660734,-0.5723392290856235,0.016669776529121397,-0.00015824961216470305
0.96,-0.3628752867792764,2.2857873421209702,-1.406480862993372,0.022840669263147487,-0.020112832654508975,-7.655734088418434e-05,0.34774536875439455,-0.6298277364787643,-0.7361759465995364,-0.19417745281881313,0.016387348704906355,-9.680848473773673e-06,0.8901784579867122,0.8309816577777414,1.023795515266845,0.2811100718987847,0.028575862098429106,0.0011027025597085127,0.4046624937908765,-9.009852915300604,-3.3726714738984596,-0.5743247671474565,0.015260541984767109,-0.0001597695843223353
0.97,-0.359309062492991,2.279572232133622,-1.4137409284434497,0.020926583607709267,-0.01994573946450925,-7.662302038501738e-05,0.35662242862853977,-0.6215109987348136,-0.7260065450077631,-0.19140856554382196,0.016709318999972477,-6.567950083303763e-06,0.7944150491922615,1.0158922905670833,1.1466433560559661,0.31122933422946186,0.024786082946169685,0.0011278757077794466,0.3669752168226631,-8.89678221632077,-3.3655560574603687,-0.5764006815789507,0.01380452563619185,-0.00016247874826832688
0.98,-0.3556636183530642,2.2734587645548667,-1.420887080974806,0.019043183389461836,-0.019775813815759245,-7.665668476812432e-05,0.36454441399267845,-0.6113467578755425,-0.7146152531356306,-0.188340021824743,0.016992564875000494,-3.3664383106940185e-06,0.6988623987908975,1.1927859906293317,1.2639977129191693,0.34002175073421714,0.020990257066968,0.0011464088270865536,0.3289685887597539,-8.78493795501404,-3.3590083203995498,-0.5785716623427136,0.012309343237139475,-0.00016634905959043734
0.99,-0.35194848420737446,2.267464614182552,-1.427907648865205,0.01719333429109454,-0.019603443802173978,-7.66576969534244e-05,0.3715134145689754,-0.5994150372314713,-0.7020567890398879,-0.18498490983672974,0.017237001358526693,-1.0121853000862752e-07,0.603756596827379,1.3612673221271088,1.3755646424450432,0.3674061902415051,0.01719406685734537,0.001158310108781424,0.2908183234335319,-8.67483558674229,-3.3530947858418143,-0.5808421767582252,0.010782714531298424,-0.00017134148315876862
