tonegas/nnodely-applications/joint_friction_estimation/dataset/train/mpc_mujoco_episode_26 copy.csv
time,q1,q2,q3,q4,q5,q6,dq1,dq2,dq3,dq4,dq5,dq6,ddq1,ddq2,ddq3,ddq4,ddq5,ddq6,tau1,tau2,tau3,tau4,tau5,tau6
0.0,0.0,1.57,-1.57,0.0,0.0,0.0,0.0,0.0,0.0,0.0,0.0,0.0,-0.7791163461197792,7.839029807825422,3.936572771696456,1.1394688447122974,-0.11028591915319774,-3.513148675082789e-06,-0.10863403367829476,0.12932985225018623,-2.577259616566183,-0.5965795245623141,-0.009632656859694527,-0.00037525820758771184
0.01,-7.749508780288477e-05,1.57078272216286,-1.5696063019768163,0.00010861482909943234,-9.379727032884722e-06,-3.977274492577149e-08,-0.007749508780288477,0.0782722162860039,0.03936980231837035,0.010861482909943234,-0.0009379727032884722,-3.977274492577149e-06,-0.7692895529895698,7.570072120610161,3.759191731644064,1.026517062041357,-0.09191125321964577,-0.0003923316145484357,-0.10832155143267004,-0.04492044197961853,-2.650858442485995,-0.6128134822349551,-0.009590476594569774,-0.00038316614066331893
0.02,-0.00023145035422987383,1.572321331666577,-1.5688369850063955,0.0003161055603835557,-2.6987506206106286e-05,-1.204846575094981e-07,-0.015395526642698906,0.15386095037169364,0.07693169704208455,0.020749073128412336,-0.001760777917322156,-8.071191258372662e-06,-0.7580904375725857,7.288136972971566,3.5700705265846384,0.9265344554664345,-0.0800995546956993,-0.00038710072613734603,-0.10858452440020862,-0.23872323853226174,-2.7278546121348373,-0.6294296674431699,-0.009579132767107415,-0.00039120427444408977
0.03,-0.00046071931414418967,1.5745876848318383,-1.5677111916516542,0.0006136742246523511,-5.206137290915254e-05,-2.399659069207874e-07,-0.022926895991431585,0.22663531652614166,0.11257933547412205,0.029756866426879542,-0.0025073866703046255,-1.194812494112893e-05,-0.7457488834073774,6.994460683737076,3.371409321659824,0.8363150435503535,-0.0720840505280127,-0.0003370502015141996,-0.10936341072024497,-0.45029105791336566,-2.807874003172654,-0.6463665671260144,-0.009594216899497772,-0.00039931782964054246
0.04,-0.0007640569518881981,1.5775524558139604,-1.5662489343844528,0.0009932279344670673,-8.406254616721736e-05,-3.967324174894455e-07,-0.03033376377440084,0.2964770982122131,0.1462257267201319,0.037955370981471614,-0.003200117325806482,-1.5676651056865805e-05,-0.7323983310643871,6.690305948193053,3.1651300392050334,0.7535002519144918,-0.06621372010118298,-0.0002838415387064197,-0.11059654469627693,-0.6778159428454877,-2.8905326509478524,-0.6635609414727162,-0.009630970071338668,-0.0004074520894245708
0.05,-0.0011401270170375098,1.581185265209706,-1.5644709236074266,0.0014472071612232052,-0.00012257616820827015,-5.898435827942889e-07,-0.03760700651493118,0.36328093957456137,0.1778010777026229,0.04539792267561378,-0.003851362204105278,-1.9311116530484344e-05,-0.7181140385962327,6.3769489067300515,2.952932375360442,0.6763702559364582,-0.061512088712109225,-0.0002281736201449336,-0.11222034668285295,-0.9194859777603823,-2.9754405775581008,-0.6809485422340271,-0.009684401483415506,-0.0004155524189390563
0.06,-0.001587505881908363,1.585454809455679,-1.5623984131599933,0.0019684622667003526,-0.0001672527712407576,-8.184797992053295e-07,-0.04473788648708533,0.4269544245973097,0.20725104474331807,0.05212551054771474,-0.004467660303248744,-2.2863621641104062e-05,-0.7029367974153639,6.055668162142697,2.7363355237532065,0.6036851649147152,-0.057410792113808284,-0.00016822064355992428,-0.11416949827209025,-1.173500711813733,-3.062205478948025,-0.6984648090095649,-0.009749396904673975,-0.0004235649104958496
0.07,-0.0021046844023347422,1.5903289900486768,-1.5600530602674596,0.002550166196199189,-0.00021777438773343876,-1.0816880136767037e-06,-0.05171785204263793,0.4874180592997726,0.23453528925336262,0.058170392949883624,-0.005052161649268116,-2.6320821447137422e-05,-0.6868877008627964,5.727735332632676,2.5167091308217024,0.5345642804379018,-0.053587961137604445,-0.00010386017734415054,-0.11637714123538588,-1.4380854083897252,-3.1504362374300197,-0.7160455351352275,-0.009820818864526772,-0.0004314372919554853
0.08,-0.0026900686885623897,1.595775041740784,-1.557456797697443,0.003185754138564611,-0.00027383554368636486,-1.3782734724293645e-06,-0.05853842862276477,0.544605169210727,0.25962625700166925,0.06355879423654223,-0.005606115595292613,-2.965854587526608e-05,-0.6699774107532536,5.394406853923132,2.295296191079496,0.4683943516582403,-0.04987001508294808,-3.629065801680209e-05,-0.11877513923210681,-1.7115040486038287,-3.2397462273794444,-0.7336274947043244,-0.009893599314153212,-0.00043911989527376606
0.09,-0.0033419803642935684,1.6017596589633976,-1.554631716487114,0.0038688831645684366,-0.00033513320479602285,-1.7067801977162978e-06,-0.06519116757311787,0.59846172226134,0.2825081210328965,0.06831290260038256,-0.006129766110965802,-3.2850672528693324e-05,-0.6522120319972585,5.056916824179163,2.073229948607059,0.4047599046517405,-0.04617189317449988,3.264844671130307e-05,-0.12129442605756327,-1.9920710318041395,-3.3297563863529964,-0.7511490233586271,-0.00996282477573832,-0.0004465665720617534
0.1,-0.004058656688566673,1.6082491198209203,-1.5515999580470088,0.004593406534917076,-0.0004013620667265608,-2.0655193189647074e-06,-0.07166763242731049,0.6489460857522774,0.3031758440105127,0.07245233703486399,-0.006622886193053796,-3.5873912124840956e-05,-0.6335968805928139,4.716470746796512,1.851546378541748,0.3433903798112077,-0.04246061290912806,0.00010094782355279941,-0.12386545174335971,-2.2781615308173593,-3.4200980279312283,-0.7685505466578517,-0.01002381360665114,-0.0004537354937926743
0.11,-0.004838250787719026,1.6152094070712957,-1.548383614769808,0.005353358648849604,-0.00047221298857851333,-2.45262015092916e-06,-0.07795940991523527,0.6960287250375259,0.32163432772007294,0.07599521139325277,-0.0070850921851952535,-3.871008319644525e-05,-0.6141389238231968,4.374240069212792,1.6311934446624088,0.284120073889806,-0.0387330100290586,0.0001667093905907968,-0.1264187272790357,-2.568220476047387,-3.5104153771301236,-0.7857750511800212,-0.010072184819432234,-0.000460589803622964
0.12,-0.005678832162859194,1.6226063255800778,-1.5450046385042673,0.00614294757993735,-0.0005473732240846246,-2.8660892503023143e-06,-0.08405813751401678,0.7396918508782038,0.3378976265540823,0.0789588931087746,-0.007516023550611134,-4.134690993731542e-05,-0.5938483630672083,4.0313574456981005,1.4130380394967288,0.22685784347062565,-0.03500212708008288,0.00022829885719061194,-0.12888545979318633,-2.86077015966975,-3.6003678139842874,-0.8027684948978449,-0.010103917852054802,-0.00046709810439639603
0.13,-0.00657838758374108,1.6304056157995526,-1.5414847564174843,0.006956552890247829,-0.000626527626533942,-3.303869030022282e-06,-0.08995554208818862,0.7799290219474765,0.3519882086783027,0.08136053103104789,-0.007915440244931732,-4.377797797199676e-05,-0.5727396436485028,3.688912671965781,1.1978712909707854,0.1715642560062829,-0.03128890159289499,0.00028441568357201463,-0.13119826266744986,-3.1544164685226237,-3.6896318157317163,-0.8194801547480495,-0.010115402733226591,-0.00047323477856479174
0.14,-0.00753482244175782,1.6385730628858846,-1.5378453938798982,0.007788726982878111,-0.0007093603229225444,-3.7638913585349774e-06,-0.09564348580167392,0.8167447086331961,0.36393625375862093,0.08321740926302816,-0.008283269638860235,-4.600223285126956e-05,-0.5508320653152559,3.3479492519883602,0.9864127486425209,0.1182344282896981,-0.02761712326255239,0.00033411073656437057,-0.1332919193176811,-3.447853771339746,-3.7779025928002845,-0.8358629106125652,-0.01010348020579507,-0.00047898014331484306
0.15,-0.008545962606559928,1.6470746011261803,-1.5341076040799313,0.008634198688015134,-0.0007955565499618203,-4.244123899895022e-06,-0.10111401648021076,0.8501538240295752,0.37377897999668047,0.08454717051370228,-0.008619622703927595,-4.8023254136004407e-05,-0.5281501017630399,3.009461564604451,0.7793138309638961,0.06688521241554213,-0.024010424179444545,0.00037677156673489656,-0.1351041753375826,-3.739868502205236,-3.86489541839921,-0.8518734661293111,-0.01006547153697044,-0.00048432044961484833
0.16,-0.009609556808886284,1.6558764134040893,-1.5302920041191344,0.009487878111009393,-0.0008848044672961122,-4.74260835541025e-06,-0.1063594202326356,0.8801812277908991,0.38155999607969304,0.08536794229942589,-0.008924791733429189,-4.984844555152284e-05,-0.5047234998109493,2.674392600896584,0.5771608136783648,0.017545707999429894,-0.02049054492719593,0.0004120886693739362,-0.13657653139619538,-4.029341497098071,-3.950346655862918,-0.8674725078247644,-0.009999197940763673,-0.000489247737935112
0.17,-0.010723279554537826,1.664945025487184,-1.5264187173618855,0.010344862026608446,-0.0009767968404590006,-5.257490605078445e-06,-0.11137227456515414,0.9068612083094804,0.38732867572488217,0.08569839155990538,-0.009199237316288836,-5.148822496681945e-05,-0.48058720716406916,2.343632244114498,0.38047756137083955,-0.029749678781446853,-0.01707640806127131,0.00044001183622219275,-0.13765500868063169,-4.315249153768371,-4.0340144919056184,-0.8826248049983372,-0.009902989751702635,-0.0004937595664169877
0.18,-0.011884734559917443,1.6742473949717562,-1.5225073218221963,0.01120043929980228,-0.0010712325351234298,-5.7870432316878505e-06,-0.1161455005379617,0.9302369484572202,0.3911395539689131,0.08555772731938331,-0.009443569466442916,-5.29552626609405e-05,-0.4557811652916102,2.018016063019122,0.18972814410895067,-0.0749662254326875,-0.013783705138160407,0.00046070283039126303,-0.1382908596717955,-4.596663496669514,-4.115679387565843,-0.8972992535848106,-0.009775685706863498,-0.0004978586294420755
0.19,-0.013091458687618272,1.683750994770589,-1.5185768043686443,0.01205009596456226,-0.0011678177955836784,-6.329681172580791e-06,-0.12067241277008277,0.9503599798832819,0.3930517453552004,0.08496566647599813,-0.009658526046024853,-5.426379408929405e-05,-0.43034999670775576,1.6983245876606556,0.005319434945882495,-0.11807238959182964,-0.010624809843975402,0.0004744885767246354,-0.13844119945334227,-4.872751238054518,-4.19514426180668,-0.9114688678751042,-0.009616622904055249,-0.0005015522859712648
0.2,-0.014340926350847346,1.6934238910764248,-1.514645520520503,0.01288951970764202,-0.0012662673005356185,-6.883971364752463e-06,-0.12494676632290748,0.9672896305835742,0.39312838481414053,0.08394237430797599,-0.009844950495194016,-5.5429019217167185e-05,-0.40434261144428185,1.3852830342877758,-0.17239625124145874,-0.15904216295911544,-0.007608895312977815,0.00048181757847373663,-0.13806953634092733,-5.142771933529614,-4.272234425464555,-0.9251107244918707,-0.009425618197454232,-0.0005048520177379895
0.21,-0.015630554347827334,1.7032348157779178,-1.51073115959653,0.013714603593544688,-0.0013663050020221385,-7.448637279538293e-06,-0.12896279969799887,0.9810924701492992,0.3914360923972974,0.08250838859026682,-0.010003770148652011,-5.646659147858303e-05,-0.3778117543749059,1.0795614437359262,-0.3431184439218766,-0.19785655364247257,-0.0047421748141145414,0.00048322116556237527,-0.1371461850941561,-5.4060753353002315,-4.346797285487447,-0.9382058634003267,-0.009202941959592767,-0.0005077728374409108
0.22,-0.01695770708157531,1.7131532333455533,-1.5068507149647041,0.014521448934825975,-0.0014676647613367367,-8.022559217218692e-06,-0.13271527337479763,0.9918417567635535,0.3880444631825915,0.08068453412812872,-0.010135975931459824,-5.739219376803983e-05,-0.3508135125414259,0.7817751955082429,-0.5065957145814954,-0.23450440666370387,-0.002028211350057152,0.0004792803706401838,-0.1356485510270801,-5.662098049105906,-4.418701841174823,-0.95073915099604,-0.008949285273728978,-0.0005103326665477192
0.23,-0.01831970211646851,1.7231494022420597,-1.503020459128043,0.015306367263728853,-0.001570090800299444,-8.60477117174144e-06,-0.1361995034893199,0.9996168896506391,0.38302558366612727,0.0784918328902877,-0.010242603896270722,-5.822119545227477e-05,-0.3234067993656644,0.4924858580642052,-0.6626227872863479,-0.26898272565057646,0.0005317408800491474,0.0004705986407244067,-0.13356127865080847,-5.9103596015144975,-4.48783799542622,-0.9626991104584288,-0.008665721718778236,-0.000512551701264618
0.24,-0.019713816020614814,1.733194430945039,-1.49925592336965,0.01606588140027448,-0.0016733379886685969,-9.194454996628079e-06,-0.1394113904146304,1.0045028702979457,0.3764535758392887,0.07595141365456289,-0.01032471883691529,-5.896838248866389e-05,-0.29565283044443946,0.21220233466929161,-0.8110375742617455,-0.30129662296247184,0.0029383883560003543,0.0004577801879726562,-0.1308762637651436,-6.150458023005317,-4.5541157048425145,-0.974077724602899,-0.00835366496783541,-0.0005144517837290546
0.25,-0.021137290442076857,1.7432603286987518,-1.4955718816701442,0.01679672564108264,-0.0017771719892320183,-9.79093251532987e-06,-0.1423474421462045,1.0065897753712687,0.3684041699505824,0.07308442408081584,-0.010383400056342139,-5.964775187017922e-05,-0.26761460346868376,-0.05861773639977453,-0.951718156059959,-0.3314589979624061,0.005194060353943097,0.0004414135205698111,-0.12759253289830677,-6.382065049317059,-4.617463992924258,-0.984870216416322,-0.008014823440633633,-0.0005160557936384703
0.26,-0.02258733836726681,1.7533200511371316,-1.4919823386031725,0.017495845114460493,-0.0018813692818248073,-1.039365612986869e-05,-0.14500479251899503,1.005972243837973,0.3589543066971664,0.0699119473377851,-0.010419729259278901,-6.0272361453882085e-05,-0.23935639269141046,-0.31956636843726427,-1.0845797307239957,-0.3594900218649002,0.0073023922639356975,0.0004220595431852492,-0.12371599845234668,-6.604921039103726,-4.677829850604636,-0.9950748123313122,-0.007651153231748766,-0.000517387073431602
0.27,-0.024061150511140997,1.7633475409411836,-1.4885005209101476,0.018160394362309068,-0.001985717086503351,-1.100219839521714e-05,-0.1473812143874187,1.0027489804051946,0.3481817693025024,0.06645492478485757,-0.010434780467854357,-6.0854226534845045e-05,-0.21094326632519406,-0.5702834401562774,-1.209571559119241,-0.38541649104606,0.009268036744084052,0.00040024355041284876,-0.11925910167684753,-6.818829700281913,-4.735177047974428,-1.0046924930955319,-0.007264810483262634,-0.0005184688978880244
0.28,-0.02555590179098648,1.773317763710971,-1.4851388724538346,0.018787735219424662,-0.002090013204627032,-1.1616240946483999e-05,-0.14947512798454818,0.9970222769787228,0.33616484563129656,0.0627340857115593,-0.010429611812368065,-6.14042551266858e-05,-0.18244063331622287,-0.8104547760465229,-1.3266739347591159,-0.40927109770378145,0.01109640619612251,0.0003764504280157066,-0.11424035855148759,-7.0236527108212226,-4.78948488034094,-1.0137267368339438,-0.0068581042874971115,-0.0005193239966977292
0.29,-0.02706875783841783,1.7832067392455537,-1.4819090522519915,0.019375434066824328,-0.002194065794853265,-1.2235563093317475e-05,-0.15128560474313504,0.9888975534582717,0.32298202018430056,0.05876988473996652,-0.010405259022623325,-6.193221468334753e-05,-0.15391382415278276,-1.039810130746654,-1.4358952063130694,-0.4310916565452212,0.012793447765122368,0.00035112241316220816,-0.10868382575127736,-7.219304312380864,-4.840746870753013,-1.022183258595263,-0.006433451097759512,-0.0005199741362596857
0.3,-0.028596881507515673,1.7929915684336717,-1.4788219352968466,0.019921258538598836,-0.002297693099180348,-1.2860030331805224e-05,-0.15281236690978417,0.9784829188117967,0.308711695514504,0.054582447177450796,-0.010362730432708288,-6.244672384877492e-05,-0.1254277087470247,-1.2581211127488983,-1.5372688798918008,-0.4509203179799437,0.01436545044695614,0.00032465882281962344,-0.10261850509133938,-7.405745947369932,-4.888969449862722,-1.0300697503289566,-0.005993331498727555,-0.0005204397647692724
0.31,-0.030137439340676905,1.8026504559638714,-1.4758876158736383,0.020423173762140003,-0.0024007231322798004,-1.3489582968739738e-05,-0.15405578331612318,0.9658887530199695,0.29343194232083974,0.050191522354116704,-0.010303003309945269,-6.295526369345135e-05,-0.09704635299686834,-1.4651990801972126,-1.6308508263518968,-0.46880279175710626,0.015818882778261267,0.0002974172344785142,-0.09607770524069822,-7.582981001929839,-4.934170632524688,-1.037395624865759,-0.005540250049217481,-0.0005207397226092517
0.32,-0.031687607957565714,1.812162729065428,-1.4731154131015167,0.02087933820992488,-0.0025029933455189973,-1.4124225006146475e-05,-0.1550168616888805,0.9512273101556711,0.27722027721215536,0.045616444778487635,-0.0102270213239197,-6.346420374067367e-05,-0.06883271439786506,-1.6608930386820964,-1.7167166164743186,-0.4847875996415052,0.017160258867091882,0.000269715678544169,-0.08909837913331399,-7.751049709203576,-4.976378708898891,-1.0441717670818664,-0.005076698764517851,-0.0005208910182133898
0.33,-0.03324458033642839,1.8215088524910832,-1.4705138784325429,0.021288099237799424,-0.0026043502753359793,-1.4764013394941285e-05,-0.15569723788626708,0.9346123425655088,0.2601534668973847,0.04087610278745424,-0.010135692981698195,-6.397883887948105e-05,-0.040848376033795285,-1.8450875678518255,-1.7949590040903742,-0.49892537137010784,0.018396030106560435,0.00024183548449552283,-0.08172045449339765,-7.910024259241399,-5.015630966064717,-1.0504102950230854,-0.00460512465869866,-0.0005209086679582142
0.34,-0.034805571960857075,1.8306704399496152,-1.4680908048590344,0.021647988380246393,-0.0027046491840231287,-1.5409047734688856e-05,-0.156099162442869,0.9161587458531926,0.2423073573508469,0.0359889142446968,-0.010029890868714916,-6.450343397475724e-05,-0.013153317424531899,-2.0177008004136634,-1.8656855742042135,-0.5112681945123043,0.019532499722332244,0.0002140244865841412,-0.07398617335232237,-8.060004154139433,-5.051972454312565,-1.0561243333579762,-0.004127901624164489,-0.000520805597275099
0.35000000000000003,-0.036367826808770036,1.839630262190913,-1.4658532375957707,0.021957716467747704,-0.0028037536995226056,-1.6059460470999973e-05,-0.15622548479129586,0.8959822241297952,0.22375672632636642,0.030972808750131205,-0.009910451549947671,-6.504127363111186e-05,0.01419427995898073,-2.1786824737605106,-1.9290165699807855,-0.5218690258638468,0.02057575727828847,0.00018650036739548126,-0.06593945449601168,-8.20111183963354,-5.085454810392145,-1.061327801125191,-0.0036473067903030777,-0.0005205925990682558
0.36,-0.03792862316384924,1.848372251938857,-1.4638074860212544,0.022216168625313577,-0.0029015354595412156,-1.6715407622181843e-05,-0.15607963550792064,0.8741989747944041,0.20457515745161695,0.02584521575658731,-0.009778176001861016,-6.55947151181869e-05,0.041138195202444605,-2.32801207107977,-1.985082909235178,-0.5307811694953646,0.021531630354080122,0.0001594539711597398,-0.05762529057458292,-8.333488637461523,-5.116135148097557,-1.066035215345798,-0.0031655013786581927,-0.0005202783446698546
0.37,-0.03948527923288824,1.8568815058582657,-1.4619591366810045,0.022422399204764906,-0.0029978737641551427,-1.7377060051571968e-05,-0.15566560690389974,0.8509253919408665,0.18483493402499024,0.020623057945132812,-0.009633830461392682,-6.616524293901243e-05,0.06762430151360405,-2.4656970654377792,-2.034024397841402,-0.5380578244513128,0.022405650775383812,0.00013305245988631809,-0.04908918925373851,-8.45729099642454,-5.144075024689411,-1.0702615116915513,-0.00268451596106265,-0.0005198694419486407
0.38,-0.04103515855541676,1.8651442837317869,-1.4603130671753943,0.02257562669660653,-0.0030926552400897486,-1.8044595290874163e-05,-0.15498793225285246,0.826277787352105,0.1646069505610291,0.015322749184162534,-0.009478147593460592,-6.675352393021965e-05,0.09360067408648362,-2.5917712770317554,-2.075988144326936,-0.5437517033161949,0.023203032992955785,0.00010744223618086579,-0.04037666540172855,-8.572687074259871,-5.16933948982009,-1.0740218830390922,-0.002206239931233681,-0.0005193705347928084
0.39,-0.04257567519456203,1.8731480050112088,-1.4588734607745324,0.02267522866047466,-0.003185773519016816,-1.871818991189232e-05,-0.15405166391452607,0.8003721279422034,0.1439606400862009,0.009960196386813065,-0.009311827892706724,-6.73594621018158e-05,0.11901767558930425,-2.706293350600061,-2.1111271768873516,-0.5479147213570599,0.023928662446571436,8.275157903792074e-05,-0.031532788983040044,-8.679853657197635,-5.191996221863023,-1.0773316364014707,-0.0017324149203396917,-0.0005187844379873814
0.4,-0.04410429870036937,1.8808812428955803,-1.4576438216228003,0.02272073670631683,-0.0032771289314993944,-1.9398012438833203e-05,-0.15286235058073405,0.7733237884371504,0.12296391517321015,0.004550804584217056,-0.009135541248257835,-6.798225269408854e-05,0.14382802257799446,-2.809345356919319,-2.1395992611687067,-0.550597754690429,0.024587091998860777,5.9092964201867826e-05,-0.02260179114939035,-8.778973419410967,-5.212114754869418,-1.0802060684147974,-0.0012646318232264226,-0.0005181123014735973
0.41000000000000003,-0.04561855883873859,1.8883337160760443,-1.4566269904156244,0.022711831551782257,-0.0033666282176199737,-2.0084216790259128e-05,-0.15142601383692225,0.7452473180463924,0.10168312071759555,-0.000890515453457157,-0.008949928612057912,-6.862043514259251e-05,0.16798683602387346,-2.9010315194210476,-2.1615659144741333,-0.5518504648252129,0.025182544769243198,3.6565068028404646e-05,-0.013626729040961131,-8.87023252046537,-5.229765797801811,-1.0826603592713167,-0.0008043310540130468,-0.0005173537980840665
0.42,-0.04711605008074683,1.8954962782747193,-1.455825160450594,0.022648338174864707,-0.0034541842548378105,-2.077693623819892e-05,-0.14974912420082453,0.7162562198675123,0.08018299650303407,-0.006349337691755048,-0.008755603721783667,-6.927194479397901e-05,0.19145167895550133,-2.9814770642614326,-2.177191609544736,-0.5517211860750599,0.02571892193178149,1.5254455610513862e-05,-0.004649208079288897,-8.953818535298954,-5.245020646234859,-1.0847094847320162,-0.0003528056168678416,-0.000516507329065125
0.43,-0.04859443584844272,1.9023609056925541,-1.4552398939738977,0.022530221074729746,-0.0035397158032230164,-2.147627787164854e-05,-0.14783857676958842,0.6864627417834764,0.05852664766962528,-0.011811710013496103,-0.008553154838520602,-6.993416334496238e-05,0.21418258396569165,-3.0508271896955885,-2.186643158793652,-0.5502568715760674,0.026199814256721465,-4.7630270700871336e-06,0.004290840925565705,-9.029918708183681,-5.257950685378677,-1.0863681456227832,8.879344115906912e-05,-0.0005155702419999111
0.44,-0.050051452514233784,1.908920682469092,-1.4548721387609966,0.0223575796479449,-0.0036231472678962427,-2.21823175522214e-05,-0.1457016665791068,0.6559776776537923,0.036775521290102406,-0.01726414267848452,-0.008343146467322628,-7.06039680572859e-05,0.2361420730388861,-3.109246148362303,-2.1900892678306096,-0.5475030930608007,0.026628516372912303,-2.3421131830236863e-05,0.013155333705035764,-9.098718519484862,-5.2686269820745455,-1.0876507140183551,0.0005194496346708176,-0.0005145390561082702
0.45,-0.05148491315177946,1.9151697842457445,-1.454722244887296,0.022130643682071034,-0.0037044084782521048,-2.2895095350772918e-05,-0.14334606375456757,0.6249101776652393,0.014989387370055077,-0.022693596587386927,-0.008126121035586211,-7.127777985515164e-05,0.25729517182471945,-3.156916434095682,-2.1877002453202268,-0.5435040890620009,0.027008042902799012,-4.066233197025371e-05,0.021908158240608336,-9.160400551806772,-5.277119962340508,-1.0885711951476584,0.0009382721364079318,-0.0005134096903016572
0.46,-0.052892711036877246,1.9211034599136647,-1.4547899816601224,0.021849768963812886,-0.0037834344833516742,-2.361461145524021e-05,-0.1407797885097788,0.5933675667920206,-0.006773677282634883,-0.028087471825814697,-0.007902600509956965,-7.195161044672937e-05,0.2776094201325206,-3.1940380631552796,-2.179647854680417,-0.5383028558624581,0.027341145775986675,-5.643715888969947e-05,0.03051525960859025,-9.21514364023804,-5.283499170105973,-1.0891432039119806,0.0013444857858215605,-0.0005121776897947029
0.47000000000000003,-0.05427282289722594,1.9267180116178306,-1.4550745546974169,0.021515432994701877,-0.0038601653627252314,-2.434082254145017e-05,-0.13801118603486917,0.5614551704165948,-0.02845730372944962,-0.03343359691110073,-0.007673087937355733,-7.26211086209958e-05,0.29705488005997244,-3.220827938324724,-2.1661052918458754,-0.5319412752674104,0.02763033216045674,-7.070372309497808e-05,0.03894468967985199,-9.263122289848463,-5.287833101970242,-1.0893799547930554,0.0017374204073855783,-0.0005108384475061647
0.48,-0.055623311910202096,1.932010773080613,-1.4555746231510869,0.021128230803619863,-0.0039345460517230205,-2.5073638600171365e-05,-0.13504890129761582,0.5292761462782456,-0.050006845366994665,-0.03872021910820132,-0.007438068899778951,-7.328160587211938e-05,0.3156041428073932,-3.2375192831689246,-2.147247272320363,-0.5244602730993648,0.027877882564310896,-8.342738337580036e-05,0.04716662752323919,-9.304506342294342,-5.290189112146922,-1.089294263840293,0.002116499807261369,-0.0005093874169096436
0.49,-0.05694233044793132,1.9369800863010516,-1.4562883170838126,0.020688870842387515,-0.004006526180482013,-2.5812920214973323e-05,-0.13190185377292246,0.4969313220438442,-0.07136939327256872,-0.043935996123234615,-0.007198012875899202,-7.392816148019592e-05,0.3332323348763386,-3.244361132878059,-2.123250209996569,-0.5159000022691735,0.02808586875719632,-9.458054212013733e-05,0.05515337628767421,-9.339460872327003,-5.2906333812122615,-1.0888985613639128,0.002481230782764168,-0.0005078203134110296
0.5,-0.058228122569009076,1.941625276680364,-1.4572132550172179,0.020198170948142146,-0.004076059925534692,-2.6558476286624705e-05,-0.12857921210777548,0.4645190379312522,-0.09249379334053924,-0.04906998942453708,-0.006953374505267931,-7.455560716513812e-05,0.3499171240158427,-3.2416178675552887,-2.094292469762367,-0.5063000442813106,0.02825617124043811,-0.00010414253283075325,0.06287934209037194,-9.368146294134377,-5.289230941855788,-1.0882049139221552,0.0028311924411008552,-0.000506133301730592
0.51,-0.059479026256260815,1.9459466266199394,-1.4583465616766302,0.019657054354318918,-0.004143105873066636,-2.7310062200536003e-05,-0.12509036872517418,0.4321349939575317,-0.1133306659412305,-0.05411165938232289,-0.006704594753194384,-7.515859139112962e-05,0.3656387249688772,-3.229568773531406,-2.0605546757135436,-0.49569962314193816,0.028390496061062365,-0.0001120995770533817,0.07032100004732099,-9.3907186567534,-5.286045754531829,-1.0872250541745052,0.0031660260832510707,-0.0005043231671503526
0.52,-0.06069347539995901,1.9499453476352253,-1.4596848859631582,0.019066545730718563,-0.004207626892828883,-2.8067378434233248e-05,-0.12144491436981922,0.39987210152857877,-0.13383242865279882,-0.05905086236003562,-0.006452101976224717,-7.573162336972449e-05,0.3803799047917936,-3.2085076183036714,-2.0222200568735023,-0.4841378257953117,0.028490390819407185,-0.00011844478845962625,0.07745685207711164,-9.407330107249908,-5.281140825725094,-1.085970417177364,0.0034854258667218986,-0.000502387468851605
0.53,-0.06187000152596346,1.9536235510275366,-1.4612244191875199,0.018427767232380668,-0.004269590021725276,-2.8830069601986582e-05,-0.11765261260044506,0.3678203392311186,-0.15395332243616977,-0.06387784983378932,-0.006196312889639317,-7.626911677533332e-05,0.39412598727597603,-3.1787422249920487,-1.9794748126545354,-0.47165382346598506,0.028557259762435727,-0.00012317820380575162,0.08426738051904702,-9.418129499958795,-5.2745783614662205,-1.0844521817220572,0.003789130418179806,-0.00050032467391388
0.54,-0.0630072352683458,1.9569842171558303,-1.4629609136019808,0.01774193453676284,-0.00432896635612124,-2.9597723933500353e-05,-0.11372337423823435,0.3360666128293771,-0.17364944144609654,-0.06858326956178293,-0.005937633439596374,-7.67654331513772e-05,0.4068648557975944,-3.140594032774001,-1.932508480889382,-0.458287088586534,0.028592377891647924,-0.00012630681829833845,0.09073500095828217,-9.423263129802944,-5.266419948758404,-1.082681315355817,0.0040769155245007,-0.0004981342708773547
0.55,-0.06410390758621935,1.9600311633518748,-1.4648897012669844,0.0170103528490253,-0.004385730951956312,-3.0369873182933927e-05,-0.10966723178735495,0.3046946196044565,-0.19287876650035837,-0.07315816877375396,-0.005676459583507234,-7.721492494335739e-05,0.4185869537614764,-3.0943976305758247,-1.8815142920984131,-0.4440776023474875,0.02859690404061066,-0.00012784462004178376,0.09684401696951037,-9.422875567559192,-5.256726757696006,-1.0806686217824018,0.004348587989328497,-0.0004958168620876745
0.56,-0.06515885072473815,1.962769010524895,-1.467005713287649,0.016234412856005503,-0.004439862731786299,-3.1145992963712096e-05,-0.10549431385187902,0.2737847173020076,-0.21160120206646665,-0.07759399930197992,-0.005413177982998665,-7.761197807781655e-05,0.4292852816902675,-3.040500252353857,-1.8266894947169634,-0.42906604832955075,0.02857189290124973,-0.00012781260184979715,0.10258057879930393,-9.41711057491822,-5.245559757264473,-1.078424789408623,0.004603980702456207,-0.000493374234347819
0.5700000000000001,-0.06617099892056542,1.9652031485056032,-1.4693034994523813,0.01541558661069888,-0.004491344397930369,-3.1925503503336386e-05,-0.10121481958272792,0.24341379807082217,-0.22977861647321712,-0.08188262453066224,-0.005148166614406911,-7.795105396242926e-05,0.4389553899412315,-2.9792612235583658,-1.7682356372807844,-0.4132939881306523,0.028518305994884585,-0.00012623874433770332,0.10793264732617038,-9.406112077294424,-5.23297993809906,-1.0759604398841487,0.004842948931822725,-0.000490809407697751
0.58,-0.06713938885254918,1.9673397001843975,-1.4717772483015328,0.014555423330698113,-0.004540162350952398,-3.270777081096541e-05,-0.09683899319837605,0.21365516787942798,-0.24737488491514353,-0.08601632800007684,-0.00488179530220289,-7.822673076290243e-05,0.44759536600947314,-2.9110513498178756,-1.7063587950155696,-0.39680401541716925,0.028437021599712065,-0.00012315796605474882,0.11288996398499304,-9.390025172592187,-5.219048535840702,-1.0732861755727006,0.005065367813164607,-0.00048812666243044906
0.59,-0.06806315983888307,1.9691854845042756,-1.4744208076484642,0.013655545096035575,-0.004586306612763115,-3.3492108248927987e-05,-0.09237709863338871,0.18457843198779864,-0.26435593469314167,-0.08998782346625377,-0.004614426181071648,-7.843374379625802e-05,0.4552058153966894,-2.8362522404725907,-1.6412697298991574,-0.37963988533984505,0.028328843658699476,-0.00011861202882179622,0.11744402673479395,-9.368997154534117,-5.203827249152046,-1.070412624991158,0.0052711309808227275,-0.000485331544732948
0.6,-0.0689415537826733,1.9707479783755297,-1.4772277055687237,0.012717642434173662,-0.004629770753688916,-3.427777849745985e-05,-0.08783939437902305,0.15624938712542696,-0.2806897920259601,-0.09379026618619131,-0.004346414092580149,-7.856702485318587e-05,0.46178983508603944,-2.7552555612948444,-1.573183975001732,-0.3618466168235841,0.028194509702301307,-0.00011264940143340674,0.12158807159947874,-9.343178529715559,-5.187378446936148,-1.0673504853571385,0.0054601502552648635,-0.00048243085161259674
0.61,-0.06977391486857006,1.9720352775863705,-1.480191171865484,0.01174346978244123,-0.004670551822913698,-3.506399590006189e-05,-0.0832361085896754,0.12872992108407097,-0.2963466296760474,-0.09741726517324327,-0.004078106922478249,-7.86217402602041e-05,0.4673529787626357,-2.6684622125238304,-1.5023218357530412,-0.3434705658137762,0.028034697831896604,-0.00010532507373642308,0.12531705883186628,-9.312724008277652,-5.1697653598263,-1.0641105614935171,0.005632356278869876,-0.0004794325960304439
0.62,-0.07055968901394542,1.973056056791097,-1.4833041600110886,0.010734840820966828,-0.004708650281760462,-3.584992917481012e-05,-0.07857741453753647,0.10207792047265832,-0.3112988145604556,-0.10086289614744004,-0.0038098458846763977,-7.859332747482337e-05,0.471903213051205,-2.5762814301711963,-1.4289083026930456,-0.32455946812727277,0.02785003281705345,-9.670033050634963e-05,0.12862766235115197,-9.277793448995181,-5.151052251577707,-1.0607038004481202,0.005787699971689414,-0.00047634595341297566
0.63,-0.0712984230789963,1.9738195286651243,-1.486559369555726,0.009693623672055982,-0.004744069939339068,-3.663470447499539e-05,-0.07387340650508685,0.0763471874027231,-0.3255209544637507,-0.10412171489108457,-0.003541965757860633,-7.847753001852674e-05,0.4754508642021907,-2.4791298103910115,-1.3531728722013154,-0.3051624511303128,0.02764109137072923,-8.68424760815667e-05,0.13151826078991966,-9.238552740662024,-5.131304566581627,-1.0571413212967662,0.005926154663451565,-0.00047318119094710457
0.64,-0.07198976384110378,1.974335402323877,-1.4899492689850808,0.008621735964944812,-0.004776817890144179,-3.741740878036859e-05,-0.06913407621074828,0.05158736587526612,-0.338989942935475,-0.10718877071111704,-0.0032747950805110822,-7.827043053731998e-05,0.4780085548392567,-2.3774302585098193,-1.2753492736261904,-0.28533001403854286,0.027408406674000574,-7.582452049265109e-05,0.13398892826344283,-9.19517460292639,-5.110589050330024,-1.0534344397062603,0.006047718747115885,-0.0004699495812774662
0.65,-0.07263345673977262,1.9746138411101213,-1.493466118999476,0.00752113976788046,-0.004806904453242299,-3.819709359834368e-05,-0.06436928986688323,0.027843878624418398,-0.35168500143952175,-0.11005961970643517,-0.0030086563098119753,-7.79684817975097e-05,0.4795911305786033,-2.2716108660468772,-1.195675103132797,-0.2651139771572346,0.02715247223052808,-6.372482645690403e-05,0.13604142284347293,-9.14783929117954,-5.088973840275045,-1.0495946869393773,0.006152418692873212,-0.0004666633024154579
0.66,-0.07322934439948506,1.9746654198615254,-1.497101996177741,0.0063938363924782304,-0.004834343112737979,-3.8972778952609885e-05,-0.059588765971244184,0.00515787514041589,-0.36358771782649907,-0.11273033754022294,-0.002743865949568077,-7.756853542661997e-05,0.48021557653720415,-2.162103720686529,-1.114391366404008,-0.2445674009004506,0.026873745139214478,-5.062672308122837e-05,0.1376791706806456,-9.096735191727124,-5.066528525143259,-1.0456338230849633,0.006240312259560772,-0.0004633353258316179
0.67,-0.07377736493881329,1.9745010817769773,-1.5008488169799608,0.00524186107823515,-0.004859150459255794,-3.974345763484617e-05,-0.05480205393282276,-0.016433808454817254,-0.3746820802219739,-0.11519753142430805,-0.0024807346517815047,-7.706786822362829e-05,0.47990092395652856,-2.0493436556632445,-1.0317419340397054,-0.22374447590586222,0.02657264888067168,-3.661808967625512e-05,0.13890724377122177,-9.042059295260323,-5.04332417137093,-1.041563844391836,0.006311491742900337,-0.00045997929483265683
0.68,-0.07427755007512135,1.9741320950062733,-1.504698362034584,0.00406727756789238,-0.004881346132215797,-4.0508099693596625e-05,-0.05001851363080672,-0.03689867707040559,-0.38495450546232973,-0.11745835103427692,-0.0022195672960002716,-7.646420587504532e-05,0.4786681473744217,-1.9337669463591247,-0.9479729150852529,-0.20270038597785067,0.0262495757190373,-2.179091400961869e-05,0.139732329499926,-8.9840175385788,-5.019433315916172,-1.0373969846744062,0.006366087106543076,-0.00045660939541792103
0.6900000000000001,-0.07473002303513188,1.9735700090931116,-1.5086423006472298,0.0028721725869926902,-0.004900952762715173,-4.126565713288396e-05,-0.04524729600105307,-0.056208591316162154,-0.3943938612645838,-0.11951049808996897,-0.0019606630499376236,-7.575574392873377e-05,0.47654005297431323,-1.8158099630709692,-0.8633319555356649,-0.18149114599150096,0.025904888826041805,-6.240831782307332e-06,0.14016269030351758,-8.922825006576184,-4.994929925268343,-1.0331457108399464,0.006404268852304167,-0.00045324022186412114
0.7000000000000001,-0.07513499628251409,1.9728266114057418,-1.5126722154610819,0.001658650243434057,-0.004917995916857031,-4.201506879186451e-05,-0.04049732473822136,-0.0743397687369827,-0.40299148138519714,-0.12135223435586333,-0.0017043154141858,-7.494116589805495e-05,0.4735411589225296,-1.6959077898620882,-0.7780674699053596,-0.16017341721431055,0.0255389242379227,9.933354368066305e-06,0.14020811207974831,-8.858705988656723,-4.9698893210087105,-1.0288227126618927,0.006426250499795958,-0.000449886639299652
0.71,-0.0754927690744504,1.9719138836930543,-1.5167796271921212,0.00042882636504340587,-0.004932504039388249,-4.275526537564147e-05,-0.03577727919363129,-0.09127277126874114,-0.4107411731039386,-0.12298238783906511,-0.0014508122531217897,-7.401965837769656e-05,0.46969756866653173,-1.5744928201610349,-0.6924278150042045,-0.13880430276614764,0.025151992756642372,2.663016587058087e-05,0.1398798403019381,-8.791893885979128,-4.944388072773264,-1.0244408869901358,0.006432290562445533,-0.0004465636454996441
0.72,-0.07580372485984246,1.9708439589062658,-1.5209560193567242,-0.0008151772048420232,-0.004944508397521756,-4.3485174606453795e-05,-0.031095578539206477,-0.10699247867885188,-0.4176392164602992,-0.1244003569885429,-0.0012004358133507291,-7.299092308123256e-05,0.46503683830503206,-1.4519933402991363,-0.6066604158936619,-0.11744112617374025,0.024744381905875912,4.3745950667500866e-05,0.13919050317735795,-8.722630968186904,-4.918503859923847,-1.0200133166478755,0.006422693926065738,-0.0004432862340601938
0.73,-0.07606832853241027,1.9696290784276016,-1.5251928629044207,-0.0020712383321182855,-0.004954043024824436,-4.420372646367108e-05,-0.026460367256780807,-0.12148804786643266,-0.4236843547696399,-0.12560611272762626,-0.0009534627302679692,-7.185518572172898e-05,0.45958783925225527,-1.3288321124891602,-0.5210108546309837,-0.0961411961117129,0.02431635805018484,6.117539638897385e-05,0.13815402159375995,-8.6511679805498,-4.892315303644101,-1.015553244315441,0.00639781255714502,-0.0004400692609964945
0.74,-0.07628712355240869,1.9682815498474822,-1.5294816406649425,-0.0033372403139348356,-0.004961144665049995,-4.4909858480389776e-05,-0.021879501999840692,-0.1347528580119337,-0.4288777760521761,-0.126600198181655,-0.000710164022555873,-7.061320167186937e-05,0.4533806175009039,-1.205424968843559,-0.435721932815722,-0.07496156053962633,0.023868168777818166,7.881204622092741e-05,0.13678550601780698,-8.577763604670851,-4.865901771539031,-1.0110740417447475,0.0063580454901981335,-0.00043692731665752034
0.75,-0.07646072895102617,1.9668137054306616,-1.5338138715161207,-0.004611077573873045,-0.004965852715787089,-4.560252106406407e-05,-0.017360539861747588,-0.14678444168204902,-0.43322308511781155,-0.127383725993821,-0.00047080507370943756,-6.926625836742907e-05,0.44644625084005013,-1.082179427920637,-0.3510327191585185,-0.053958753479445676,0.023400045640538547,9.654882486562211e-05,0.13510114092684078,-8.502683778072452,-4.839343157130203,-1.0065891746842912,0.006303838066227595,-0.00043387460466363123
0.76,-0.0765898362317355,1.9652378614095551,-1.5381811341777378,-0.005890661305412034,-0.0049682091717770955,-4.6280682808281207e-05,-0.012910728070933972,-0.1575844021106333,-0.43672626616170873,-0.12795837315389888,-0.00023564559900064494,-6.781617442171377e-05,0.4388167054052952,-0.9594933449835596,-0.2671775932907976,-0.03318853765935437,0.02291220733079502,0.00011427856868051478,0.13311805775682353,-8.426200880026247,-4.81271963690146,-1.002112163924133,0.006235680416940723,-0.0004309248293578951
0.77,-0.0766752061829335,1.9635662782396723,-1.5425750905361104,-0.0071739250383739545,-0.004968258567734013,-4.694333576271578e-05,-0.008536995119799324,-0.1671583169882802,-0.4393956358372619,-0.12832637329619204,-4.939595691729045e-06,-6.626529544345718e-05,0.43052469292924955,-0.8377536066789141,-0.18438529683730032,-0.012705646212266775,0.02240486336327674,0.00013189455985307408,0.13085419772070989,-8.348592792902114,-4.786111407763169,-0.9976565428939737,0.006154105211222263,-0.0004280910930232293
0.78,-0.07671766561613703,1.9618111219476682,-1.5469875084049394,-0.008458830102917595,-0.004966047920471953,-4.758950062838598e-05,-0.00424594332035365,-0.17551562920042058,-0.4412417868828958,-0.12849050645436413,0.00022106472620596356,-6.46164865670198e-05,0.421603530022368,-0.7173348802050714,-0.10287800240907075,0.007436473512340225,0.02187821830996839,0.00014929107167985234,0.12832816618079254,-8.27014185004924,-4.7595984079670455,-0.9932358122655527,0.006059684700898956,-0.0004253858038622458
0.79,-0.07671810404380056,1.9599844266971211,-1.551410283629791,-0.0097433709658282,-0.004961626670114712,-4.821823184547674e-05,-4.384276635274655e-05,-0.18266952505469064,-0.44227752248515,-0.12845408629106056,0.00044212503572410095,-6.287312170907612e-05,0.41208700074933735,-0.5985984262715982,-0.022870410645398076,0.027185911095519266,0.021332476619382756,0.0001663639175830678,0.1255590805353481,-8.191133682760658,-4.733260024620605,-0.988863392024053,0.005953027121525112,-0.000422820595472137
0.8,-0.07667747031049066,1.9580980586908054,-1.555835461446403,-0.011025580414320653,-0.004955046620128276,-4.88286225414166e-05,0.004063373330990192,-0.18863680063157046,-0.4425177816612105,-0.12822094484924523,0.0006580049986436306,-6.103906959398575e-05,0.40200922367744035,-0.4818909842701718,0.05543111523301747,0.04649253640501594,0.020767848028980573,0.00018301100878459486,0.1225664137960737,-8.111855980187217,-4.707174791022023,-0.9845525714823252,0.005834772520319952,-0.0004204062582803338
0.81,-0.07659676919070658,1.9561636815210377,-1.5602552570067836,-0.012303534563315875,-0.004946361875882309,-4.941980930740858e-05,0.008070111978407523,-0.19343771697677414,-0.441979556038053,-0.12779541489952229,0.0008684744245966854,-5.911867659919843e-05,0.39140452446391666,-0.36754373711105154,0.13182936867345763,0.06530823263736207,0.02018455355764104,0.00019913292010392825,0.11936983618272537,-8.032597177140751,-4.681420077065714,-0.9803164577172152,0.005705588097138852,-0.00041815268314514785
0.8200000000000001,-0.07647705796608188,1.9541927230717504,-1.5646620749916993,-0.013575357663145235,-0.0049356287814122084,-4.999097677230484e-05,0.011971122462470462,-0.19709584492873253,-0.44068179849156114,-0.127182309982936,0.001073309447010042,-5.711674648962551e-05,0.38030731492250025,-0.2558713621493405,0.20613706503694956,0.08358711673284183,0.01958283204159228,0.00021463346360650615,0.11598905714182249,-7.953645085544855,-4.65607177595887,-0.9761679229094317,0.005566163155187418,-0.0004160688170760295
0.8300000000000001,-0.07631944299405422,1.9521963440673595,-1.5690485282335631,-0.014839226685864156,-0.004922905854020825,-5.054136194357745e-05,0.015761497202767316,-0.19963790043909646,-0.43864532418637603,-0.1263869022718922,0.0012722927391383362,-5.5038517127260844e-05,0.36875197936981924,-0.14717117355992992,0.2781775459774595,0.10128574511318289,0.018962947153471355,0.0002294202696006553,0.11244367020707535,-7.8752854858494095,-4.6312039904432645,-0.9721195510676658,0.005417203765936936,-0.0004141626307964925
0.84,-0.07612507627936235,1.9501854083543781,-1.573407455279815,-0.01609337566978881,-0.0049082537163301,-5.107025828617632e-05,0.019436671469186685,-0.2010935712981497,-0.43589270462518376,-0.12541489839246547,0.0014652137690725927,-5.2889634259886834e-05,0.35677276890333137,-0.04172236043529134,0.34778541708416244,0.11836330295688846,0.018325194821016133,0.00024340536797839984,0.10875300306213755,-7.79780069501817,-4.606888721637588,-0.9681835846142429,0.005259427257294882,-0.0004124410976645512
0.85,-0.07589515205893574,1.9481704549921766,-1.5777319368335567,-0.017336099803482684,-0.004891735025369242,-5.157701951137775e-05,0.02299242204266168,-0.20149533622015103,-0.4324481553741662,-0.12427241336938723,0.001651869096085787,-5.0676122520142985e-05,0.34440370410820487,0.060214676196144755,0.41480711394198877,0.1347817754834466,0.017669910939957845,0.0002565057767856538,0.10493597504580515,-7.721468127732245,-4.583195563507202,-0.9643718713036639,0.005093556635559081,-0.0004109101832850401
0.86,-0.07563090340989849,1.9461616722194166,-1.582015311015348,-0.018565759232187506,-0.004873414398269216,-5.206106304909629e-05,0.026424864903724296,-0.2008782772760017,-0.4283374181791332,-0.12296594287048235,0.0018320627100025884,-4.840435377185364e-05,0.3316784865351993,0.15839888528770577,0.47910139279299213,0.15050610000229292,0.01699747925498274,0.00026864408212934343,0.10101096416235601,-7.646558867234121,-4.560191405833624,-0.9606958119370463,0.004920315050168845,-0.0004095748449985453
0.87,-0.07533359888953191,1.944168873352592,-1.586251187397592,-0.019780782571587538,-0.004853358334124598,-5.252187317890549e-05,0.02973045203665751,-0.1992798866824713,-0.4235876382243857,-0.12150233394000311,0.0020056064144617376,-4.6081012980920065e-05,0.3186304191383376,0.2526090254992269,0.5405397430000647,0.16550429774449915,0.016308339265229232,0.0002797490128960689,0.09699568543324123,-7.573336261780409,-4.537940148398498,-0.9571663093247097,0.004740420405958816,-0.00040843904031505535
0.88,-0.07500453921514254,1.9422014746629028,-1.5904334597707295,-0.02097967011579116,-0.004831635131584582,-5.295900379688309e-05,0.032905967438936534,-0.19673986896890713,-0.41822723731374156,-0.11988875442036213,0.002172320254001656,-4.371306179775964e-05,0.305292335713592,0.3426440225583054,0.5990067195095355,0.1797475847569081,0.015602993995565528,0.0002897559969761154,0.09290708216012776,-7.502054561995213,-4.516502428919722,-0.9537937189359417,0.004554580220801226,-0.00040750574327761844
0.89,-0.07464505399088178,1.9402684752674584,-1.5945563176084359,-0.022160996728483113,-0.004808314801746002,-5.337208079761425e-05,0.03594852242607597,-0.19329993954444907,-0.41228578377063096,-0.11813266126919521,0.002332032983857912,-4.130770007311623e-05,0.2916965392407203,0.42832322498403724,0.6544001944565111,0.1932104613997292,0.014882017464276753,0.0002986076963172324,0.0887612313733505,-7.4329576135388695,-4.4959353670829785,-0.9505878016591689,0.00436348681752028,-0.00040677696769201536
0.9,-0.07425649848767148,1.9383784390606396,-1.598614256207058,-0.023323414408318196,-0.004783468975943534,-5.376080405307611e-05,0.038855550321030934,-0.1890036206818909,-0.40579385986221783,-0.11624176798350833,0.0024845825802467833,-3.8872325546186196e-05,0.27787474890228475,0.5094865597193353,0.7066315279588229,0.20587078022800043,0.014146061670730958,0.0003062545055900201,0.08457326442453558,-7.366277618455097,-4.476292326803839,-0.9475576790773159,0.004167812928151987,-0.0004062537961414531
0.91,-0.07384025048152101,1.9365394787014474,-1.602602085482574,-0.024465654521768857,-0.004757170808066062,-5.412494897286824e-05,0.04162480061504651,-0.1838960359192264,-0.39878292755158923,-0.11422401134506598,0.0026298167877472876,-3.641449197921351e-05,0.2638580554387757,0.5859945899604454,0.7556256589839994,0.21770979225568876,0.013395862924733049,0.0003126550122746208,0.0803573033577773,-7.302233977357081,-4.457622698635694,-0.944711791641883,0.003968207776404771,-0.0004059364137182212
0.92,-0.0733977071546866,1.9347592416628738,-1.6065149374163024,-0.025586529698782366,-0.0047294948710738475,-5.4464367633128766e-05,0.044254332683441144,-0.17802370385736577,-0.39128519337282625,-0.11208751770135073,0.002767593699221391,-3.39418660260523e-05,0.2496768843982328,0.65772847813198,0.8013211179354967,0.22871217183379944,0.012632247341372471,0.00031777640110031147,0.07612641337009753,-7.241032223288405,-4.439971704010102,-0.9420578601051953,0.003765293690963515,-0.00040582414544416837
0.93,-0.0729302820633327,1.9330448983398405,-1.6103482721483722,-0.026684935388725285,-0.004700517047448305,-5.4778989464694975e-05,0.04674250913539105,-0.1714343323033311,-0.3833334732069757,-0.10984056899429191,0.002897782362554264,-3.146218315662072e-05,0.23536096675363508,0.7245898575306642,0.8436699633037636,0.23886602055286943,0.011856135333906836,0.0003215947958900567,0.07189257135794905,-7.1828630566745835,-4.423380222760342,-0.9396028505431878,0.003559663288481748,-0.00040591549641498254
0.9400000000000001,-0.07243940217461761,1.9314031322031078,-1.6140978827255046,-0.02775985107617502,-0.004670314413374305,-5.506882149445209e-05,0.049087988871509045,-0.16417661367328273,-0.37496105771323307,-0.10749156874497336,0.003020263407399968,-2.8983202975711302e-05,0.2209393162925117,0.7865006166526554,0.8826376453420812,0.24816285075681233,0.011068544948872328,0.0003240955273950963,0.06766665025018573,-7.127901489294594,-4.407884645139124,-0.9373529432712255,0.0033518772511212692,-0.0004062081937856218
0.9500000000000001,-0.07192650497544716,1.9298401319778096,-1.6177598985169033,-0.028810341158142443,-0.004638965116533282,-5.533394813740972e-05,0.05128971991704502,-0.15630002252981795,-0.3662015791398696,-0.10504900819674245,0.0031349296841023232,-2.6512664295762905e-05,0.2064402131304601,0.8434026006323571,0.9182028002582145,0.2565975494368642,0.010270593906484216,0.00032527332021048405,0.06345841855581906,-7.076306103674212,-4.393516749298368,-0.9353135059225464,0.0031424627096956525,-0.000406699229811288
0.96,-0.07139303565452677,1.9283615858169705,-1.6213307873189473,-0.029835555486258148,-0.004606548247472542,-5.55745305407546e-05,0.053346932092038085,-0.14785461608391162,-0.35708888020440116,-0.10252143281157039,0.003241686906074013,-2.405824033448814e-05,0.19189119266366342,0.8952572345519172,0.9503569788806141,0.26416832338043594,0.009463500230334487,0.00032513238482595463,0.059276554312294644,-7.028218432762719,-4.380303604956112,-0.9334890709234922,0.002931912230190979,-0.00040738490526581115
0.97,-0.07084044435879794,1.926972677432526,-1.624807356175876,-0.03083472957931586,-0.00457314370461081,-5.5790805485034045e-05,0.05525912957288393,-0.13889083844444117,-0.347656885692881,-0.0999174093057712,0.003340454286173238,-2.162749442794501e-05,0.177319039254121,0.9420450736450215,0.979104314127315,0.27087662660786815,0.008648581377644238,0.00032368641270874576,0.0551286724107497,-6.983762463223264,-4.368267503733516,-0.9318833175615965,0.0027206833889698266,-0.000408260872672624
0.98,-0.07027018352487095,1.9256780841390446,-1.6281867509497254,-0.03180718451332516,-0.004538832053040219,-5.598308385151168e-05,0.05702608339269842,-0.129459329348134,-0.33793947738493285,-0.09724549340093024,0.003431165157059074,-1.922783664776384e-05,0.16274978393452127,0.9837652856120479,1.004461131918801,0.2767270712121004,0.007827251810081037,0.00032095846856317056,0.05102136410117936,-6.943044264169255,-4.3574259164064415,-0.9304990588024098,0.0025091989105626043,-0.0004093221788986284
0.99,-0.0696837052856639,1.9244819767585377,-1.6314664546783737,-0.03275232649787265,-0.0045036943773887955,-5.615174866863571e-05,0.058647823920706096,-0.11961073805069734,-0.3279703728648252,-0.09451419845474894,0.003513767565142428,-1.6866481712403125e-05,0.14820870542619766,1.0204350703981446,1.0264555104080957,0.2817273228090418,0.007001018977617068,0.00031698076976466316,0.04696024734371142,-6.906151741733447,-4.347791477082389,-0.9293382329688732,0.002297847331815358,-0.0004105633067742721
