tonegas/nnodely-applications/joint_friction_estimation/dataset/train/mpc_mujoco_episode_47.csv
time,q1,q2,q3,q4,q5,q6,dq1,dq2,dq3,dq4,dq5,dq6,ddq1,ddq2,ddq3,ddq4,ddq5,ddq6,tau1,tau2,tau3,tau4,tau5,tau6
0.0,0.0,1.57,-1.57,0.0,0.0,0.0,0.0,0.0,0.0,0.0,0.0,0.0,9.317741023147741,6.107008924699332,13.542915368633537,5.179732075181214,1.3276809252569493,-6.291441652095386e-06,1.29880104780867,1.0995405495331134,-1.3769925932835947,-0.2649755423726683,0.11741136920888683,0.0013756181117295435
0.01,0.0009268104249605323,1.570613472217788,-1.5686503367696907,0.00048481591882662724,0.00011280215261440817,1.4199294904471137e-06,0.09268104249605323,0.06134722177879826,0.1349663230309416,0.048481591882662725,0.011280215261440817,0.00014199294904471138,9.309889631640043,6.1806707460697,13.443407973743842,4.817150082898976,1.122769590714654,0.014111757935927116,1.31015705584096,1.090294760040642,-1.3807905157013076,-0.26574880361836506,0.11819553979644992,0.0013775114073275821
0.02,0.0027789626028828385,1.5718479143305508,-1.5659628946332873,0.0014255683341694613,0.0003259145446970532,4.332591177762901e-06,0.1852152177922306,0.12344421127628259,0.2687442136403262,0.0940752415342834,0.021311239208264506,0.0002912661687315787,9.292658172706048,6.252578982426152,13.310831398335981,4.520851281033153,0.995173695504235,0.014537021224318991,1.3296056831091574,1.046937123651011,-1.390258399631052,-0.2669634499092183,0.11942316790376876,0.0013736061576967524
0.03,0.005554344954279781,1.5737105781279042,-1.5619523258309667,0.002798310314984039,0.0006314549597729211,8.645301588083054e-06,0.2775382351396942,0.1862663797353305,0.40105688023205854,0.13727419808145774,0.030554041507586796,0.0004312710410320153,9.26767570374367,6.320181609615731,13.148920770316453,4.272865650489301,0.9123642424635534,0.013061999135702607,1.3568078412009643,0.9687620299032025,-1.4057656840218722,-0.26869119351131987,0.12105583547372065,0.0013634273603314437
0.04,0.009250251823028209,1.5762082296032967,-1.5566358047409479,0.004582654915576343,0.0010241901049010671,1.4262375886178801e-05,0.3695906868748427,0.24976514753924642,0.5316521090018858,0.17843446005923042,0.0392735145128146,0.0005617074298095748,9.235344101189677,6.381067505199836,12.960119076346789,4.0594489525909125,0.8547949500009935,0.011318167548234115,1.3912767276177282,0.8552066137582983,-1.4275943754209113,-0.27097564231250826,0.12303994975333199,0.0013464164716050493
0.05,0.013863354541762511,1.5793469197067111,-1.5500328811874229,0.006760723295145427,0.0015003537479028402,2.1098121343893748e-05,0.4613102718734302,0.31386901034144177,0.6602923553525006,0.21780683795690833,0.04761636430017731,0.0006835745457714948,9.19529628590603,6.432954198807699,12.745906111305663,3.87009929235348,0.8107687320810015,0.009462963121556811,1.4323684350784003,0.7059036611449105,-1.4559259381705592,-0.27383050893653305,0.1253073206985485,0.0013219313380740771
0.06,0.01938962308714351,1.5831317653768278,-1.54216540698555,0.009316339258210155,0.0020569383936066923,2.9071864083867812e-05,0.5526268545380999,0.37848456701166744,0.7867474201872953,0.25556159630647274,0.055658464570385216,0.0007973742739974066,9.146689170204434,6.4736897433666565,12.507062822578453,3.6968108652402236,0.77336888660912,0.0074859338268371545,1.47927093013251,0.5207376925719629,-1.4908277077708019,-0.277237862470299,0.12777587608845004,0.001289264062749963
0.07,0.025824216899633455,1.587566741669546,-1.5330575146656589,0.012234413723801293,0.002691275870641125,3.8103366441899574e-05,0.6434593812489947,0.44349762927183495,0.91078923198911,0.2918074465591139,0.0634337477034433,0.0009031502358031763,9.088397106899665,6.501264692754498,12.243886218663352,3.5335058458333037,0.7386006321468344,0.00538632078388801,1.5309934114222439,0.29990167845974547,-1.5322396755288228,-0.2811466727754549,0.13035061718621777,0.001247669949934928
0.08,0.03316135762872028,1.5926544866568202,-1.5227356310227296,0.015500476191730153,0.0034007947815844685,4.81102487997058e-05,0.7337140729086823,0.5087744987274125,1.0321883642929386,0.326606246792886,0.07095189109433435,0.0010006882357806225,9.019145730562911,6.513831074955309,11.956365635656667,3.375602339326065,0.7042597690301875,0.003184829666265543,1.5863581555170163,0.043951635583267645,-1.5799625629337464,-0.2854718917225971,0.1329249024490338,0.0011964035829982974
0.09,0.041394193142391275,1.5983961213540598,-1.5112285110494037,0.019100320655416864,0.004182886626700305,5.9006908748340376e-05,0.8232835513670996,0.5741634697239693,1.1507119973325848,0.359984446368671,0.0782091845115836,0.001089665994863458,8.937610047417845,6.509725756051406,11.644328196070083,3.219686228566161,0.6692405744501002,0.0009151941806226915,1.6439970297374358,-0.24614380760343302,-1.633648150669591,-0.29009430579581963,0.1353821277488805,0.0011347595009197722
0.1,0.05051466012240396,1.6047910872855613,-1.4985672801564114,0.023019741326041624,0.005034838921210838,7.070438556235447e-05,0.9120466980012681,0.6394965931501475,1.266123089299231,0.39194206706247614,0.0851952294510534,0.0011697476814014098,8.842490650188031,6.487495904498462,11.307559064890738,3.06326201273734,0.6331093348204249,-0.0013839456645658998,1.7023548366648928,-0.5689618596635126,-1.6927928318963144,-0.2948613744655232,0.1375978485654095,0.001062115526541038
0.11,0.06051335133639338,1.6118370044399446,-1.4847854745369562,0.02724433953352157,0.005953809643579887,8.311078304426586e-05,0.999869121398942,0.7045917154383269,1.3781805619455296,0.42245982074799465,0.09189707223690491,0.0012406397481911392,8.73257575132441,6.445924491289387,10.945900419501774,2.904563347132047,0.5958387430092955,-0.0036748237588550836,1.7597015023076539,-0.9225949473244057,-1.756735306892757,-0.2995892341779416,0.13944236225634754,0.0009779769539178553
0.12,0.07137939284956019,1.6195295523190756,-1.4699190712224355,0.031759387686164334,0.00693682703492408,9.613199570348351e-05,1.086604151316681,0.7692547879131071,1.4866403314520704,0.4515048152642766,0.09830173913441925,0.0013021212659217653,8.60679295336529,6.384053963077559,10.559331806965265,2.7424083766505447,0.5576400677138409,-0.005924337474843888,1.8141547895918382,-1.3046337142252646,-1.8246592155449037,-0.3040659963891763,0.140783737081495,0.0008820197548705052
0.13,0.08310033577832186,1.6278623765610103,-1.4540065009008676,0.03654973953917464,0.007980804638616418,0.00010967257121573154,1.1720942928761673,0.8332824241934643,1.5912570321567998,0.4790351853010309,0.10439776036923373,0.0013540575512248033,8.4642524286571,6.301206442947894,10.148033444634029,2.576088391572803,0.5188552187936537,-0.00810630736057405,1.8637146860988796,-1.7121659392210056,-1.895601345529041,-0.308056408287686,0.14149124006091973,0.000774130850410327
0.14,0.0956620665584184,1.6368270232390874,-1.4370886380147592,0.04159977850492811,0.009082565050135792,0.00012363660014082985,1.2561730780096536,0.8964646678077153,1.6917862886108306,0.5050038965753468,0.11017604115193752,0.0013964028925098316,8.304282049101078,6.196999055182429,9.712435043027776,2.405280987430743,0.47988603425576315,-0.010202553960636962,1.9063099012223985,-2.1417928218860594,-1.9684655706189744,-0.3113078062744806,0.1414390815480164,0.0006544434601270972
0.15,0.10904873904002992,1.64641290242852,-1.4192087639066495,0.04689339754915547,0.010238868060812095,0.0001379285631189911,1.3386672481611515,0.9585879189432498,1.787987410810971,0.5293619044227357,0.11563030106763027,0.0014291962978161244,8.126454123204795,6.071353284117013,9.253248028975964,2.2299811782902665,0.4411472309958313,-0.012203058288614343,1.9398559562600286,-2.589663994602321,-2.0420429640672095,-0.3135573515552629,0.14051035647621365,0.0005233654260201393
0.16,0.1232427309761214,1.6566072820159932,-1.4004125002810401,0.052414005505117475,0.011446440276783588,0.00015245409316611794,1.4193991936091492,1.0194379587473252,1.8796263625609368,0.5520607955962008,0.12075722159714933,0.0014525530047126845,7.930603712841636,5.924497585867859,8.7714857830382,2.0504452774493345,0.40303488130703613,-0.014105427590538788,1.9623234062092763,-3.0515306227909447,-2.1150372203127255,-0.31454020251136994,0.13860103853344946,0.0003815987464446523
0.17,0.13822462668760743,1.6673953120406375,-1.3807477113381896,0.05814455555093319,0.012702004206540433,0.00016712063020770865,1.4981895711486046,1.07880300246444,1.9664788942850466,0.5730550045815712,0.12555639297568452,0.0014666537041590712,7.716838123298953,5.756962845295038,8.268470104518487,1.867144024462128,0.3659054833291293,-0.01591386322128585,1.9718135993304888,-3.5228160027753552,-2.186095035885715,-0.31399840782793176,0.13562385488011144,0.0002301486392196578
0.18,0.15397322684406906,1.6787600791289012,-1.3602643742195144,0.0640675922238153,0.014002305430186943,0.0001818379590641096,1.5748600156461632,1.136476708826364,2.0483337118675187,0.5923036672882116,0.130030122364651,0.0014717328856400948,7.48553767480015,5.569570630186248,7.745825908755791,1.68072222538175,0.33006255409370766,-0.01763780485560229,1.9666384307412283,-3.9987014814819926,-2.253840236790965,-0.31169009893713717,0.13151185961124184,7.03209829905412e-05
0.19,0.170465585449947,1.690682689858767,-1.3390144185126849,0.07016531377413009,0.015344136904859433,0.00019651863212416767,1.6492358605877948,1.1922610729865775,2.124995570682942,0.6097721550314786,0.1341831474672491,0.001468067306005806,7.237348082334633,5.363414548640378,7.205465190943089,1.4919630671158934,0.29574875613055696,-0.019290403130752587,1.9453997172346016,-4.474224784449628,-2.3169102890962723,-0.30739854220559065,0.12622152196203215,-9.629250880797404e-05
0.2,0.18767707329985955,1.703142381194531,-1.317051536585224,0.07641964695571184,0.016724359788793358,0.00021107828486769173,1.721148784991256,1.2459691335764067,2.196288192746077,0.6254333181581753,0.13802228839339256,0.0014559652743524067,6.973165100904914,5.139835335408634,6.649561646212611,1.301755870459484,0.2631421912509424,-0.02088694712765804,1.9070632928637283,-4.9443870276891175,-2.373993576812404,-0.3009405776627979,0.11973515718076624,-0.0002678413910077124
0.21,0.20558146639902208,1.716116655503568,-1.2944309674097576,0.08281233155604407,0.018139920418607253,0.00022543585689398072,1.7904393099162539,1.2974274309037108,2.262056917546639,0.6392684600332232,0.1415560629813894,0.0014357572026289002,6.694112380429323,4.900390562239652,6.080517513335143,1.111066513291668,0.23235586070781977,-0.02244334578579954,1.8510227700193442,-5.404264110619037,-2.4238657039176896,-0.29217397732188405,0.112062552563611,-0.0004422551997192508
0.22,0.22415105716658232,1.7295814371276588,-1.2712092572913807,0.08932501212829032,0.019587863271759844,0.0002395137337150249,1.8569590767560227,1.3464781624090643,2.3221710118376846,0.6512680572246246,0.14479428531525906,0.0014077876821044178,6.40151370435501,4.646820073623733,5.500924316545755,0.9209100986704293,0.20343951627540235,-0.023974735111293555,1.7771481861996632,-5.8491178689355205,-2.465423074001703,-0.2810032997631318,0.10324167727364676,-0.000617292438495147
0.23,0.24335678567566205,1.7435112470538008,-1.2474440014948587,0.09593933452412354,0.02106533990139401,0.00025323782572200424,1.9205728509079731,1.3929809926141987,2.376525579652197,0.6614322395833225,0.14774766296341654,0.0013724092006979372,6.0968609439296175,4.381008385034368,4.91351920531602,0.7323256833390381,0.1763832792464548,-0.025494258026223626,1.685815473543388,-6.274502335310736,-2.497712126595782,-0.2673838968405037,0.09333840990289634,-0.0007905978918247897
0.24,0.2631683877510781,1.7578793919262083,-1.223193571192185,0.10263704496074733,0.02256961395192471,0.0002665376008090546,1.9811602075416017,1.4368144872407518,2.4250430302673527,0.6697710436623785,0.1504274050530701,0.0013299775087050332,5.781779140071874,4.104945342444716,4.321138571523135,0.5463530380653623,0.1511225206623159,-0.027012042336036046,1.577913807472095,-6.676360711463776,-2.519952851531823,-0.25132383632321587,0.0824452690139936,-0.0009597658210910867
0.25,0.28355455645309036,1.7726581634683092,-1.1985168304100235,0.10940008949937007,0.0240980624565891,0.0002793460864557233,2.0386168702012286,1.4778771542100908,2.467674078216147,0.6763044538622739,0.1528448504664387,0.00128084856466687,5.457990127471521,3.820686333964553,3.7266705109722524,0.3640115021075552,0.12754359478875088,-0.028534385766696424,1.4548293246802877,-7.05110918302795,-2.5315555496956677,-0.23288363397958983,0.0706791852465584,-0.001122406251140916
0.26,0.3044831133241155,1.7878190443399535,-1.1734728477618608,0.11621071197196839,0.025648173687622653,0.00029159985588369624,2.092855687102513,1.5160880871644378,2.5043982648162855,0.6810622472598328,0.15501112310335532,0.0012253769427972938,5.127276049601035,3.5303132651374263,3.133007844617646,0.18628102610482422,0.10549010684215432,-0.030063145247078094,1.3184053221430743,-7.395704431429308,-2.5321301847852697,-0.2121738172906714,0.05817840493811298,-0.001276211380358131
0.27,0.325921185759096,1.8033329165327705,-1.1481206076863943,0.1230515485715905,0.027217541880212158,0.0003032390114056036,2.1438072434980504,1.5513872192816978,2.535224007546634,0.6840836599622105,0.15693681925895034,0.001163915552190732,4.791443986378471,3.235897393792193,2.5430029714179767,0.014085520909398852,0.08476947761369047,-0.03159532087893524,1.1708807033437452,-7.7076926496974805,-2.521488157775483,-0.18935048762036236,0.04509866064822902,-0.001419019175207181
0.28,0.34783538696680766,1.8191702685938085,-1.1225187257246756,0.12990571751764893,0.028803859187132203,0.0003142071764168203,2.1914201207711637,1.5837352061037944,2.5601881961718713,0.6854168946058445,0.15863173069200437,0.0010968165011216676,4.452292747947821,2.9394649475083825,1.959426055819748,-0.1517214061620269,0.06515964117402007,-0.03312282204164152,1.0148099690379335,-7.985238840898289,-2.4996367259765315,-0.16460915432481626,0.03160878032325252,-0.0015488714062418165
0.29,0.37019199520220625,1.8353013982470885,-1.0967251720313895,0.13675690241980043,0.0304049052459676,0.0003244515057247931,2.235660823539861,1.6131129653280036,2.5793553693285993,0.68511849021515,0.16010460588353959,0.001024432930797286,4.11158269765757,2.642966266289884,1.3849276658973553,-0.3103682598330426,0.046415775807336246,-0.03463240354736108,0.8529693107522818,-8.22713623764574,-2.4667667209360253,-0.1381772163743061,0.01788593166800158,-0.0016640637565674254
0.3,0.3929571292500172,1.8516966073362715,-1.0707970068681407,0.14358942818839565,0.0320185347586939,0.00033392272211135845,2.2765134047810944,1.6395209089183034,2.5928165163248704,0.6832525768595235,0.1613629512726299,0.0009471216386565339,3.7710092597737455,2.3482490241417158,0.822006435367999,-0.4611749760972268,0.02827702100190521,-0.03610576219151185,0.6882542408234595,-8.432796688400153,-2.4232346028102305,-0.11030554249893351,0.004110710232617845,-0.0017631861406424828
0.31,0.4160969175063962,1.8683263864202082,-1.0447901313219008,0.1503883285700295,0.03364266349727405,0.0003425751852016022,2.313978825637901,1.6629779083936593,2.600687554623994,0.679890038163386,0.162412873858015,0.0008652463090243704,3.432180567213944,2.057035885904146,0.2729820712004565,-0.6035597796178354,0.01047317298260353,-0.037519787611343766,0.5235746164839515,-8.602223705564247,-2.36954014042798,-0.08125963098072617,-0.009537721200883788,-0.0018451519566182962
0.32,0.43957765841853474,1.8851615867969722,-1.0187590559549142,0.1571394046169274,0.03527525316135367,0.000350366996855225,2.3480740912138516,1.6835200376764001,2.6031075366986585,0.6751076046897888,0.16325896640796192,0.0007791811653622823,3.096599484072787,1.7709067691537532,-0.2600262956748396,-0.7370436622496329,-0.007268622888735976,-0.03884696493609782,0.36175285984845273,-8.735970555369688,-2.30630116295933,-0.051310827037606685,-0.022886247763009016,-0.0019092156219001305
0.33,0.46336597047937855,1.9021735781924005,-0.9927566895554977,0.16382927362238606,0.036914295526817104,0.00035726014538298536,2.3788312060843806,1.7011991395428345,2.6002366399416563,0.6689869005458642,0.16390423654634315,0.0006893148527760358,2.76565006768283,1.491285703783142,-0.7751163664619503,-0.8612526261460034,-0.02521715410573755,-0.04005592980092315,0.20543068389459673,-8.835086225434273,-2.2342268283407987,-0.020728027583447627,-0.035772001317932185,-0.0019549783508001264
0.34,0.487428930418995,1.919334390808603,-0.9668341496176855,0.17044540826658455,0.03855779633778942,0.0003632206888814466,2.406295993961646,1.7160812616202323,2.5922539937812115,0.6616134644198497,0.16435008109723148,0.0005960543498461266,2.440588350233596,1.2194321346553187,-1.270613693909502,-0.975917864825266,-0.04363037249787638,-0.041112177811388984,0.05698876449847956,-8.901052382132184,-2.1540907900090898,0.010229762613734879,-0.048046003889613983,-0.001982382701986422
0.35000000000000003,0.5117341986669104,1.9366168408716598,-0.9410405956520792,0.17697616591411192,0.040203759409552176,0.00036821897585258875,2.4305268247915404,1.728245006305681,2.5793553965606377,0.6530757647527357,0.16459630717627585,0.0004998286971142159,2.1225371818088528,0.956436389455169,-1.745077675641592,-1.0808740824515635,-0.06274856918752292,-0.04197892999620867,-0.08151733309879983,-8.935714493292355,-2.066705478414205,0.041319748143938434,-0.05957615327703237,-0.0019916969069633016
0.36,0.5362501315669164,1.9539946392335432,-0.9154230859261174,0.18341080818395683,0.04185017142474169,0.0003722298990189501,2.451593290000597,1.7377798361883579,2.5617509725961805,0.6434642269844922,0.16464120151895195,0.0004010923166361359,1.812484760134255,0.7032189408857888,-2.1973028776827426,-1.176056163070795,-0.08278751908329429,-0.04261815276481373,-0.20840294339395726,-8.941210184029297,-1.9728985023993297,0.07232035303834766,-0.07024948745293066,-0.0019834903732880997
0.37,0.5609458801955401,1.9714424829618957,-0.8900264577637311,0.1897395110726732,0.04349498791812045,0.0003752331758749373,2.4695748628623746,1.7447843728352554,2.5396628162386286,0.6328702888716367,0.1644816493378752,0.0003003276855987211,1.5112863840788568,0.46053302622781933,-2.6263161610310313,-1.26149440823278,-0.1039316645752324,-0.04299172494985104,-0.32238107642508296,-8.919897634080849,-1.873491926388734,0.10303483903950167,-0.07997370285844053,-0.0019586020218239552
0.38,0.5857914759585467,1.9889361301861006,-0.864893231113521,0.19595336605077263,0.04513612095326706,0.0003772136470786682,2.4845595763006636,1.7493647224204771,2.513322665021013,0.6213854978099415,0.16411330351466114,0.00019804712037308853,1.219668905521786,0.2289701461128919,-3.0313701596820217,-1.3373085635314155,-0.12632746033298048,-0.04306273589066234,-0.4225706654291683,-8.87428645176309,-1.7692849151461085,0.13329353696664198,-0.08867793738705557,-0.0019181032636002462
0.39,0.6107579034100479,2.0064524587550054,-0.8400635347287071,0.2020443726705444,0.04677142899408051,0.00037816158136848033,2.4966427451501145,1.751632856890473,2.4829696384813946,0.609100661977177,0.16353080408134507,9.479342898121384e-05,0.9382373206576525,0.008967945713933917,-3.4119336925024837,-1.4037008519448388,-0.1500770581632831,-0.04279688736701581,-0.5084878097605947,-8.806973013770936,-1.6610399802861673,0.16295477348498316,-0.09631285980407554,-0.001863257455763258
0.4,0.6358171609525003,2.0239695094988845,-0.8155750539945328,0.2080054233205378,0.04839870946088445,0.00037807297340483983,2.5059257542452382,1.751705074387924,2.448848073417428,0.596105064999342,0.1627280466803937,-8.860796364048578e-06,0.667482921682017,-0.19918001739887406,-3.767679693893112,-1.460948224349,-0.17523256741792315,-0.042163959422375386,-0.5800223417771031,-8.720581781631756,-1.5494728304563736,0.1919046365332184,-0.10285013247613614,-0.0017954776111496636
0.41000000000000003,0.6609423102309568,2.0414665150759093,-0.7914629991898231,0.21383028083850766,0.05001569443079567,0.0003769498189473577,2.5125149278456536,1.7497005577024842,2.4112054804709655,0.5824857517969863,0.16169849699112235,-0.00011231544574821118,0.4077924497519528,-0.39531309698544986,-4.098471228747877,-1.5093940262464187,-0.20179117669540236,-0.04113928653060972,-0.6374025840979736,-8.617713629591929,-1.4352456335745005,0.22005576500002755,-0.10828133262079771,-0.0017162839918618434
0.42,0.6861075151333095,2.058923915523325,-0.7677600927770621,0.2195135497517926,0.05162004989080805,0.00037480035026247376,2.516520490235268,1.745740044741607,2.370290641276096,0.5683268913284932,0.1604355460012376,-0.0002149468684883918,0.15945771602372985,-0.5793914211122204,-4.404346123837381,-1.5494392655507276,-0.2296914588211333,-0.03970517799969486,-0.6811514379107493,-8.500901773152318,-1.3189633522659006,0.24734537182875238,-0.11261642909751661,-0.0016272630138301075
0.43,0.7112880713525602,2.0763233617288193,-0.7444965741763303,0.2250506419532359,0.053209378876441595,0.00037163921381727616,2.51805562192507,1.7399446205494218,2.3263518600731876,0.5537092201443313,0.15893289856335488,-0.00031611364451976186,-0.07731478864338337,-0.7514832017370691,-4.685500703937469,-1.5815336508164393,-0.2588111966054103,-0.037852206209862516,-0.712036971287614,-8.372575492464017,-1.201172714696174,0.27373271610513583,-0.11588191713741432,-0.0015300286485360217
0.44,0.7364604274628765,2.0936477080922464,-0.7217002203883365,0.23043773764338316,0.05478122872689923,0.00036748757234419905,2.5172356110316283,1.7324346363427021,2.279635378799385,0.5387095690147264,0.1571849850457637,-0.00041516414730771365,-0.30239470532502144,-0.9117518513396585,-4.942273070668631,-1.6061665536444654,-0.28896705455984295,-0.0355802805511608,-0.7310204992753186,-8.235031513067943,-1.0823633300049056,0.29919623152423414,-0.1181187131846696,-0.0014261872493660727
0.45,0.7616021984155091,2.1108809956667036,-0.6993963807855524,0.2356717423773497,0.056333102559506895,0.000362373114422843,2.514177095263255,1.7233287574457135,2.230383960278404,0.5234004733966542,0.1551873832607668,-0.0005114457921356086,-0.5157193665706962,-1.0604432162804136,-5.175126307533123,-1.6238580340507482,-0.31991637655777194,-0.03289942513428279,-0.7392048133200684,-8.090412643798166,-0.9629704449024716,0.3237304992894843,-0.11937990713038407,-0.0013173064705637673
0.46,0.7866921722822445,2.128008427055979,-0.67760802438265,0.24075024104894532,0.05786247491428516,0.0003563299569271201,2.5089973866735376,1.7127431389275385,2.1788356402902473,0.5078498671595619,0.15293723547782664,-0.0006043157495722901,-0.7172863368052237,-1.1978731843871624,-5.384631938375287,-1.63515005382245,-0.351361308870501,-0.029830185936025266,-0.7377847786398339,-7.9406930781654825,-0.8433788581233027,0.3473432265224247,-0.1197284607293314,-0.0012048887001655266
0.47000000000000003,0.8117103109727121,2.145016334307875,-0.6563557979224312,0.24567144962677734,0.05936681134907399,0.00034939842905372197,2.501813869046749,1.7007907251896133,2.1252226460218795,0.4921208577832021,0.15043364347888322,-0.0006931527873398128,-0.9071470677776245,-1.3244158726569322,-5.571453910401943,-1.6405979905586392,-0.3829553334343303,-0.026403608653261523,-0.7280020247603965,-7.78766963689864,-0.7239275538988935,0.37005236005307773,-0.11923492998765518,-0.00109034920473689
0.48,0.836637745537882,2.1618921409849836,-0.6356580931656283,0.25043416542840946,0.06084359158476033,0.0003416247311024982,2.492743456516993,1.6875806677108214,2.069770475680291,0.4762715801632106,0.1476780235686342,-0.0007773697951223742,-1.0854017048227573,-1.440492551548119,-5.736333318622925,-1.6407625540104966,-0.41431215326722093,-0.022660751693753145,-0.7111049507981928,-7.632958158218401,-0.6049146760566971,0.39188343299751016,-0.11797527681421982,-0.0009749989897166144
0.49,0.8614567665557571,2.178624319521078,-0.6155311218469217,0.25503771668040753,0.06229033561936609,0.0003330604665286172,2.481902101787519,1.6732178536094398,2.012697131870654,0.4603551251998082,0.14467440346057528,-0.0008564264573880976,-1.2521949875354945,-1.546561416384392,-5.880074037358803,-1.636202196184163,-0.4450167109379817,-0.018651728188743055,-0.6883147888247851,-7.47799421975559,-0.4866025331674916,0.41286721021336714,-0.11602882213546692,-0.0008600322181569292
0.5,0.8861508099861369,2.195202344886977,-0.5959889968501924,0.2594819120653476,0.06370463206133518,0.0003237620517254177,2.469404343037988,1.6578025365898486,1.9542124996729395,0.4444195384940078,0.14142964419690907,-0.0009298414803199551,-1.4077131083972036,-1.6431082748383061,-6.00352937725873,-1.6274660969063959,-0.4746379560386904,-0.014434304063906,-0.6607980417421089,-7.324037392001519,-0.3692223959671931,0.43303767031967894,-0.11347637972237422,-0.0007465179034413256
0.51,0.9107044387876427,2.2116166454985997,-0.5770438182586962,0.2637669909026502,0.06508416778931847,0.0003137900141292979,2.455362880150581,1.6414300611622663,1.894517859149612,0.4285078837302626,0.13795357279832876,-0.0009972037596119774,-1.5521813302046321,-1.7306381829524453,-6.107589843729453,-1.6150877965995356,-0.5027428254651891,-0.010072112900124996,-0.6296452529328742,-7.1721782681415736,-0.25297891611079576,0.4524303376109734,-0.11039859773882173,-0.0006353954970169082
0.52,0.935103320518226,2.2278585522056473,-0.5587057630463157,0.26789357454950563,0.06642675794049836,0.00030320819510892355,2.439888173058322,1.6241906707047398,1.8338055212380502,0.4126583646855432,0.13425901511798938,-0.001058181902037435,-1.6858621219193375,-1.809668031080796,-6.193172035229314,-1.5995795372738577,-0.5289107782265567,-0.005632578817467537,-0.5958557813297225,-7.02334758015292,-0.13805405667236592,0.47108095746541134,-0.10687452389923686,-0.0005274739277784822
0.53,0.959334201094078,2.2439202461048824,-0.5409831772905815,0.2718626195422861,0.06773037517241069,0.00029208287924479013,2.4230880575851943,1.6061693899234994,1.7722585755734142,0.3969044992780462,0.13036172319123301,-0.0011125315864133397,-1.8090535551428075,-1.8807200556479715,-6.261208687751711,-1.5814273608268117,-0.5527481498774649,-0.0011846623583091076,-0.5603280481697368,-6.8783267883448795,-0.024610477522922225,0.4890244938601853,-0.10298040037719776,-0.0004234336121353847
0.54,0.9833848748625671,2.2597947058299295,-0.5238826699035969,0.2756753729289114,0.0689931771413704,0.0002804818755982784,2.405067376848917,1.5874459725046903,1.7100507386984662,0.3812753386625318,0.12628019689597164,-0.0011601003646511735,-1.9220877100759415,-1.9443162326903412,-6.312639845087681,-1.561087000383612,-0.5739015716235882,0.0032034414810482303,-0.5238545858894181,-6.737759614592025,0.0872056382249985,0.506294417135199,-0.09878868636744947,-0.0003238309392340873
0.55,1.007244151151331,2.275475654881752,-0.5074092069906598,0.27933333016994716,0.07021353119671525,0.00026847357908015284,2.385927628876405,1.568094905182279,1.6473462912937067,0.36579572410357586,0.12203540553448486,-0.001200829651812555,-2.0253288685397064,-2.0009734945337243,-6.348405113054382,-1.5389805856262484,-0.5920697407199658,0.007466521178800645,-0.48712114703782255,-6.602164073214335,0.19726229724435496,0.5229222437212716,-0.09436729950335496,-0.00022910474047278492
0.56,1.030901817484414,2.290957509481963,-0.4915662060561349,0.2828381959121668,0.07139003540200616,0.00025612604085958294,2.365766633308295,1.5481854600210982,1.5843000934524967,0.3504865742219653,0.11765042052909094,-0.0012347538220569886,-2.119171318345099,-2.0511997013025196,-6.369436939598485,-1.5154941671433733,-0.6070129297470448,0.011544359559647555,-0.4507091113175141,-6.471944633949011,0.3054399050113241,0.538937286566184,-0.08977906212713917,-0.00013958427262639848
0.5700000000000001,1.0543485997020232,2.306235327355783,-0.47635562938031206,0.28619184786435636,0.0725215351551139,0.0002435060758647016,2.3446782217609203,1.5277817873820174,1.521057667582283,0.3353651952189578,0.11314997531077475,-0.0012619964994881358,-2.204036652330505,-2.0954902937322726,-6.376654851224308,-1.490976048256762,-0.618559773498744,0.015383433985069028,-0.4151004506855156,-6.347404226053794,0.41162991160666584,0.5543665747866171,-0.08508133460590428,-5.549827613417975e-05
0.58,1.0775761192765785,2.321304757783332,-0.4617780759884288,0.2893963039327539,0.07360713487766384,0.00023067843293252363,2.322751957455536,1.5069430427549113,1.4577553391883293,0.3204456068397519,0.10855997225499234,-0.0012827642932177967,-2.280370510164814,-2.1343255523602673,-6.370960569115265,-1.4657358962437925,-0.6266110583850062,0.018938229657435357,-0.3806845648445141,-6.228755859602826,0.5157338264580572,0.5692349029850889,-0.08032581535265265,2.3015288799182657e-05
0.59,1.1005768481773017,2.336161993197106,-0.44783287172294495,0.29245369270412147,0.07464620446648211,0.00021770504932841736,2.300072890072328,1.4857235413773906,1.394520426548384,0.3057388771367574,0.10390695888182748,-0.001297338360410626,-2.348638774884226,-2.168168389913275,-6.3532339250879115,-1.4400445891216833,-0.6311404416013366,0.02217212194611015,-0.347766372317009,-6.116133698625775,0.6176625313369304,0.5835649740820065,-0.07555848579873342,9.589917856144559e-05
0.6,1.1233440616919965,2.350803722549835,-0.43451815701216306,0.2953662272993675,0.07563838042984836,0.00020464440653634208,2.276721351469469,1.4641729352729096,1.3314714710781868,0.2912534595246022,0.09921759633662518,-0.0013060642792075286,-2.4093232931310298,-2.197462607882577,-6.324329497535224,-1.41413473993118,-0.6321922258737889,0.025057816830806656,-0.3165751268482819,-6.009603470683029,0.7173358225844909,0.5973776038792633,-0.07081967811278472,0.00016316677476789694
0.61,1.1458717896621509,2.365227086630011,-0.4218309720022942,0.2981361825610277,0.07658356185396156,0.00019155099884193326,2.2527727970154374,1.4423364080176047,1.2687185009868878,0.2769955261660201,0.09451814241132123,-0.0013093407694408819,-2.4629172335637683,-2.222631554156724,-6.2850738901130905,-1.3882018284589606,-0.6298764919934441,0.02757736935854707,-0.28727351790457367,-5.909172139023491,0.8146821185035718,0.6106919604338981,-0.06614424380949606,0.00022489221346001803
0.62,1.1681547666216656,2.379429635461659,-0.4097673387862689,0.3007658754847227,0.07748190154611197,0.00017847492072028232,2.2282976959514715,1.4202548831647552,1.2063633216025282,0.2629692923695016,0.08983396921504032,-0.001307607812165092,-2.5099202290127733,-2.244077125503521,-6.236263580443296,-1.3624058610333574,-0.6243620310652771,0.0297218256591254,-0.2599667018904166,-5.8147967972230195,0.9096382750398763,0.6235258163080653,-0.06156180238037482,0.00028120093253803735
0.63,1.1901883813475755,2.393409287889751,-0.39832234052135873,0.3032576487586383,0.07833379286945664,0.0001654615737905783,2.203361472590993,1.3979652428092173,1.1444998264910178,0.24917732739156004,0.08518913233446763,-0.0013013346929704032,-2.550833463611028,-2.262179066048077,-6.178663271892362,-1.336873472773469,-0.6158676122063751,0.031490552738109495,-0.23471099328795775,-5.7263927729384445,1.002149461363427,0.6358957965914103,-0.05709705055603147,0.00033226078706295227
0.64,1.2119686263319729,2.407164293422326,-0.387490197279521,0.305613857236562,0.07913985291242337,0.00015255148942988514,2.1780244984397443,1.3755005532574924,1.0832143241837748,0.23562084779236442,0.08060600429667196,-0.0012910084360693154,-2.586154866998703,-2.277294520175685,-6.113004687955408,-1.3117003835434513,-0.6046521659838264,0.03289033123147872,-0.2115220194629649,-5.64384094802196,1.0921690559851882,0.6478176100602737,-0.05277011463333253,0.00037827383792958253
0.65,1.2334920476683424,2.420693196374156,-0.37726433851990965,0.30783685713923414,0.07990090271988261,0.0001397802592742548,2.1523421336369473,1.3528902951830066,1.0225858759611373,0.22229999026721872,0.0761049807459243,-0.0012771230155630329,-2.6163745658094046,-2.2897578051037963,-6.039985755421288,-1.2869541187869267,-0.5910044613591974,0.03393428973903513,-0.19038220778431275,-5.5669943176343235,1.1796585330000977,0.6593062548115101,-0.04859693034204135,0.0004194688801345833
0.66,1.2547556958143484,2.433994802334108,-0.3676374721128359,0.30992899775566574,0.08061794535331025,0.00012717856290245466,2.126364814600609,1.330160595995177,0.9626866407073758,0.20921406164315848,0.07170426334276438,-0.0012601696371800145,-2.6419707209391228,-2.2998803744302974,-5.960270128916651,-1.26267690913099,-0.5752328109259426,0.0346407563069555,-0.17124752830061607,-5.495683822049304,1.2645873164829542,0.6703761931131976,-0.04458963687044759,0.0004560947430424387
0.67,1.275757077649363,2.4470681469585287,-0.3586016498792438,0.31189261540034185,0.08129214254638714,0.00011477228002718581,2.1001381835014636,1.3073344624420908,0.9035822233592039,0.1963617644676143,0.06741971930768867,-0.0012406282875268852,-2.6634058509413507,-2.307950949110045,-5.874487015337718,-1.2388886877440655,-0.557655265418719,0.0350320945393993,-0.15405345956468422,-5.429723492363064,1.346932588661343,0.6810414930244717,-0.04075697382113582,0.0004884143669431176
0.68,1.2964941101918175,2.459912467075617,-0.35014832964007814,0.3137300293734035,0.08192479068645624,0.0001025826734624531,2.0737032542454448,1.284432011708833,0.8453320239165699,0.18374139730616657,0.06326481400690964,-0.001218960656473271,-2.6811237106294703,-2.3142357964668068,-5.783231261887706,-1.215590111476864,-0.5385906648045271,0.03513358043657014,-0.13872017986948032,-5.368914956025997,1.4266790440547885,0.6913159365638177,-0.037104671947597985,0.000516699637757222
0.6900000000000001,1.316965076282162,2.472527174070377,-0.3422684337962999,0.31544353966834326,0.08251729678816003,9.062662888701277e-05,2.0470966090344613,1.2614706994760172,0.7879895843778258,0.1713510294939747,0.05925061017037929,-0.0011956044575440327,-2.6955467625814875,-2.3189791410324214,-5.687063675865659,-1.1927655402684891,-0.5183508106229371,0.03497236302731303,-0.12515701207884372,-5.313051350616775,1.5038185872085599,0.7012130958883579,-0.033635830469221736,0.0005412269446800995
0.7000000000000001,1.3371685824750648,2.4849118295061277,-0.3349524044832222,0.3170354261747432,0.0830711550412931,7.891693783933804e-05,2.0203506192902765,1.238465543575056,0.7316029313077663,0.1591886506399917,0.0553858253133078,-0.0011709691047674736,-2.707074250118002,-2.3224036932943704,-5.586511547989837,-1.1703859186842838,-0.49723392225085794,0.034576538630846004,-0.11326616852002014,-5.261920695095471,1.5783499759528512,0.7107463801428282,-0.030351275533193,0.0005622734133853554
0.71,1.3571035193224086,2.497066122926393,-0.32819025536268664,0.3185079491313213,0.08358792441825873,6.746261130020697e-05,1.9934936847343763,1.2154293420265307,0.676214912053559,0.14725229565781336,0.05167693769656311,-0.001145432653913107,-2.71608085515203,-2.3247112839556756,-5.48206935394117,-1.1484115132874422,-0.4755194460269965,0.03397435626101587,-0.10294585425059465,-5.215308767328614,1.650278415336043,0.7199290564133823,-0.027249895960133812,0.0005801137595208225
0.72,1.3767690241691168,2.508989851770221,-0.32197162013371605,0.3198633505962105,0.08406920772469786,5.6269212487046424e-05,1.966550484670836,1.1923728843828516,0.6218635228970566,0.13554014648891935,0.04812833064391417,-0.0011193398813160547,-2.72291590407934,-2.3260835922128265,-5.374199611081441,-1.126794469400057,-0.4534642059799898,0.03319356105347626,-0.09409279360840199,-5.1730015353154934,1.719615109610971,0.7287742486491313,-0.024328953763113705,0.0005950177029535649
0.73,1.3961644465287628,2.520682903324441,-0.3162857978569314,0.3211038567161453,0.08451663237599111,4.5339198956052805e-05,1.939542235964606,1.169305155421984,0.5685822276784653,0.12405061199347639,0.044742465129324865,-0.001093001353099362,-2.7279030699575664,-2.3266829569968137,-5.263333869049353,-1.1054811603537669,-0.4312998211861907,0.032260873996974485,-0.08660424741674022,-5.134787187532971,1.786376781020766,0.737294918563522,-0.021584368066088284,0.0006072478818688432
0.74,1.4152893160566442,2.5321452386280368,-0.31112179520042116,0.3222316805932815,0.08493183308726472,3.467226566161716e-05,1.9124869527881445,1.146233530359586,0.5164002656510263,0.11278238771362384,0.041520071127362015,-0.0010666933294435643,-2.7313405094803413,-2.326653260251716,-5.149873814299403,-1.0844143112508107,-0.4092312684582671,0.03120159985685496,-0.08037958755478915,-5.1004578053673075,1.8505851647749223,0.7455038324637151,-0.01901097197612515,0.0006170582067448349
0.75,1.434143313095364,2.5433768782366895,-0.3064683657250881,0.323249025566977,0.08531643657876167,2.4265682161332595e-05,1.8853997038719716,1.123163960865268,0.46534294753330235,0.1017344973695464,0.0384603491496947,-0.0010406583500284562,-2.733501368193224,-2.326120871279267,-5.034192469745148,-1.0635348873463766,-0.3874364393947167,0.03003935085383712,-0.07532149268733998,-5.0698107178800695,1.9122664896683248,0.7534135177374799,-0.016602742699000226,0.0006246925968107604
0.76,1.4527262417322946,2.554377889749553,-0.30231404633590975,0.32415808874734264,0.08567204832418601,1.411461860819067e-05,1.8582928636930554,1.1001011512863508,0.4154319389178369,0.09090631803656431,0.035561174542433266,-0.0010151063553141923,-2.7346345863149684,-2.325195641074919,-4.916635471600297,-1.0427837442963934,-0.36606652594282196,0.02879587113789983,-0.07133682451219375,-5.042649576286622,1.9714509534120854,0.7610362124041042,-0.014353005749334515,0.0006303840453308334
0.77,1.4710380052796008,2.565148376995552,-0.29864719103216536,0.324961064657141,0.08600024130798041,4.212456492242154e-06,1.8311763547306268,1.0770487245999085,0.3666855303744414,0.08029759097983234,0.03281929837943967,-0.0009902162115948516,-2.734965939587162,-2.3239719355094697,-4.797522406381926,-1.0221030435633107,-0.3452470660120146,0.027490946094709923,-0.06833723852146442,-5.018785182605281,2.028172201038724,0.768383810749909,-0.012254614516177043,0.0006343539645019716
0.78,1.4890785840654281,2.575688470772858,-0.2954560020946225,0.3256601488581509,0.0863025467086051,-5.4489187445341126e-06,1.804057878582732,1.054009377730624,0.3191188937542843,0.06990842010099328,0.03023054006246855,-0.0009661375236776266,-2.7346992539726225,-2.3225296962368405,-4.677148191901363,-1.0014374412522073,-0.32507948751547544,0.026142380639206056,-0.06623957745439658,-4.998036104034104,2.082466813824048,0.7754678076534242,-0.010300106725453478,0.0006368117655604173
0.79,1.5068480154089035,2.585998321032729,-0.29272855885104343,0.3262575414570217,0.08658044638819189,-1.4878845104866625e-05,1.7769431343475406,1.0309850259870965,0.27274432435790846,0.05973925988707679,0.027789967958679287,-0.0009429926360332513,-2.734017738975947,-2.320935518375797,-4.555784486980004,-0.980735062540699,-0.3056430027616148,0.024766031599900984,-0.06496608969686435,-4.980229101783636,2.1343738151248512,0.7822992437853775,-0.008481839514011885,0.0006379546345900367
0.8,1.524346375641083,2.5960780903975422,-0.2904528441632804,0.3267554504035725,0.0868353670433879,-2.4087632505734313e-05,1.749836023217955,1.0079769364813327,0.22757146877630777,0.04979089465508551,0.025492065519601724,-0.0009208787400867688,-2.7330853912119215,-2.31924373434053,-4.433681115605788,-0.9599482767499552,-0.2869967228694088,0.023375880743597185,-0.06444450911467794,-4.965199400375786,2.1839341984390166,0.7888886534629315,-0.006792104916785685,0.0006379674693147451
0.81,1.5415737640281788,2.6059279489025795,-0.28861676877978965,0.32715609451121647,0.08706867585640864,-3.308633271744038e-05,1.7227388387095768,0.9849858505037464,0.1836075383490749,0.04006441076439801,0.023330881302073725,-0.0008998700211706062,-2.732048427042555,-2.3174974936841317,-4.311067492309306,-0.9390342900406878,-0.26918188172976976,0.021984136744190266,-0.06460802736936151,-4.95279082083767,2.2311904819094166,0.7952460165586487,-0.005223227587503024,0.0006370229467011013
0.8200000000000001,1.558530288451569,2.615548069851855,-0.28720819369671974,0.3274617061445287,0.08728167747776976,-4.188653064724833e-05,1.6956524423390207,0.9620120949275653,0.1408575083069889,0.030561163331221178,0.02130016213611229,-0.000880019792980795,-2.7310367102613786,-2.3157298294671236,-4.188154036674588,-0.9179555738345613,-0.25222407931649493,0.02060135621231822,-0.0653951847720719,-4.942855798794078,2.276186292457872,0.801380715520509,-0.003767646540866201,0.0006352816954089276
0.8300000000000001,1.575216052700507,2.624938626679962,-0.28621495066894054,0.32767453353284537,0.08747561217131751,-5.050015644673973e-05,1.6685764248937958,0.9390556828106812,0.09932430277792077,0.021282738831668147,0.019393469354775678,-0.0008613625799491404,-2.730165147535634,-2.313964702434456,-4.065133566102097,-0.8966801474616997,-0.2361354736250656,0.019236575710493323,-0.06674970123542232,-4.935255306200762,2.318965981778208,0.8073014982538699,-0.002417982634001012,0.0006328925509540918
0.84,1.591631145237426,2.6340997907144477,-0.2856248610095978,0.3277968426811313,0.0876516549565549,-5.893931763311022e-05,1.641509253691898,0.9161164034485928,0.05900896593427383,0.012230914828592445,0.017604278523739542,-0.0008439161186370491,-2.7295350305357338,-2.3122180151692424,-3.9421826571844805,-0.8751817333400158,-0.22091686835847812,0.017897448336971877,-0.06862026491893032,-4.92985869337112,2.359574275557754,0.8130164473511325,-0.0011670934091296344,0.0006299928748758319
0.85,1.6077756293016743,2.64303172973653,-0.2854257528131255,0.3278309188602019,0.08781091559152031,-6.721615021465788e-05,1.6144484064248217,0.8931939022082163,0.01991081964723042,0.0034076179070607737,0.015926063496540573,-0.0008276832581547661,-2.729235309175857,-2.310498589349338,-3.8194629673178784,-0.8534398023401337,-0.2065596591843193,0.016590379946875233,-0.07096029271624081,-4.9265434660288365,2.3980559565428665,0.8185329559291197,-8.116807099095742e-06,0.0006267089222275957
0.86,1.623649534224871,2.651734607241914,-0.28560547673224673,0.32777906766778303,0.08795443925043893,-7.534268768303663e-05,1.5873904923196693,0.8702877505384088,-0.017972391912122826,-0.005185119241887432,0.014352365891861552,-0.000812653746837874,-2.7293437851602285,-2.308809100234505,-3.6971225094274986,-0.8314395259793663,-0.19304761473919196,0.015320661363483382,-0.07372767378225543,-4.925195010366527,2.434455581419493,0.8238577101457543,0.0010654948597896494,0.0006231562443550113
0.87,1.6392528478393904,2.6602085823080017,-0.286151920434466,0.3276436156599155,0.08808320776303831,-8.333074666451386e-05,1.5603313614519456,0.8473975066087793,-0.05464437022192872,-0.013545200786753033,0.012876851259937684,-0.0007988058981477236,-2.7299282190620913,-2.307146963530208,-3.575296873911623,-0.8091716508363866,-0.18035847952256967,0.014092594017295387,-0.07688450480755797,-4.925706277498935,2.46881723094222,0.8289966783135579,0.002059949411513008,0.0006194401162122381
0.88,1.6545855098703701,2.6684538099787387,-0.2870530218580149,0.3274269105589648,0.08819814129598182,-9.11918279964299e-05,1.5332662030979636,0.8245227670737164,-0.09011014235488532,-0.021670510095073307,0.011493353294350573,-0.0007861081331916041,-2.7310473474928445,-2.305505170780723,-3.4541103930823325,-0.7866323091851903,-0.16846539453402198,0.012909607306764187,-0.08039682367265834,-4.927977437260964,2.5011842923085643,0.8339551064042137,0.0029810966395735564,0.0006156559794298728
0.89,1.6696474062107858,2.6764704420836765,-0.28829678138126974,0.32713132105008963,0.08830010037068405,-9.893703200273722e-05,1.5061896340415717,0.8016632104937882,-0.12437595232548596,-0.02955895088751235,0.010195907470223515,-0.0007745204006307324,-2.732751809604128,-2.3038730704163477,-3.3336772444847615,-0.7638227783747906,-0.15733813816656972,0.011774366704820571,-0.08423434640878683,-4.9319155100062195,2.531599272432037,0.8387375196424638,0.003834416459499307,0.0006118898940170407
0.9,1.6844383639882905,2.6842586284133985,-0.28987127301341903,0.3267592361825783,0.0883898881253402,-0.00010657698677438377,1.4790957777504807,0.7788186329722114,-0.15744916321493008,-0.03720848675113251,0.008978775465614892,-0.0007639954771646547,-2.735084984274601,-2.302237092495908,-3.214102490496569,-0.7407492000235889,-0.14694419474046772,0.010688872153241803,-0.08837021100833467,-4.937433983900279,2.5601036405075845,0.8433477298151392,0.004625012466652433,0.0006082189929907304
0.91,1.698958147341475,2.6918185181792045,-0.29176465470770807,0.3263130643960924,0.08846825274197143,-0.0001141217883094399,1.4519783353184426,0.7559889765805843,-0.18933816942890158,-0.044617178648585255,0.007836461663122987,-0.0007544801535056142,-2.7380837409397225,-2.3005814160367004,-3.0954830525354455,-0.7174222686777361,-0.13724966141765438,0.00965454670123854,-0.09278073052129159,-4.944452424164253,2.586737698077295,0.8477888478689415,0.005357610089937167,0.000604711935408993
0.92,1.7132064538318323,2.699150261690767,-0.2939651778920214,0.3257952321946865,0.0885358899714182,-0.0001215809514283113,1.424830649035736,0.7331743511562544,-0.22005231843133508,-0.051783220140592,0.006763722944678316,-0.0007459163118871399,-2.7417791082000957,-2.2988885785904207,-2.97790861902842,-0.693856898259483,-0.12822000635851372,0.008672315652888462,-0.09744515700204283,-4.952896079796748,2.6115404746819557,0.852063301335349,0.006036558633992415,0.0006014293542712962
0.93,1.727182911425892,2.706254012191312,-0.29646119630494877,0.3252081824935968,0.08859344570035199,-0.00012896337044638725,1.3976457594059688,0.7103750500544479,-0.24960184129273624,-0.058704970108970723,0.005755572893379286,-0.0007382419018075963,-2.7461968651621507,-2.2971400284082355,-2.8614624870184318,-0.6700718734250231,-0.11982069211313773,0.0077426766760480825,-0.1023454571952362,-4.962695492476146,2.6345496471163212,0.8561728561000606,0.006665836587635176,0.0005984242965665265
0.9400000000000001,1.740887075989647,2.7131299277956367,-0.2992411742188848,0.32455437266532117,0.08864151851444543,-0.00013627728865682947,1.3704164563754992,0.6875915604324606,-0.27799779139360475,-0.06538098282756205,0.004807281409343793,-0.0007313918210442225,-2.7513580609869432,-2.2953166201273962,-2.746222337905612,-0.6460894918660616,-0.11201767861673817,0.0068657614760015365,-0.1074661003358897,-4.973786111609169,2.6558014802831904,0.8601186420250617,0.007249059654748432,0.0005957426534214042
0.9500000000000001,1.7543184292445033,2.7197781734819544,-0.3022936941251957,0.3238362723125242,0.08868066222081986,-0.00014353027574704087,1.3431353254856158,0.6648245686317932,-0.3052519906310866,-0.07181003527969727,0.003914370637442602,-0.0007252987090211411,-2.7572794684062174,-2.293399055413325,-2.6322609483442867,-0.6219352026421756,-0.10477781997052982,0.006041389706886925,-0.11279385805748922,-4.986107918836807,2.675330787655691,0.8639011819315936,0.0077894910337771035,0.0005934235788511832
0.96,1.7674763771404953,2.726198923094034,-0.30560746395008814,0.32305636079587974,0.08871138830079565,-0.00015072921234189924,1.3157947895992066,0.6420749612079785,-0.33137698248924696,-0.07799115166444757,0.003072607997579421,-0.0007198936594858372,-2.763973977058272,-2.291368270402509,-2.519646837743817,-0.5976372448183875,-0.09806916860285031,0.005269115835652413,-0.1183176161266141,-4.99960506472577,2.693170909401335,0.8675204234601828,0.008290053533976228,0.0005914998960595521
0.97,1.780360248608443,2.732392361315413,-0.3091713238635822,0.32221712454517076,0.0887341682708534,-0.00015788028093367462,1.2883871467947883,0.6193438221379042,-0.3563859913494084,-0.08392362507089489,0.002277997005774242,-0.0007151068591775371,-2.7714509324420957,-2.2892057721158627,-2.408444854167893,-0.573226289986569,-0.09186119955373573,0.0045482696773666495,-0.12402819753162952,-5.014225519854204,2.709353706288385,0.870975773337737,0.00875334317110667,0.0005899984905920259
0.98,1.7929692946580709,2.7383586855825284,-0.31297425273794327,0.3213210541818608,0.08874943593563926,-0.00016498896252179827,1.260904604962781,0.5966324267115405,-0.3802928874361043,-0.08960703633099523,0.001526766478585833,-0.0007108681588123647,-2.7797164261217002,-2.2868939262603716,-2.2987167006914997,-0.5487350916685338,-0.08612496661331948,0.0038779913044653946,-0.1299181963276775,-5.0299207420378265,2.723909567580036,0.8742661336003805,0.009181643933019946,0.0005889406899312299
0.99,1.8053026877938996,2.7440981079084272,-0.31700537430609926,0.3203706414809789,0.08875758952189436,-0.00017206003834475392,1.2333393135828665,0.5739422325898885,-0.4031121568156009,-0.09504127008819367,0.0008153586255096883,-0.0007071075822955659,-2.788773542563419,-2.2844161990070524,-2.190521404473856,-0.5241981441127272,-0.08083320095122493,0.00325726099873469,-0.1359818215653359,-5.046645361029556,2.7368674312192782,0.877389939342853,0.0095769434471577,0.0005883426293453206
