tonegas/nnodely-applications/joint_friction_estimation/dataset/train/mpc_mujoco_episode_32.csv
time,q1,q2,q3,q4,q5,q6,dq1,dq2,dq3,dq4,dq5,dq6,ddq1,ddq2,ddq3,ddq4,ddq5,ddq6,tau1,tau2,tau3,tau4,tau5,tau6
0.0,0.0,1.57,-1.57,0.0,0.0,0.0,0.0,0.0,0.0,0.0,0.0,0.0,11.688734148619636,-7.91165228591123,0.8882156630037308,0.8029573310822045,1.7635827089115992,-4.802449923957397e-06,1.6303918241884379,-8.39430302139496,-5.810616691878732,-1.2779032469540574,0.14718560983253115,0.001193936535274363
0.01,0.0011629860419585854,1.5692117640792624,-1.5699136244266347,7.306934635745784e-05,0.0001474605567962044,1.5491313917621376e-06,0.11629860419585855,-0.0788235920737631,0.008637557336525851,0.0073069346357457834,0.01474605567962044,0.00015491313917621375,11.494723486902078,-7.5926006805870125,0.9187689067465161,0.7378707497420685,1.4733467329104357,0.015541212141028993,1.6049710088422449,-8.232455455652739,-5.749776157656807,-1.2650871122930913,0.14518727088778294,0.0011784116464697784
0.02,0.003468731802884373,1.567667139558626,-1.569738127321193,0.00021413997191145278,0.0004241584498331847,4.706719042659091e-06,0.23057457609257878,-0.15446245206366338,0.017549710544178046,0.014107062555399494,0.027669789303698025,0.00031575876508969534,11.28293612262735,-7.253974339494112,0.9518856189837592,0.688302004292904,1.2927976199245848,0.016292993461554772,1.5687828993705843,-8.05665855123639,-5.682593101803383,-1.2508170287701483,0.14251604125662845,0.0011586375074536105
0.03,0.006895610340507605,1.5653999160046292,-1.5694704039147465,0.0004193545627457425,0.0008185029080043265,9.36894685645444e-06,0.34268785376232314,-0.2267223553996689,0.026772340644650682,0.02052145908342897,0.03943444581711418,0.00046622278137953494,11.057226707686452,-6.897080299850445,0.9885747191750038,0.6509151074382515,1.1800690674008223,0.015519813922725945,1.5228959021110597,-7.86751583523407,-5.609538074073666,-1.235209705501744,0.13922796010119154,0.0011349522817050688
0.04,0.011420832698331242,1.5624456976337227,-1.5691069146236734,0.0006858148072446584,0.0013230121125117108,1.544979454062294e-05,0.4525222357823638,-0.29542183709066205,0.03634892910730919,0.026646024449891587,0.050450920450738436,0.00060808476841685,10.820033589050944,-6.523258493906866,1.0295371114597032,0.6231622746606966,1.1098110024503782,0.01502775273251089,1.4684587424658102,-7.665660089914807,-5.531112686921415,-1.2183899035401975,0.1353815263247724,0.0011076661812727245
0.05,0.017020603802068632,1.558841771762476,-1.5686436339410657,0.001011388407054425,0.001932779178963333,2.2893859333054543e-05,0.559977110373739,-0.3603925871246618,0.046328068260777275,0.03255735998097666,0.06097670664516222,0.0007444064792431603,10.572971038682883,-6.133901260615537,1.075216584662133,0.6030827593080677,1.0665688877894084,0.01494094879289598,1.406678338152617,-7.451767273934026,-5.447848561251288,-1.2004898337797927,0.13103724478906345,0.001077075687107913
0.06,0.023670231185698682,1.5546269715266854,-1.5680760206066264,0.0013945601060696606,0.0026445344595567733,3.1668925310804496e-05,0.664962738363005,-0.4214800235790583,0.05676133344392396,0.03831716990152355,0.07117552805934402,0.0008775065977749951,10.317180610779003,-5.7304645745703775,1.125837904597443,0.5891551763988616,1.0408526550746373,0.01518066784487182,1.3387986133170977,-7.226567083518602,-5.360304911497172,-1.1816482409487201,0.12625727214934557,0.001043472724482776
0.07,0.03134420758477888,1.5498415318638732,-1.5673990062958616,0.0018343155642908428,0.003456067989025185,4.1758918636818194e-05,0.7673976399080193,-0.4785439662812156,0.06770143107648827,0.04397554582211821,0.08115335294684116,0.00100899933260137,10.053539442997014,-5.314473413378992,1.1814362765949458,0.5801858647417717,1.0267733411624036,0.01567175739658655,1.2660798841379726,-6.9908509483922066,-5.26906518464429,-1.162009269927575,0.12110508551185488,0.0010071507565620693
0.08,0.04001627979433447,1.5445269383079316,-1.5666070006724078,0.0023300495815504318,0.004365869586132315,5.3159059129138845e-05,0.8672072209555592,-0.5314593555941542,0.07920056234538446,0.04957340172595888,0.090980159710713,0.0011400140492320652,9.782783197867925,-4.887522705477497,1.2418807452529679,0.5752242324135324,1.0206157071716646,0.016360559481451098,1.1897787532673203,-6.745477906206089,-5.174733042496505,-1.1417211845786572,0.11564513037382199,0.0009684087791136189
0.09,0.049659511019611156,1.5387257685651936,-1.5656939110645982,0.0028814922291222115,0.005372900448671168,6.587264194208106e-05,0.9643231225276689,-0.580116974273804,0.09130896078096187,0.05514426475717798,0.10070308625388524,0.0012713582812942212,9.505577905962552,-4.451274795734965,1.3068933897468176,0.57349875939917,1.0199738649509626,0.017208913270072124,1.1111286421447655,-6.491378588351955,-5.077927900197092,-1.1209349933314627,0.10994242484194933,0.0009275537177457736
0.1,0.060246340846085496,1.532481527173949,-1.5646531753048678,0.0034886480274134205,0.0064764440436770165,7.990884379244945e-05,1.0586829826474338,-0.6244241391244627,0.10407357597303159,0.06071557982912089,0.11035435950058482,0.00140362018503684,9.222561163059268,-4.007454090841752,1.3760657003817407,0.5743688811377483,1.0232266351123585,0.018187693754816436,1.031321209862743,-6.229557426491206,-4.97928018551421,-1.099803025550866,0.10406211033855411,0.0008849014850516591
0.11,0.0717486450911378,1.5258384738198998,-1.563477806443607,0.004151744525468226,0.007676004613901088,9.528114211726445e-05,1.1502304245052313,-0.6643053354049115,0.11753688612607666,0.06630964980548051,0.11995605702240718,0.001537229832481499,8.934364953099296,-3.5578393930578085,1.4488731616774357,0.577289092327395,1.0292184025925977,0.019272263602791995,0.9514889773480797,-5.9610931200665265,-4.879426450198287,-1.0784774955238976,0.09806894795846681,0.0008407768394673623
0.12,0.08413779668190545,1.5188414461025064,-1.5621604481454983,0.004871187576829006,0.008971234044137489,0.00011200608755946522,1.2389151590767646,-0.699702771739337,0.13173582981088144,0.07194430513607807,0.12952294302364004,0.0016724945442200777,8.641627498213682,-3.1042543442012795,1.5246887842030103,0.581782457686002,1.0370646555547154,0.020439448363584134,0.8726895077887463,-5.687137370711598,-4.779004439745235,-1.057109085215847,0.09202676599885375,0.000795512143507482
0.13,0.09738472803882742,1.5115356777295779,-1.5606934396184453,0.005647521330744043,0.010361875374062229,0.00013010226845141832,1.3246931356921972,-0.7305768372928502,0.1467008527052855,0.07763337539150365,0.13906413299247397,0.0018096180891953105,8.344998618252935,-2.6485563513061976,1.6027961042112824,0.5874213648132796,1.0460335494014998,0.02166552256684362,0.7958914947512208,-5.408911878132956,-4.678648207375928,-1.0358455719574853,0.0859978688248619,0.0007494451140186477
0.14,0.11145999505603926,1.503966613264349,-1.5590688889305775,0.006481391516993704,0.011847715846911158,0.00014958936743005082,1.4075267017211843,-0.7569064465228926,0.16245506878678148,0.08338701862496609,0.14858404728489294,0.0019487098978632498,8.045141315918494,-2.1926243338747646,1.6824019947650526,0.5938138500547644,1.0554742268167416,0.022924864121537603,0.7219630823928425,-5.127703596736956,-4.578983340153291,-1.0148305225575522,0.08004242060056123,0.0007029156722598602
0.15,0.1263338425507887,1.4961797206634262,-1.5572787535534272,0.007373511034296714,0.013428545215530493,0.00017048724899993174,1.4873847494749421,-0.7786892600922836,0.17901353771502482,0.08921195173030094,0.15808293686193356,0.0020897881569880926,7.7427312188407695,-1.7383456102555461,1.7626494951868141,0.6005942066373428,1.064774323682954,0.024189077717929663,0.6516626912065313,-4.844858268721255,-4.48062234923746,-0.9942020708741193,0.07421781972362865,0.0006562620256002553
0.16,0.14197627093773568,1.4882203029273275,-1.5553149269401738,0.008324627184981573,0.015104116795105756,0.00019281504186778768,1.5642428386946996,-0.7959417736098623,0.19638266132533416,0.09511161506848582,0.16755715795752626,0.0022327792867855942,7.4384548295393715,-1.2876022219245424,1.8426307598837022,0.6074168728427414,1.0733361425944068,0.025426482508587256,0.5856325518633898,-4.56177227466574,-4.384160262289885,-0.9740917916594276,0.06857808115815273,0.0006098161383812599
0.17,0.1583571038276642,1.4801333102395178,-1.5531693299152542,0.00933549015417296,0.016874109880661632,0.000216590196814591,1.6380832889928498,-0.8086992687809866,0.2145597024919629,0.10108629691913867,0.17699930855558743,0.002377515494680331,7.133007097643905,-0.8422569763602783,1.921400147017876,0.6139528178490474,1.0805652074527998,0.02660191781011889,0.5243950638515178,-4.279882874568871,-4.290170444207566,-0.9546236796169312,0.06317324434048464,0.0005638987727954661
0.18,0.17544605622551326,1.4719631539964717,-1.5508340056221046,0.010406822526763174,0.018738092892355347,0.00024182751313263877,1.7088952397849086,-0.8170156243046023,0.2335324293149576,0.1071332372590216,0.18639830116937134,0.0025237316318047773,6.827088538359106,-0.40413947075177015,1.9979874072403334,0.6198878105263912,1.0858674226868068,0.02767685438215306,0.4683519996814156,-4.000656948972005,-4.1992006630758745,-0.9359132392151945,0.058048823941109357,0.0005188142979734672
0.19,0.1932128029900318,1.4637535241320834,-1.548301216754085,0.01153928978258914,0.020695487123856784,0.00026853813621946265,1.776674676451852,-0.8209629864388327,0.253278886801947,0.1132467255825967,0.19573942315014364,0.0026710623086823866,6.5214019339890745,0.024967661086743982,2.0714108890804783,0.6249220845454291,1.0886525107670089,0.028609815135780536,0.4177864763414123,-3.7255783889977345,-4.1117694115734125,-0.9180666879722501,0.05324531966671426,0.00047484547643134956
0.2,0.21162704720356212,1.455547211116525,-1.5455635437831554,0.012733471819212213,0.02274553133612296,0.00029672853688332345,1.8414244213530337,-0.8206313015558326,0.2737672970929695,0.11941820366230722,0.2050044212266175,0.002819040066386081,6.216648533620102,0.4433420568682768,2.1406906472982374,0.6287710113500191,1.0883421940587965,0.02935711201109381,0.3728675182899034,-3.4561343241517535,-4.02836249024692,-0.9011802737526564,0.048797799450235005,0.00043224843911479096
0.21,0.2306585880763002,1.4473859339644402,-1.5426139829039254,0.013989835629952907,0.024887247708633303,0.00032639948979244554,1.9031540872738077,-0.8161277152084854,0.2949560879229952,0.1256363810740693,0.21417163725103447,0.0029670952909122057,5.913523604099223,0.8493342890844781,2.2048613211830386,0.631166468335314,1.084381969704502,0.029873898026583134,0.33365694718579364,-3.1938004152214097,-3.9494298578422393,-0.8853397051004451,0.04473556799773937,0.00039124805431859733
0.22,0.2502773879699183,1.4393101755222113,-1.5394460424286749,0.015308709318137654,0.027119409856382413,0.00035754507442733617,1.9618799893618082,-0.8075758442228775,0.3167940475250467,0.13188736881847463,0.22321621477491116,0.003114558463489063,5.612711172948859,1.2413797058765472,2.2629846393699653,0.6318586487062117,1.0762554584249884,0.030115517074057685,0.3001182574384913,-2.9400254745869336,-3.8753827549234527,-0.870619692734713,0.04108192982397822,0.000352033881385726
0.23,0.2704536380694101,1.4313590262211935,-1.5360538364024534,0.016690257661393218,0.029440513752746426,0.00039015172675699035,2.0176250099491813,-0.7951149301017882,0.33922060262214015,0.13815483432555642,0.23211038963640132,0.0032606652329654202,5.3148778373549845,1.6180092952257166,2.3141614046206582,0.6306181064495089,1.0635002982138388,0.030039111310728117,0.2721270777034231,-2.6962157057101823,-3.8065911097972536,-0.8570835999698556,0.03785405276472437,0.00031475687803658454
0.24,0.29115782216182523,1.423570037385527,-1.532432174256443,0.018134459455886043,0.03184875246678128,0.000424197373391965,2.0704184092415154,-0.7788988835666677,0.36216621460104037,0.14442017944928234,0.2408238714034856,0.0034045646634974663,5.020665587181662,1.977859441999656,2.357542814887436,0.6272378680223625,1.0457244815814022,0.029605419708008895,0.2494827795085841,-2.46371887569795,-3.7433812396403603,-0.8447831998649163,0.03506293465170479,0.000279527001367427
0.25,0.3123607779020057,1.4159790850718244,-1.5285766453818734,0.01964108687259651,0.034341995626219216,0.0004596506818435754,2.1202955740180514,-0.7590952313702625,0.38555288745697264,0.15066274167104673,0.24932431594379348,0.0035453308451610403,4.730683695463428,2.319680471896,2.3923409847405237,0.6215354742927115,1.022621962572618,0.028780674969882902,0.2319207767762163,-2.243808748188637,-3.686033864007132,-0.83375853720999,0.03271347252755891,0.0002464118082145632
0.26,0.33403375486718395,1.408620245296116,-1.5244836975849843,0.02120968704851859,0.03691777445220541,0.0004964704604292698,2.1672976965178212,-0.7358839775708274,0.40929477968890937,0.15686001759220783,0.25757788259861975,0.0036819778585694468,4.445499854536153,2.642343901469512,2.4178385429317233,0.6133548438265457,0.9939863363082537,0.027538483636710076,0.21912506421576222,-2.0376701073505696,-3.6347824518932317,-0.8240378938714878,0.030804630613364012,0.00021543612216438706
0.27,0.3561484686349724,1.4015256813734753,-1.5201507084745352,0.022839566117228684,0.03957327307930221,0.0005346052390910807,2.211471376778846,-0.7094563922640845,0.433298911044913,0.16298790687100945,0.26554986270968,0.0038134778661810856,4.165630864036953,2.944848339077506,2.433397196620083,0.6025678730309956,0.9597214549051927,0.025861559719730032,0.2107405672008551,-1.8463846969830435,-3.5898119266481983,-0.8156378564024235,0.029329700359629077,0.0001865827936324147
0.28,0.3786771500742324,1.3947255439603257,-1.5155760489355956,0.024529775857482262,0.04230532667981337,0.0005739930578712461,2.252868143926001,-0.6800137413149583,0.45746595389394407,0.16902097402535804,0.273205360051116,0.003938781878016542,3.891533290805798,3.2263240074105544,2.438465169771523,0.589075710635635,0.9198480090075947,0.023743179072329035,0.2063849184267833,-1.6709183816072175,-3.551257754792842,-0.8085634850621958,0.02827664343619188,0.00015979453788635004
0.29,0.40159258902620537,1.3882478842511692,-1.5107591379550454,0.026279103107101402,0.04511042666598585,0.0006145614831470867,2.2915438951972944,-0.6477659709156491,0.48169109805502286,0.17493272496191414,0.28050999861724835,0.004056842527584061,3.623594603227522,3.4860358837711978,2.432583441674077,0.5728096638539348,0.8745053750944258,0.021188232000458385,0.20565933405024212,-1.5121098096042527,-3.5192054448902006,-0.8028085833970346,0.027628506545791395,0.00013497679544375717
0.3,0.42486817158260864,1.382118580642933,-1.5057004881834455,0.02808606205399047,0.04798473296359142,0.0006562278633091132,2.327558255640328,-0.6129303608236241,0.5058649771599921,0.18069589468890693,0.2874306297605569,0.004166638016202654,3.362125320067489,3.7233854787094764,2.415390730649066,0.5537317112880551,0.8239483872369231,0.018213775444618552,0.20815833013941087,-1.3706608229906436,-3.493690480892732,-0.7983560672564455,0.0273638955476904,0.00011200152169391325
0.31,0.44847791024315065,1.3763612790437918,-1.5004017417427578,0.029948889478095903,0.05092409305664201,0.0006988998259104091,2.360973866054198,-0.5757301599141142,0.5298746440687773,0.18628274241054307,0.2939360093050589,0.004267196260129586,3.107352698428502,3.9379112961873037,2.386627187229526,0.5318346130917853,0.7685391028956392,0.014849021694834263,0.2134780947336294,-1.247128815816056,-3.4746987108488403,-0.795178431544483,0.027457495582400716,9.071177950803553e-05
0.32,0.4723964663577663,1.3709973468714227,-1.494865695917798,0.03186554297879586,0.053924067218829703,0.0007424760081100651,2.391855611461561,-0.536393217236905,0.55360458249599,0.19166535006999544,0.2999974162187694,0.0043576182199656045,2.859416416477632,4.1292880382775135,2.3461367798002417,0.5071416218566043,0.7087340486230538,0.011134743958219673,0.22122340718948033,-1.1419211952136088,-3.4621672066334703,-0.793238312137656,0.02788062368802192,7.092698142737851e-05
0.33,0.4965991644247963,1.3660458406601688,-1.4890963184994013,0.03383370218268984,0.05697995909581114,0.0007868470022407996,2.420269806703002,-0.4951506211253932,0.5769377418396634,0.196815920389398,0.30558918769814364,0.004437099413073454,2.6183665911134444,4.297324633783527,2.293868373548629,0.47970580805561625,0.6450678021703258,0.007122125123553591,0.23101307057412954,-1.0552920477563972,-3.4559856037006282,-0.7924891392758167,0.028601800747129858,5.244860787396934e-05
0.34,0.5210619980169398,1.3615234870791395,-1.4830987526772283,0.03585077288801086,0.060086850603866385,0.0008318964893008704,2.4462833592143465,-0.45223535810293436,0.5997565822172997,0.2017070705321016,0.3106891508055242,0.004504948706007084,2.3841643224884894,4.441961182605308,2.229875520357945,0.44960902169061256,0.578134046476813,0.0028711190353254423,0.24248389096602932,-0.9873410609045732,-3.455997922027922,-0.7928758773952524,0.0295873304232147,3.506621548103779e-05
0.35000000000000003,0.5457616273302697,1.3574446770550617,-1.4768793115082346,0.03791389406468403,0.06323963997958293,0.0008775025257526937,2.469962931332993,-0.40788100240778546,0.6219441168993683,0.2063121176673173,0.3152789375716543,0.004560603645182335,2.1566847944370537,4.563264916026323,2.15431499290594,0.41696051727419814,0.508565385535455,-0.0015515715039531308,0.2552932966662632,-0.9380146967707685,-3.4620048607510707,-0.794335844880786,0.03080187393782899,1.8563545464801018e-05
0.36,0.5706753685840511,1.3538214725955142,-1.470445462111505,0.04001994759402267,0.06643308175980418,0.0009235389436840489,2.491374125378144,-0.3623204459547416,0.6433849396729636,0.21060535293386373,0.31934417802212545,0.004603641793135522,1.9357228019409916,4.661425277546729,2.067444110757849,0.38189527282417046,0.4370132280127965,-0.006074772593346989,0.2691207383885973,-0.9071095647965648,-3.4737665497961285,-0.7967996056284921,0.03220901099231702,2.724545903015998e-06
0.37,0.5957811757262902,1.3506636258204379,-1.463805799859946,0.04216557059965691,0.06966182749112525,0.0009698768214152135,2.5105807142239116,-0.31578467750762473,0.6639662251559031,0.21456230056342376,0.32287457313210655,0.004633787773116462,1.7210004413116484,4.736748229937534,1.9696169197510471,0.34457203567354355,0.3641289280214437,-0.010625235707713454,0.28366804723870553,-0.8942778925885899,-3.4910057324339854,-0.8001919226995658,0.03377177873600064,-1.266086667483558e-05
0.38,0.6210576151088616,1.3479786096325845,-1.4569700129529213,0.04434717019188401,0.07292046605633565,0.0010163859810520108,2.527643938257136,-0.26850161878532225,0.6835786907024816,0.21815995922271017,0.32586385652104044,0.0046509159636797396,1.51217659814511,4.789649892519797,1.8612792985742797,0.3051711290576158,0.2905471479994808,-0.015130018670849843,0.2986589502835981,-0.8990349512423585,-3.5134113434288485,-0.8044327627796919,0.035453182312278717,-2.7791462881028746e-05
0.39,0.6464838339762035,1.3457716593906734,-1.4499488378600607,0.0465609404214722,0.07620356264803091,0.0010629364711175452,2.542621886734183,-0.22069502419109907,0.7021175092860634,0.22137702295881934,0.32830965916952626,0.00465504900655343,1.3088578075225727,4.820649609031905,1.742963078182921,0.2638920541306291,0.21687211339846657,-0.019518730952049923,0.3138379540105342,-0.9207682538903432,-3.540642438646999,-0.8094383387101752,0.037216672066790364,-4.284990660536703e-05
0.4,0.6720395237556519,1.3440458248920857,-1.4427540062240487,0.04880288121623632,0.07950569559985911,0.0011093999959083621,2.5555689779448474,-0.17258344985876942,0.7194831636012052,0.2241940794764123,0.3302132951828193,0.004646352479081703,1.1106100382019564,4.830362541556683,1.6152792705539056,0.2209509225992825,0.14366710551594508,-0.023725544774436225,0.32896880479406815,-0.958748314626301,-3.572332423932994,-0.815122176099,0.039026583880214225,-5.7998618757369095e-05
0.41000000000000003,0.697704879241505,1.3428020319244736,-1.4353981838981498,0.05106881905458412,0.08282149048471227,0.0011556512581718265,2.566535548585315,-0.1243792967612184,0.7355822325898927,0.22659378383478054,0.3315794884853158,0.00462512622634644,0.9169709599797049,4.819491880475602,1.478910513189259,0.17657775571854906,0.0714472283314933,-0.027690899252586387,0.3438327238982712,-1.0121407298311293,-3.608093524015008,-0.8213961890185749,0.0408485402170986,-7.337637817489428e-05
0.42,0.7234605548277002,1.3420391526071553,-1.427894902871617,0.053354429114826595,0.08614565108854406,0.0012015691876054676,2.5755675586195204,-0.07628793173181408,0.750328102653275,0.22856100602424728,0.3324160603831803,0.004591792943364116,0.7274622811012937,4.788820754863947,1.3346028445778622,0.13101368603913421,0.0006752210293053396,-0.03136285133120498,0.3582265942039262,-1.0800193254659267,-3.6475214263855036,-0.8281717491080276,0.04264981032231481,-8.909571220524495e-05
0.43,0.7492876189665252,1.3417540837130821,-1.4202584869021022,0.05565525862745007,0.08947298705296236,0.001247038034061798,2.582706413882501,-0.028506889407309395,0.7636415969514782,0.23008295126234748,0.33273359644182926,0.00454688464563305,0.5416017819541382,4.739203922610755,1.1831569333392347,0.08450809895759015,-0.0682401078005207,-0.03469805211213828,0.37196124878113745,-1.1613801020997583,-3.6902000306816154,-0.8353607320646517,0.04439962855660605,-0.00010524110394580439
0.44,0.7751675080155151,1.3419418321400074,-1.4125039717280259,0.05796675114983445,0.09279843813779808,0.001291948310782307,2.5879889048989955,0.018774842692524912,0.7754515174076222,0.23114925223843802,0.3325451084835714,0.004491027672050897,0.35891471703480304,4.6715593152046555,1.0254188897795071,0.037315751640095485,-0.13494336566273568,-0.037662348561347314,0.38485997988956944,-1.2551557041272816,-3.73570623117809,-0.8428765255611887,0.04606947019722124,-0.00012186801958536026
0.45,0.8010819805851455,1.3425956066848643,-1.404647020774986,0.060284271479110696,0.09611709517951136,0.0013361975791397174,2.5914472569630265,0.06537745448569951,0.7856950953039878,0.2317520329276245,0.3318657041713285,0.0044249268357410415,0.178944307124562,4.58685950874956,0.8622707928457629,-0.010306092909884157,-0.19913056337666513,-0.040231027831056254,0.39675735329861717,-1.360230140534045,-3.7836146586925077,-0.8506349830811106,0.04763328422224357,-0.0001390027377289897
0.46,0.8270130734205157,1.343706915267934,-1.396703837298267,0.06260313091898168,0.09942421791007683,0.0013796910719853404,2.593109283537022,0.11113085830695521,0.7943183476718854,0.2318859439870974,0.3307122730565458,0.004349349284562298,0.0012610972894196155,4.486123190335779,0.694621067709738,-0.05810047913006855,-0.26054616044264645,-0.04238873445756769,0.407498379161012,-1.4754534913597914,-3.8335023085529567,-0.8585553090292067,0.049067682738707416,-0.00015664294288438062
0.47000000000000003,0.8529430597461173,1.3452656667529328,-1.3886910739181366,0.0649186126203346,0.10271524985534691,0.0014223421576130392,2.5929986325601586,0.15587514849989492,0.8012763380130273,0.23154817013529302,0.3291031945270078,0.004265108562769875,-0.17452897589762206,4.370406687328508,0.5233948492546023,-0.10581348295461446,-0.3189796496321118,-0.04412909994580094,0.4169380597545803,-1.5996563462657027,-3.8849529833117105,-0.8665608617384716,0.05035208698312614,-0.00017475902620556807
0.48,0.878854410880868,1.3472602765155262,-1.3806257405058584,0.0672259967232382,0.10598583055634797,0.001464072650473878,2.5911351134750715,0.1994609762593405,0.806533341227815,0.23073841029035963,0.3270580701001061,0.004173049286083877,-0.3487779388995382,4.240795625097565,0.3495244643598143,-0.153196811600246,-0.37426205471885865,-0.04545413009516286,0.4249413034957067,-1.7316637393292842,-3.937561482753078,-0.8745798626607474,0.05146882975617668,-0.00019329602459866227
0.49,0.9047297617938347,1.3496777749257471,-1.3725251113664454,0.0695205850392766,0.10923180535780261,0.0015048129780793344,2.5875350912966675,0.24174984102209046,0.8100629139413101,0.2294588316038403,0.3245974801454635,0.004074032760545646,-0.5217905825100733,4.098396777982818,0.17394016113510968,-0.20001024639057619,-0.42626259842395164,-0.046373398912368205,0.4313831742345777,-1.8703083657486834,-3.9909374790327354,-0.8825460019974618,0.05240321493229759,-0.00021217611043697056
0.5,0.9305518811303625,1.3525039179293177,-1.3644066326395712,0.07179772502788236,0.11244923299274542,0.0015445022160333742,2.5822119336527805,0.2826143003570501,0.811847872687426,0.2277139988605755,0.3217427634942815,0.003968923795403979,-0.6938207262626279,3.944330175420366,-0.0024387939666610237,-0.24602389880113673,-0.47488568102031437,-0.0469030989824373,0.43614942239403665,-2.014442892519437,-4.044709021901864,-0.8903989333261848,0.05314353469122207,-0.00023130153891643844
0.51,0.9563036460950565,1.3557232989386,-1.356287830803457,0.0740528328381006,0.11563439116736525,0.0015830880048849955,2.5751764964693957,0.32193810092824293,0.8118801836114344,0.22551078102182462,0.3185158174619829,0.0038585788851621277,-0.8650689022490997,3.7797215225047727,-0.1787125396294087,-0.29102025343941396,-0.5200682129638832,-0.04706499755062471,0.4391372316312967,-2.16295120400119,-4.098525627246689,-0.8980846522613235,0.05368104572451622,-0.0002505579513767098
0.52,0.9819680224385401,1.3593194612755857,-1.348186223118873,0.07628141520769229,0.11878378032230019,0.0016205263635617054,2.566437634348367,0.3596162336985673,0.8101607684583976,0.22285823695916795,0.3149389154934935,0.003743835867670988,-1.035681383701243,3.605694990321296,-0.3540084636564629,-0.33479597564835295,-0.5617772701930335,-0.04688534531905708,0.44025610551937644,-2.3147584545910136,-4.15206091162992,-0.9055557568091467,0.05400990613007513,-0.00026981792998784427
0.53,1.0075280496625019,1.3632750104465399,-1.3401192307927723,0.07847909003426724,0.12189412572026659,0.001656781414610912,2.556002722396174,0.3955549170954167,0.8066992326100767,0.21976748265749593,0.31103453979663986,0.0036255051049206557,-1.2057504568567703,3.4233664265279073,-0.5274883804981458,-0.3771634657981382,-0.6000079930970079,-0.04639378122692528,0.4394288149647029,-2.468839833224865,-4.205014745780707,-0.9127715897364337,0.05412707522929652,-0.00028894469907150616
0.54,1.0329668314350513,1.367571725570165,-1.3321040955747914,0.08064160545778985,0.12496237798827138,0.0016918250364270804,2.543878177254952,0.4296715123625171,0.8015135217980996,0.2162515423522613,0.3068252268004796,0.0035043621816168427,-1.3753158137640262,3.233837030902851,-0.6983549698554867,-0.41795214698573036,-0.634781628284733,-0.045622271527498315,0.43659232817444316,-2.624227977221292,-4.2571149107374024,-0.9196982658791182,0.05403217908313744,-0.0003077958710633209
0.55,1.0582675310979677,1.3721906693278327,-1.324157800426363,0.08276485731985236,0.12798571222735483,0.001725636457165696,2.53006996629164,0.46189437576678355,0.7946295148428426,0.2123251862062512,0.30233342390834483,0.0033811420738615464,-1.544366927738399,3.0381875340007984,-0.8658574193357982,-0.45700947772390377,-0.6661436122259268,-0.04460411547273713,0.4316986504544775,-2.7800190051488745,-4.308118251271279,-0.9263085897844946,0.05372734502533185,-0.0003262271404133782
0.56,1.0834133720505723,1.3771122958549022,-1.316296994823005,0.08484490489207529,0.13096152579413625,0.0017582018042279757,2.514584095260463,0.49216265270696014,0.7860805603358106,0.2080047572222923,0.2975813566781428,0.003256534706227977,-1.7128462616804974,2.83747290982339,-1.0292962301408428,-0.49420168613073456,-0.6941616119363747,-0.043373043181880844,0.4247155102521299,-2.935377169099625,-4.357811331976412,-0.9325818713270225,0.05321700904850567,-0.00034409583626172154
0.5700000000000001,1.1083876427127632,1.3823165560456627,-1.3085379251670806,0.08687798479337352,0.13388743485568552,0.001789513622127168,2.497427066219093,0.52042601907604,0.7759069655924544,0.20330799012982428,0.2925909061549272,0.0031311817899192444,-1.8806531523875212,2.6327176456790533,-1.1880271609048698,-0.5294142270586487,-0.7189234638965729,-0.04196242414522322,0.415626839800289,-3.0895381552370536,-4.406010611676668,-0.9385036488925179,0.052507700342538446,-0.00036126425420746967
0.58,1.1331737057028068,1.3877829998002364,-1.3008963707025722,0.08886052304312636,0.13676126982106793,0.0018195703702976198,2.4786062990043516,0.5466443754573734,0.7641554464508417,0.19825382497528296,0.28738349653824163,0.0030056748170451575,-2.047648211549215,2.4249115843732247,-1.3414643006656237,-0.5625519683945589,-0.740534982455042,-0.04040459774633298,0.40443301252374175,-3.24181108712489,-4.452562161273014,-0.9440653313308128,0.05160780766448237,-0.0003776026985828499
0.59,1.157755010813951,1.3934908747990586,-1.2933875852367527,0.09078914522402894,0.13958106975764928,0.0018483759110534746,2.4581305111144163,0.5707874998822201,0.7508785465819633,0.1928622180902581,0.2819799936581357,0.0028805540755854793,-2.2136580863276327,2.215006345743874,-1.4890822771649537,-0.5935391172980193,-0.7591176382106894,-0.038730330491786535,0.3911508140784395,-3.391579308620693,-4.497340958563476,-0.9492637710904634,0.0505273324906045,-0.00039299217896910174
0.6,1.1821151113375348,1.3994192214484942,-1.2860262448875914,0.09266068475413086,0.14234507590621218,0.0018759389965085991,2.436010052358379,0.5928346649435524,0.7361340349161324,0.18715395301019325,0.2764006148562887,0.0027563085455124584,-2.3784804289213444,2.0039123265433942,-1.630417620884011,-0.6223189013252692,-0.7748061317496955,-0.036968398637885924,0.37581313861139104,-3.5383000416688106,-4.540249800691098,-0.9541007817459016,0.04927763404632027,-0.0004073267178043253
0.61,1.2062376832583563,1.4055469636989781,-1.2788264019917226,0.09447218929186857,0.14505172441461994,0.0019022727618875476,2.4122571920821496,0.6127742250483899,0.7199842895868849,0.1811504537737704,0.2706648508407775,0.0026333765378948495,-2.541888936420807,1.792496269969137,-1.76506931813761,-0.6488530230728018,-0.7877459065061636,-0.03514528998312505,0.35846841558924647,-3.6815030289228297,-4.581217880543875,-0.9585826135009163,0.04787117130179558,-0.0004205152395261842
0.62,1.2301065468394854,1.4118529954939985,-1.2718014452271038,0.09622092532040999,0.1476996384139785,0.001927394231331503,2.3868863581129025,0.6306031795020255,0.7024956764618693,0.17487360285414227,0.2647913999358563,0.002512146944395551,-2.7036383357870037,1.5815793889443914,-1.8926985979260404,-0.6731209101297968,-0.7980906556858862,-0.03328501467624134,0.339179784937904,-3.8207882816855867,-4.620199077539122,-0.9627194002139005,0.04632124688761098,-0.00043248302501759715
0.63,1.2537056901171846,1.4183162626635697,-1.2649640659282557,0.09790438097804335,0.1502876195631775,0.0019513238410668308,2.359914327769908,0.6463267169571272,0.68373792988481,0.16834556576333617,0.25879811491989857,0.0023929609735327704,-2.8634692048771737,1.371936020701216,-2.013028006926518,-0.6951187845979665,-0.8059998822634569,-0.03140901222261072,0.3180240485998325,-3.9558230602468076,-4.65717001573462,-0.9665245910677129,0.044641757614614856,-0.0004431727279203872
0.64,1.2770192938406333,1.4249158401289226,-1.2583262305011493,0.09952026721941537,0.1528146391869143,0.001974084983679469,2.3313603723448746,0.6599577465352925,0.663783542710637,0.16158862413720135,0.2527019623736795,0.002276114261263854,-3.021112540110562,1.1642927844384263,-2.1258398348681418,-0.7148585782603805,-0.8116365689972902,-0.029536140292985458,0.29509043441633054,-4.086338216509354,-4.692127943145356,-0.9700143792430999,0.042846955867519604,-0.0004525449614008791
0.65,1.3000317574138927,1.4316310043353808,-1.2518991587801946,0.10106651740798214,0.15527982912872418,0.0019957035762395658,2.3012463573259296,0.6715164206458195,0.6427071720954671,0.15462501885667698,0.24651899418098816,0.002161859256009676,-3.1762939993089345,0.9593282089141574,-2.2309739585520534,-0.7323667205707176,-0.8151650087436817,-0.027682730418772117,0.2704792137205343,-4.212124028120095,-4.725088485592493,-0.9732071389033672,0.040951225646055314,-0.00046057847448084156
0.66,1.3227277254273253,1.4384413008773285,-1.2456933081119674,0.10254128545297195,0.15768247243434544,0.0020162076541524253,2.269596801343265,0.6810296541947675,0.6205850668227131,0.14747680449898118,0.24026433056212695,0.0020504077912859406,-3.328737766928646,0.7576727928301203,-2.3283251769647846,-0.747682827038954,-0.8167488354722092,-0.02586269584192058,0.2443002168925581,-4.333025649561325,-4.7560833265103515,-0.9761228805212367,0.03896887644144437,-0.0004672699461114665
0.67,1.3450921144007582,1.445326607322387,-1.2397183628997226,0.10394294261443383,0.16002199397232497,0.0020356269918745716,2.2364388973432767,0.6885306445058427,0.5974945212244779,0.14016571614618878,0.23395215379795328,0.0019419337722146326,-3.4781700062284986,0.5599094577917362,-2.4178401123549578,-0.7608583153464741,-0.8165492848496356,-0.024087677856411194,0.2166712916560833,-4.448938299263827,-4.7851578610664784,-0.9787827331426378,0.03691395749946917,-0.00047263343247912204
0.68,1.367110139399395,1.4522671912811116,-1.233983229299611,0.10527007310758148,0.1622979510886247,0.0020539927510194963,2.201802499863682,0.6940583958724701,0.5735133600111589,0.13271304931476446,0.22759571162997247,0.0018365759144924473,-3.6243218788700413,0.36657435147536666,-2.499513752939702,-0.771954975646147,-0.8147237013556463,-0.022367218251527543,0.18771674730256835,-4.559802293271227,-4.812368868919928,-0.9812084606531738,0.03480009435605644,-0.0004766995085401595
0.6900000000000001,1.3887673402243585,1.459243763803479,-1.22849603472393,0.10652146864272048,0.16451002438068174,0.0020713371558788445,2.165720082496361,0.6976572522367346,0.548719457568092,0.1251395535139002,0.22120732920570435,0.0017344404859348064,-3.7669321266968905,0.1781579573583157,-2.5733857122013775,-0.7810435201476063,-0.8114242976133585,-0.02070894719433225,0.15756582465538654,-4.665598025826432,-4.837782245180215,-0.9834220175549234,0.032640348862434394,-0.0004795141484901522
0.7000000000000001,1.410049606921382,1.4662375282140234,-1.2232641317786193,0.1076961220396959,0.1666580086644587,0.0020876931959888053,2.128226669702348,0.6993764410544419,0.5231902945310791,0.11746533969754268,0.21479842837769625,0.0016356040109960848,-3.9057492223202206,-0.0048935330882260986,-2.639536277735795,-0.7882021352583513,-0.8067971617167942,-0.01911877766597536,0.1263512268741607,-4.766340985969153,-4.861470823865334,-0.9854451482319064,0.030447103272893083,-0.00048113739181676997
0.71,1.430943204392441,1.4732302245236688,-1.2182941062413624,0.1087932200561876,0.16874180419600315,0.00210309435506566,2.0893597471059153,0.6992696309645358,0.49700255372569785,0.1097098016491699,0.2083795531544447,0.0015401159076854634,-4.040533105064484,-0.1821766295556198,-2.698082319488543,-0.7935150574251395,-0.8009815001943075,-0.01760109933965559,0.094207740515409,-4.862076887306987,-4.8835123226170225,-0.9872990322320278,0.02823196836432854,-0.00048164184193787537
0.72,1.4514347959350378,1.4802041695780983,-1.2135917886727665,0.10981213556751283,0.17076140819735117,0.002117574365405923,2.0491591542596828,0.6973945054429411,0.47023175685958885,0.1018915511325227,0.20196040013480138,0.001448001034026339,-4.1710565266363355,-0.3533287762706562,-2.749173123191802,-0.797071191410959,-0.7941090980742906,-0.016158966464212998,0.06127097003247317,-4.952876975985646,-4.903987431822971,-0.9890039767620249,0.02600571501145801,-0.0004811110433567287
0.73,1.4715114655716328,1.48714229312002,-1.2091622692457518,0.11075241923209488,0.1727169067256039,0.0021311669866827627,2.0076669636595033,0.693812354192167,0.4429519427014677,0.094028366458204,0.19554985282527532,0.0013592621276839498,-4.297106036730823,-0.5180264509427199,-2.79298621005647,-0.7989627872526661,-0.7863039732936059,-0.014794275835316117,0.02767620248321906,-5.038833569917537,-4.922978065803495,-0.9905791564101207,0.023778228166503147,-0.0004796377809929647
0.74,1.4911607390667816,1.4940281699560636,-1.205009915377025,0.11161379077165676,0.17460846691393145,0.0021439058079596313,1.9649273495148771,0.6885876836043593,0.4152353868726809,0.08613715395618805,0.18915601883275412,0.001273882127686851,-4.418482642859424,-0.6759831686593243,-2.829723198519372,-0.7992841895246485,-0.777682200257555,-0.013507932236793696,-0.006442587059400817,-5.120055870852364,-4.9405657884997085,-0.9920423990987002,0.021558481794955685,-0.00047732234211186056
0.75,1.5103706035614273,1.5008460484284805,-1.2011383917488079,0.11239612998874632,0.17643632960427844,0.002155824071674011,1.9209864494645765,0.6817878472416914,0.38715236282172855,0.07823392170895624,0.18278626903469802,0.0011918263714379715,-4.535002181183555,-0.826947427742295,-2.8596057582165417,-0.7981306700164392,-0.7683518764828889,-0.01229999982332286,-0.04095358476803174,-5.196666080142697,-4.956830421274284,-0.9934100164363323,0.019354533003363306,-0.0004742707773135766
0.76,1.5291295257822588,1.5075808753975588,-1.197550682318278,0.11309946763663033,0.17820080238374683,0.0021669545183097185,1.8758922220831478,0.6734826969078334,0.3587709430529779,0.07033376478840091,0.17644727794684012,0.0011130446635707306,-4.646495436285494,-0.9707006319172774,-2.8828717005617954,-0.7955973524374151,-0.7584132066519764,-0.011169838795850318,-0.0757278426328114,-5.268795839261754,-4.971848836094432,-0.9946966759860095,0.017173533360808513,-0.00047059319259767636
0.77,1.5474264688089103,1.514218317942966,-1.1942491139258835,0.11372397624814579,0.17990225303002813,0.0021773292504675386,1.8296943026651469,0.6637442545407283,0.3301568392394483,0.06245086115154568,0.1701450646281301,0.0010374732157819953,-4.7528080478306824,-1.1070550202737053,-2.899771244459332,-0.7917782354492875,-0.7479586797673683,-0.010116227370608577,-0.11063984351185813,-5.336583007398098,-4.985693933568276,-0.9959153124881738,0.015021755259671206,-0.0004664020998069568
0.78,1.5652509074030259,1.520744781991388,-1.1912353811312175,0.11426996102098508,0.18154110336581566,0.0021869796150549513,1.782443859411547,0.6526464048422034,0.3013732794666042,0.0545984772839292,0.16388503357875317,0.0009650364587412527,-4.853800241179896,-1.2358516334712302,-2.9105634899005564,-0.7867653181879675,-0.7370733171562662,-0.0091374695529165,-0.14556793554116293,-5.400168780853031,-4.998433802077659,-0.997077074760164,0.012904631077628341,-0.00046181084797407935
0.79,1.5825928419208857,1.527147428074143,-1.1885105719259292,0.11473785084732131,0.18311782351777078,0.002195936102340853,1.7341934517859763,0.6402646082755186,0.2724809205288192,0.046788982633623126,0.15767201519551316,0.0008956487285902013,-4.949346417393041,-1.35695834153827,-2.9155131265934586,-0.7806478304937361,-0.725834971561568,-0.008231489542405157,-0.18039464766117314,-5.459695152523348,-5.010131051596059,-0.9981913048211827,0.010826802884073422,-0.00045693215341706807
0.8,1.5994428108455334,1.53341418441223,-1.1860751939966212,0.11512818956583631,0.18463292657224073,0.0022042282606566576,1.684996892464768,0.6266756338086905,0.24353779293079705,0.03903387185150021,0.1515103054469955,0.0008292158315804541,-5.039334635901202,-1.4702679554645677,-2.9148873994050315,-0.7735115683663434,-0.7143146602685988,-0.007395913814150834,-0.2150069000775907,-5.515302704443225,-5.020842313679033,-0.9992655457433344,0.008792180471446996,-0.00045187674199387523
0.81,1.6157919019853335,1.5395337575178267,-1.1839292012363174,0.11544162750426008,0.18608696361741164,0.002211884625567586,1.634909113980003,0.6119573105596685,0.21459927603038972,0.03134379384237621,0.14540370451709092,0.0007656364910928274,-5.123666020560471,-1.5756964416498613,-2.908953347332721,-0.7654383336842763,-0.7025769179725501,-0.00662814200842865,-0.24929612477208776,-5.567128722130171,-5.030617897530297,-1.000305574783079,0.006804005575988474,-0.00044675211283950073
0.8200000000000001,1.631631762393865,1.545495640490918,-1.1820720202303785,0.11567891337060966,0.18748051915980152,0.0022189326623852004,1.583986040853144,0.5961882973091235,0.18571810059389787,0.02372858663495802,0.13935555423898674,0.0007048036817614348,-5.20225411696918,-1.6731812551694631,-2.897975327991567,-0.7565054759694156,-0.6906801577570896,-0.005925407803405225,-0.2831583117929667,-5.615305616250416,-5.039501590929308,-1.0013154584812936,0.004864920273669186,-0.00044166142925033285
0.8300000000000001,1.6469546070712806,1.5512901191777915,-1.1805025764712114,0.11584088654155093,0.18881420690182849,0.002225398720942246,1.5322844677415663,0.5794478686873558,0.15694437591670932,0.016197317094126588,0.13336877420269636,0.0006466058557045737,-5.275024225934638,-1.762679804779031,-2.8822128352279526,-0.7467855329452533,-0.6786770310389763,-0.005284830916110206,-0.316493997078959,-5.659959634790016,-5.047530594098239,-1.0022976266126467,0.0029770376864450554,-0.000436702539197361
0.84,1.661753226510013,1.5569082763449213,-1.1792193200853365,0.1159284697868001,0.1900886658665104,0.002231308001602382,1.4798619438732499,0.5618157167129834,0.12832563858748297,0.008758324524917007,0.12744589646819104,0.000590928066013581,-5.341912734903861,-1.844168059623325,-2.861918613459934,-0.7363459657959552,-0.6666147795680146,-0.004703461286263977,-0.34920820710052297,-5.701209847379358,-5.054735574225408,-1.00325296209616,0.001142013303039216,-0.00043196712526571675
0.85,1.6760209931482857,1.5623419940075396,-1.178220250885943,0.11594266245931852,0.19130455685505288,0.0022366845315298406,1.426776663827259,0.5433717662618258,0.09990691993936296,0.0014192672518407497,0.12158909885424742,0.0005376529927458564,-5.402866466093995,-1.9176393047509568,-2.8373370686901906,-0.7252489843716852,-0.6545355745254717,-0.004178316444419128,-0.38121037474126573,-5.739167382555259,-5.061140828285466,-1.004180904230867,-0.000638884600291427,-0.00042753998163419515
0.86,1.689751866793583,1.5675839540372773,-1.1775029425936097,0.11588453417230132,0.1924625592230675,0.0022415511502962638,1.3730873645297206,0.52419600297378,0.0717308292333356,-0.005812828701719462,0.11580023680146097,0.0004866618766423311,-5.457842057025796,-1.9831030497767699,-2.8087029728296664,-0.7135514570845238,-0.6424768394185278,-0.0037064129396129353,-0.41241423968094626,-5.773934898440421,-5.066764541942883,-1.0050795628780251,-0.002364706766562634,-0.00042349841400547245
0.87,1.7029403990753496,1.572627637157902,-1.177064566097076,0.11575521897567206,0.1935633679613465,0.002245929503953847,1.3188532281766678,0.504368312062462,0.043837649653357555,-0.012931519662925564,0.11008087382790044,0.0004378353657583575,-5.506805386219123,-2.040584092383698,-2.776240454989679,-0.7013048998609115,-0.6304715548359852,-0.0032847925921402066,-0.4427377451656056,-5.805606267462886,-5.071619132637648,-1.0059458414618478,-0.004034758132591423,-0.0004199117571443484
0.88,1.7155817369820061,1.5774673204226604,-1.1769019116545059,0.11555591003701145,0.19460769106743608,0.00224984004675528,1.2641337906656553,0.4839683264758437,0.01626544425701465,-0.019930893866061984,0.1044323106089585,0.0003910542801433056,-5.5497310539844875,-2.0901217358201447,-2.740162270722029,-0.6885555382592017,-0.6185485442172087,-0.002910544269933535,-0.4721029415329331,-5.834266456222438,-5.075711665379737,-1.0067755668943592,-0.005648537327736909,-0.00041684100383236605
0.89,1.727671625532171,1.5820980732513092,-1.177011409963344,0.11528785482460059,0.19559624719464086,0.002253302049751043,1.2089888550164865,0.46307528286488925,-0.01094983088380648,-0.026805521241086008,0.09885561272047678,0.0003462002995762839,-5.586601925561902,-2.131769157133057,-2.700669337791213,-0.6753444366732815,-0.606732740622224,-0.0025808217531628763,-0.5004359052631279,-5.859991582340792,-5.079044330277769,-1.0075636247396678,-0.007205681276538388,-0.00041433853855128895
0.9,1.7392064096240354,1.5865157520898103,-1.1773891520533764,0.11495235078356955,0.19652976356551535,0.0022563336155438838,1.1534784091864465,0.4417678838500993,-0.03777420900324925,-0.03355040410310392,0.09335163708744912,0.0003031565792840504,-5.617408741334936,-2.165592920585934,-2.6579505249178594,-0.6617076884450395,-0.5950454351089327,-0.00229285818215752,-0.5276666806960055,-5.8828491310208335,-5.081614971360946,-1.008304098114176,-0.0087059155171164,-0.00041244796900858873
0.91,1.7501830351003917,1.5907169937411265,-1.1780309079827571,0.11455074149002575,0.19740897413732178,0.0022589516985283757,1.097662547635628,0.420124165131627,-0.06417559293806688,-0.04016092935438006,0.08792105718064182,0.0002618082984491868,-5.642149796497502,-2.1916726285517663,-2.6121826780267483,-0.6476766606368223,-0.583504507741754,-0.00204397753774499,-0.5537292499314508,-5.9028983150132515,-5.0834176567935305,-1.008990408969762,-0.01014901068964836,-0.0004112040486569134
0.92,1.760599049060108,1.5946992074017858,-1.1789321443403673,0.11408441326250598,0.19823461800733522,0.0022611721299898393,1.0416013959716304,0.39822136606593467,-0.09012363576102643,-0.04663282275197624,0.08256438700134491,0.00022204314614634817,-5.660830690382171,-2.210100700152834,-2.563530866839889,-0.6332782871824527,-0.5721246425283688,-0.0018316034705301298,-0.5785615348399523,-5.920190562682188,-5.0844432811065445,-1.0096154605266454,-0.011534745502534631,-0.00041063268357845336
0.93,1.7704525994400917,1.5984605654260797,-1.18008804057977,0.11355479220515775,0.19900743804624468,0.002263009647482556,0.9853550379983659,0.37613580242939004,-0.11558962394026628,-0.052962105734823434,0.07728200389094539,0.0001837517492717036,-5.6734641436815,-2.2209822660531358,-2.5121488331543422,-0.6185354041525244,-0.5609175277131158,-0.00165326583370895,-0.6021054335721153,-5.934770119823243,-5.084680190568484,-1.0101717797129905,-0.012862876348079692,-0.00041075101744834854
0.9400000000000001,1.7797424338851822,1.601999992828132,-1.1814935042300443,0.11296334165271352,0.1997281797482229,0.0022644779279506373,0.9289834445090395,0.35394274020524463,-0.14054636502743542,-0.05914505524442334,0.07207417019782315,0.00014682804680811595,-5.680069880014236,-2.224435166110013,-2.458179620848937,-0.6034671208459059,-0.5498920428992164,-0.0015066051398555658,-0.6243068924839164,-5.946674751777041,-5.084114823278828,-1.01065165853242,-0.014133113614292758,-0.0004115675887071748
0.9500000000000001,1.7884678979171487,1.6053171555217662,-1.1831431850468273,0.11231155998358147,0.2003975902865197,0.002265589624097437,0.8725464031966426,0.33171626936342286,-0.16496808167829397,-0.06517816691320436,0.06694105382968069,0.00011116961467997594,-5.680674566713062,-2.2205900350734216,-2.401756366533566,-0.5880892204750587,-0.5390544344372898,-0.0013893751995448511,-0.645116012996577,-5.955936533167163,-5.082732355992905,-1.0110472933224588,-0.015345104624198795,-0.0004130825545139264
0.96,1.7966289324081937,1.6084124472892731,-1.1850314881828186,0.11160097876423662,0.20101641776367202,0.002266356403549846,0.8161034491044906,0.3095291767506785,-0.18883031359914043,-0.07105812193448469,0.06188274771523009,7.667794524090193e-05,-5.675311808346955,-2.209590460204527,-2.3430032288256943,-0.5724145842153181,-0.5284084804348126,-0.001299444118191051,-0.6644871915927923,-5.962582713253715,-5.080517350078639,-1.0113509208915497,-0.016498423028170603,-0.0004152879764773474
0.97,1.804226070359217,1.6112869754629724,-1.1871525864707477,0.11083316118555989,0.20158541064562632,0.002266788990402887,0.7597137951023281,0.2874528173699364,-0.21210982879291096,-0.07678175786767424,0.056899288195430206,4.32586853040931e-05,-5.664022185345693,-2.1915931935883757,-2.282036433485707,-0.5564536324443967,-0.5179556466288204,-0.0012347938316499274,-0.6823792899201774,-5.966636645419658,-5.077454389371185,-1.0115549505349775,-0.01759256437761241,-0.00041816816354059547
0.98,1.8112604329786985,1.6139425452979708,-1.1895004319232663,0.11000970074983742,0.20210531736923962,0.0022668972087673198,0.7034362619481481,0.26555698349984225,-0.234784545251847,-0.08234604357224713,0.0519906723613293,1.0821836443301866e-05,-5.646853329170161,-2.166768401057723,-2.218965411095285,-0.5402147770446053,-0.5076952342352996,-0.0011935183496252222,-0.6987558308339634,-5.968118769693081,-5.073528703041561,-1.0116520909365276,-0.01862694751928253,-0.00042170006769508977
0.99,1.8177337250544976,1.616381643010834,-1.1920687665633791,0.1091322201657963,0.2025768861127706,0.0022666900279782786,0.6473292075799035,0.24390977128631142,-0.25683346401127893,-0.08774805840411279,0.04715687435310035,-2.07180789041353e-05,-5.62386002477973,-2.135299929047282,-2.153894003619465,-0.5237048787173553,-0.49762452076093666,-0.0011738208187090926,-0.7135852151724491,-5.967047637457883,-5.0687267669409595,-1.0116354709684914,-0.01960092136835785,-0.00042585372840461084
