tonegas/nnodely-applications/joint_friction_estimation/dataset/train/mpc_mujoco_episode_11 copy.csv
time,q1,q2,q3,q4,q5,q6,dq1,dq2,dq3,dq4,dq5,dq6,ddq1,ddq2,ddq3,ddq4,ddq5,ddq6,tau1,tau2,tau3,tau4,tau5,tau6
0.0,0.0,1.57,-1.57,0.0,0.0,0.0,0.0,0.0,0.0,0.0,0.0,0.0,-1.9505670997297129,-7.962618839339757,0.49294321509418637,0.6425919172900834,-0.2944297617660574,-2.0817404311479493e-06,-0.27186013162165873,-8.49563245235992,-5.8818140921178514,-1.295848497438096,-0.024748606492373267,-0.0009332805270946823
0.01,-0.0001940713303040392,1.5692065457109137,-1.5699530036753915,5.8144570506165744e-05,-2.464393079664893e-05,-2.1594950468125653e-07,-0.01940713303040392,-0.07934542890863806,0.00469963246085511,0.005814457050616575,-0.002464393079664893,-2.1594950468125652e-05,-1.9161300617096146,-7.806246666726888,0.5024460624238412,0.5885189872395067,-0.24619688933528927,-0.002168395060115902,-0.2673247527107017,-8.417030750398284,-5.85239118950608,-1.289666068857233,-0.02438557361460975,-0.0009259561683940382
0.02,-0.0005786352479042996,1.5676352573186236,-1.5698583373482073,0.00017019143850626365,-7.08954136927849e-05,-6.553467724784102e-07,-0.038456391760026035,-0.15712883922900078,0.009466632718405404,0.01120468680000979,-0.004625148289613596,-4.393972677971536e-05,-1.878475926842017,-7.640541664164547,0.5121959176841084,0.5468016947105774,-0.21618514878067607,-0.0022720446210229284,-0.2608994903954575,-8.325469049988708,-5.81806569051957,-1.2824778400151393,-0.023903540923055907,-0.0009172800969024523
0.03,-0.0011498541412253318,1.5653026770903642,-1.56971521910205,0.00033285538976636606,-0.00013681934476743454,-1.3037539706631906e-06,-0.057121889332103215,-0.23325802282595082,0.0143118246157246,0.01626639512601024,-0.006592393107464964,-6.484071981847805e-05,-1.838223149734676,-7.465940679689349,0.5230416602433774,0.514701513899265,-0.1974645966188433,-0.0021768514107169956,-0.2527166009254426,-8.221261585659313,-5.779026262874032,-1.274327668334692,-0.02330881631274964,-0.0009073206219010874
0.04,-0.0019036690053956334,1.5622262281325325,-1.5695226941407185,0.0005436008027171049,-0.00022116409678313298,-2.1498114562401527e-06,-0.07538148641703016,-0.30764489578317666,0.019252496133154526,0.021074541295073888,-0.008434475201569844,-8.460574855769621e-05,-1.7957493405571328,-7.282871330887122,0.535623735718902,0.4901366988693212,-0.18584933086517275,-0.002133582491004482,-0.2429222237535549,-8.10473095602291,-5.735466296023446,-1.265260545232326,-0.02260792728787929,-0.0008961407612717069
0.05,-0.002835822647870185,1.5584241735116013,-1.5692795861773303,0.0008004840315397293,-0.0003231082493482199,-3.1867878824618947e-06,-0.09321536424745516,-0.3802054620931227,0.024310796338814403,0.025688322882262436,-0.010194415256508691,-0.00010369764262217419,-1.751289469539624,-7.091758827649304,0.5504203688489824,0.4715245288081178,-0.17879986906801726,-0.0021584237515042126,-0.2316742100947525,-7.976209681661836,-5.687584057561177,-1.2553226234654902,-0.021807583024086148,-0.0008838005894587523
0.06,-0.00394187451089477,1.5539155751916773,-1.5689844613766715,0.0011020335792210373,-0.0004421065198784551,-4.41142161612802e-06,-0.1106051863024585,-0.4508598319924111,0.029512480065887504,0.030154954768130796,-0.011899827053023521,-0.0001224633733666125,-1.7049942059842136,-6.8930310976658715,0.567782512209476,0.45766040859702883,-0.17477022870736558,-0.0022406886808501447,-0.21914011643901593,-7.836041738555849,-5.6355827982149345,-1.2445612243391067,-0.02091465924910588,-0.0008703587933427552
0.07,-0.005217210604192138,1.5487202523790797,-1.5686356022345003,0.0014471588706181481,-0.0005777956415682318,-5.822902335435138e-06,-0.1275336093297368,-0.5195322812597611,0.03488591421712222,0.034512529139711076,-0.013568912168977673,-0.00014114807193071178,-1.65696460931419,-6.687122580981696,0.587960185572241,0.4476257648024706,-0.1728153381268287,-0.00237139032718936,-0.2054952695772828,-7.684584046326209,-5.579670807185436,-1.2330248270136193,-0.01993619471474941,-0.0008558737850799274
0.08,-0.006657050619291116,1.5428587389720987,-1.568230989428361,0.0018350806309217176,-0.0007299365102120406,-7.4222119193126445e-06,-0.14398400150989785,-0.5861513406981064,0.040461280613917516,0.03879217603035696,-0.015214086864380878,-0.00015993095838775064,-1.607272744308819,-6.474476964483773,0.6111223110240847,0.44071797043946503,-0.1723539922379569,-0.002545470190521648,-0.19092085009254325,-7.522207885636655,-5.520061416850405,-1.2207630412349542,-0.018879392441301657,-0.0008404045526643665
0.09,-0.008256453450101372,1.5363522399010094,-1.567768290164077,0.002265277547705956,-0.0008983782839275735,-9.211724262423422e-06,-0.15994028308102548,-0.6506499071089263,0.04626992642839449,0.043019691678423844,-0.016844177371553287,-0.00017895123431107776,-1.5559739024224108,-6.255549055165632,0.6373716580124551,0.4363970532975472,-0.1730253104743209,-0.0027608080267527146,-0.17560196573570508,-7.349300216855915,-5.456972954583995,-1.2078265642795334,-0.017751621483029615,-0.0008240113419105487
0.1,-0.010010321839526125,1.5292225862151698,-1.5672448519088154,0.0027374451685518515,-0.0010830357597761415,-1.1194967317027212e-05,-0.1753868389424754,-0.712965368583961,0.0523438255261736,0.04721676208458953,-0.0184657475848568,-0.00019832430546037896,-1.5031138173746925,-6.030805940112584,0.6667561279093306,0.43424518347519303,-0.17460151048431083,-0.0030172553783482936,-0.15972570193363878,-7.1662648718042625,-5.390628639143906,-1.1942671226528234,-0.016560416485330062,-0.0008067562163096873
0.11,-0.011913406571382363,1.5214921888345139,-1.5666577006747857,0.0032514639563250253,-0.0012838747519454737,-1.3376483261213887e-05,-0.19030847318562372,-0.7730397380655993,0.05871512340296135,0.05140187877731738,-0.020083899216933227,-0.00021815159441866742,-1.448732906296957,-5.8007275455076215,0.6992773132106969,0.4339358924408465,-0.1769346113888961,-0.003315986812118643,-0.14347914781016152,-6.973523591364074,-5.3212564193568905,-1.1801373989963329,-0.015313473239515716,-0.000788703515624138
0.12,-0.013960310449151032,1.5131839909346647,-1.5660035432196449,0.0038073741632696015,-0.001500902246882872,-1.5761746969799593e-05,-0.20469038777686696,-0.8308197899849238,0.06541574551408963,0.055591020694457635,-0.021702749493739813,-0.00023852637085857058,-1.3928687638274762,-5.5658066820800896,0.7348970417253842,0.43521070547762974,-0.1799235578555658,-0.0036590862337200214,-0.12704740461318353,-6.771516883507166,-5.249088753442955,-1.1654909446802615,-0.014018639049566637,-0.0007699202206187274
0.13,-0.01614549219984457,1.5043214189800571,-1.5652787726776283,0.004405355748456059,-0.0017341593464073133,-1.8357118194051477e-05,-0.21851817506935373,-0.8862571954607641,0.0724770542016512,0.059798158518645735,-0.023325709952444144,-0.0002595371224251886,-1.3355576604825554,-5.326548647151469,0.7735424444550212,0.43786142436905706,-0.1834935962689146,-0.004049275809985042,-0.11061159036113012,-6.560704678631348,-5.174362328105124,-1.1503820786441628,-0.012683897151180654,-0.0007504762246917013
0.14,-0.018463270384029683,1.49492833245912,-1.5644794772424206,0.005045711992853173,-0.001983715752613615,-2.1169811977639395e-05,-0.2317778184185114,-0.9393086520937114,0.07992954352075848,0.06403562443971146,-0.024955640620630166,-0.0002812693783587917,-1.2768355156159221,-5.083470441557578,0.8151099546058482,0.44171671915040633,-0.18758295195473185,-0.004489722576134669,-0.09434686030103637,-6.341566761857126,-5.09731771737625,-1.134865773166775,-0.01131734474697206,-0.0007304445103772164
0.15,-0.020907827365012135,1.4850289724105445,-1.563601451598816,0.00572885579435462,-0.002249664992717155,-2.4207877146314025e-05,-0.24445569809824505,-0.9899360048575461,0.08780256436046718,0.06831438015014467,-0.026594924010354026,-0.00030380651686746284,-1.2167386506994171,-4.837099651654373,0.8594685446408326,0.44663200848224527,-0.19213379858114976,-0.004983879242898004,-0.07842046755294993,-6.114602965020283,-5.018198982093136,-1.1189975273787418,-0.009927164485609834,-0.0007099012280571543
0.16,-0.02347321338163492,1.4746479088604854,-1.5626402108530266,0.006455297875777089,-0.00253211984537386,-2.748017567507556e-05,-0.25653860166227843,-1.0381063550059237,0.09612407457893365,0.07264420814224692,-0.02824548526567049,-0.00032722985287615333,-1.1553045336944456,-4.587973041189948,0.9064624311757532,0.45248185195531754,-0.1970856864420849,-0.0055353289411934625,-0.06298989209023304,-5.880333104438956,-4.937253211717758,-1.1028332294641081,-0.008521589439065468,-0.0006889256747797394
0.17,-0.02615335077452066,1.4638099873175443,-1.561591006746985,0.007225636330621568,-0.002831207583678114,-3.0996357256729224e-05,-0.2680137392885742,-1.0837921542941125,0.1049204106041743,0.0770338454844479,-0.029908773830425388,-0.0003516181581653666,-1.0925726717773008,-4.336634894200643,0.9559134183129894,0.4591542628395793,-0.20237031230622904,-0.006147611168159317,-0.048201068899807034,-5.639296654080132,-4.854730011018009,-1.0864290086188724,-0.00710886183128609,-0.0006676001722784755
0.18,-0.02894203843185792,1.452540274495774,-1.5604488459647103,0.008040547078276481,-0.0031470647374403603,-3.476682401446202e-05,-0.2788687657337257,-1.1269712821770201,0.11421607822744952,0.08149107476549124,-0.03158571537622462,-0.0003770466757732802,-1.0285857803372944,-4.0836351476309,1.0076230045012684,0.4665464904959986,-0.20790695603149167,-0.006824010244853351,-0.03418674769791473,-5.39205214744472,-4.770880934836845,-1.0698410779410292,-0.005697185947531689,-0.000646009844784991
0.19,-0.031832956546386224,1.4408640034558389,-1.5592085103523077,0.008900774912991828,-0.003479831125342386,-3.880268035204826e-05,-0.2890918114528302,-1.167627103993527,0.12403356124026342,0.08602278347153466,-0.03327663879020257,-0.0004035856337586236,-0.9633913398838337,-3.8295273506204337,1.0613743430262188,0.47456192858586466,-0.21359819203693453,-0.0075672897340848255,-0.02106501688647336,-5.139176305278217,-4.685958874808552,-1.0531255695127562,-0.004294675807251432,-0.0006242422988262476
0.2,-0.034819671809228944,1.4288065183709648,-1.55786457888012,0.009807124917457225,-0.0038296429332648706,-4.311566263014913e-05,-0.2986715262842718,-1.2057485084874138,0.13439314721877466,0.09063500044653974,-0.03498118079224849,-0.0004312982278100872,-0.8970436415211404,-3.5748664860046215,1.1169341193724946,0.48310788644322056,-0.2193256776264203,-0.008379357706907453,-0.00893802350529481,-4.881262890035491,-4.6002174024172815,-1.0363383629997598,-0.002909298314570775,-0.000602387208755466
0.21,-0.03789564320807685,1.416393219137481,-1.5564114511780855,0.01076045407831795,-0.00419662463001015,-4.7718042842695537e-05,-0.3075971398847902,-1.2413299233483737,0.14531277020344222,0.09533291608607249,-0.036698169674527985,-0.00046023802125464065,-0.8296064098071481,-3.320206688291446,1.1740543881205223,0.4920940227083248,-0.22494596981680237,-0.009260849532567894,0.0021090811994197572,-4.618921291824306,-4.513910073235223,-1.0195349091351313,-0.001548812709315353,-0.0005805358131970419
0.22,-0.04105422864622634,1.403649506059658,-1.5548433724750295,0.011761662992128647,-0.0045808795243650665,-5.262249986304705e-05,-0.3158585438149495,-1.274371307782291,0.15680787030561866,0.10012089138106975,-0.03842548943549164,-0.0004904457020351516,-0.7611560734344758,-3.0660988910391813,1.232474396333668,0.501431287294313,-0.23028645669917935,-0.010210618086539891,0.012008944222247742,-4.352774854261032,-4.42728969752705,-1.0027700494763194,-0.0002207072292392115,-0.0005587803288323095
0.23,-0.0442886926539035,1.390600724845294,-1.5531544597706848,0.012811687589624438,-0.004982478785182613,-5.784195125443475e-05,-0.3234464007677158,-1.3048781214363956,0.16889127043445762,0.10500245974957909,-0.040159926081754636,-0.0005219451391387697,-0.691785723490718,-2.8130884350804015,1.2919224085097345,0.5110312534698274,-0.23514162707069008,-0.011225127139845359,0.020712539126063717,-4.083458952245294,-4.340607582671558,-0.9860978338265757,0.0010678660362383012,-0.0005372132889898861
0.24,-0.0475922155220355,1.3772721121521956,-1.551338729066615,0.013911490836481926,-0.005401448775774582,-6.338933823138005e-05,-0.33035228681320017,-1.3328612693098592,0.18157307040698487,0.10998032468574873,-0.04189699905919695,-0.0005547386976945304,-0.6216097500680676,-2.5617126673314092,1.352117539254663,0.5208057490611431,-0.23927005365413834,-0.01229775354208118,0.028189403151381257,-3.811618837030842,-4.2541127530323966,-0.9695713366980261,0.0023101570638058722,-0.0005159268153392051
0.25,-0.050957904247724256,1.3636887419264856,-1.5493901234795653,0.015062054392005458,-0.005837756602445488,-6.927735629041329e-05,-0.33656887256887613,-1.3583370225710079,0.19486055870497893,0.11505635555235326,-0.04363078266709055,-0.0005888018059033248,-0.5507690748515341,-2.312498558038895,1.412771593263435,0.5306667164790211,-0.24239263294711888,-0.013418019050021712,0.034427571649342306,-3.5379072671231135,-4.168051153026332,-0.9532424741673466,0.0034998834974581602,-0.000495011831666082
0.26,-0.05437880573494938,1.3498754727717213,-1.547302542058634,0.016264370224973596,-0.006291293851791254,-7.551812451503117e-05,-0.3420901487225126,-1.3813269154764218,0.20875814209313956,0.12023158329681388,-0.045353724934576546,-0.0006240768224617878,-0.4794367954098611,-2.0659603623308658,1.4735909074383065,0.5405262470197841,-0.2441928005822327,-0.014570794394140885,0.03943320441991159,-3.262981946471106,-4.082664839211258,-0.9371618224422813,0.004631294790205057,-0.00047455722932733074
0.27,-0.05784792273618232,1.3358568965832855,-1.5450698691263491,0.017519432199412415,-0.006761858599703971,-8.212278786130686e-05,-0.34691170012329386,-1.4018576188435656,0.22326729322848732,0.1255061974438821,-0.047056474791271785,-0.0006604663346275689,-0.40782392480975066,-1.8225973497411498,1.5342781866441786,0.5502967467899078,-0.24431960333073133,-0.01573554677899952,0.04322990479170541,-2.9875027940434418,-3.9981911672305386,-0.9213784394152376,0.005699233674549581,-0.00045464899467303257
0.28,-0.061358233041009326,1.321657288675636,-1.5426860039635244,0.01882822765323582,-0.007249135923181649,-8.91010491399783e-05,-0.35103103048270057,-1.4199607907649638,0.23838651628247334,0.13087954538234028,-0.04872773234776769,-0.0006978261278671435,-0.336184752446002,-1.582891623438884,1.5945343223803141,0.5598912004823148,-0.2423946186820214,-0.016885736198000212,0.04585773861018767,-2.7121290713864448,-3.9148619794893964,-0.9059396904459994,0.006699193657450291,-0.00043536930968184274
0.29,-0.06490271240470716,1.3073005596209286,-1.5401448906587878,0.020191729000196293,-0.0077526773378660836,-9.646063122401604e-05,-0.35444793636978256,-1.4356729054707391,0.25411133047366274,0.13635013469604745,-0.05035414146844345,-0.0007359582084037739,-0.2648211826522226,-1.3473060489821767,1.6540601822779113,0.5692235057464219,-0.23802371265039557,-0.017988501817986002,0.04737196663421726,-2.437516397011423,-3.832902799462023,-0.8908910795804619,0.007627371112887487,-0.0004167956384855452
0.3,-0.06847436164960778,1.2928102090064533,-1.5374405479460218,0.021610885390939236,-0.008271879818848762,-0.000104206675471222,-0.3571649244900617,-1.4490350614475307,0.27043427127659064,0.1419156390742943,-0.05192024809826781,-0.0007746044247205953,-0.19408525337643381,-1.116282310931348,1.7125583576468513,0.5782088554811091,-0.23081444322822686,-0.019004809660092464,0.047841510184176525,-2.1643136786273827,-3.752532038604921,-0.8762760873891677,0.008480710392863258,-0.0003989998145887204
0.31,-0.07206623825151434,1.2782092813053616,-1.5345670988566582,0.023086614472527914,-0.008805965331354703,-0.00011234108956588307,-0.3591876601906567,-1.4600927701091597,0.28734490893636944,0.14757290815886798,-0.05340855125059401,-0.0008134414094661063,-0.12437893846258094,-0.8902391146171558,1.7697348561433692,0.5867641485044426,-0.2203994751695138,-0.01989024525157742,0.04734717632218885,-1.8931599963163621,-3.6739602219857685,-0.8621360165971962,0.00925694020719374,-0.0003820471465836583
0.32,-0.07567149253112075,1.2635203240404471,-1.5315188000188353,0.02461979428787638,-0.00935396208272237,-0.00012086186681114965,-0.36052542796064047,-1.4688957264914464,0.3048298837822913,0.15331798153484652,-0.054799675136766555,-0.0008520777245266573,-0.05615034508087159,-0.6695705498461245,1.825300726937028,0.5948084111136165,-0.2064656181440118,-0.020596615028601384,0.04597967550798881,-1.6246814717651166,-3.5973892389438262,-0.8485098466768551,0.009954599360538725,-0.0003659955640673166
0.33,-0.07928340830063171,1.2487653484043044,-1.528290070441838,0.026211255357283293,-0.009914688976291147,-0.00012976240883366889,-0.3611915769510957,-1.475497563614277,0.32287295769973723,0.15914610694069137,-0.05607268935687776,-0.0008900542022519243,0.010114415332189533,-0.454644633279217,1.8789736064428073,0.6022632135418631,-0.18878703998777063,-0.021074453424292802,0.043837471681651245,-1.3594881605714377,-3.523011625373006,-0.8354340985840472,0.010573049826476288,-0.0003508948301141381
0.34,-0.08289544747236861,1.2339657924810898,-1.5248755196319341,0.027861772983835263,-0.010486744956982496,-0.0001390308937116309,-0.36120391717369027,-1.4799555923214625,0.34145508099039623,0.16505176265519692,-0.05720559806913488,-0.0009268484877962011,0.07390404311124313,-0.24580204642169012,1.930479173707048,0.6090530667707412,-0.1672599437858469,-0.021276410204996626,0.04102451208887326,-1.0981710062968177,-3.4510098845319397,-0.8229427108312589,0.011112475144916216,-0.00033678585156799975
0.35000000000000003,-0.0865012977361536,1.2191424871953498,-1.5212699748946488,0.02957205982295046,-0.011068505032929634,-0.00014864974022049305,-0.3605850263784985,-1.4823305285740112,0.3605544737285337,0.17102868391151968,-0.0581760075947139,-0.0009618846508862129,0.13469936153790604,-0.04335508618631773,1.979552505814669,0.6151057871221246,-0.14193476030468477,-0.02116132004936555,0.03764789167728018,-0.8412988960925942,-3.3815558535760566,-0.8110669280937394,0.01157386232314032,-0.00032370012273998507
0.36,-0.09009492198845062,1.204315625092026,-1.517468507688563,0.03134275875387231,-0.011658124680057806,-0.00015859522431377847,-0.35936242522970174,-1.4826862103323772,0.3801467206085789,0.17706989309218524,-0.05896196471281716,-0.000994548409328543,0.19199424857348957,0.1524131557593269,2.0259393251326707,0.620352818979498,-0.11304103516141817,-0.02069855947963828,0.033815514017778714,-0.589415858032407,-3.3148101231818297,-0.7998352035253184,0.011958965871236864,-0.0003116593406384351
0.37,-0.09367060779656254,1.1895047320289218,-1.5134664589067628,0.03317443608764238,-0.012253554038889768,-0.00016883730409082348,-0.35756858081119225,-1.4810893063104118,0.4002048781800231,0.1831677333770072,-0.05954293588319629,-0.0010242079777045008,0.24531862370645308,0.3412493708626532,2.0693971317388145,0.6247295099890833,-0.0810000601027473,-0.019872122338499165,0.029633816528446447,-0.34303843932999717,-3.250921517577976,-0.7892731158995561,0.012270253354459991,-0.0003006752292064796
0.38,-0.09722301486414196,1.174728641838868,-1.5092594629739275,0.0350675751421776,-0.012852562771483259,-0.00017933970263405533,-0.3552407067579428,-1.4776090190053721,0.4206995932835223,0.18931390545352206,-0.05990087325934914,-0.0010502398543231857,0.29426138811227126,0.5229303590289008,2.109696215930897,0.6281753379324151,-0.04642119464393868,-0.018683753743102383,0.025205631058774353,-0.10265330202128192,-3.1900266418941987,-0.7794033025749163,0.01251083289495496,-0.00029074960487177976
0.39,-0.10074721828977876,1.1600054739939936,-1.5048434706595148,0.037022570210807994,-0.01345277567720562,-0.0001900602833799982,-0.3524203425636789,-1.4723167844874516,0.44159923144128066,0.19549950686303968,-0.06002129057223613,-0.0010720580745942887,0.3384909904381791,0.6972630982409336,2.146620547287394,0.6306340934130858,-0.010079793615820232,-0.017154525885950567,0.02062825025688437,0.13128493180155099,-3.132249502893606,-0.7702454090998884,0.01268436433298654,-0.00028187470517807754
0.4,-0.10423874542735138,1.1453526142794896,-1.5002147705203241,0.03903972094630062,-0.014051718233498541,-0.0002009517306511599,-0.34915271375726337,-1.4652859714503907,0.46287001391907984,0.20171507354926305,-0.05989425562929212,-0.0010891447271161678,0.3777714665095574,0.8640845638080226,2.1799685384324343,0.6320540265819634,0.02712258870150719,-0.015324437315268447,0.015991764417111275,0.3583555594856559,-3.0777012078379657,-0.7618160560259948,0.012794957120372001,-0.00027403378643174375
0.41000000000000003,-0.1076936043901734,1.130786698459831,-1.4953700088986297,0.04111922717831584,-0.014646870242946385,-0.00021196252078123834,-0.34548589628220194,-1.4565915819658717,0.48447616216944034,0.2079506232015223,-0.05951520094478431,-0.0011010790130078433,0.4119723635172414,1.0232613122454932,2.209553683585078,0.6323879683875457,0.06421209563340424,-0.013249941314257274,0.011377722106509568,0.5781733842282988,-3.026479744495293,-0.7541288231961945,0.01284705926698006,-0.0002672019764186755
0.42,-0.11110830268257425,1.1163235988974332,-1.4903062084147642,0.04326118417868108,-0.015235724872599672,-0.00022303814053368604,-0.3414698292400844,-1.4463099562397708,0.5063800483865426,0.2141957000365235,-0.058885462965328796,-0.0011075619752447708,0.44107178267653185,1.17468885416196,2.2352050742067067,0.6315934367992195,0.10020451971408417,-0.0109996822152989,0.006858151134507263,0.7903899993539047,-2.978669843276529,-0.7471942514479681,0.012845342578033317,-0.0002613473467789206
0.43,-0.11447985504894329,1.1019784140630327,-1.485020784905238,0.04546557838599822,-0.01581584971024528,-0.0002341224836772925,-0.3371552366369033,-1.434518483440061,0.5285423509526281,0.22043942073171424,-0.058012483764560606,-0.0011084343143606468,0.46515266695706114,1.3182908481097597,2.256767796570578,0.6296327362031313,0.1341679746023554,-0.008649041116740919,0.002494955748063396,0.9946947701458243,-2.9343429203885014,-0.7410198613458583,0.012794589823832992,-0.0002564321498243268
0.44,-0.11780578032916894,1.0877654608593446,-1.4795115627689426,0.04773228359896609,-0.01638494614985315,-0.00024515933790695405,-0.3325925280225654,-1.4212953203688061,0.5509222136295336,0.22667052129678714,-0.05690964396078727,-0.0011036854229661583,0.4843932315355568,1.4540181518872524,2.2741032186312187,0.6264730544478123,0.1652790839361835,-0.00627427829907512,-0.0016603164203168215,1.1908155207001223,-2.8935570989483756,-0.7356101882698458,0.01269958927809585,-0.0002524141497982559
0.45,-0.12108408781369108,1.0736982696652473,-1.4737767886945172,0.0500610576463061,-0.01694090351180235,-0.0002560938658543534,-0.32783074845221355,-1.4067191194097253,0.5734774074425338,0.2328774047340006,-0.05559573619491986,-0.0010934527947399312,0.49905295488493295,1.5818477686402754,2.2870891758133927,0.6220865579072594,0.1928669069476321,-0.003947067732308351,-0.005566365431592861,1.3785189393299055,-2.8563573034275165,-0.7309668329588942,0.012565041264915765,-0.00024924797141961133
0.46,-0.12431325421642736,1.0597895819969465,-1.467815143751417,0.05245153954013142,-0.017481844788424062,-0.00026687398686859633,-0.32291664027362843,-1.3908687668300692,0.5961644943100058,0.23904818938253206,-0.05409412766217112,-0.001078012101424294,0.5094557764970497,1.7017817224183276,2.295620066910395,0.6164504814091796,0.21644108436740916,-0.0017300654179353003,-0.009191733607417825,1.557610719959781,-2.8227754217185894,-0.7270885264571344,0.012395480098104872,-0.00024688639022990035
0.47000000000000003,-0.12749219286331154,1.0460513506751152,-1.4616257538355768,0.05490324711874834,-0.018006161700989072,-0.00027745157958619063,-0.31789386468841646,-1.3738231321831205,0.618938991584021,0.2451707578616923,-0.052431691256501,-0.0010577592717594317,0.5159721178841067,1.8138458923946814,2.299606871916193,0.6095472076354334,0.2357032025528396,0.0003261018852435127,-0.012514161215921004,1.727935458675875,-2.792830528591344,-0.723971208333355,0.012195213289003786,-0.0002452814992852131
0.48,-0.13062021699017345,1.0324947423823967,-1.4552081984678138,0.05741557518398186,-0.018512537733755653,-0.0002877834463254439,-0.31280241268619097,-1.3556608292718586,0.6417555367763045,0.25123280652335206,-0.05063760327665796,-0.0010331866739253248,0.5190011334311191,1.918088827941153,2.298977103250582,0.6013643298367253,0.2505426078682058,0.0021843207609260062,-0.015519766708842374,1.8893763244543407,-2.7665291642718675,-0.7216081170313183,0.011968278373722692,-0.0002443857031181173
0.49,-0.13369699914923044,1.01913014249328,-1.4485625179493693,0.05998779413699253,-0.01899995883100382,-0.000297832005319084,-0.3076782159056976,-1.3364599889116753,0.6645680518444524,0.25722189530106737,-0.04874210972481676,-0.0010048558993640097,0.5189542904334875,2.014580559409075,2.2936747006034794,0.5918946922107917,0.261019513150736,0.003821079405408767,-0.018202114605117652,2.0418545216298627,-2.743865662231265,-0.7199898912402496,0.01171841637438801,-0.00024415250972062425
0.5,-0.13672252865823978,1.0059671620575235,-1.441689218884371,0.06261904911509641,-0.01946771237381986,-0.0003075657019307844,-0.30255295090093365,-1.3162980435756524,0.6873299064998293,0.2631254978103886,-0.04677535428160407,-0.0009733696611700444,0.5162410414464698,2.1034114128479544,2.283659877802509,0.5811364036417448,0.26733910044443143,0.005225449373103541,-0.020561228733166015,2.185328559514236,-2.7248225208550765,-0.7191046812310053,0.011449059902220152,-0.00024453711144945277
0.51,-0.13969706882810295,0.993014646818374,-1.4345892780836889,0.06530835963029753,-0.019915375798509494,-0.000316959152123302,-0.2974540169863165,-1.2952515239149365,0.7099940800682143,0.26893105152011176,-0.04476634246896345,-0.0009393450192517555,0.5112570326889049,2.184690831672485,2.2689089280137065,0.5690928222287273,0.2698204968516713,0.006397319491234121,-0.022602599713018097,2.3197933423070616,-2.709370814339415,-0.7189382691655475,0.01116333329416512,-0.00024549676356361213
0.52,-0.14262111541921582,0.9802806881473024,-1.4272641448688281,0.06805461970814324,-0.02034279672555423,-0.00032599304848011663,-0.2924046591112873,-1.2733958671071621,0.7325133214860615,0.2746260077845697,-0.042742092704473704,-0.0009033896356814654,0.504375015790622,2.2585462047477503,2.249413991529117,0.5557725097218373,0.26886414881450293,0.007345235532998595,-0.024336224988210805,2.4452790904858945,-2.697470638806339,-0.719474197442115,0.010864061937385969,-0.000246990982778169
0.53,-0.14549535744927547,0.9677726357774794,-1.4197157417983264,0.07085659852320696,-0.020750066727436785,-0.00033465387013890453,-0.2874242030059657,-1.2508052369823,0.7548403070501681,0.28019788150637176,-0.0407270001882553,-0.0008660821658787894,0.49593840895939767,2.3251216984558756,2.2251827885989224,0.5411891563828792,0.2649204459906145,0.008084144753463751,-0.02577570891350777,2.5618501034783665,-2.68907159017071,-0.7206939041781227,0.010553788013068631,-0.00024898159696609744
0.54,-0.14832064114397173,0.9554971122185575,-1.4119464638427366,0.07371294152509292,-0.021137490899868862,-0.0003429334432103872,-0.2825283694696254,-1.227552355892188,0.7769277955589802,0.28563430018859637,-0.038742417243207476,-0.0008279573071482637,0.48625729118535427,2.3845770897637344,2.196238318358544,0.5253614777765829,0.25846163558505686,0.00863326644447382,-0.026937440491052445,2.6696033726949953,-2.6841132706862085,-0.7225768649550204,0.010234790191923804,-0.00025143268106264384
0.55,-0.15109793751550518,0.9434600287354171,-1.4039591760378074,0.07662217204643772,-0.02150555525988708,-0.00035082839848626365,-0.27772963715334426,-1.2037083483140376,0.7987287804929145,0.29092305213447944,-0.03680643600182164,-0.0007894955275876436,0.4756065072198235,2.437086597757465,2.162618523931659,0.5083130855685596,0.24995826566123758,0.009014228879718256,-0.027839858007770016,2.768667053907757,-2.6825258213431393,-0.7251007399554168,0.00990910524377058,-0.00025431041405930545
0.56,-0.15382831379018222,0.9316666027734224,-1.3957572096489825,0.07958269338202849,-0.02185489373093008,-0.0003583395697211219,-0.2730376274677049,-1.1793425961994728,0.8201966388824798,0.29605213355907706,-0.034933847104299934,-0.0007511171234858263,0.46422550566193854,2.4828377121579246,2.1243759232328516,0.4900723346287261,0.23986069554283573,0.00924954253419008,-0.028502803344815295,2.859198808384707,-2.684230477403407,-0.7282415256167251,0.00957855000000005,-0.00025758288879054644
0.5700000000000001,-0.15651290869408171,0.9201213767124926,-1.3873443568838826,0.08259279132591642,-0.02218625614335816,-0.0003654713698281555,-0.26845949038994854,-1.1545226060929832,0.8412852765099929,0.30100979438879283,-0.03313624124280791,-0.0007131800107033607,0.45231951883426313,2.5220300186487186,2.0815772048000563,0.470672148686754,0.2285856610745831,0.009361425365956855,-0.02894696408458029,2.9413840229897787,-2.6891401443674696,-0.7319737099121393,0.009244742568205382,-0.00026121990116260106
0.58,-0.15915291144628865,0.9088282378320519,-1.3787248641930197,0.0856506371513026,-0.022500478325235034,-0.0003722311751601061,-0.26400027522069314,-1.1293138880440705,0.8619492690863029,0.30578458253861757,-0.03142221818768743,-0.0006759805331950588,0.4400617111325792,2.554874022184734,2.0343027880571567,0.4501498266186772,0.2165074947342357,0.009370959250378674,-0.029193398515481236,3.0154339204790794,-2.6971599916082494,-0.7362704303539427,0.008909122102710868,-0.0002651927395828894
0.59,-0.16174954419873286,0.897790439368798,-1.369903424202616,0.08875429101602239,-0.0227984550178581,-0.0003786287406223221,-0.2596632752444203,-1.1037798463253892,0.8821439990403734,0.31036538647197953,-0.029797669262306543,-0.0006397565462215982,0.4275959619678095,2.581589970637316,1.982646347685935,0.42854683117544035,0.20395336383683893,0.009297535307653204,-0.029263136915809305,3.0815835723369274,-2.7081880608090665,-0.7411036338001575,0.008572966762862073,-0.00026947398943365935
0.6,-0.16430404759358394,0.8870106225493378,-1.36088516632703,0.09190170577465072,-0.023081116047126454,-0.00038467566137589476,-0.2554503394851078,-1.077981681946017,0.9018257875585902,0.31474147586283296,-0.02826610292683541,-0.0006046920753572662,0.41504000097339905,2.602406682087936,1.9267143021784445,0.4059085617293636,0.1912017792622568,0.009158536435138975,-0.029176851750251788,3.1400898275875537,-2.7221158862335626,-0.7464442371368656,0.008237409737807856,-0.00027403736205427743
0.61,-0.16681766907548604,0.8764908394801706,-1.3516756461118973,0.09509073117658803,-0.023349405928454657,-0.0003903848907653002,-0.25136214819020963,-1.0519783069167246,0.9209520215132695,0.318902540193731,-0.026828988132820454,-0.0005709229389405444,0.40248866915257825,2.617560379775346,1.8666252671029913,0.382284112406273,0.17848361186395,0.008969204265173447,-0.028954589328637665,3.191229172011601,-2.7388291237549787,-0.7522622879074121,0.00790345338749715,-0.0002788575531750732
0.62,-0.16929165358862128,0.8662325767783191,-1.3422808333626308,0.09831911842795697,-0.023604266884173702,-0.00039577031905737914,-0.2473984513135247,-1.0258262701851502,0.9394812749266411,0.3228387251368932,-0.02548609557190439,-0.0005385428292078969,0.3900171343597114,2.6272935391421997,1.8025094740958245,0.35772601683846794,0.16598490396246912,0.008742641849406652,-0.028615555801563945,3.2352955330336215,-2.758208185494394,-0.7585271239677188,0.007571981655957141,-0.00028391013220985847
0.63,-0.1717272363002875,0.8562367798271641,-1.3327070991163532,0.10158452509373642,-0.023846625106683797,-0.00040084641365272726,-0.24355827116662132,-0.9995796951155005,0.9573734246277656,0.32654066657794417,-0.024235822251009398,-0.0005076094595348146,0.37768393915403736,2.631853751650665,1.734508157060418,0.3322899807064488,0.15385085284252853,0.00848991015615852,-0.028177950908790578,3.272598046194153,-2.7801288768705446,-0.7652075312646052,0.007243770968206603,-0.0002891714612514052
0.64,-0.17412563701704464,0.8465038775437459,-1.3229612015185999,0.10488452031528013,-0.024077380002603697,-0.00040562791856164324,-0.23984007167571408,-0.9732902283418173,0.9745897597753423,0.32999952215437106,-0.023075489591990028,-0.0004781504908916001,0.3655338015224103,2.6314926100819434,1.6627729074975246,0.3060346032330745,0.1421904510655232,0.008220184236670702,-0.027658843519088268,3.303458799557557,-2.8044630328522073,-0.7722718988615037,0.006919499839945109,-0.00029461864092264256
0.65,-0.1764880559914136,0.8370338075459689,-1.3130502706692102,0.10821659031721181,-0.02429739609530077,-0.0004101296089944821,-0.23624189743689405,-0.9470069997777021,0.9910930849389694,0.33320700019316773,-0.022001609269707068,-0.0004501690432838853,0.3536001234518558,2.6264646199462534,1.5874650012900915,0.2790210888375686,0.13108137943464016,0.00794094253490052,-0.027074083619460055,3.328210572627741,-2.831079150228564,-0.7796883703727573,0.006599757421545002,-0.0003002294792681914
0.66,-0.17881567085266917,0.8278260416107694,-1.3029817925046625,0.11157814417666093,-0.024507497237310587,-0.0004143660957409846,-0.23276148612555747,-0.9207765935199465,1.0068478164547718,0.3361553859449113,-0.021010114200981773,-0.0004236486746502471,0.3419071889885446,2.6170261414434837,1.5087546996229149,0.25131295024573497,0.1205748525085798,0.007658169671898807,-0.02643824598039239,3.3471945863480093,-2.859843012772605,-0.787424991013121,0.006285051174814882,-0.0003059824794642451
0.67,-0.18110963443158634,0.8188796113173719,-1.292763591786682,0.11496651982691056,-0.02470846278235965,-0.00041835167344058804,-0.22939635789171806,-0.8946430293397549,1.0218200717980623,0.3388375650249625,-0.020096554504906394,-0.0003985577699603469,0.33047205297852167,2.603434366161571,1.4268205270310026,0.22297570444274584,0.11070020780790857,0.007376558821375612,-0.02576460122220508,3.3607582805540277,-2.8906183062647774,-0.7954498495221712,0.005975813850154395,-0.0003118568421250832
0.68,-0.18337107328409474,0.8101931337732335,-1.2824038142692273,0.11837899026677663,-0.024901025381924614,-0.0004221002067229716,-0.22614388525083992,-0.868647754413831,1.0359777517454558,0.3412470439866073,-0.0192562599564963,-0.0003748533282383537,0.31930613518281914,2.5859463324019636,1.341848529834205,0.19407656297379638,0.10146910567485368,0.007099704464632539,-0.025065110433425727,3.3692531348382038,-2.9232672204660393,-0.8037312142830504,0.005672409898579488,-0.0003178324782566472
0.6900000000000001,-0.18560108675140807,0.8017648373241436,-1.2719109081179154,0.12181276994643636,-0.025085870097551487,-0.00042562504839195657,-0.22300134673133262,-0.8428296449089956,1.0492906151312003,0.3433779679659734,-0.018484471562687316,-0.00035248416689849884,0.3084165430309067,2.5648179826960376,1.2540315184403106,0.16468411819944784,0.09287926677224367,0.006830279905450765,-0.024350439853229083,3.3730325481812606,-2.9576510352772214,-0.8122376630201236,0.005375141421328581,-0.0003238900293415463
0.7000000000000001,-0.18780074642360414,0.7935925871541584,-1.261293604657545,0.12526502129997988,-0.025263634552768473,-0.00042893898422683216,-0.2199659672196072,-0.8172250169985249,1.0617303460370475,0.3452251353543525,-0.01777644552169876,-0.00033139358348755745,0.29780715101991906,2.5403032667328764,1.163568297175976,0.13486802720979707,0.08491771951775029,0.006570196602263212,-0.02362999243879468,3.3724497919238274,-2.9936306884924093,-0.8209382055296839,0.0050842537315603205,-0.0003300108915514645
0.71,-0.18997109589952127,0.785673910685596,-1.2505608985246317,0.12873286139468082,-0.02543490988374348,-0.00043205419949687477,-0.21703494759171318,-0.7918676468562348,1.07327061329133,0.34678400947009513,-0.017127533097500775,-0.0003115215270042592,0.2874794666674348,2.51265329256441,1.07066288544517,0.10469869517481811,0.07756356221022298,0.006320744286604063,-0.022911953408333522,3.367856049702359,-3.0310673227435467,-0.829802398970479,0.004799940579122482,-0.00033617724161159673
0.72,-0.19211315075817223,0.7780060226941395,-1.2397220273027247,0.13221336866687436,-0.02560024228325364,-0.00043498226286228553,-0.21420548586509627,-0.7667887991456468,1.083887122190686,0.3480507272193549,-0.016533239951016125,-0.00029280633654107805,0.2774333128136732,2.4821155285924745,0.9755237341066612,0.07424695997233677,0.07079026641043662,0.006082712109288735,-0.022203347093687008,3.359598556874416,-3.069822809439322,-0.8388004553156407,0.004522349070829532,-0.0003423720623471956
0.73,-0.19422789867580675,0.7705858500591751,-1.2287864507187585,0.13570358971439975,-0.025760134966280195,-0.0004377341239217746,-0.2114747917634538,-0.7420172634964374,1.0935576583966304,0.34902210475254014,-0.01598926830265538,-0.00027518610594890803,0.26766735461711905,2.448933058476107,0.878362941016992,0.04358377996356655,0.06456756149387566,0.005856491895454563,-0.021510102662616954,3.3480188507257433,-3.1097602477196995,-0.8479033406433077,0.004251584304942441,-0.0003485791664001818
0.74,-0.19631629963853955,0.7634100560747864,-1.2177638294787734,0.1392005461158111,-0.02591505041651685,-0.0004403201212318243,-0.2088400962732803,-0.71757939843887,1.1022621239985013,0.34969564014113363,-0.015491545023665607,-0.0002585997310049718,0.2581794973156267,2.4133438907262943,0.7793954696954946,0.012779926798409669,0.05886294722857599,0.005642165054375203,-0.020837126487288842,3.333451141403716,-3.1507444366758475,-0.8570828660189836,0.003987713729097203,-0.00035478321700191113
0.75,-0.19837928621342413,0.7564750642522953,-1.206664003821035,0.14270124124698502,-0.02606541280069198,-0.0004427499981457031,-0.20629865748845783,-0.6934991822491078,1.10998256577384,0.35006951311739376,-0.015036238417513106,-0.0002429876913878834,0.24896717812105768,2.3755803243830744,0.6788383750364071,-0.018094314881988538,0.053642883502966865,0.005439574915019951,-0.020188379146476292,3.31622081207935,-3.1926423193204188,-0.8663117697973672,0.0037307712251212597,-0.00036096974502301566
0.76,-0.200417763851338,0.7497770815508531,-1.1954969718638702,0.14620266706635646,-0.026211610461634383,-0.0004450329242907364,-0.2038477637913868,-0.6697982701442226,1.116703195716491,0.3501425819371427,-0.014619766094240073,-0.000228292614503329,0.24002757275664632,2.3358683717939157,0.5769100399215845,-0.04896943902050399,0.04887370538310509,0.0052483863157027355,-0.019566955256918657,3.2966430553236794,-3.2353233970328397,-0.8755637912442829,0.0034807609212981496,-0.00036712516179487973
0.77,-0.20243261120339207,0.743312120978299,-1.1842728678244572,0.14970181084078785,-0.026353998421495797,-0.00044717752091568514,-0.20148473520540783,-0.6464960572554068,1.122410403941303,0.3499143774431377,-0.014238795986141306,-0.00021445966249487457,0.23135773432140055,2.294427239138723,0.47382942647160675,-0.07977699922768089,0.04452230866149132,0.005068134216761777,-0.018975164534508086,3.275021651117612,-3.2786601134456754,-0.8848137354495098,0.0032376607319978185,-0.00037323676741531986
0.78,-0.20442468043910994,0.7370760235102856,-1.1730019401833394,0.15319566178502061,-0.026492900843684407,-0.00044919188869635044,-0.19920692357178785,-0.6236097468013404,1.127092764111775,0.3493850944232766,-0.013890242218861128,-0.00020143677806652875,0.2229546794962428,2.2514688649722743,0.36981534552270556,-0.11044987769567882,0.040556646839568666,0.004898262986893748,-0.018414612687777172,3.251647890319387,-3.322528206979003,-0.8940375295681429,0.0030014256255483703,-0.00037929275442075524
0.79,-0.20639479755963577,0.7310644792814769,-1.1616945298676093,0.15668121758875875,-0.026628613416163488,-0.0004510836368894496,-0.19701171205258192,-0.60115442288087,1.1307410315729949,0.3485555803738126,-0.01357125724790803,-0.0001891748193099163,0.21481543466254238,2.207197516687405,0.26508574772627913,-0.14092254036286134,0.03694607569920938,0.004738157844359214,-0.017886280942918643,3.2267996458157566,-3.3668070314675576,-0.90321227049093,0.0027719906232331927,-0.00038528220683644405
0.8,-0.20834376270298632,0.7252730480084262,-1.150361048523546,0.16015549080668634,-0.02676140563017746,-0.0004528599129770738,-0.19489651433505512,-0.5791431273050687,1.1333481344063383,0.34742732179276015,-0.013279221401397348,-0.0001776276087624152,0.20693705231967702,2.1618094444393834,0.1598570394457166,-0.17113127687700125,0.03366157671081177,0.004587169769905031,-0.01739060318931804,3.2007405920040273,-3.411379844558281,-0.91231626410237,0.0025492735348930018,-0.00039119509471286206
0.81,-0.21027235044109396,0.7196971786094932,-1.139011956947003,0.16361551508811142,-0.02689152293754554,-0.0004545274321518617,-0.19285877381076338,-0.5575869398932987,1.1349091576543153,0.3460024281425097,-0.013011730736807794,-0.00016675191747879335,0.1993166062735595,2.115492591721754,0.05434342637075096,-0.2010144240390952,0.03067588578892788,0.004444635024540067,-0.01692753991525218,3.1737195717167044,-3.4561340637815876,-0.9213290563387552,0.0023331774394264875,-0.00039702226432698095
0.8200000000000001,-0.21218131007029048,0.7143322279928335,-1.1276577437370696,0.16705835122444407,-0.02701918877676168,-0.00045609250616220943,-0.19089596291965089,-0.5364950616659799,1.1354213209933366,0.34428361363326376,-0.012766583921613945,-0.00015650740103477346,0.19195117241554627,2.068426361444696,-0.05124371250975246,-0.23051257156564486,0.027963549523466358,0.004309890253320958,-0.01649664827309719,3.1459701082293643,-3.500961490416445,-0.9302314563065349,0.002123592921229535,-0.00040275542427803065
0.8300000000000001,-0.21407136589812695,0.7091734789890509,-1.116308904235482,0.1704810929943447,-0.027144606463584853,-0.0004575610711727025,-0.18900558278364699,-0.515874900378259,1.1348839501587646,0.34227417699006174,-0.012541768682317342,-0.00014685650104930416,0.18483780050395363,2.020781436047075,-0.15669641823635194,-0.25956874917042483,0.025500927080698677,0.0041822839799492695,-0.01609714777047693,3.1177100586070177,-3.545758501475437,-0.9390055517641162,0.0019204000760845734,-0.00040838712774327713
0.84,-0.2159432175301524,0.7042161574105161,-1.1049759198109799,0.1738808727881028,-0.027267960945888507,-0.0004589387144030717,-0.18718516320254536,-0.4957321578534743,1.1332984424501944,0.33997797937581076,-0.012335448230365285,-0.00013776432303691746,0.17797348117574494,1.9727196498710378,-0.261810710487838,-0.2881285941429965,0.023266152520774908,0.0040611852004168725,-0.015727981227055054,3.089141403361942,-3.590426210330182,-0.9476347173074533,0.0017234703020663636,-0.0004139107511843621
0.85,-0.21779754016060277,0.6994554482245856,-1.093669237544327,0.17725486699461035,-0.027389420425519718,-0.00046023069939342393,-0.18543226304503688,-0.4760709185930563,1.1306682266652879,0.33739942065075623,-0.012145947963121025,-0.00012919849903522354,0.17135511142925366,1.9243939117511517,-0.3663871097797693,-0.31614049877610273,0.02123906931870867,0.0039459896243218134,-0.01538787076532564,3.060450166233641,-3.634870596678002,-0.9561036156313869,0.0015326678925844327,-0.000419320469811788
0.86,-0.21963498487097852,0.6948865108329855,-1.0823992503660518,0.1806003011361625,-0.027509137852017865,-0.0004614419898090714,-0.18374447103757424,-0.4568937391600175,1.1269987178275382,0.3345434141552136,-0.011971742649814925,-0.00012112904156474416,0.1649794610048055,1.8759481755167928,-0.47023112189790295,-0.3435557371849283,0.019401146373402345,0.0038361240438463118,-0.015075368717426096,3.0318064568718874,-3.679002606717106,-0.9643981922648468,0.0013478514496965766,-0.00042461123012647303
0.87,-0.2214561789402934,0.690504493454423,-1.0711762776951816,0.1839144547382326,-0.027627252294446375,-0.000462577271748053,-0.18211940693148862,-0.43820173785624483,1.1222972670870164,0.33141536020701023,-0.011811444242850848,-0.00011352819389815895,0.15884314142498665,1.8275174558825722,-0.5731536835518332,-0.37032857124417484,0.017735382707129488,0.0037310492100471604,-0.01478890342869506,3.003364628316935,-3.7227382245486123,-0.9725056641988061,0.0011688751363008287,-0.0004297787198644094
0.88,-0.2232617261704229,0.6863045466120319,-1.0600105466233476,0.18719466592331266,-0.02774389019845472,-0.00046364097455168883,-0.18055472301294845,-0.4199946842391057,1.1165731071833982,0.3280211185080054,-0.011663790400834708,-0.00010637028036358376,0.15294257891799243,1.77922788700718,-0.6749715685690292,-0.39641633555773836,0.016226206346487415,0.0036302615269366498,-0.014526820022791407,2.9752635404346064,-3.7659985159588465,-0.9804145028414678,0.0009955897857726254,-0.00043481933567435504
0.89,-0.22505220722951966,0.6822818357315307,-1.0489121736846732,0.1904383357198649,-0.027859166536139367,-0.00046463729014575074,-0.1790481059096754,-0.4022710880501252,1.1098372938674377,0.3243669796552245,-0.011527633768464407,-9.963155940619015e-05,0.1472739920160305,1.7311968208379784,-0.7755077542794768,-0.4217795015529491,0.01485937148696792,0.003533293816094435,-0.01428741626332344,2.9476269198816367,-3.80870964585436,-0.9881144117458751,0.0008278438871070833,-0.000439730148859766
0.9,-0.2268281800159372,0.678431552859957,-1.0378911472478671,0.19364293207938146,-0.027973185856415013,-0.0004655701909591704,-0.177597278641754,-0.3850282871573644,1.1021026436805927,0.3204596359516549,-0.011401932027564789,-9.329008134196655e-05,0.14183337427881215,1.6835329622270154,-0.8745917480536705,-0.4463817209833336,0.013621856929340093,0.003439715358400885,-0.014068973703971713,2.9205638067494473,-3.850802870724641,-0.9955962995612416,0.0006654844627157999,-0.0004445088695151598
0.91,-0.2285901800445423,0.6747489275185239,-1.0269573105629384,0.19680599359647638,-0.028086043243525174,-0.00046644344648034063,-0.1762000028605118,-0.3682625341433163,1.0933836684928837,0.316306151709492,-0.011285738711015963,-8.732555211702157e-05,0.13661648232446158,1.6363365377072079,-0.9720598742649863,-0.4701898492742984,0.012501767893440374,0.003349131373432802,-0.013869784364045235,2.8941690777605786,-3.8922145075936405,-1.0028522486611355,0.0005083578547850161,-0.0004491538093838284
0.92,-0.23033872085672813,0.671229236706511,-1.016120345490975,0.19992513292882572,-0.028197825191079006,-0.0004672606385195075,-0.1748540812185831,-0.3519690812012891,1.083696507196335,0.31191393323493266,-0.011178194755383312,-8.171920391668574e-05,0.13161882914371914,1.58969949474912,-1.0677555222210553,-0.49317394933290015,0.011488242623891476,0.003261182072893023,-0.013688173200407707,2.8685240357662005,-3.932885880991169,-1.009875479899597,0.0003563104346023146,-0.0004536638437583927
0.93,-0.23207429445488123,0.6678678140761602,-1.0053897569415167,0.2029980399156079,-0.02830861039865184,-0.0004680251752505157,-0.1735573598153101,-0.3361422630350754,1.0730588549458389,0.30729069867821646,-0.011078520757283111,-7.645367310082153e-05,0.1268356825170845,1.5437057282860973,-1.1615293558760746,-0.5153072765788971,0.01057136466877967,0.0031755413947186263,-0.013522516670918402,2.8436970553084784,-3.9727632495294514,-1.01666031394071,0.0002091892475782078,-0.0004580383727379769
0.9400000000000001,-0.23379737176152224,0.6646600583012717,-0.9947748580382059,0.2060224843948671,-0.028418470497569195,-0.00046874030410722046,-0.1723077306641002,-0.3207755774888529,1.0614898903310763,0.30244444792592146,-0.010986009891735817,-7.151288567047731e-05,0.12226206823920176,1.498431331290716,-1.253239486372191,-0.5365662460975242,0.009742081306829242,0.003091915502214493,-0.013371257700123887,2.819744274158154,-4.011797713709042,-1.0232021295984364,6.684260489986924e-05,-0.00046227728214576745
0.9500000000000001,-0.2355084031028408,0.6616014406646071,-0.9842847560296806,0.20899631872191204,-0.028527470712039354,-0.00046940912360995686,-0.17110313413185702,-0.30586176366645673,1.0490102008525266,0.2973834327044943,-0.010900021447015773,-6.688195027363758e-05,0.11789277777257239,1.4539448662106047,-1.3427516086670972,-0.5569303829502119,0.008992128295646107,0.003010041121218547,-0.013232917366060776,2.796710321004788,-4.049945106602593,-1.0294973196120991,-7.087936907537658e-05,-0.00046638090439840156
0.96,-0.237207818715889,0.6586875118912962,-0.9739283389590617,0.2119174799924591,-0.02863567046132973,-0.00047003459419603887,-0.16994156130482177,-0.2913928773310933,1.035641707061881,0.29211612705470713,-0.010819974929037551,-6.254705860820086e-05,0.11372237989712523,1.4103076541240085,-1.429939103694227,-0.576382256784135,0.00831396089302891,0.002929683767818124,-0.013106103628781302,2.774629069851084,-4.087165869075587,-1.0355432442690817,-0.00020412422638866137,-0.00047034997960400426
0.97,-0.23889602927828754,0.6559139082572164,-0.9637142631019363,0.21478399197572365,-0.02874312390821486,-0.0004706195481258908,-0.16882105623985286,-0.2773603634079702,1.0214075857125393,0.2866511983264529,-0.010745344688513101,-5.8495392985193366e-05,0.10974523588792919,1.367574078552858,-1.5146831076584684,-0.5949074019857146,0.007700690947044397,0.002850635920277969,-0.012989517417616048,2.753524412130608,-4.12342491120065,-1.0413381832705175,-0.000333036716448728,-0.00047418561714891163
0.98,-0.24057342645893884,0.653276357002787,-0.9536509411794398,0.217593966764044,-0.028849880458469764,-0.0004711666985332413,-0.16773971806513052,-0.263755125442941,1.0063321922496449,0.28099747883203474,-0.01067565502549043,-5.471504073505119e-05,0.10595551773601135,1.3257919009703178,-1.5968725502035535,-0.612494224703017,0.007146029745279614,0.0027727151619851703,-0.012881956386182305,2.7334110381145664,-4.158691461507818,-1.0468812862182946,-0.0004577583344602664,-0.00047788925801431863
0.99,-0.24224038348793234,0.6507706810837881,-0.9437465313499244,0.22034560614688492,-0.028955985215750425,-0.0004716786476843731,-0.1666957028993487,-0.25056759189989053,0.9904409829515448,0.2751639382840936,-0.010610475728066254,-5.1194915113179256e-05,0.102347228923276,1.285002585160134,-1.6764041632909148,-0.6291338981316716,0.0066442362469014415,0.002695762334200477,-0.012782316632586062,2.7142952197841135,-4.192938905687609,-1.0521725220829108,-0.0005784268948389974,-0.0004814626380435105
