tonegas/nnodely-applications/joint_friction_estimation/dataset/train/mpc_mujoco_episode_18.csv
time,q1,q2,q3,q4,q5,q6,dq1,dq2,dq3,dq4,dq5,dq6,ddq1,ddq2,ddq3,ddq4,ddq5,ddq6,tau1,tau2,tau3,tau4,tau5,tau6
0.0,0.0,1.57,-1.57,0.0,0.0,0.0,0.0,0.0,0.0,0.0,0.0,0.0,-9.171955331783078,2.330149158599018,2.1953855989139592,0.7452903022398214,-1.3264181700363409,-1.398858864298802e-06,-1.27848022123994,-2.9811326517299017,-3.814109595995161,-0.8624420019062089,-0.11541457627332731,-0.0018199023786947361
0.01,-0.0009123745432722086,1.5702330338330748,-1.569780996082464,7.042042260901164e-05,-0.00011224495744104389,-1.109878154184285e-06,-0.09123745432722086,0.023303383307463635,0.02190039175360638,0.007042042260901163,-0.011224495744104388,-0.00011098781541842851,-9.046106937128156,2.344750689701189,2.144700758937663,0.684409211980979,-1.1065336403679567,-0.011075855541274215,-1.269423451032415,-2.9871684784495667,-3.819379887404787,-0.8637946033142433,-0.11451859112982062,-0.0018081096351729503
0.02,-0.002723912209472314,1.5707005642169896,-1.5693482803774526,0.00020619648232813684,-0.00032295132182929084,-3.369852721609612e-06,-0.1811537666200105,0.046753038391489046,0.04327157050114635,0.013577605971912519,-0.021070636438824696,-0.0002259974567425327,-8.906890195380752,2.35769026053472,2.087247701630833,0.6319609694633179,-0.9667661637867084,-0.011405538875830068,-1.2620439985227787,-3.0012684050437586,-3.8264575277365394,-0.8653631934915873,-0.11368750351749171,-0.0017949850809123172
0.03,-0.005420361276447804,1.5714038783368063,-1.5687077480034457,0.00040287704065916847,-0.0006231308163377432,-6.698981386522741e-06,-0.269644906697549,0.07033141198167757,0.06405323740068401,0.019668055833103163,-0.03001794945084523,-0.0003329128664913128,-8.757139363651463,2.368332503977084,2.0237071630427375,0.5856473396189052,-0.8745181644020548,-0.010467164850597399,-1.2562374440751154,-3.023521913350356,-3.8353992262121874,-0.867163543751419,-0.11291399701162935,-0.0017805327647450993
0.04,-0.008986597513318468,1.5723440265615949,-1.5678658462341917,0.0006564501996646917,-0.0010066285541366466,-1.102319981883513e-05,-0.35662362368706635,0.09401482247887066,0.08419017692541314,0.025357315900552332,-0.038349773779890343,-0.0004324218432312388,-8.598530701961792,2.37608949527222,1.9546075557868052,0.5437323030978547,-0.8101878793080814,-0.00954123307662158,-1.251885083159656,-3.053987917225547,-3.8462452775938014,-0.869207520840878,-0.11218953999649935,-0.001764761395491088
0.05,-0.013406721825967648,1.5735217653878821,-1.5668295348161017,0.0009632121098073723,-0.001468941165426551,-1.6283850850785966e-05,-0.44201243126491807,0.1177738826287257,0.10363114180900551,0.03067619101426805,-0.04623126112899044,-0.0005260651031950836,-8.432036767620012,2.380413374737302,1.8803676690939133,0.5049133580790723,-0.7619812300783266,-0.008716580016410624,-1.2488538873172537,-3.092694694320146,-3.859020337461504,-0.8715033371708791,-0.11150446550182533,-0.0017476791947885102
0.06,-0.018664115171727735,1.5749375040085232,-1.565606254109781,0.0013196688136904865,-0.0020065056536485862,-2.2432291694464726e-05,-0.5257393345760086,0.14157386206409506,0.12232807063205745,0.03564567038831143,-0.0537564488222035,-0.000614844084367876,-8.258203334139102,2.380793176684384,1.8013301452435782,0.4682194503090358,-0.7228171885638588,-0.007944726033717764,-1.246996527888027,-3.1396385037082046,-3.8737337312745175,-0.8740557074418955,-0.11084805798254854,-0.0017292919378021085
0.07,-0.024741467526331336,1.5765912542888332,-1.5642038984686792,0.001722463343799244,-0.0026162727250415396,-2.9425114792460473e-05,-0.6077352354603601,0.16537502803099807,0.14023556411017496,0.040279453010875765,-0.06097670713929535,-0.0006992823097995748,-8.077318879225812,2.376754265940882,1.7177873660321321,0.43293293705053415,-0.6884641339895978,-0.007184448057151016,-1.2461515120827402,-3.19478154578701,-3.8903795429927635,-0.8768659640084135,-0.11020865063928144,-0.0017096027312400708
0.08,-0.031620791242616055,1.5784825841649026,-1.5626307928470025,0.0021683221686340033,-0.003295452169104317,-3.722113420735518e-05,-0.6879323716284721,0.18913298760693797,0.157310562167673,0.04458588248347593,-0.06791794440627771,-0.0007796019414894706,-7.889518993599284,2.3678593564012522,1.6300013985931185,0.3985303364449937,-0.6564148790834423,-0.006412847791610332,-1.2461434676732042,-3.2580496966651595,-3.908936641419413,-0.8799321638092624,-0.10957373561392707,-0.0016886127129780884
0.09,-0.03928342523891476,1.5806105746178174,-1.5608956710817332,0.0026540165101790808,-0.004041362399900467,-4.5779653526376654e-05,-0.7662633996298709,0.21279904529148466,0.17351217652693515,0.048569434154507735,-0.07459102307961497,-0.0008558519319021474,-7.694851382145881,2.353710448748744,1.5382193012592822,0.36463736497346844,-0.6252071471124481,-0.0056202199725854385,-1.2467836046538743,-3.329330307371955,-3.9293687472202112,-0.8832492074249095,-0.10893008822046554,-0.0016663222248115457
0.1,-0.0477100340938341,1.5829737804556305,-1.5590076546503369,0.003176335135934527,-0.004851343153346985,-5.5059541098465983e-05,-0.8426608854919339,0.23632058378131973,0.18880164313963507,0.052231862575544595,-0.08099807534465192,-0.000927988757208933,-7.4933170007077825,2.3339512472282036,1.4426847755874093,0.33099477278774536,-0.5940129264640674,-0.004805096693274891,-1.2478703771005397,-3.408470268291599,-3.9516246083148308,-0.8868089829951578,-0.10826390540401078,-0.0016427322099896446
0.11,-0.056880604694272224,1.585570195172827,-1.556976230990133,0.003732066043561773,-0.005722706565411749,-6.501879812693739e-05,-0.9170570600438124,0.25964147171964125,0.2031423660203869,0.05557309076272462,-0.08713634120647637,-0.0009959257028471413,-7.284896719148219,2.3082697534650283,1.3436469080921656,0.29743232050414825,-0.5623901046524722,-0.003970927610243535,-1.2491903642350872,-3.4952744808227374,-3.9756383280089533,-0.8906005425317142,-0.10756095781536162,-0.0016178456931798331
0.12,-0.06677444221505634,1.5883972201673602,-1.5548112306951367,0.004317985069656014,-0.006652711649982225,-7.56144248879323e-05,-0.9893837520784107,0.2827024994533333,0.2165000294996271,0.058591902609424124,-0.0930005084570476,-0.0010595626760994915,-7.069569165878429,2.276400822963391,1.241366563587178,0.26384888495515213,-0.5301320094298276,-0.003123979139064481,-1.250519385360014,-3.5895048384174144,-4.00132987391243,-0.8946103145028503,-0.10680675419952605,-0.0015916692554053167
0.13,-0.07737016667686021,1.5914516385861237,-1.5525228030947098,0.0049308499151406926,-0.0076385531025593345,-8.680246596816244e-05,-1.059572446180388,0.3054418418763534,0.22884276004268098,0.06128648454846786,-0.09858414525771096,-0.0011188041080230139,-6.847323143364147,2.2381285274051566,1.1361208573229264,0.23019717181220045,-0.4971759960274582,-0.0022720049650102325,-1.2516238583502104,-3.6908797898855017,-4.028605783404999,-0.8988223538140937,-0.10598671619903059,-0.0015642144444152147
0.14,-0.08864571099786633,1.5947295940461956,-1.5501213898753894,0.005567398425444516,-0.008677358917379183,-9.853816144079048e-05,-1.1275544321006126,0.3277955460071964,0.24014132193203408,0.06365485103038236,-0.10388058148198483,-0.0011735695472628038,-6.618166631948312,2.1932882053203575,1.0282060340725563,0.1964718855210119,-0.463547632942948,-0.0014233907589868977,-1.2522624055973066,-3.7990745343937187,-4.0573600714363875,-0.9032186280961453,-0.10508636115513165,-0.0015354990751616595
0.15,-0.10057832124150258,1.5982265744449644,-1.547617696539945,0.006224350222213631,-0.009766193451683884,-0.00011077615869021796,-1.1932610243636248,0.3496980398768681,0.2503693335444417,0.06569517967691152,-0.10888345343047011,-0.001223799724942749,-6.382133570278156,2.141768112376249,0.9179390103009202,0.16270048996101316,-0.4293263486406218,-0.0005865919384726581,-1.2521877047047019,-3.9137218772010103,-4.0874753378214415,-0.9077793373431199,-0.1040914900519126,-0.0015055483827860084
0.16,-0.11314455961775766,1.601937401029902,-1.5450226616111902,0.006898410976311904,-0.010902063863670902,-0.00012347075638896997,-1.2566238376255072,0.37108265849374883,0.25950349287549307,0.06740607540982729,-0.11358704119870186,-0.001269459769875202,-6.139289101769791,2.0835106047998972,0.8056577839390031,0.12893590830018198,-0.3946240230090652,0.00023024362536094856,-1.2511485739566484,-4.034413756384419,-4.118824063431081,-0.9124832623270067,-0.10298837739480578,-0.001474395995606111
0.17,-0.12632031068922547,1.6058562228503592,-1.5423474235859442,0.007586278755621763,-0.012081928629472419,-0.00013657616232897672,-1.317575107146783,0.3918821820457347,0.2675238025245894,0.0687867779309859,-0.11798647658015163,-0.0013105405940006763,-5.889733678713695,2.018512807914468,0.6917208799963537,0.09525067399815512,-0.35957140032987667,0.0010195321008996672,-1.248892274872603,-4.160703432940341,-4.151270077598221,-0.9173081358152814,-0.1017639595566475,-0.0014420847000608528
0.18,-0.1400807911474735,1.6099765166610078,-1.5396032857292647,0.008284651988128274,-0.013302707314157627,-0.00015004675306830393,-1.376048045824801,0.41202938106485487,0.2744137856679431,0.06983732325065116,-0.12207786846852091,-0.0013470590739327224,-5.633606240168916,1.9468267379465622,0.5765059752522759,0.06173216932084369,-0.32430924725532506,0.001774427538910217,-1.2451670062769893,-4.292108319517366,-4.184670172650233,-0.9222310294416372,-0.10040601796890283,-0.0014086669743575892
0.19,-0.15440056345032876,1.614291092290965,-1.53680167887226,0.008990238660443515,-0.014561291055776731,-0.00016383732726332038,-1.4319772302855285,0.4314575629957081,0.2801606857004688,0.07055866723152411,-0.12585837416191026,-0.0013790574195016434,-5.371086579081509,1.8685588599893987,0.4604078285175497,0.02847868225517125,-0.28898241294080407,0.0024889360418671735,-1.2397245566085995,-4.428113406760149,-4.218875835839994,-0.9272287481462436,-0.09890335349247467,-0.0013742052730876257
0.2,-0.1692535535405528,1.6187921034356105,-1.5339541224394597,0.009699766431533932,-0.015854553394378038,-0.0001779033470657022,-1.4852990090224036,0.4501011144645624,0.284755643280024,0.07095277710904163,-0.12932623386013065,-0.0014066019802381812,-5.102396958958221,1.783869078698936,0.3438356319574787,-0.004403915449233686,-0.253735691037118,0.003157984480829601,-1.2323230740076734,-4.5681752311090165,-4.25373506422493,-0.9322782234408126,-0.09724594837602436,-0.0013387720513836627
0.21,-0.1846130727982561,1.6234710637709335,-1.5310721839844539,0.010409993386452246,-0.017179361184599447,-0.00019220116363943227,-1.535951925770328,0.4678960335323006,0.2881938455005835,0.07102269549183143,-0.13248077902214084,-0.001429781657373008,-4.827803013137249,1.6929691710989656,0.22720989182507756,-0.03680501201042574,-0.21871082921745355,0.0037774530881633517,-1.2227299074070146,-4.711726314279531,-4.289094224398624,-0.9373568963926765,-0.09542511240119066,-0.0013024495241699904
0.22,-0.2004518443121381,1.6283188682341738,-1.5281674375556455,0.011117719189517669,-0.01853258539783413,-0.00020668822402900453,-1.5838771513882017,0.48478044632402556,0.2904746428808307,0.07077258030654225,-0.13532242132346836,-0.0014487060389572258,-4.547613949243635,1.5961206827584409,0.11095894214959356,-0.06861172300277563,-0.18404429872563455,0.004344178520925279,-1.2107244667481083,-4.8581799929331515,-4.32479991656144,-0.9424430811818074,-0.09343361011980092,-0.001265329163471155
0.23,-0.2167420334881204,1.6333258192607036,-1.5252514212476913,0.01181979642378023,-0.019911111664252915,-0.00022132325748278013,-1.6290189175982306,0.5006951026529711,0.2916016307954265,0.0702077234262562,-0.1378526266418784,-0.0014635033453775591,-4.262182080964768,1.4936323194693033,-0.004484808692788,-0.0997110536113186,-0.14986559511511288,0.0048559325619361715,-1.1961010468381454,-5.0069355476127,-4.360700801340872,-0.9475163003751902,-0.09126576649982307,-0.0012275109443114895
0.24,-0.23345528294868417,1.638481657716573,-1.5223355943186643,0.012513141926098023,-0.021311850435753885,-0.00023606644001797404,-1.671324946056378,0.5155838455869471,0.29158269290270694,0.06933455023177929,-0.1400738771500969,-0.0014743182535193922,-3.97190171443038,1.385856876235992,-0.11868880190709552,-0.1299918042588195,-0.11629593477309186,0.005311380876894756,-1.1786715574771627,-5.157383533161711,-4.396649348106989,-0.9525575836806549,-0.08891754880013256,-0.001189102357133702
0.25,-0.2505627516130744,1.6437755982198796,-1.5194312942683386,0.013194747946482857,-0.022731746673875137,-0.0002508795365703679,-1.7107468664390248,0.5293940503306557,0.2904300050325783,0.06816060203848337,-0.14198962381212527,-0.0014813096552393885,-3.677207424640664,1.2731877537323206,-0.23122432972109808,-0.15934625161162685,-0.08344726600681796,0.005710025806139107,-1.158268102501805,-5.30891120879251,-4.432503465284038,-0.957549722869051,-0.08638662307419634,-0.0011502172116031472
0.26,-0.26803515778850223,1.6491963685029187,-1.5165496942794916,0.01386169297777959,-0.024167788985140506,-0.0002657260205388053,-1.747240617542781,0.5420770283039077,0.2881599988846936,0.06669450312967334,-0.14360423112653706,-0.0014846483968437363,-3.3785717662732844,1.1560551192195392,-0.3416705257431365,-0.18767162527830705,-0.051421544152372434,0.006052136909735051,-1.1347453523031523,-5.4609079648410255,-4.468127976288736,-0.9624774767575128,-0.08367238433251804,-0.0011109742627916793
0.27,-0.2858428260465712,1.6547322524316121,-1.513701761422101,0.014511152118108281,-0.025617018142068942,-0.0002805711709312016,-1.780766825806896,0.5535883928693354,0.28479328573905155,0.06494591403286917,-0.14492291569284366,-0.0014845150392396307,-3.076502472473491,1.0349217741656482,-0.44961826104347713,-0.21487139255368048,-0.020310236889788058,0.006338672756531771,-1.1079826582909864,-5.6127706450357,-4.503395909112421,-0.9673277215807937,-0.08077596006082671,-0.0010714956959137695
0.28,-0.3039557376083728,1.660371136269492,-1.5108982160102356,0.015140406844391819,-0.027076534942170515,-0.00029538214765559637,-1.8112911561801641,0.5638883837879907,0.2803545411865605,0.0629254726283537,-0.14595168001015726,-0.0014810976724394754,-2.771539202656545,0.9102787943408015,-0.5546738693014552,-0.24085635846441344,0.009805965420527585,0.006571197157375863,-1.077885863333663,-5.763908667733423,-4.53818957304813,-0.9720895436869322,-0.07770018745208176,-0.0010319055096171057
0.29,-0.32234358391682955,1.6661005577508954,-1.508149492483907,0.015746854091061458,-0.02854350737017672,-0.0003101280457830744,-1.838784630845677,0.5729421481403485,0.2748723526328631,0.06064472466696394,-0.14669724280062024,-0.0014745898127478015,-2.464249907335598,0.7826410100237353,-0.6564626320096891,-0.2655455855035406,0.0388572555650768,0.006751792772859977,-1.044388769502885,-5.913748856786526,-4.572401402416841,-0.9767542732108154,-0.07444956536548271,-0.000992327840428661
0.3,-0.3409758230366433,1.6719077575121668,-1.5054657021638829,0.016328014543846452,-0.0300151770407237,-0.00032477992984243994,-1.8632239119813758,0.5807199761271349,0.2683790320024005,0.058116045278499305,-0.14716696705469803,-0.0014651884059365535,-2.1552268822794027,0.6525423941099044,-0.7546319634040428,-0.28886713620001203,0.06678465106277542,0.00688297466029697,-1.0074542328835794,-6.061739902228309,-4.605934554125546,-0.9813154591368346,-0.07103018262592119,-0.0009528852719818952
0.31,-0.35982173849108856,1.6777797324205885,-1.502856598197282,0.016881540074447737,-0.03148886490978122,-0.00033931084939266233,-1.884591545444527,0.5871974908421822,0.2609103966600968,0.055352553060128526,-0.14736878690575225,-0.001453091955022237,-1.8450825871373127,0.5205314244872564,-0.8488542443025573,-0.31075864165455114,0.09353979070550444,0.006967605956311962,-0.967074864646287,-6.207356382381577,-4.638703253205749,-0.9857687878874841,-0.06744962481929251,-0.0009136971722797885
0.32,-0.3788505001211787,1.6837032903383136,-1.5003315429766213,0.01740522025780672,-0.032961976253277285,-0.00035369583726112605,-1.902876163009014,0.5923557917725042,0.2525055220660627,0.05236801833589827,-0.14731113434960638,-0.0014384987868463718,-1.534445304388278,0.38716648414388943,-0.9388292641742542,-0.3311677000025963,0.1190846052444865,0.007008817476952478,-0.9232733275299068,-6.3501022918719565,-4.670632887850419,-0.9901119492015699,-0.06371686219675622,-0.0008748781004543329
0.33,-0.39803122653652223,1.6896651058624568,-1.4978994782758452,0.017896987929477623,-0.034432004920559846,-0.0003679118919371424,-1.9180726415343523,0.5961815524143289,0.24320647007759572,0.04917676716709019,-0.1470028667282559,-0.001421605467601638,-1.223954713320069,0.25301135826534477,-1.0242862412490177,-0.3500521101534213,0.1433908814023912,0.007009932666276253,-0.8761022269675981,-6.489514033873979,-4.7016598626040755,-0.9943444545315256,-0.05984212166279058,-0.0008365363214039381
0.34,-0.4173330487183802,1.6956517765923067,-1.4955688983047597,0.018354923756121095,-0.035896536878512623,-0.00038193794567389396,-1.9301822181857937,0.5986670729849854,0.2330579971085434,0.04579358266434706,-0.14645319579527763,-0.0014026053736751504,-0.9142574508606851,0.1186308822627211,-1.1049854010694344,-0.3673799478432773,0.16643973814227309,0.006974398891325451,-0.8256436059072259,-6.625162849238792,-4.73173122500244,-0.9984674144423866,-0.055836746078441885,-0.0007987724624950749
0.35000000000000003,-0.4367251743337633,1.7016498794897896,-1.4933478258392847,0.018777259807160718,-0.03735325306926576,-0.0003957548198826837,-1.9392125615383111,0.5998102897482984,0.2221072465475044,0.04223360510396227,-0.14567161907531426,-0.0013816874208789753,-0.606002726676353,-0.015413211538694637,-1.180719104282197,-0.38312949286904674,0.18822103355417896,0.0069057257479924194,-0.7720080615598837,-6.756656669457343,-4.760804086870954,-1.0024832824942607,-0.05171304425829237,-0.0007616783414135178
0.36,-0.45617695232444616,1.707646026919256,-1.4912437915400343,0.01916238212997763,-0.038799931610499536,-0.00040934516940482993,-1.9451777990682855,0.5996147429466359,0.21040342992503525,0.0385122322816913,-0.1446678541233772,-0.0013590349522146217,-0.29983805426856336,-0.1485662076950886,-1.251312524441541,-0.3972890181431481,0.2087327198243072,0.006807430753455412,-0.7153335105327783,-6.883641394247389,-4.788844866486582,-1.0063955738085217,-0.04748413507789862,-0.0007253359884758072
0.37,-0.47565793734597067,1.7136269219766502,-1.4892638165269338,0.019508832344464978,-0.040234449372338825,-0.00042269341722251476,-1.9480985021524513,0.598089505739427,0.1979975013100468,0.034645021448734534,-0.14345177618392907,-0.0013348247817684825,0.0035948468848994324,-0.2802840483770616,-1.3166238859081567,-0.40985645284455074,0.22798016255193632,0.006682992471239449,-0.6557836358042617,-7.00580160750694,-4.815828381742748,-1.0102085669415946,-0.04316378904276533,-0.0006898168805190652
0.38,-0.49513795364840923,1.7195794127454656,-1.4874143982338,0.01981530828514285,-0.04165478296880967,-0.0004357856811253657,-1.9480016302438548,0.595249076881537,0.18494182931338488,0.030647594067787234,-0.14203335964708458,-0.0013092263902850924,0.30366393051215923,-0.4100366750066132,-1.3765442803861987,-0.42083893333697464,0.24597543925553755,0.0065358109516056445,-0.5935460545885227,-7.122860757105004,-4.841736827244984,-1.0139269978191483,-0.03876627050918398,-0.0006551813971200529
0.39,-0.5145871580121272,1.7254905451467992,-1.485701499524894,0.020080663730190285,-0.043059009204826575,-0.00044860969378748524,-1.9449204363717916,0.5911132401333619,0.17128987089058015,0.026535544504743394,-0.14042262360169047,-0.0012824012662119527,0.5997504442866165,-0.5373110522701503,-1.4309970880984615,-0.43025225662317457,0.2627366303136398,0.006369175150439832,-0.5288302502002122,-7.234580834208454,-4.86655866987012,-1.0175557543303615,-0.03430618350350287,-0.0006214785035927442
0.4,-0.533976101377249,1.7313476140825794,-1.4841305410161358,0.020303907266558324,-0.04444530502176811,-0.0004611547176343741,-1.938894336512182,0.5857068935780114,0.1570958508758271,0.022324353636803684,-0.13862958169415374,-0.0012545023846888869,0.8912522604181224,-0.6616138632822005,-1.479937035940321,-0.4381202518696883,0.27828711390460725,0.006186236862968819,-0.46186531352581833,-7.340761596373998,-4.890287497761036,-1.0210995797702414,-0.029798323773998284,-0.0005887456591909844
0.41000000000000003,-0.5532757888341935,1.737138212603895,-1.482706396507571,0.020484200348695428,-0.045811946985956184,-0.00047341145579398033,-1.9299687456944437,0.579059852131554,0.14241445085648094,0.018029308213710335,-0.13666419641880737,-0.001225673815960622,1.1775868924109978,-0.7824738715995966,-1.5233489301060057,-0.4444740859733285,0.2926548747979858,0.005989990638660125,-0.39289754067067334,-7.441239385347165,-4.912920857064795,-1.0245627926803986,-0.02525753934435985,-0.0005570089433809187
0.42,-0.5724577376737021,1.742850278869633,-1.4814333914013358,0.02062085461528483,-0.04715731036486736,-0.00048537196033362,-1.9181948839508665,0.5712066265737947,0.12730051062352074,0.013665426658940182,-0.13453633789111788,-0.001196050453963968,1.458194182076248,-0.8994439521911339,-1.5612461046235753,-0.4493515192073305,0.30587183517269345,0.005783259063389168,-0.32218793287284625,-7.535885595361521,-4.934459109056104,-1.0279490298141412,-0.020698601436413215,-0.0005262833880931754
0.43,-0.5914940332274727,1.7484721406936798,-1.4803153039511303,0.020713328533740548,-0.04847986783576255,-0.0004970295388877796,-1.9036295553770644,0.5621861824046824,0.11180874502055406,0.00924739184557181,-0.13225574708951934,-0.0011657578554159697,1.7325386482336709,-1.0121027992312002,-1.593668629965224,-0.45279612676341774,0.3179732140355629,0.005568682765981103,-0.25000964300508133,-7.624604850745642,-4.954904337753488,-1.0312610179835109,-0.016136087208470092,-0.000496573499627578
0.44,-0.6103573822640864,1.7539925575111959,-1.4793553691653898,0.02076122344604239,-0.049778187870714294,-0.000508378660683156,-1.8863349036613652,0.5520416817516072,0.09599347857406317,0.004789491230184134,-0.12983200349517443,-0.001134912179537633,2.0001114953216472,-1.1200563236227719,-1.6206813274626652,-0.45485650146055967,0.328996920324343,0.0053487145567099326,-0.17664541011031296,-7.707332952906658,-4.974259334885899,-1.0345003794783325,-0.011584275330171045,-0.0004678739504253841
0.45,-0.6290211637387116,1.7594007596254242,-1.4785562851670664,0.020764279091849865,-0.05105093284082731,-0.0005194148628678519,-1.8663781474625212,0.5408202114228422,0.07990839983233074,0.0003055645807475936,-0.12727449701130147,-0.001103620218469593,2.2604322862329282,-1.2229387574018769,-1.6423716357224158,-0.4555854520956597,0.33898298342240984,0.005125617034074104,-0.10238501965030439,-7.784034656403699,-4.992526685270462,-1.0376674746246575,-0.007057054999127479,-0.0004401704182810494
0.46,-0.6474594767284675,1.764686484625725,-1.477920221798259,0.020722368685785978,-0.052296856880872156,-0.0005301346579544217,-1.8438312989755843,0.5285725000300959,0.06360633688074718,-0.0041910406063886355,-0.1245924040044847,-0.00107197950865698,2.513050289061546,-1.3204134855971599,-1.6588473746850698,-0.4550392108908001,0.3479730236156229,0.004901463119530547,-0.027522822712726325,-7.854701332022049,-5.009707971486144,-1.0407612839130067,-0.0025678486110425197,-0.00041344054872642525
0.47000000000000003,-0.6656471854177919,1.7698400108946932,-1.477448831247788,0.0206354936254128,-0.05351480355366172,-0.0005405354430913237,-1.818770868932443,0.5153526268968195,0.0471390550470897,-0.00868750603731791,-0.1217946672789564,-0.001040078513690199,2.7575455119746737,-1.4121736287113222,-1.6702344515147924,-0.45327666229876407,0.3560097639620583,0.004678138988572167,0.04764465743845664,-7.919348571714374,-5.025803112341556,-1.0437793310130237,0.0018704520656067265,-0.0003876550152571785
0.48,-0.6835599610292385,1.7748521881470616,-1.477143260474079,0.02050377790483834,-0.05470370335136845,-0.0005506154117858566,-1.7912775611446612,0.5012177252368419,0.030557077370890338,-0.013171572057445706,-0.11888997977067255,-0.0010079968694532825,2.9935294441707847,-1.4979424007623046,-1.676674550259699,-0.4503586040829468,0.3631365841623193,0.004457348870792854,0.1228210081668199,-7.978013786200637,-5.040809845190714,-1.0467176469317954,0.0062455366799616,-0.0003627786517192814
0.49,-0.7011743206244353,1.7797144649654444,-1.477004165194139,0.020327462306221185,-0.055862571068670694,-0.0005603734686152823,-1.7614359595196734,0.4862276818382772,0.013909527994012155,-0.017631559861715676,-0.11588677173022459,-0.0009758056829425704,3.220645523796207,-1.577473268806496,-1.6783228443078424,-0.44634705015997866,0.3693971162609948,0.004240621339133499,0.19771208140666174,-8.030753841137576,-5.05472335778874,-1.049570774594114,0.0105457147981,-0.0003387716314597919
0.5,-0.7184676627271894,1.7844189133177275,-1.4770317252117222,0.02010689843780775,-0.05699050308018702,-0.0005698091473806668,-1.7293342102754083,0.4704448352283226,-0.002756001758316154,-0.02205638684134345,-0.11279320115163248,-0.0009435678765384569,3.4385693558147783,-1.6505499401138761,-1.6753457671999454,-0.4413045832055502,0.37483488140629007,0.004029316676610772,0.2720280054488403,-8.077642772299543,-5.067536071218792,-1.0523318122435847,0.014759943079688621,-0.0003155906686842394
0.51,-0.7354182997456983,1.7889582500580565,-1.4772256608636227,0.019842542682686738,-0.05808667455215729,-0.0005789225330816832,-1.6950637018508892,0.4539336740328959,-0.019393565190061635,-0.026435575512101125,-0.10961714719702659,-0.0009113385701016385,3.6470087042020007,-1.7169862027367384,-1.6679188734769625,-0.4352937635166292,0.37949296640902475,0.003824634988121911,0.3454850458692799,-8.118769614364314,-5.0792375715601485,-1.0549924932971337,0.018877842273735165,-0.0002931902187570969
0.52,-0.752005487193386,1.7933258554279343,-1.4775852503720144,0.019534950117318477,-0.05915033661580212,-0.0005877141880200167,-1.6587187447687692,0.43676053698777456,-0.03595895083917433,-0.030759256536826214,-0.10636620636448357,-0.0008791654938333448,3.845703283519437,-1.7766256441799098,-1.6562248170550133,-0.4283765991088,0.38341373846602167,0.0036276248133018107,0.41780731105395436,-8.154236371860096,-5.0898146844800864,-1.0575432996395202,0.022889705297623568,-0.00027152365583984166
0.53,-0.7682094497279562,1.7975157885860449,-1.4781093479024752,0.019184768453238257,-0.06018081352727395,-0.000596185082273574,-1.620396253457021,0.41899331581104665,-0.05240975304607434,-0.035018166408021974,-0.1030476911471832,-0.0008470894253557225,4.034424374983785,-1.829341271325167,-1.640451470228375,-0.4206140805886971,0.38663859613715346,0.0034391919505805113,0.48872830139555995,-8.184156154775975,-5.0992516838724296,-1.0599736048213693,0.02678649773690834,-0.0002505444081915391
0.54,-0.78401140404583,1.8015228002051995,-1.4787964021413393,0.01879273204928101,-0.06117749983663383,-0.0006043365287248234,-1.5801954317873839,0.4007011619154544,-0.0687054238864084,-0.03920364039572473,-0.09966863093598713,-0.0008151446451249466,4.212974291652657,-1.875035052765912,-1.620790201930951,-0.41206578291347107,0.38920775447547484,0.0032601083521544005,0.5579923042673801,-8.208651495414955,-5.107530623066653,-1.062271843222189,0.030559852130578435,-0.0002302070335777277
0.55,-0.7993935786842622,1.8053423421824795,-1.4796444752218714,0.01835965603536774,-0.06213985758587302,-0.0006121701227725076,-1.5382174638432156,0.3819541977280011,-0.08480730805319718,-0.04330760139132693,-0.09623577492391933,-0.0007833594047684305,4.381185716384646,-1.9136374023608302,-1.5974343293979394,-0.40278953484836677,0.39116006207795095,0.0030910208917953597,0.625355639289183,-8.227852857399595,-5.1146317750072985,-1.0644257009534277,0.034202057391696884,-0.00021046821946988015
0.56,-0.8143392307962006,1.8089705745144444,-1.480651261846005,0.01788643058245967,-0.06306741355366764,-0.0006196876868079748,-1.4945652111938383,0.36282323319649823,-0.10067866241336586,-0.047322545290806886,-0.09275559677946207,-0.0007517564035467161,4.5389209348750486,-1.945106620203235,-1.5705777529731964,-0.39284115568796096,0.39253284776983577,0.0029324599011806285,0.6905877601850584,-8.2418973424259,-5.120534166154103,-1.066422324098095,0.03770604466121827,-0.00019128769500730805
0.5700000000000001,-0.8288326599735031,1.8124043693934562,-1.4818141084666026,0.01737401534684613,-0.06395975656232261,-0.0006268912194942976,-1.4493429177302481,0.34337948790118117,-0.11628466205975263,-0.051241523561353766,-0.08923430086549752,-0.0007203532686322777,4.686070984402031,-1.969428304411634,-1.5404137795566029,-0.38227425768421064,0.39336179461220055,0.0027848473770948345,0.7534722207131404,-8.250927595475268,-5.125216187664336,-1.068248539803217,0.041065370808547,-0.00017262904398397623
0.58,-0.8428592192026162,1.8156413125840152,-1.4831300324139374,0.016823434110598317,-0.06481653486024125,-0.0006337828498482669,-1.4026559229113098,0.3236943190558974,-0.13159239473348988,-0.05505812362478143,-0.08567782979186349,-0.000689163035396933,4.82255473702094,-1.9866147442655537,-1.5071341361447583,-0.37114011161432003,0.39368083894886396,0.002648504748976155,0.8138075127617994,-8.255090904794056,-5.1286562666678925,-1.0698910857490558,0.04427420068147234,-0.00015446041037441634
0.59,-0.8564053230434423,1.818679702139801,-1.48459574086899,0.016235769633894174,-0.06563745359125568,-0.0006403647960925371,-1.354610384082614,0.30383895557856927,-0.14657084550526492,-0.05876644767041417,-0.08209187310144314,-0.000658194624427017,4.9483179338912375,-1.9967043023103703,-1.4709281711483095,-0.3594875720175228,0.39352209226741053,0.0025236602312332934,0.871407784810876,-8.25453848906715,-5.130833580101334,-1.0713368436036896,0.04732728907599183,-0.00013675509009512061
0.6,-0.8694584531270784,1.8215185445231492,-1.486207649604791,0.015612158729090948,-0.06642227236027733,-0.0006466393292155791,-1.3053130083636062,0.2838842383348297,-0.16119087358008408,-0.06236109048032262,-0.0784818769021648,-0.000627453312304202,5.063332185285065,-1.9997607902190064,-1.4319822377002995,-0.347363057860262,0.39291578372803215,0.002410455633640396,0.9261034486179001,-8.249424960866577,-5.131728793595046,-1.0725730722228761,0.05021996324865556,-0.00011949200478969307
0.61,-0.882007161071611,1.824157548189262,-1.487961901435109,0.014953787560969838,-0.0671708029029779,-0.0006526087411529484,-1.254870794453264,0.2639003666112773,-0.17542518303181492,-0.06583711681211096,-0.07485305427005808,-0.0005969411937369295,5.1675939486723435,-1.995872840489371,-1.3904792500502245,-0.33481058372319694,0.3918902213214892,0.0023089526676258743,0.9777416812843942,-8.239907952649883,-5.131324808269766,-1.0735876365630586,0.052948106635677755,-0.00010265605541413705
0.62,-0.8940410689174181,1.8265971146978062,-1.4898543843269534,0.014261887172570492,-0.06788290686559065,-0.0006582753174820269,-1.2033907845807037,0.24395665085442453,-0.18924828918443304,-0.06919003883993455,-0.07121039626127386,-0.0005666576329078554,5.261123495165363,-1.985153273538801,-1.3465984013822814,-0.321871836079783,0.39047176973859266,0.0022191387339041135,1.0261868288690335,-8.226147889307992,-5.129607498956308,-1.0743692285308515,0.05550814427916991,-8.623835527537388e-05
0.63,-0.9055508671846604,1.8288383274149682,-1.4918807491493553,0.01353772923152674,-0.06855849369942658,-0.0006636413145045111,-1.1509798267242275,0.2241212717162005,-0.20263648224020017,-0.07241579410437508,-0.06755868338359311,-0.0005365997022484104,5.343963872588133,-1.9677384574830674,-1.3005150290411711,-0.30858628880753436,0.3886848431678658,0.0021409321607310794,1.0713207165280711,-8.208307889500988,-5.126566428267446,-1.0749075762873321,0.057897030296131996,-7.023634393767608e-05
0.64,-0.916528310656056,1.830882937869712,-1.4940364270455047,0.012782621987854886,-0.06919751867332874,-0.0006687089405765479,-1.097744347139565,0.2044610454743867,-0.21556778961493184,-0.07551072436718555,-0.06390249739021589,-0.000506762607203688,5.416179871556415,-1.9437876559060807,-1.2524006111851111,-0.29499135179518987,0.38655191139034883,0.0020741869507072686,1.1130428688647482,-8.18655377674677,-5.122195522085523,-1.0751936388526468,0.06011223756461251,-5.465378505693731e-05
0.65,-0.9269662119877964,1.8327333498291487,-1.4963166464283146,0.011997906430763563,-0.06979998100603234,-0.0006734803415339787,-1.0437901331740373,0.18504119594367874,-0.2280219382810017,-0.07847155570913222,-0.060246233270359696,-0.0004771400957430805,5.477856999251268,-1.9134823572697195,-1.2024228773561294,-0.28112254629919775,0.38409351768937583,0.002018697011649806,1.151270642841859,-8.161054180412947,-5.116493693348831,-1.07521978320969,0.062151749647656795,-3.950065273120235e-05
0.66,-0.9368584332507598,1.834392601159718,-1.4987164496107555,0.011184952629273824,-0.07036592211925567,-0.0006779575900506784,-0.9892221262963357,0.16592513305694215,-0.23998031824407223,-0.08129538014897393,-0.056594111322333926,-0.00044772485166997834,5.5291004640691055,-1.8770255783165046,-1.1507460143241977,-0.26701370065440067,0.38132830726375744,0.001974199933349574,1.1859392743341757,-8.131980706371914,-5.109465402489209,-1.0749799414793189,0.06401405483283544,-2.4792912366578272e-05
0.67,-0.9461998755031551,1.8358643435434487,-1.5012307090916925,0.01034515623926888,-0.07089542401130658,-0.000682142678759903,-0.9341442252395256,0.1471742383730646,-0.2514259480937192,-0.08397963900049427,-0.05295018920509067,-0.00041850887092246495,5.5700341730561345,-1.8346411328928565,-1.0975309478573445,-0.2526971599687764,0.3782730649939303,0.0019403803150024324,1.2170018382424646,-8.099508157077652,-5.101121144461252,-1.0744697461288095,0.06569814203638684,-1.0552203348476556e-05
0.68,-0.9549864664945105,1.8371528201219876,-1.5038541435254464,0.009479935158036414,-0.07138860775004434,-0.0006860375169625039,-0.8786590991355387,0.12884765785388871,-0.2623434433753858,-0.08652210812324664,-0.04931837387377564,-0.0003894838202600826,5.600799742995993,-1.7865728570828616,-1.0429356807702956,-0.2382040035558477,0.3749427615835046,0.0019168726946037218,1.2444291211223446,-8.063814781173985,-5.091477853979146,-1.0736866415754898,0.06720349820898767,3.1945680253966675e-06
0.6900000000000001,-0.9632151465996147,1.8382628411454291,-1.5065813334088012,0.008590726306413693,-0.07184563208317807,-0.0006896439307408842,-0.8228680105104251,0.11100210234416658,-0.2727189883354824,-0.08892088516227205,-0.04570243331337282,-0.00036064137783803026,5.621555525220429,-1.733083781391163,-0.9871156676873079,-0.22356426411445973,0.3713506072658106,0.0019032641276877094,1.268209404553235,-8.025082533410357,-5.080559222311239,-1.0726299709543423,0.06853010678709179,1.6415715858342206e-05
0.7000000000000001,-0.9708838530797009,1.8391997577082437,-1.509406736522769,0.007678982518276434,-0.07226669216309964,-0.000692963666293467,-0.7668706480086257,0.09369165628145182,-0.2825403113967892,-0.09117437881372593,-0.04210600799215706,-0.0003319735552582771,5.632475643650533,-1.6744552409375895,-0.9302242074280969,-0.2088071429638747,0.3675081124283892,0.0018990964462903825,1.2883481570277004,-7.983497326586779,-5.068395920746882,-1.0713010372274971,0.06967844666137561,2.9075331826451016e-05
0.71,-0.9779915027668922,1.8399694336607795,-1.5123247031680835,0.006746169517299856,-0.07265201838273254,-0.0006959983963012527,-0.7107649687191216,0.07696759525358365,-0.2917966645314555,-0.09328130009765774,-0.03853262196329014,-0.0003034730007785769,5.633749045238757,-1.6109859152130381,-0.87241283474216,-0.19396121604596406,0.36342515467225667,0.0019038682787866357,1.3048676320095756,-7.939249258438801,-5.0550257276177515,-1.0697031382205509,0.0706494910833222,4.113390107587727e-05
0.72,-0.9845379732667349,1.8405782157918424,-1.5153294912332562,0.005793762961628722,-0.07300187531821764,-0.0006987497291347798,-0.6546470499842679,0.060878213106291476,-0.3004788065172649,-0.09524065556711339,-0.0349856935485103,-0.00027513328335270767,5.625578561854267,-1.5429907898688953,-0.8138316942527126,-0.17905462590090426,0.359110051964592,0.0019170368479879407,1.3178063700072413,-7.892532797772283,-5.040493557500217,-1.067841575571009,0.0714447059030805,5.254896512977322e-05
0.73,-0.9905240827725482,1.8410329023856336,-1.5184152811321825,0.004823245538277098,-0.07331656077364321,-0.0007012192207072462,-0.5986109505813407,0.0454686593791058,-0.3085789898926286,-0.09705174233516244,-0.03146854554255627,-0.00024694915724663655,5.608179982710434,-1.4708000342360459,-0.7546298809128786,-0.16411525532726134,0.3545696416873696,0.0019380196502671865,1.3272186030388364,-7.843546915732315,-5.024851392920543,-1.0657236379629222,0.07206604652659762,6.327581968141932e-05
0.74,-0.9959515685843029,1.8413407102647454,-1.5215761906448824,0.003836104090690807,-0.07359640492245027,-0.0007034083887762138,-0.5427485811754719,0.030780787911183757,-0.3160909512699815,-0.09871414475862907,-0.027984414880706132,-0.00021891680689675738,5.581781136649063,-1.3947577897620744,-0.6949557329551186,-0.14917087905749593,0.34980936550019237,0.001966196069959736,1.333173560718434,-7.792495149811109,-5.008158120506688,-1.0633585593942698,0.07251595299727065,7.326823492886914e-05
0.75,-1.000823064423794,1.841509240439817,-1.524806289690165,0.002833826764888216,-0.07384176953959797,-0.0007053187294927948,-0.48714958394911806,0.01685301750716302,-0.3230099045282808,-0.10022773258025912,-0.024536461714768597,-0.00019103407165809612,5.546620983938133,-1.3152208662648621,-0.634957065216768,-0.13424929040222722,0.3448333600316005,0.0020009089658206136,1.3357546783414025,-7.739585590033723,-4.990479275054916,-1.060757453574524,0.0727973426460381,8.247918608214329e-05
0.76,-1.0051420766369565,1.8415464424956627,-1.5280996150530184,0.0018179001618890184,-0.07405304731804936,-0.0007069517359936702,-0.43190122131625486,0.0037202055845709393,-0.32933253628533293,-0.10159266029991976,-0.021127777845139,-0.00016330065008755232,5.502948717675955,-1.2325573447855704,-0.5747813327964026,-0.1193784004713887,0.3396445534984487,0.002041466362874278,1.3350587087566368,-7.685030778681262,-4.9718866963852415,-1.0579332258743337,0.0729135998124596,9.086158185393821e-05
0.77,-1.008912959373238,1.8414605778530315,-1.5314501850825322,0.0007898064866834033,-0.07423066126263124,-0.000708308918826119,-0.3770882736281497,-0.008586464263119454,-0.33505700295137886,-0.10280936752056151,-0.01776139445818776,-0.000135718283244869,5.451022875390193,-1.1471450878284144,-0.5145757171817071,-0.10458630828414073,0.3342447683898335,0.002087143265958158,1.3311947414340533,-7.629047516889401,-4.95245810512644,-1.0549004645423539,0.0728685622158702,9.836897913206757e-05
0.78,-1.0121408888309507,1.8412601820544199,-1.5348520143684112,-0.00024897931328173506,-0.07437506415382733,-0.0007093918279911962,-0.3227929457712657,-0.020039579861174828,-0.3401829285879053,-0.10387857999651384,-0.014440289119609715,-0.00010829091650772182,5.3911104619411105,-1.0593701598487366,-0.4544871292654944,-0.08990134074198508,0.3286348303793183,0.00213718370558702,1.324283133910374,-7.571856573471064,-4.9322766046821975,-1.0516753131615961,0.07266650364767901,0.00010495627262572995
0.79,-1.014831836656414,1.8409540262313435,-1.5382991283958198,-0.0012969924242814813,-0.07448673807358186,-0.0007102020763838135,-0.2690947825463237,-0.030615582307646785,-0.34471140274085665,-0.10480131109997463,-0.01116739197545255,-8.102483926173086e-05,5.323486085350918,-0.9696251629402401,-0.3946621259556873,-0.0753520621449062,0.3228146836104955,0.0021908030693000846,1.3144543626587635,-7.5136822933291585,-4.911430117570229,-1.048275326535232,0.07231211276034762,0.00011058034907137943
0.8,-1.0169925425834228,1.8405510779189682,-1.5417855781696745,-0.0023527810584478325,-0.07456619398471888,-0.0007107413644016135,-0.21607059270088325,-0.04029483123752897,-0.3486449773854645,-0.10557886341663508,-0.007945591113702275,-5.3928801779995575e-05,5.248431107656353,-0.878307494724485,-0.33524673937140603,-0.06096725356757027,0.31678351245261993,0.002247190814642863,1.3018478023086426,-7.454752104825465,-4.890010765085412,-1.0447193123663197,0.07181046784227245,0.00011520069656519233
0.81,-1.0186304863980866,1.8400604613917937,-1.5453054547907816,-0.003414909360275154,-0.07461397135512575,-0.0007110115054865958,-0.16379438146637842,-0.04906165271745313,-0.35198766211069915,-0.10621283018273217,-0.004777737040687644,-2.701410849823236e-05,5.166232813291071,-0.7858175374144419,-0.2763862198216924,-0.046775863065066314,0.3105398697415467,0.0023055135921112857,1.28661044396833,-7.395295927431432,-4.868114199809165,-1.0410271612251383,0.07116700758714901,0.00011877996073977415
0.8200000000000001,-1.0197538593123368,1.8394914177009865,-1.5488529039576227,-0.0044819603231103095,-0.07463063781740996,-0.0007110144523555401,-0.11233729142501028,-0.05690436908073345,-0.35474491668409514,-0.10670509628351547,-0.0016666462284212822,-2.946868944332167e-07,5.077183597826425,-0.6925567888585282,-0.21822469587344173,-0.0328069282527661,0.3040818114008488,0.0023649188686931666,1.2688955651036777,-7.3355454828836795,-4.845838900867572,-1.0372196673802128,0.07038749798769334,0.00012128444079873707
0.8300000000000001,-1.020371534827368,1.8388532645997833,-1.5524221403593368,-0.005552538708575474,-0.07461678885432549,-0.0007107523236665233,-0.06176755150314215,-0.06381531012032542,-0.35692364017141825,-0.1070578385465165,0.0013848963084471212,2.621286890167709e-05,4.981580180117563,-0.5989259480344682,-0.16090475677408422,-0.01908947333778155,0.29740703718582395,0.0024245390982184922,1.248861364933135,-7.275733514880574,-4.82328544203185,-1.0333183431045114,0.06947799560310591,0.00012268451983530693
0.84,-1.020493039165937,1.8381553565479665,-1.556007461917725,-0.006625273959392474,-0.07457304749988643,-0.0007102274308600585,-0.012150433856902176,-0.06979080518168361,-0.3585321558388258,-0.10727352508170004,0.004374135443906819,5.248928064648597e-05,4.879722841001582,-0.505322968917078,-0.10456696426057843,-0.005652383171036446,0.2905130371114346,0.002483496439380506,1.226669580551834,-7.216092924065477,-4.800555742761865,-1.0293452290574194,0.06844480756364345,0.0001229550253562554
0.85,-1.0201285213497746,1.8374070449896014,-1.559603263829084,-0.0076988230938339185,-0.07450006404575306,-0.0007094423049054318,0.03645178161623754,-0.07483115583650306,-0.3595801911358993,-0.10735491344414443,0.007298345413336935,7.8512595462673e-05,4.771914691673084,-0.4121410978574313,-0.049349302356927804,0.007475742724598167,0.28339724291414115,0.0025409081101308573,1.2024840999427786,-7.156855826628304,-4.777752312126781,-1.0253227032879533,0.0672944487806558,0.00012207551747363114
0.86,-1.0192887229953962,1.8366176390999063,-1.5632040523505262,-0.00877187356805807,-0.07439851574220213,-0.0007083997226744866,0.08397983543784415,-0.07894058896950387,-0.36007885214421637,-0.10730504742241523,0.010154830355092119,0.00010425822309450874,4.658460974717603,-0.31976691056487483,0.004613424921999343,0.020266752849629976,0.2760571836688044,0.00259589230101831,1.1764695886306167,-7.098252546301067,-4.754977495209011,-1.0212732913081333,0.06603359692321072,0.0001200305037748386
0.87,-1.0179849478983056,1.8357963671971946,-1.5668044582702807,-0.009843146090926107,-0.07426910648279242,-0.0007071027326591428,0.13037750970905018,-0.08212719027117442,-0.3600405919754548,-0.10712725228680374,0.012940925940971038,0.00012969900153438343,4.539668400520115,-0.228578365456159,0.05719023697440734,0.0326931195941661,0.2684906444314237,0.002647574698882771,1.1487901469542972,-7.040510550808244,-4.732332731125611,-1.01721947955157,0.0646690458001788,0.00011680958139682462
0.88,-1.016229031472036,1.8349523390142255,-1.5703992499974098,-0.01091139737457853,-0.07411256646172458,-0.0007055546797435206,0.175591642626981,-0.0844028182969157,-0.35947917271289914,-0.10682512836524222,0.015654002106783894,0.00015480529156221547,4.415844521395049,-0.13894289052065387,0.10825464933883747,0.04472812455248033,0.26069582653467194,0.002695095559970717,1.1196080147649377,-6.9838533449424665,-4.709917831203158,-1.0131835343656361,0.06320765784709084,0.00011240750827366949
0.89,-1.014033310104669,1.834094509019981,-1.5739833462034893,-0.011975422803080435,-0.07392965179288569,-0.0007037592287385779,0.21957213673667975,-0.08578299942444802,-0.35840962060796294,-0.10640254285019062,0.01829146688388941,0.000179545100494276,4.287297145320284,-0.05121552094377253,0.15768536344027806,0.056346049464624015,0.25267150790416437,0.0027376172444295577,1.0890823397936187,-6.9284993333566325,-4.6878302851392775,-1.0091873284916473,0.061656316458468266,0.00010682420686189127
0.9,-1.0114105904914963,1.8332316409778435,-1.577551827947151,-0.013034059000844487,-0.07372114407967902,-0.0007017203863872296,0.26227196131727243,-0.08628680421373383,-0.35684817436617283,-0.1058636197764051,0.020850771320667424,0.00020388423513483236,4.154333790617248,0.03426289546665323,0.20536696080117892,0.06752236895478558,0.24441720153507163,0.0027743321929989406,1.0573680249942607,-6.874660666880485,-4.666164602197219,-1.0052521767717386,0.06002187892757255,0.00010006470484129532
0.91,-1.0083741189983482,1.8323722739194022,-1.5810999502119738,-0.014086186282308441,-0.07348784992498282,-0.0006994425215500821,0.3036471493148086,-0.08593670584413163,-0.3548122264822885,-0.10521272814639554,0.023329415469619325,0.00022778648371474464,4.017261182324634,0.1171674084820129,0.251190589185859,0.07823394129063965,0.23593331005047347,0.0028044711760415453,1.0246146688756947,-6.822542086674399,-4.645011693632012,-1.0013986825898376,0.05831113075615271,9.213901831290488e-05
0.92,-1.0049375511059293,1.8315246897047097,-1.5846231527890653,-0.015130730964477495,-0.07323060037097051,-0.0006969303832886055,0.34365678924189447,-0.08475842146923773,-0.35232025770915165,-0.10445446821690528,0.025724955401230317,0.0002512138261476537,3.876384790384863,0.19719057545634233,0.2950546284213937,0.08845919353404996,0.2272212740840871,0.0028273117194030917,0.9909656112325722,-6.772339780814959,-4.624458301658477,-0.9976465963129489,0.05653074207700401,8.306198384713294e-05
0.93,-1.0011149209812737,1.8306968823298275,-1.5881170704377348,-0.016166667524427945,-0.07295025025906884,-0.00069418911657271,0.38226301246556477,-0.08278073748822347,-0.34939176486695084,-0.10359365599504493,0.02803501119016647,0.0002741266715895479,3.7320084091238086,0.2740439562936604,0.3368653241572716,0.09817829763848462,0.2182837120948733,0.0028421865632282106,0.9565570948148211,-6.724240267961482,-4.6045864793639275,-0.99401468675387,0.05468722689280677,7.285304635916683e-05
0.9400000000000001,-0.9969206112182767,1.8298965291310179,-1.5915775422608993,-0.0171930205846913,-0.07264767750103777,-0.0006912242753540532,0.41943097629970644,-0.08003531988097162,-0.3460471823164449,-0.10263530602633539,0.03025727580310661,0.00029648412186568265,3.584433776876659,0.34745947975381,0.37653737855890346,0.10737333432396046,0.20912454913970535,0.0028484919685527466,0.9215175513952245,-6.678419322576632,-4.585473125060075,-0.9905206264326636,0.052786905777225994,6.153601019599211e-05
0.9500000000000001,-0.9923693227852081,1.8291309640221107,-1.595000620236191,-0.018208866710571623,-0.07232378225302886,-0.000688041832765596,0.45512884330686326,-0.07655651089071573,-0.3423077975291645,-0.10158461258803242,0.032389524800891564,0.00031824425884572396,3.433960234017895,0.41719066888025463,0.41399448785935156,0.1160284418600197,0.1997491321056586,0.0028456957222240398,0.8859670184646956,-6.635040955768701,-4.567189573676931,-0.9871808911766923,0.05083587261055784,4.913876100924976e-05
0.96,-0.9874760452132407,1.8284071528875085,-1.598382576849069,-0.019213336004865734,-0.07197948598551787,-0.0006846481882313114,0.4893277571967347,-0.07238111346021622,-0.3381956612877795,-0.10044692942941112,0.0344296267510989,0.0003393644534284578,3.2808844171089735,0.4830137149111955,0.4491698177882196,0.12412994724822779,0.19016432895925206,0.0028333446053459,0.8500166904679801,-6.594256465191593,-4.549801246940352,-0.9840106743719076,0.04883996583471964,3.569296596630546e-05
0.97,-0.9822560270563843,1.8277316712381677,-1.6017199117804592,-0.020205613487121753,-0.07161573044320646,-0.0006810501712987115,0.5220018156856497,-0.0675481649340747,-0.3337334931390312,-0.09922774822560201,0.036375554231140715,0.00035980169325999393,3.1254999864000808,0.5447283907493169,0.48200640912597714,0.1316664776782046,0.18037860968285813,0.0028110712215281275,0.8137686061511491,-6.556203566590732,-4.533367363257161,-0.9810238159650634,0.0468047446138179,2.123375963055795e-05
0.98,-0.9767247466498501,1.8271106842218754,-1.6050093576084448,-0.021184940246450186,-0.0712334764903371,-0.0006772550420387656,0.5531280406534151,-0.062098701629224824,-0.3289445827985603,-0.09793267593284335,0.038225395286936324,0.00037951292599459446,2.9680973835205045,0.6021587968845896,0.5124575069653372,0.138629050553158,0.1704021067723609,0.0027785999042988507,0.7773154712860758,-6.521005618530232,-4.51794070746666,-0.9782327461202712,0.04473547017984294,5.799422439692076e-06
0.99,-0.9708978831908304,1.8265499290624065,-1.6082478844911505,-0.022150614358952873,-0.07083370283835017,-0.0006732704878953276,0.5826863459019774,-0.05607551594688871,-0.3238526882705768,-0.09656741125026878,0.039977365198692605,0.00039845541434380566,2.8089636158881017,0.6551539345585498,0.5404868086724965,0.14501114079337718,0.16024665343257993,0.0027357516005741545,0.7407406138246851,-6.488770950594361,-4.503567459911721,-0.9756484432559138,0.04263709253154075,-1.0568941847714916e-05
