tonegas/nnodely-applications/joint_friction_estimation/dataset/train/mpc_mujoco_episode_28 copy.csv
time,q1,q2,q3,q4,q5,q6,dq1,dq2,dq3,dq4,dq5,dq6,ddq1,ddq2,ddq3,ddq4,ddq5,ddq6,tau1,tau2,tau3,tau4,tau5,tau6
0.0,0.0,1.57,-1.57,0.0,0.0,0.0,0.0,0.0,0.0,0.0,0.0,0.0,-7.736858139999721,5.4359353522578795,2.6751847461727323,0.7621697944872246,-1.105397942961531,-1.898874124606209e-06,-1.0783289129732883,-1.3237422443661133,-3.19540147585745,-0.7330623976041526,-0.09724824658926834,-0.0015275872462616673
0.01,-0.0007695733293965916,1.5705427591572159,-1.56973246849701,7.280678637850357e-05,-9.38571821321549e-05,-9.224568982062809e-07,-0.07695733293965916,0.05427591572157264,0.026753150299007374,0.007280678637850357,-0.00938571821321549,-9.224568982062809e-05,-7.632359891930093,5.316829550806242,2.5645417275474447,0.688238689524713,-0.9214776073658868,-0.00918836039476556,-1.0727772232320838,-1.408659395590723,-3.232894561657789,-0.741451872160032,-0.09660656747342397,-0.0015220584316291256
0.02,-0.0022977507853329756,1.5716163898384894,-1.5692086755296089,0.00021204479765326773,-0.0002700318335462235,-2.800613631257098e-06,-0.1528177455936384,0.1073630681273486,0.05237929674010545,0.013923801127476416,-0.01761746514140686,-0.00018781567330508175,-7.5151824063389485,5.18968876941562,2.4445338046326963,0.6219645498443,-0.8036528090164836,-0.009408051671248252,-1.071011834918437,-1.5083641018845495,-3.273377209282965,-0.7502227291860046,-0.09615045956981323,-0.0015158701195049288
0.03,-0.00457254722411265,1.5732081928519734,-1.5684407549630264,0.0004118791339830551,-0.0005209214974415946,-5.565586738267425e-06,-0.22747964387796749,0.15918030134839878,0.07679205665823853,0.019983433632978737,-0.025088966389537115,-0.00027649731070103267,-7.387613899439411,5.054606956023082,2.3163184213062333,0.5612565189385528,-0.7244656303295471,-0.00852691608107392,-1.0726829106558065,-1.6222096005459492,-3.316715756307639,-0.7593552559509367,-0.09585529817484763,-0.0015089004055670028
0.04,-0.00758109252561319,1.5753046689955066,-1.5674416056749858,0.0006668600046608013,-0.0008412093895797002,-9.152460725525236e-06,-0.30085453015005403,0.20964761435332208,0.09991492880405783,0.02549808706777462,-0.03202878921381057,-0.000358687398725781,-7.250974228462914,4.911727486900284,2.1809063854701414,0.5045698988802236,-0.667476856005571,-0.0076123558273453185,-1.0774233647597722,-1.7495067764179142,-3.362755970033259,-0.7688251801146877,-0.09569424013285709,-0.0015010329384098613
0.05,-0.011309704206007673,1.5778915350533218,-1.5662248034460244,0.0009718090890960948,-0.0012268746162818398,-1.350741008845604e-05,-0.37286116803944835,0.2586866057815168,0.12168022289613704,0.030494908443529346,-0.03856652267021396,-0.0004354949362930804,-7.105996471728014,4.761235857803248,2.0392008331796116,0.4507789304238763,-0.6228782885158282,-0.006746812801813107,-1.084850115506507,-1.8895284205638,-3.4113252906856695,-0.7786042499139099,-0.09563874627685917,-0.0014921523907367499
0.06,-0.015743924760578027,1.580953743636107,-1.5648045205777505,0.0013217377987882178,-0.0016746023339827515,-1.8583419565171354e-05,-0.4434220554570354,0.3062208582785129,0.14202828682740004,0.03499287096921229,-0.04477277177009118,-0.0005076009476715315,-6.953061936554008,4.603355452238078,1.8920269545796966,0.39907641667559446,-0.5848689574194808,-0.005901060328834973,-1.0945651116613113,-2.0415126149597445,-3.4622347789875487,-0.7886607557654376,-0.09565906946816288,-0.0014821444533205063
0.07,-0.020868538046014698,1.584475506533552,-1.5631954510014525,0.0017117897755273249,-0.0021814358356182628,-2.433660165020227e-05,-0.5124613285436671,0.3521762897445002,0.16090695762979684,0.0390051976739107,-0.05068335016355111,-0.0005753182085030916,-6.79234571397389,4.438345161435427,1.7401541830119367,0.34889686737965775,-0.5500712178691387,-0.005052754592833608,-1.1061563942903514,-2.2046657288065457,-3.5152809475821254,-0.7989600294241318,-0.0957247211370312,-0.001470898087178372
0.08,-0.026667573657056163,1.5884403214083618,-1.5614127392185724,0.00213720178861239,-0.0027445749868218574,-3.072402271310551e-05,-0.5799035611041464,0.39648148748097717,0.1782711782880049,0.04254120130850651,-0.05631391512035944,-0.0006387421062903242,-6.623907645733749,4.266498058769022,1.5843124943212041,0.29985793710083897,-0.5165720241334384,-0.004194612461010827,-1.1191993755273586,-2.3781653402284286,-3.5702475877821302,-0.8094649415814033,-0.0958049223822975,-0.0014583087582541357
0.09,-0.033124304985351204,1.592831001748119,-1.5594719118668716,0.002593278583957254,-0.0033612631461262033,-3.7702606398404525e-05,-0.645673132829504,0.4390680339757408,0.19408273517006666,0.045607679534486426,-0.0616688159304346,-0.000697858368529901,-6.447749957266691,4.088140612411052,1.4252041226933816,0.2517157755642305,-0.48334180786940806,-0.003329455292410799,-1.1332584604574356,-2.561163283024052,-3.626907657869958,-0.820136408820697,-0.09586904114935792,-0.0014442819394648674
0.1,-0.040221244651208576,1.5976297100322618,-1.5573888110607512,0.0030753782899380832,-0.004028727497730993,-4.5228700705977583e-05,-0.7096939665857376,0.4798708284142645,0.20831008061205034,0.048209970598082914,-0.06674643516047894,-0.000752609430757306,-6.263854464373239,3.9036320985195676,1.2635116997068243,0.20433090943121712,-0.4498816623722206,-0.002465620633631538,-1.1478890956727545,-2.7527889413162625,-3.6850252682249836,-0.8309339141730534,-0.09588701411456299,-0.001428736475627957
0.11,-0.04794013976978368,1.6028179940820806,-1.5551795289335002,0.0035789057800285286,-0.00474415150433852,-5.325803384126388e-05,-0.7718895118575106,0.5188284049818803,0.22092821272509686,0.05035274900904454,-0.07154240066075271,-0.0008029333135286297,-6.072207154796049,3.713363992158166,1.0999035930332948,0.15764209062253265,-0.4160086334347959,-0.0016139003436279609,-1.1626402919976477,-2.9521528614250756,-3.7443577764301343,-0.8418160408663145,-0.09582975010136689,-0.001411607578904431
0.12,-0.05626196874562204,1.608376826552516,-1.5528603430300665,0.0040993119933191045,-0.005504666519188799,-6.174588754413172e-05,-0.8321828975838356,0.5558832470435471,0.23191859034336942,0.052040621329057575,-0.07605150148502787,-0.0008487853702867841,-5.872814833236792,3.517759189220487,0.9350370485575761,0.1116461735557781,-0.3817246348119312,-0.0007856269687991357,-1.1770576362830858,-3.1583507111644407,-3.8046579888979837,-0.8527410154887418,-0.09566951078380048,-0.0013928493195666503
0.13,-0.06516694079684407,1.6142866475025357,-1.5504476523738024,0.004632097668581622,-0.006307354638947997,-7.06473825419808e-05,-0.8904972051222027,0.590982095001972,0.24126906562641254,0.05327856752625176,-0.08026881197591984,-0.0008901494997849078,-5.665716630996331,3.3172709648155125,0.7695596108573115,0.06638256014804256,-0.3471360989295498,8.48574150946746e-06,-1.190686776889612,-3.370467586652558,-3.8656764525602165,-0.8636672542763487,-0.09538026388302366,-0.0013724365343135703
0.14,-0.07463449907997759,1.6205274099507634,-1.547957914168902,0.005172820291757221,-0.007149257936924492,-7.991781151372681e-05,-0.9467558283133511,0.6240762448227724,0.24897382049004127,0.05407226231755988,-0.08419032979764944,-0.0009270428971746001,-5.450992045233792,3.1123816108450852,0.6041092009206341,0.021921112396237064,-0.3124045155446673,0.0007590138302404625,-1.2030773394640255,-3.5875826425203234,-3.927163809774189,-0.8745539043664383,-0.09493800390788398,-0.0013503661110980494
0.15,-0.08464332805119218,1.627078628288182,-1.5454075812088455,0.00571710331799787,-0.008027391076751983,-8.951298013060201e-05,-1.0008828971214594,0.6551218337418537,0.25503329600564245,0.05442830262406493,-0.0878133139827491,-0.0009595168616875203,-5.228766495805355,2.9036007232515773,0.4393131582436798,-0.021647294552561647,-0.2777158790947638,0.0014581741436678897,-1.2137872043868003,-3.8087740014337292,-3.988873181348778,-0.885361370537189,-0.09432103565543866,-0.0013266576356017927
0.16,-0.09517136551984012,1.6339194293826738,-1.5428130401452835,0.006260646928399414,-0.008938755445135907,-9.938953244777327e-05,-1.052803746864794,0.684080109449178,0.25945410635619925,0.054354361040154404,-0.09113643683839241,-0.0009876552317171258,-4.9992149901101675,2.691463130860021,0.2757865005779836,-0.06421819945816232,-0.24326180602643532,0.0020999631062448287,-1.2223870555823548,-4.033123882317994,-4.050562536319969,-0.8960518171363799,-0.09351021612239949,-0.0013013534052364025
0.17,-0.1061958197030045,1.6410286061728543,-1.5401905508353047,0.006799239734000441,-0.009880353644598218,-0.00010950524684748924,-1.102445418316438,0.7109176790180506,0.2622489309978843,0.053859280560102675,-0.09415981994623115,-0.0010115714399715977,-4.762564257936638,2.4765264747804903,0.1141296137040353,-0.10567942691968568,-0.209227936034452,0.002680154153233971,-1.2284650930292522,-4.259723873300954,-4.111997002815645,-0.9065896345818751,-0.09248915114365779,-0.00127451783429725
0.18,-0.11769319146262554,1.6483846735126597,-1.537556187030889,0.007328770957314337,-0.010849203625505198,-0.00011981929509597837,-1.149737175962104,0.735606733980535,0.2634363804415658,0.0529531223313897,-0.09688499809069799,-0.0010314048248489134,-4.5190935911860475,2.2593684610789486,-0.045074448032869086,-0.14591575148366864,-0.17578694588245014,0.0031962022280569435,-1.231631788957482,-4.4876802651666505,-4.172951072095999,-0.9169418599889397,-0.0912443439310133,-0.0012462362896279756
0.19,-0.12963930179321329,1.6559659259947397,-1.534925778704851,0.007845242713518576,-0.011842352014474587,-0.00013029246120356916,-1.1946110330587736,0.7581252482079928,0.2630408326037934,0.05164717562042383,-0.09931483889693886,-0.0010473166107590778,-4.269134556003785,2.040583820493949,-0.20126289485414706,-0.18481261301723784,-0.14309453461038757,0.0036470895331528475,-1.231524560851669,-4.716119354123203,-4.23321064768851,-0.9270785421336968,-0.08976529369295347,-0.0012166134100945144
0.2,-0.14200932452518028,1.663750497450908,-1.5323148563245952,0.008344782086124174,-0.012856886375661729,-0.00014088731947568519,-1.2370022731966999,0.7784571456168371,0.2610922380255782,0.04995393726055976,-0.10145343611871412,-0.0010594858272116024,-4.0130697117858345,1.8207810177003907,-0.3538962335586482,-0.2222590764141099,-0.11128735806007839,0.004033137378554041,-1.2278122331982189,-4.944192619057381,-4.292574893453482,-0.9369730420721522,-0.08804454362859501,-0.0011857709751758572
0.21,-0.1547778241154188,1.671716421802526,-1.529738597390119,0.008823652750473834,-0.013889946259733388,-0.00015156837290295397,-1.276849959023852,0.7965924351617991,0.25762589344761644,0.047887066434965916,-0.10330598840716594,-0.0010681053427268792,-3.751330457356644,1.6005787592176381,-0.5024612815036553,-0.25815017960881104,-0.08048226367171907,0.004355802396224906,-1.2201991643684806,-5.171081678205244,-4.350857838332028,-0.9466022622532428,-0.08607767875794972,-0.001153845397796122
0.22,-0.167918798312888,1.679841694913351,-1.5272117755473227,0.009278265946458341,-0.014938732974999595,-0.0001623021541680444,-1.3140974197469215,0.8125273110824939,0.2526821842796207,0.04546131959845077,-0.10487867152662063,-0.0010733781265090418,-3.4843941199261885,1.380602353621216,-0.6464740616983564,-0.2923887776171521,-0.050776402566857115,0.0046174705604715705,-1.2084289247564814,-5.396002933277794,-4.407889701280615,-0.9559467988277354,-0.0838632752249272,-0.0011209849238626225
0.23,-0.1814057254130737,1.6881043370824969,-1.5247487125731387,0.009705190642102388,-0.01600051806975217,-0.00017305729223990334,-1.3486927100185706,0.8262642169145878,0.24630629741839863,0.04269246956440455,-0.10617850947525757,-0.0010755138071858953,-3.2127804016065085,1.1614799803445597,-0.7854824930707371,-0.3248869637961521,-0.02224793451982876,0.004821258664039263,-1.1922874266594334,-5.618211815370945,-4.4635179072298055,-0.9649910139790809,-0.08140280383772328,-0.001087346625609719
0.24,-0.19521161575170945,1.6964824558059557,-1.522363233506551,0.010101162764110645,-0.01707265055262723,-0.00018380454791199863,-1.3805890338635745,0.8378118723458932,0.2385479066587853,0.039597212200825724,-0.10721324828750588,-0.0010747255672095277,-2.9370472983789297,0.9438389241821026,-0.9190688041853313,-0.3555671303873704,0.005042871969232365,0.004970829931252307,-1.1716054246117735,-5.837006556155151,-4.517607773485732,-0.973723027390336,-0.07870049164996157,-0.0010530932777040635
0.25,-0.20930906703547963,1.7049543084316845,-1.5200686251704976,0.010463093401472192,-0.018152562903899345,-0.0001945168218076672,-1.409745128377017,0.8471852625728726,0.22946083360534253,0.03619306373615479,-0.10799123512721145,-0.001071227389566858,-2.657786605397596,0.7283018317126781,-1.0468516124518328,-0.3843627167469441,0.031052286525726558,0.005070228019049994,-1.1462603259005286,-6.051731419499897,-4.570042855440287,-0.9821346283101882,-0.07576314628941963,-0.0010183902041047649
0.26,-0.22367032306570683,1.713498364335461,-1.5178775982951818,0.010788075914765586,-0.019237775948296114,-0.0002051691383857006,-1.4361256030227194,0.8544055903776588,0.21910268753158627,0.03249825132933928,-0.10852130443967706,-0.0010652316578033385,-2.3756191198559806,0.5154830434448147,-1.1684876242091697,-0.4112186841970904,0.0557516153479618,0.005123731733005288,-1.1161772737479552,-6.261779342323298,-4.620724950338962,-0.9902211119840307,-0.0725999484793281,-0.0009834021800577803
0.27,-0.23826733538016207,1.7220933662523104,-1.5158022534146962,0.011073391907536699,-0.02032590267135625,-0.00021573860937893857,-1.4597012314455242,0.8595001916849154,0.207534488048565,0.028531599277111377,-0.1088126723060139,-0.001056947099323798,-2.091189647947538,0.3059850517153901,-1.283672924010157,-0.43609174990291466,0.07912562968147263,0.0051357312818103296,-1.0813294889941936,-6.466593948509964,-4.669573767740322,-0.9979810463724564,-0.06922221874392202,-0.0009482904675655042
0.28,-0.2530718273177779,1.7307183904108951,-1.5138540506673186,0.011316516037461952,-0.021414651068042762,-0.00022620437992259502,-1.4804491937615794,0.8625024158584783,0.19482027473775812,0.024312412992525425,-0.10887483966865096,-0.001046577054365644,-1.805161915836654,0.10039512946607314,-1.3921438338228955,-0.45895040789628805,0.101170983393013,0.005110625743184327,-1.0417378789613392,-6.665670915601538,-4.7165262847640825,-1.0054159769988067,-0.06564316463121184,-0.000913210054550206
0.29,-0.26805536000061514,1.739352905135381,-1.5120437835865361,0.011515119664216535,-0.02250182611536216,-0.00023654756040403013,-1.498353268283728,0.8634514724485867,0.1810267080782437,0.019860362675458307,-0.10871750473193985,-0.0010343180481435115,-1.5182134762877297,-0.10071783079083173,-1.4936773346000578,-0.47977476254501283,0.12189466381428993,0.005052740596845018,-0.9974699435344383,-6.8585586900210656,-4.7615358128782805,-1.0125300793742669,-0.061877614917501836,-0.0008783071581362211
0.3,-0.28318939972616985,1.747976827600309,-1.510381556925934,0.011667073348189552,-0.02358533096097224,-0.00024675114681200523,-1.513403972555474,0.8623922464927871,0.16622266606021388,0.015195368397301777,-0.10835048456100795,-0.0010203586407975106,-1.2310306930398016,-0.2968062349824877,-1.5880910535605006,-0.49855619801887574,0.14131250819030505,0.004966263616711597,-0.9486380275056401,-7.044858562253193,-4.8045708104887925,-1.0193297696871897,-0.05794174718544419,-0.0008437170414674234
0.31,-0.2984453862700896,1.7565705784483168,-1.508876768517598,0.01177044822949764,-0.024663167417854313,-0.00025679993209678674,-1.525598654391974,0.8593750848007865,0.15047884083358906,0.010337488130808857,-0.10778364568820711,-0.0010048785284781532,-0.944303874560946,-0.48734643652600435,-1.6752428304528921,-0.5152969061661858,0.15944780848914775,0.004855197082682228,-0.8953969842299994,-7.224224128127501,-4.845613481706891,-1.0258232852776659,-0.05385281490453564,-0.000809562181730747
0.32,-0.3137948016135869,1.7651151340074323,-1.5075380951215915,0.011823516330177917,-0.025733435851628277,-0.00026668041078445803,-1.5349415343497328,0.8544555559115437,0.13386733960064945,0.005306810068027582,-0.1070268433773965,-0.0009880478687671287,-0.6587226178645091,-0.6718410975701585,-1.7550298848779917,-0.5300092944554811,0.17633001954712801,0.004723324135134543,-0.8379413281746115,-7.396360175673867,-4.884658206202677,-1.032020246835231,-0.049628879711369006,-0.0007759508150436633
0.33,-0.3292092386302074,1.7735920758734118,-1.506373482184233,0.011824749834001325,-0.026794334542451042,-0.00027638067882767897,-1.5414437016620504,0.8476941865979576,0.1164612937358531,0.0001233503823407688,-0.10608986908227654,-0.0009700268043220922,-0.3749714119830059,-0.8498212506304204,-1.8273876143317307,-0.5427152950393603,0.19199357921628346,0.004574187060883139,-0.7765019627575693,-7.561021048557859,-4.921709847909489,-1.0379312142641395,-0.045288554013683216,-0.0007429758720269508
0.34,-0.34466046929203314,1.7819836376525224,-1.505390137386072,0.01177281940804568,-0.027844158598033332,-0.0002858903304271178,-1.5451230661825746,0.8391561779110629,0.0983344798160975,-0.00519304259556464,-0.10498240555822913,-0.0009509651599438865,-0.0937255398005967,-1.0208480556343695,-1.8922880589361888,-0.5534455953874922,0.20647684415208212,0.004411075401383802,-0.7113425749240258,-7.718008546582611,-4.956781991514763,-1.043567247782729,-0.040850758358094735,-0.0007107143066149094
0.35000000000000003,-0.36012051198479156,1.7902727486905634,-1.5045945278272412,0.011666591638020666,-0.028881298488441374,-0.0002952003533264587,-1.5460042692758396,0.8289111038041052,0.07956095588307965,-0.010622777002501287,-0.10371398904080421,-0.0009310022899340919,0.1843526934860634,-1.184514253798643,-1.949738073786357,-0.5622388102823201,0.21982114094864202,0.004237021929831761,-0.64275578933238,-7.8671694309854265,-4.989895155220361,-1.0489394851023581,-0.03633449723902235,-0.0006792268102844059
0.36,-0.3755616975536472,1.7984430746441775,-1.5039923806687487,0.011505125655373587,-0.029904238267263503,-0.00030430302387147095,-1.544118556885567,0.8170325953614015,0.060214715849242983,-0.016146598264707906,-0.102293977882213,-0.0009102670545012259,0.45861738675371133,-1.3404453256005056,-1.9997772534854978,-0.5691406141344562,0.23206992934913862,0.004054804728690686,-0.5710591731198792,-8.008392607188744,-5.021075026310129,-1.0540587445203087,-0.03175865621857959,-0.0006485578946698932
0.37,-0.3909567337357004,1.806479054780009,-1.5035886870236184,0.011287669038475773,-0.030911553537611023,-0.0003131918029312827,-1.5395036182053161,0.8035980135831436,0.0403693645130344,-0.021745661689781322,-0.10073152703475197,-0.0008888779059811778,0.728442114549201,-1.4883003652702875,-2.042475655778456,-0.5742028515944693,0.24326807209863022,0.003866953845205273,-0.4965911774020631,-8.141606060306673,-5.050350762806885,-1.0589351625207908,-0.027141822405565008,-0.0006187363176551675
0.38,-0.4062787676705018,1.8143659359155297,-1.5033877088718113,0.01101365307276566,-0.031901909215435245,-0.00032186123360735183,-1.5322033934801425,0.7886881135520881,0.020097815180713078,-0.027401596571011405,-0.09903556778242224,-0.0008669430676069137,0.99322264217404,-1.6277726886258228,-2.077931372288388,-0.5774826432807973,0.2534612045314111,0.0036757612030368647,-0.41970709443883103,-8.266773619162347,-5.077753400154917,-1.0635778730731165,-0.02250212953493564,-0.0005897758215997362
0.39,-0.421501446215421,1.8220898029419208,-1.5033929887576811,0.010682687455696425,-0.032874057136887645,-0.00033030684150240654,-1.5222678544919184,0.7723867026390973,-0.0005279885869928572,-0.03309656170692348,-0.0972147921452398,-0.000844560789505472,1.2523792893947951,-1.7585901946372262,-2.106267994310931,-0.5790415020949631,0.26269519607567204,0.0034832926798220587,-0.3407751003255687,-8.383891623011428,-5.103314396670236,-1.0679947343105383,-0.01785712812250311,-0.0005616761474058038
0.4,-0.43659897382777435,1.829637605893921,-1.5036073620183124,0.010294554531816375,-0.03382683355100325,-0.0003385250381865427,-1.509752761235335,0.7547802952000184,-0.021437326063121518,-0.038813292388004954,-0.09527764141156062,-0.000821819668413616,1.5053589536910832,-1.8805155038204655,-2.1276320205029084,-0.5789444741455263,0.2710156954091669,0.0032914014831992855,-0.2601724427101062,-8.492985561817251,-5.127064345709618,-1.0721921067280529,-0.01322368046397832,-0.000534424284632497
0.41000000000000003,-0.45154616780964707,1.836997183553771,-1.504032971285352,0.009849203141424696,-0.034759156533897516,-0.00034651302837903887,-1.4947193981872737,0.7359577659849967,-0.04256092670395593,-0.04453513903916792,-0.09323229828942686,-0.0007987990192496199,1.751636808639166,-1.993345898405099,-2.1421902512635014,-0.5772593166872539,0.2784677509009441,0.003101742083892911,-0.17828182195036435,-8.594106756046843,-5.149031876365905,-1.0761746855073917,-0.008617879619254084,-0.0005079959157387971
0.42,-0.466318510743848,1.8441572835960873,-1.504671283001673,0.009346742163137372,-0.0356700233559608,-0.00035426872126166745,-1.4772342934200926,0.7160100042316196,-0.06383117163211005,-0.05024609782873237,-0.09108668220632783,-0.0007755692882628597,1.9907176966556812,-2.0969130902245805,-2.1501272117497687,-0.5740557238212585,0.28509549815265345,0.0029157842202898188,-0.09548800282950609,-8.68732913583708,-5.1692427582313805,-1.0799453881094676,-0.004054990983644747,-0.0004823570116684095
0.43,-0.48089219998004923,1.8511075792976246,-1.5055231056971026,0.008787433826519015,-0.036558507829221654,-0.000361790646249309,-1.4573689236201222,0.6950295701537268,-0.08518226954293934,-0.05593083366183557,-0.08884844732608567,-0.0007521924987641552,2.222137237946425,-2.191082842477865,-2.1516426419387016,-0.5694046089652183,0.290941906814,0.0027348265306317288,-0.012174682893998923,-8.772746172308864,-5.187719219588107,-1.0835052969066394,0.00045058539509113676,-0.0004574655362280548
0.44,-0.49524419405861375,1.8578386828503874,-1.5065886097741625,0.008171686865845995,-0.037423757658127756,-0.000369077873466487,-1.4351994078564512,0.6731103552762865,-0.10655040770599115,-0.06157469606730214,-0.08652498289061013,-0.0007287227217178014,2.4454626791897582,-2.2757544709628603,-2.1469490880720903,-0.5633774513649978,0.2960485793496037,0.002560009562038168,0.07127836693598993,-8.850468006068134,-5.20447948245998,-1.086853655387798,0.004885333938643998,-0.0004332732178953083
0.45,-0.5093522559857274,1.8643421553284967,-1.5078673485649072,0.007500049580227078,-0.03826499181344772,-0.0003761299391113698,-1.4108061927113629,0.6503472478109149,-0.12787387907446365,-0.06716372856189165,-0.08412341553199605,-0.0007052065644882797,2.66029350632014,-2.3508602491610167,-2.1362696253343234,-0.5560457121614579,0.3004555950012673,0.0023923279435802414,0.15449788330283165,-8.920618809798091,-5.21953751243873,-1.0899879153778758,0.009236626528356676,-0.00040972734965053463
0.46,-0.5231949932971389,1.8706105133687276,-1.5093582804330279,0.006773202858885218,-0.03908149794581103,-0.0003829467758313739,-1.3842737311411482,0.6268358040230994,-0.14909318681206804,-0.07268467213418597,-0.08165061323633138,-0.0006816836720004161,2.8662618458589235,-2.4163647397393366,-2.119835736824018,-0.5474803238640416,0.3042013928070304,0.0022326416541478267,0.2371194150006279,-8.983334413562082,-5.23290297618442,-1.0929038317808193,0.013492711942596432,-0.0003867725799958882
0.47000000000000003,-0.5367518948690599,1.8766372326318965,-1.5110597917109814,0.00599195322355695,-0.03987262985255261,-0.00038952864818447245,-1.355690157192107,0.6026719263168901,-0.17015112779534136,-0.07812496353282677,-0.07911319067415752,-0.0006581872353098518,3.0630326786725623,-2.472264072725871,-2.097885368936387,-0.5377512554083879,0.3073226881476536,0.0020816863005757025,0.3187893602734991,-9.03876021322327,-5.244581395077494,-1.0955956005849479,0.017642694380471852,-0.0003643526613448541
0.48,-0.5500033644536393,1.8824167481175034,-1.512969720279469,0.005157225932854307,-0.04063780500898941,-0.00039587609321772957,-1.3251469584579347,0.5779515485606895,-0.1909928568487635,-0.08347272907026428,-0.07651751564367987,-0.0006347445033257116,3.250303888925004,-2.5185851879027648,-2.0706611782480833,-0.5269271534596687,0.3098544178938134,0.0019400824196638133,0.39916675140524915,-9.087049374429228,-5.254574479710691,-1.0980560352592719,0.021676503690141638,-0.00034241212530121694
0.49,-0.5629307509330085,1.8879444514075314,-1.5150853796156616,0.004270058186205416,-0.04137650217300379,-0.00040198986615766545,-1.2927386479369216,0.5527703290027982,-0.21156593361926562,-0.08871677466488917,-0.07386971640143757,-0.0006113772939935881,3.4278061694365136,-2.5553850559512323,-2.038408980020014,-0.5150750591498614,0.3118297097899223,0.0018083438390505968,0.47792480526290276,-9.12836133706522,-5.262880626776488,-1.1002767762115786,0.025584859826989714,-0.00032089785787439414
0.5,-0.5755163753003579,1.8932166849173369,-1.517403583156625,0.0033315924577873783,-0.042088259069816836,-0.0004078708911751459,-1.2585624367349442,0.5272233509805392,-0.23182035409634477,-0.09384657284180374,-0.07117568968130515,-0.0005881025017480425,3.595302802786059,-2.582749889684633,-2.0013764035821824,-0.5022601981231247,0.3132798722309822,0.0016868851487608083,0.5547522611289553,-9.162860618076088,-5.269495557431356,-1.1022485276640266,0.029359233912229752,-0.00029976055130032786
0.51,-0.5877435543890217,1.8982307332324762,-1.5199206688449782,0.0023430699838182523,-0.042772670162082214,-0.0004135202171599757,-1.22271790886638,0.5014048315139383,-0.25170856883531867,-0.09885224739691262,-0.06844110922653755,-0.0005649325984829846,3.7525893353724054,-2.600794353407424,-1.9598117552223622,-0.4885458405434182,0.3142344010672389,0.0015760283448469359,0.629354528494489,-9.190715904178965,-5.2744130743799005,-1.1039613161161463,0.03299180805609998,-0.0002789560127764774
0.52,-0.5995966213813451,1.902984811610427,-1.5226325237444418,0.001305824419804581,-0.04342938450889422,-0.000418938978416722,-1.1853066992323404,0.47540783779508894,-0.2711854899463495,-0.10372455640136713,-0.06567143468120051,-0.0005418761256746264,3.8994931594027644,-2.609660775152158,-1.9139630848421092,-0.4739932266601343,0.31472100049375484,0.001476008738034107,0.7014546676114162,-9.212099420313791,-5.277625913694698,-1.1054047644963492,0.03647543586260758,-0.0002584463140164042
0.53,-0.6110609431383979,1.9074780517258005,-1.5255346086331778,0.00022127567795327246,-0.044058103715964025,-0.0004241283601726336,-1.1464321757052782,0.449324011537334,-0.29020848887359996,-0.10845487418513085,-0.0628719207069809,-0.0005189381755911621,4.035873015482145,-2.6095183633619636,-1.8640774486293799,-0.4586615525975546,0.3147656154648324,0.0013869802030468392,0.7707942246588919,-9.227186554744065,-5.279126666729897,-1.106568376137504,0.03980360525487177,-0.00023820076904399265
0.54,-0.6221229343996141,1.911710484737133,-1.5286219825022849,-0.0009090760509543527,-0.04465857997805569,-0.00042908956877075305,-1.1061991261216262,0.42324330113324404,-0.30873738691069896,-0.11303517289076252,-0.060047626209166476,-0.0004961208598119449,4.161618426217248,-2.6005624265905003,-1.8104003563857969,-0.4426080102493781,0.31439247340740195,0.0013090198496743533,0.8371339415333077,-9.236155717551467,-5.278908747355336,-1.1074418228375986,0.04297040496142843,-0.0002181967310531705
0.55,-0.6327700689084071,1.9156830217529845,-1.531889326905131,-0.0020836560922824765,-0.04523061421377297,-0.0004338238064059802,-1.0647134508793104,0.3972537015851594,-0.3267344402846155,-0.11745800413281236,-0.05720342357172776,-0.00047342376352271293,4.276649069097088,-2.583013592063359,-1.7531753889729744,-0.42588787454441324,0.31362413331319416,0.001242132193013834,0.9002543577020861,-9.23918840586873,-5.276967380085636,-1.1080152314715037,0.04597049569372588,-0.0001984202024404376
0.56,-0.6429908875259442,1.919397431775126,-1.5353309701200757,-0.0033008209046431055,-0.045774054291932875,-0.0004383322502486588,-1.0220818617537093,0.371441002214126,-0.3441643214944614,-0.12171648123606288,-0.05434400781599081,-0.0004508443842678612,4.380914094932238,-2.5571170165571075,-1.6926439686557906,-0.40855463086212573,0.31248154054989286,0.001186252911368868,0.9599563184545932,-9.236469446560259,-5.273300585458782,-1.1082794638945574,0.04879908673213643,-0.00017886625526729945
0.5700000000000001,-0.6527750034007662,1.9228563171973156,-1.538940911104271,-0.004558863529228016,-0.046288793348038516,-0.000442616035788714,-0.9784115874822028,0.34588854221898424,-0.3609940984195095,-0.12580426245849108,-0.05147390561056419,-0.00042837855400552135,4.4743913963752355,-2.52314158105779,-1.6290452629380603,-0.39066013505781605,0.31098408598159466,0.0011412522310489948,1.0160614004258797,-9.228187385167589,-5.26791014018312,-1.1082263852142917,0.05145191833013467,-0.00015953926242317265
0.58,-0.6621131042669828,1.926063086939748,-1.5427128432294397,-0.0058560188845667065,-0.046774768188758,-0.0004466762442239217,-0.9338100866216587,0.32067697424323327,-0.37719321251687765,-0.12971553553386903,-0.048597484071947895,-0.00040602084352076636,4.557086829548931,-2.4813790591103078,-1.5626162008285949,-0.37225479838306264,0.3091496682038368,0.0011069380487529479,1.0684122616440028,-9.214534988760146,-5.260802491074957,-1.1078491158956805,0.053925250051106065,-0.00014045294263388566
0.59,-0.6709969519485072,1.9290219273018345,-1.5466401778016308,-0.007190468922524419,-0.04723195778181558,-0.00045051389370714593,-0.8883847681524354,0.29588403620866144,-0.392733457219118,-0.13344500379577123,-0.04571895930575838,-0.00038376494832242377,4.629033390604487,-2.432143247693841,-1.4935915793542929,-0.3533877895613404,0.3069947579096173,0.0010830588026311538,1.1168729197345688,-9.195709829835673,-5.2519896036061615,-1.1071422636012964,0.05621585487606777,-0.0001216302251913319
0.6,-0.6794193791513452,1.9317377706197032,-1.550716067375838,-0.00856034766323299,-0.04766038182829264,-0.0004541299342606045,-0.8422427202838048,0.2715843317868595,-0.4075889574207252,-0.13698787407085716,-0.0428424046477053,-0.0003616040553458539,4.690290348134784,-2.3757690488755934,-1.4222042375496065,-0.3341072463923762,0.30453446358924907,0.0010693061523530112,1.1613289584703974,-9.171914918558379,-5.241489727928504,-1.1061021311446366,0.058321018669163734,-0.00010310294285753043
0.61,-0.6873742836304056,1.93421626181968,-1.5549334288829946,-0.009963746127793306,-0.048060099414007205,-0.00045752524615940066,-0.7954904479060481,0.24784911999769396,-0.4217361507156481,-0.1403398464560315,-0.03997175857145713,-0.00033953118987961557,4.740942331786765,-2.312611490413399,-1.348685275086865,-0.3144604895147918,0.30178259795531304,0.0010653175447319363,1.201687659727415,-9.143359351361086,-5.229328067495302,-1.1047268974468651,0.06023854436609142,-8.491136380764407e-05
0.62,-0.6948566198217128,1.936463722965106,-1.5592849665911994,-0.01139871718802151,-0.048431207736379746,-0.0004607006415812037,-0.748233619130706,0.22474611454260213,-0.4351537708204818,-0.14349710602282048,-0.03711083223725374,-0.00031753954218030687,4.78109837714251,-2.2430446738842678,-1.2732642931569176,-0.29449423133107544,0.29875174465645316,0.0010706786604073315,1.2378780552293507,-9.110258945222064,-5.215537337818558,-1.1030167689283858,0.06196676006278696,-6.710357570186465e-05
0.63,-0.7018623880353075,1.938487115901059,-1.5637631949251514,-0.012863280352264136,-0.04877384090298624,-0.0004636568693151033,-0.7005768213594731,0.20233929359529634,-0.4478228333951917,-0.14645631642426252,-0.03426331666064911,-0.0002956227733899559,4.810890926957365,-2.167460639793897,-1.1961696361276406,-0.27425477359758155,0.29545332500945776,0.0010849258197027645,1.269850890340932,-9.072836828705288,-5.200158205436537,-1.1009740993306187,0.0635045300310184,-4.973473699123568e-05
0.64,-0.7083886213085185,1.9402940031098432,-1.5683604611677484,-0.014355426505424065,-0.04908816879783702,-0.000466394622318826,-0.652623327321103,0.18068872087842544,-0.4597266242596996,-0.14921461531599292,-0.03143278948507788,-0.0002737753003722705,4.8304747891277255,-2.0862681404329373,-1.1176286138699476,-0.2537881877856858,0.29189766463936095,0.0011075483422540167,1.2975784906854786,-9.03132396307023,-5.183239599778946,-1.09860347654311,0.06485126757642146,-3.286621233775859e-05
0.65,-0.714433370023636,1.9418925068993194,-1.573068968065797,-0.015873122619874867,-0.0493743960112877,-0.0004689145479107913,-0.6044748715117562,0.15985037894760165,-0.4708506898048611,-0.15176961144508005,-0.028622721345068172,-0.00025199255919653064,4.840026052277147,-1.999891312945923,-1.0378676863983816,-0.23314047300624097,0.28809406006453386,0.0011379909501494367,1.3210545215751404,-8.985959569355838,-5.1648388932582705,-1.0959117755987733,0.06600694858439812,-1.6564610532765023e-05
0.66,-0.7199956843982876,1.94329126705612,-1.577880796357939,-0.017414316451958855,-0.04963276082937683,-0.0004712172603802552,-0.556231437465161,0.13987601568007194,-0.4811828292141996,-0.1541193832083987,-0.025836481808913056,-0.00023027124694638813,4.839740960555513,-1.9087682471114338,-0.9571125945751517,-0.21235768705813385,0.28405084539829417,0.00117565617199622,1.3402936301801178,-8.936991440264377,-5.145021947540973,-1.0929081775871383,0.06697212457066129,-9.007444961842874e-07
0.67,-0.7250755949609162,1.9444993971063287,-1.5827879272374559,-0.01897694123633624,-0.049863534278282405,-0.0004733033557969512,-0.5079910562628562,0.12081300502086297,-0.4907130879516673,-0.15626247843773855,-0.023077344890557648,-0.0002086095416696028,4.829834750095218,-1.8133494446350558,-0.8755884230097721,-0.19148604699642746,0.2797754594590387,0.0012199068612206432,1.3553309610279531,-8.884676118852694,-5.123863026514858,-1.0896041548126367,0.06774793406550039,1.4051466199700323e-05
0.68,-0.7296740911276183,1.9455264393370462,-1.5877822647557904,-0.02055892038765746,-0.050067019219486635,-0.0004751734287986401,-0.4598496166702048,0.10270422307175227,-0.4994337518334614,-0.15819791513212195,-0.02034849412042277,-0.00018700730016888947,4.8105404505106835,-1.7140961692575543,-0.7935195839001778,-0.170571996462753,0.27527451368062117,0.00127006881220737,1.3662215367880102,-8.829278929418233,-5.101444578923211,-1.0860134230823315,0.0683361112124907,2.8216129342495226e-05
0.6900000000000001,-0.7337930980001169,1.9463823187432054,-1.5928556581646984,-0.022158172215949158,-0.050243549491126874,-0.0004768280911327312,-0.41190068724987094,0.0855879406159316,-0.507339340890801,-0.1599251828291698,-0.01765302716402406,-0.00016546623340910906,4.782107655810301,-1.611478689609724,-0.7111297133196568,-0.14966223792747702,0.27055386129187653,0.0013254335289469843,1.3730394983045595,-8.771073849483233,-5.077856895939322,-1.0821518625352757,0.06873899055077723,4.1516529581591376e-05
0.7000000000000001,-0.7374354515077232,1.9470772960747298,-1.5979999241861684,-0.02377261465882283,-0.050393489090883876,-0.0004782679917254558,-0.3642353507606262,0.06949773315244133,-0.5144266021470075,-0.16144424428736723,-0.014993959975700157,-0.00014399005927246146,4.744801270062593,-1.5059744194232823,-0.6286414743090312,-0.1288037288708015,0.2656186682871251,0.0013852611754905375,1.3758772004142235,-8.71034321536801,-5.0531976510651395,-1.078037408913818,0.06895950707168766,5.3876272668693624e-05
0.71,-0.7406048720186811,1.9476219201694185,-1.60320686918994,-0.025400170030218612,-0.050517231395610984,-0.00047949383804929283,-0.3169420510957885,0.05446240946887384,-0.5206945003771489,-0.16275553713957797,-0.012374230472710756,-0.00012258463238369946,4.698900234071319,-1.398065962364052,-0.546276264000344,-0.10804364180777348,0.26047348672488724,0.0014487837778527357,1.3748441631168724,-8.647377257443564,-5.027571331619105,-1.0736899176164956,0.06900119079078884,6.522040438856219e-05
0.72,-0.74330593654821,1.948026979766505,-1.60846831124886,-0.027038769781970107,-0.05061519841273759,-0.0004805064185558181,-0.2701064529528944,0.04050595970866973,-0.5261442058920122,-0.1638599751751496,-0.009796701712660507,-0.00010125805065252806,4.644696240122067,-1.2882390713146832,-0.4642538248175203,-0.08742928891348001,0.2551223308879891,0.0015152086642467033,1.3700658810419515,-8.58247346470311,-5.001088572699215,-1.0691310032542105,0.06886815525036731,7.547648523378186e-05
0.73,-0.745544049691764,1.9483034550044203,-1.6137761020327577,-0.028686359271102423,-0.05068784005828561,-0.0004813066259381498,-0.22381131435540247,0.027647523791515867,-0.5307790783897599,-0.16475894891323145,-0.007264164554802228,-8.002073823317039e-05,4.582492442527377,-1.1769805343343123,-0.38279176251375535,-0.06700801277532165,0.24956875678526202,0.0015837222382879546,1.361682497729482,-8.515935781735644,-4.973865405843339,-1.064383857749091,0.06856507955878621,8.457560335982958e-05
0.74,-0.7473254134124616,1.9484624688136551,-1.6191221484922298,-0.030340902522530508,-0.050735633456121566,-0.00048189548098304976,-0.1781363720697582,0.01590138092349619,-0.5346046459472202,-0.16545432514280853,-0.004779339783595944,-5.888550448999345e-05,4.512602172185387,-1.0647760017028887,-0.3021049763380268,-0.046827045551276925,0.24381594539944018,0.0016534940825274624,1.34984735488303,-8.44807364446808,-4.9460224356426075,-1.0594730502633676,0.06809718377589608,9.245331018722675e-05
0.75,-0.7486569958112494,1.9485152384215545,-1.6244984342749953,-0.0320003869737826,-0.05075908225283297,-0.0004822741567690741,-0.13315823987878087,0.00527696078993968,-0.5376285782765476,-0.16594844512520948,-0.00234487967113985,-3.7867578602433654e-05,4.43534766365525,-0.9521077703657169,-0.222405008946019,-0.02693333943961429,0.23786678996445332,0.001723681445175984,1.334725430305065,-8.379200864118095,-4.917683958286361,-1.0544243124202357,0.0674701976610248,9.905046515209137e-05
0.76,-0.74954649900712,1.9484730271901651,-1.6298970408094937,-0.03366282818559645,-0.05075871594237335,-0.00048244400296316477,-0.08895031958705621,-0.004221123138930256,-0.5398606534498397,-0.16624412118138424,3.6631045962138686e-05,-1.6984619409063522e-05,4.3510588033256825,-0.8394525436868623,-0.1438993257185992,-0.007373371942324791,0.2317239874101702,0.0017934341348255778,1.3164916815511198,-8.30963437162194,-4.888977036427152,-1.0492643123784475,0.06669032300536967,0.00010431397848985845
0.77,-0.7500023262525999,1.9483470970107823,-1.6353101679834083,-0.035326274499781846,-0.050735089194374576,-0.00048240656996426535,-0.04558272454798899,-0.01259301793827145,-0.5413127173914584,-0.16634463141853956,0.002362674799877311,3.7432998899404507e-06,4.260071907104444,-0.7272791856667002,-0.06679053490234677,0.011807070143683873,0.22539013392863083,0.0018618998153048238,1.29532931530583,-8.239692837334083,-4.860030544859821,-1.0440204213480513,0.06576418996734838,0.00010819744350553382
0.78,-0.7500335484067759,1.9481486614794332,-1.6407301543389314,-0.036988811623658156,-0.05068878117978929,-0.0004821636326395605,-0.0031222154176089173,-0.0198435531349112,-0.5419986355523004,-0.16625371238763087,0.004630801458528885,2.429373247048324e-05,4.162728535690296,-0.6160464896567784,0.008724438592134565,0.03056312370319625,0.21886782441357155,0.0019282297643012924,1.271428004974247,-8.169695183005834,-4.8309742013246435,-1.0387204760889825,0.06469880801153242,0.00011066165246632724
0.79,-0.749649869884369,1.9478888400761338,-1.6461494967020194,-0.038648567118697366,-0.05062039488731387,-0.0004817172133957902,0.03836785224069229,-0.02598214032994239,-0.5419342363088016,-0.16597554950392077,0.006838629247541909,4.4641924377033924e-05,4.05937435491529,-0.5062009821021018,0.08245521182243487,0.04885109469941251,0.21215975529277387,0.00199158499716523,1.2449820808985996,-8.099959004912085,-4.80193759629303,-1.0333925408217683,0.06350151221366777,0.00011167499297455976
0.8,-0.748861594194854,1.947578613567302,-1.651560869159705,-0.04030371476975883,-0.05053055642386806,-0.00048106960432744284,0.07882756895149828,-0.031022650883168756,-0.5411372457685728,-0.1655147651061467,0.008983846344580613,6.476090683473587e-05,3.9503580478839084,-0.39817478195642275,0.15421882024666222,0.06662871127668313,0.20526883003902796,0.002051142849715859,1.2161887188812515,-8.030798928491599,-4.773049234904337,-1.0280646718070334,0.06217990583126786,0.00011121372436372393
0.81,-0.7476795891804404,1.947228780845188,-1.6569571412978121,-0.04195247881050873,-0.050419914292286226,-0.0004802233881826296,0.11820050144135935,-0.03498327221140925,-0.5396272138107165,-0.16487640407498974,0.011064213158183414,8.462161448132651e-05,3.8360302847123253,-0.29238353615565793,0.22384059695243186,0.08385537982628988,0.19819826639724525,0.0021061038503802365,1.1852461532719978,-7.962524915982822,-4.74443560332634,-1.0227646876254877,0.060741800147556625,0.0001092621362347463
0.8200000000000001,-0.7461152520559569,1.946849917410622,-1.6623313956111978,-0.04359313798028104,-0.05028913863932376,-0.0004791814578903095,0.1564337124483509,-0.037886343456603126,-0.5374254313385779,-0.16406591697723105,0.013077565296246832,0.00010419302923200853,3.7167427546165746,-0.18922445091673779,0.29115503965760586,0.1004924393138314,0.19095170412495222,0.0021556989362605528,1.1523519407435907,-7.895440549269135,-4.7162202707467715,-1.0175199479217223,0.0591951526734142,0.00010581259364319476
0.8300000000000001,-0.744180474347438,1.9464523356958472,-1.6676769439999226,-0.045224029387755764,-0.050138920467115586,-0.00047794703439591466,0.19347777085188667,-0.0397581714774732,-0.5345548388724769,-0.16308914074747208,0.015021817220817404,0.00012344234943948692,3.5928472639481965,-0.08907443767537848,0.35600665076016014,0.11650340931473147,0.1835333118159177,0.0021991968599173184,1.1177013000425466,-7.8298413104942215,-4.68852303700692,-1.0123571430729457,0.05754800483584059,0.00010086547559966328
0.84,-0.7418876068196008,1.9460460474127788,-1.6729873432674887,-0.046843552157391284,-0.049969970801356754,-0.00047652368255963286,0.2292867527837234,-0.04062882830684069,-0.5310399267566095,-0.16195227696355197,0.016894966575882932,0.00014233518362818096,3.4646949025662774,0.007711608783472511,0.41825073631475473,0.13185422744354103,0.17594789117527654,0.002235911702782367,1.081485551498196,-7.766012882976084,-4.661459134599304,-1.0073020969176942,0.05580842029183181,9.442901540250223e-05
0.85,-0.7392494244755486,1.945640728098854,-1.678256409541437,-0.04845017083553065,-0.04978301980972069,-0.0004749153248816456,0.26381823440521485,-0.04053193139247599,-0.5269066273948296,-0.16066186781393685,0.018695099163606167,0.0001608357677987264,3.3326352797044305,0.10080238397811841,0.47775415069748134,0.14651347215791066,0.16820097694247949,0.0022652104222014025,1.0438906779611845,-7.704229494548747,-4.635138492407104,-1.0023795843392511,0.053984424984142146,8.651905284425552e-05
0.86,-0.7362790917050721,1.9452456840178547,-1.6834782315420533,-0.0500424185344783,-0.049578815864399405,-0.0004731262528313491,0.2970332770476522,-0.039504408099910744,-0.5221822000616421,-0.1592247698947645,0.020420394532128336,0.0001789072050296485,3.1970158292767383,0.18989158490456853,0.5343959748370335,0.16045256729353774,0.160298930530967,0.0022865202119839445,1.005096026202843,-7.6447523247098355,-4.609665067198593,-0.9976131651532768,0.0520839500019043,7.715870949259469e-05
0.87,-0.732990127650951,1.944869821556869,-1.6886471826316045,-0.051618899794579655,-0.04935812454314967,-0.0004711611355752891,0.3288964054121155,-0.03758624609857927,-0.5168951089551166,-0.1576481260101355,0.022069132124973995,0.00019651172560600103,3.058181183402109,0.27469914642658394,0.5880681172094113,0.17364596511482766,0.1522490253813622,0.002299335641028577,0.965273164734537,-7.587827995872635,-4.585136247537148,-0.9930250354075439,0.050114778227174,6.637799902926904e-05
0.88,-0.7293963718558194,1.944521619243108,-1.6937579315842604,-0.05317829314639073,-0.0491217275638635,-0.0004690250259182929,0.3593755795131543,-0.03482023137608219,-0.5110748952655906,-0.15593933518110745,0.02363969792861651,0.00021361096569962255,2.9164726118459416,0.3549722926795425,0.6386758282812096,0.1860713051294023,0.14405952200092287,0.002303225291828692,0.9245849106086188,-7.533687167636976,-4.561642333453997,-0.9886358968710158,0.048084495641674635,5.421338503618518e-05
0.89,-0.7255119502455429,1.9442091024858306,-1.6988054520255234,-0.054719353357353576,-0.04887042164845126,-0.000466723363297759,0.3884421610276465,-0.031251675727761226,-0.5047520441262945,-0.1541060210962846,0.025130591541223758,0.00023016626205338883,2.7722275241043186,0.4304863954970218,0.6861381206943775,0.1977095464057146,0.13573973071291334,0.0022978378517168885,0.8831845341519784,-7.482543251336327,-4.539266093980444,-0.9844648451762973,0.04600044804044895,4.0707298657566466e-05
0.9,-0.7213512414987686,1.94393982112934,-1.7037850304994058,-0.05624091334994962,-0.04860501731272602,-0.0004642619736985259,0.4160708746774271,-0.026928135649072038,-0.4979578473882384,-0.15215599925960444,0.026540433572524162,0.00024613895992331366,2.6257790300123225,0.501045634145957,0.7303880891754851,0.20854507165861147,0.12730006024674623,0.0022829074103718483,0.841215146873347,-7.434591260220191,-4.518082403467012,-0.9805292767885646,0.043869703755390066,2.5907628266086434e-05
0.91,-0.7169288438464384,1.9437208298831823,-1.708692273131616,-0.05774188578103539,-0.048326337580001266,-0.00046164706638808425,0.44223976523302505,-0.021899124615771183,-0.49072426322102786,-0.15009724310857644,0.027867973272475005,0.00026149073104416484,2.477455554068723,0.566483452959094,0.7713731258881211,0.21856576188418764,0.11875205047876491,0.0022582578567487133,0.7988092740895023,-7.390006808527621,-4.4981579565421415,-0.9768448147091752,0.04169902283677707,9.867192653717244e-06
0.92,-0.7122595423396619,1.943558671675468,-1.7135231108674491,-0.05922126427492394,-0.048035216617246454,-0.00045888522740671246,0.46693015067765103,-0.016215820771424437,-0.48308377358330695,-0.14793784938885488,0.029112096275481322,0.000276183898137181,2.3275804981276056,0.6266628157400747,0.8090550286908238,0.22776304083975152,0.11010838787668398,0.0022238062087041044,0.756088610230898,-7.3489452704407,-4.47955106059332,-0.9734252525859282,0.03949483297969568,-7.3567916049473115e-06
0.93,-0.7073582766194928,1.9434593639549345,-1.718273803273761,-0.060678124305710214,-0.047732498293869316,-0.0004559834097850374,0.4901265720169138,-0.009930772053352608,-0.47506924063119654,-0.14568600307862767,0.030271832337713606,0.00029018176216750666,2.176471946736332,0.6814762580570484,0.843410001472678,0.23613188917989714,0.10138290249886239,0.00217956475918335,0.7131639514109488,-7.311541107513871,-4.462311503792383,-0.9702825166954108,0.0372632123198003,-2.5703239056456184e-05
0.9400000000000001,-0.7022401092178695,1.9434283879471614,-1.7229409409051684,-0.06211162372729904,-0.047419034664489434,-0.0004529489205014552,0.511816740162325,-0.0030976007773118293,-0.4667137631407464,-0.14334994215888266,0.03134636293798787,0.0003034489283582202,2.0244424091864084,0.7308457406972302,0.8744285473937334,0.24367082853465583,0.09259054575852588,0.002125641940442513,0.6701352967502296,-7.277907370700919,-4.446480495937114,-0.9674266450865628,0.035009879063780246,-4.510771223001169e-05
0.9500000000000001,-0.6969201944152988,1.9434706808504736,-1.7275214462452846,-0.06352100295253404,-0.047095684378408616,-0.00044978940423315403,0.531991480257071,0.004229290331208086,-0.4580505340116285,-0.1409379225235004,0.03233502860808164,0.00031595162683011865,1.8717985922888798,0.7747223096026096,0.9021152574176838,0.2503818762778467,0.08374734855504862,0.0020622418125775255,0.627092107201157,-7.248135380587504,-4.432090678741,-0.9648657830276929,0.032740187768505444,-6.550291950702499e-05
0.96,-0.6914137476777752,1.9435906309377147,-1.7320125732442346,-0.06490558478569879,-0.04676331101984367,-0.00044651282399672977,0.5506446737523693,0.011995008724107411,-0.4491126998950033,-0.1384581833164736,0.033237335856494556,0.00032765802364242356,1.7188411979770222,0.8130855695162136,0.9264884979763819,0.25627047214155585,0.07487035980335044,0.001989662147759974,0.5841137082668402,-7.222294586928015,-4.419166201668942,-0.9626061937806468,0.030459131942937583,-8.681918846424283e-05
0.97,-0.6857360156929405,1.9437920755114477,-1.7364119054837326,-0.06626477391542719,-0.046422781384336226,-0.00044312743881618416,0.5677731984834633,0.020144457373314897,-0.43993322394979945,-0.13591891297284117,0.0340529635507442,0.0003385385180545596,1.5658647400634464,0.8459429803201655,0.9475800029185188,0.2613453782157533,0.06597756583679093,0.0019082911180996476,0.5412698210803706,-7.200432606122413,-4.407722858983269,-0.9606522836336541,0.02817135252173303,-0.00010898491057525377
0.98,-0.6799022470235677,1.9440783016424041,-1.740717353010532,-0.0675980560776814,-0.04607496369806213,-0.00043964177859650563,0.5833768669372764,0.028622613095641434,-0.4305447526799346,-0.13332821622542093,0.03478176862740962,0.00034856602196785144,1.4131573748199866,0.8733289866226042,0.965434376057932,0.2656185541994285,0.0570877916046868,0.0018186025718900378,0.4986212048230748,-7.182575432892984,-4.397768283325031,-0.9590066400565669,0.02588115165161007,-0.0001319269545323693
0.99,-0.6739276633950665,1.9444520496043236,-1.7449271478879498,-0.06890499690089791,-0.04572072578799928,-0.00043606461642006165,0.5974583628501277,0.037374796191954676,-0.42097948774177935,-0.13069408232164995,0.035423791006285135,0.0003577162176443964,1.2610007404888746,0.8953039925328401,0.98010851164076,0.2691050100408896,0.04822058501962623,0.0017211499966072186,0.4562203924134574,-7.168727820171798,-4.389302190903519,-0.9576700817964123,0.02359251114291506,-0.00015557104674412937
