tonegas/nnodely-applications/joint_friction_estimation/dataset/train/mpc_mujoco_episode_40.csv
time,q1,q2,q3,q4,q5,q6,dq1,dq2,dq3,dq4,dq5,dq6,ddq1,ddq2,ddq3,ddq4,ddq5,ddq6,tau1,tau2,tau3,tau4,tau5,tau6
0.0,0.0,1.57,-1.57,0.0,0.0,0.0,0.0,0.0,0.0,0.0,0.0,0.0,-10.624021565567672,-19.600336905877604,1.5628838138174643,1.7725825477715773,-1.6893073019178146,1.7656979700575448e-07,-1.4823033516485111,-14.155080341796669,-7.7509327591754635,-1.66314778716103,-0.13454182074209825,-0.0024769488084596973
0.01,-0.0010573403738728822,1.568046969964724,-1.5698492239976851,0.00016018853631717464,-0.0001393521969039746,-1.3217000675830982e-06,-0.10573403738728822,-0.1953030035276159,0.015077600231504675,0.016018853631717463,-0.01393521969039746,-0.00013217000675830982,-10.371174725407878,-19.35986012655036,1.377765944792209,1.5452060702709076,-1.415694910226918,-0.0133333265236395,-1.439425992104627,-14.075495581349683,-7.732854769664751,-1.6605087637304394,-0.13133699008425248,-0.0024416928810550896
0.02,-0.003146004930114324,1.5641649006021114,-1.5695669164036268,0.0004615647006834813,-0.00040069592612845356,-4.017097612560661e-06,-0.2088664556241442,-0.38820693626125785,0.028230759405826405,0.030137616436630668,-0.026134372922447895,-0.0002695397544977562,-10.07916450825239,-19.09585581563287,1.1825869147717114,1.3524180144833124,-1.2480575433003196,-0.014228404459203148,-1.3706354171194088,-13.967273372485113,-7.6970628210184024,-1.6537963358122325,-0.1264649428005425,-0.0023919151091712455
0.03,-0.006236422412765359,1.5583800980506988,-1.5691730622052542,0.0008877428130162749,-0.0007730637533610612,-8.006976841481772e-06,-0.3090417482651035,-0.5784802551412742,0.03938541983725795,0.04261781123327936,-0.03723678272326076,-0.0003989879228921111,-9.748372167174812,-18.80692136184708,0.9823407040098431,1.1867900292453726,-1.1480906864772535,-0.014101923923920623,-1.2777970416035465,-13.829370767534948,-7.643378885729417,-1.6429949045664705,-0.1199706969458498,-0.002327824287771338
0.04,-0.010295375574163074,1.5507213316688402,-1.568687949422137,0.0014244041999048984,-0.001249555225537526,-1.3235661840669642e-05,-0.4058953161397715,-0.7658766381858562,0.04851127831172107,0.05366613868886234,-0.04764914721764647,-0.000522868499918787,-9.377909200899161,-18.491733599081837,0.7814713750196631,1.0428410502707237,-1.0925988805285556,-0.014544205236916241,-1.163310525866413,-13.660703114735712,-7.5716606315509285,-1.6281002737581554,-0.11190797939379446,-0.0022495337079185833
0.05,-0.015285839222478968,1.5412199722202478,-1.568131772525382,0.002058897698861684,-0.001825912748725633,-1.9681900289941098e-05,-0.4990463648315894,-0.9501359448592493,0.05561768967550541,0.06344934989567855,-0.057635752318810705,-0.0006446238449271456,-8.966215549022252,-18.14914626427013,0.5839611210804705,0.9165712485788262,-1.0674817882149412,-0.015722856730718604,-1.030095812692157,-13.46019318244619,-7.481819424808684,-1.6091236872877812,-0.10234198807411748,-0.0021571139867031294
0.06,-0.021166785214603023,1.5299101111400588,-1.5675242712798394,0.002779952677885541,-0.0024996426116074047,-2.735278375803296e-05,-0.5880945992124054,-1.1309861080188912,0.06075012455426911,0.07210549790238574,-0.06737298628817719,-0.0007670883468091859,-8.511426115235533,-17.77827759170644,0.3933807940346483,0.8050943199699461,-1.0641603470282845,-0.017656924695046428,-0.8815700440221559,-13.2268218126978,-7.373836572783111,-1.58609524648016,-0.0913525220744592,-0.002050639792963662
0.07,-0.02789297848416583,1.5168286524395813,-1.5668844024980348,0.003577476249758276,-0.0032694660788725985,-3.627837755185174e-05,-0.6726193269562808,-1.3081458700477393,0.06398687818045129,0.07975235718727348,-0.07698234672651938,-0.0008925593793818786,-8.011600068110408,-17.37858793689365,0.2129115641205459,0.7063500382112977,-1.0774126729928923,-0.02039902708002117,-0.7216094986830969,-12.959680319896835,-7.2477776833535295,-1.559066662751746,-0.07903721411534534,-0.0019302339580664703
0.08,-0.03541477989820291,1.5020153697213245,-1.5662300444786847,0.0044424124967728075,-0.004134969394576002,-4.650858113602147e-05,-0.7521801414037077,-1.4813282718256695,0.06543580193500886,0.08649362470145314,-0.08655033157034032,-0.0010230203584169727,-7.4648674287697,-16.949946273059656,0.04534559990472076,0.6188794057525655,-1.1040372218305876,-0.024056642946614026,-0.5544915675073767,-12.658024404606332,-7.1038050159881285,-1.5281133064284962,-0.06551463905895268,-0.001796110462596096
0.09,-0.043677966672420965,1.4855129218271503,-1.5655777355328453,0.005366646268000787,-0.005096371167073229,-5.81117032815366e-05,-0.8263186774218059,-1.6502447894174224,0.06523089458393422,0.09242337712279793,-0.09614017724972274,-0.001160312214551513,-6.869525979534916,-16.49268378545223,-0.10692736578063844,0.5416484389137679,-1.1419937737846517,-0.02879374301990012,-0.3848128556784271,-12.321328922886034,-6.942187745247204,-1.4933355342507018,-0.050927091115386326,-0.001648616603819798
0.1,-0.0526235779979554,1.4673668218868992,-1.5649424490542019,0.0063429378026319235,-0.006154354448677786,-7.117418897350592e-05,-0.8945611325534429,-1.8146099940251168,0.0635286478643328,0.09762915346311368,-0.10579832816045569,-0.0013062485691969325,-6.224111180839463,-16.007633449552536,-0.2419416312087499,0.47390998519930605,-1.189802773871385,-0.03483211171448719,-0.2173808648404848,-11.949342888198064,-6.763310297859931,-1.4548593445421845,-0.03544283289011369,-0.0014882739086671966
0.11,-0.06218779187785038,1.4476253559028114,-1.564337408133999,0.007364877334218177,-0.0073099266784714375,-8.580106266630922e-05,-0.9564213879894984,-1.9741465984087851,0.06050409202030401,0.10219395315862537,-0.11555722297936517,-0.0014626873692803308,-5.527459745270665,-15.496149343689689,-0.3581799822709115,0.41509568732272584,-1.246054863902824,-0.042452520820732254,-0.05707844724888367,-11.542141010033324,-6.567678065149437,-1.4128362550602716,-0.019257634389697686,-0.0013158168556315006
0.12,-0.07230183892285037,1.4263394490058234,-1.5637739427984652,0.008426851147092634,-0.008564277970258726,-0.00010211670361802036,-1.0114047044999994,-2.1285906896987976,0.05634653355337438,0.10619738128744567,-0.1254351291787289,-0.0016315640951711139,-4.778791578794166,-14.960100042434027,-0.45459644606743765,0.36473218383104467,-1.3089180157924396,-0.05199148752398486,0.09129780543357091,-11.100167799590272,-6.355919939304382,-1.3674423548258017,-0.002595432816948698,-0.0011322282200292946
0.13,-0.08289196038242433,1.403562480092886,-1.5632613926168988,0.009524012436761532,-0.0099186094223259,-0.00012026550908815867,-1.0590121459573956,-2.277696891293738,0.05125501815663455,0.10971612896688983,-0.13543314520671731,-0.0018148805470138316,-3.9778982902628552,-14.401308690459938,-0.5306256326190777,0.3223814946021548,-1.3755442672316534,-0.06382557328831329,0.22321762213721452,-10.624005597686143,-6.128694254308742,-1.3188576908746796,0.014291604031150616,-0.0009387675689083446
0.14,-0.09387942698929405,1.3793501006855295,-1.5628070556433917,0.010652251931388995,-0.011373899735072645,-0.00014041181140960298,-1.0987466606869718,-2.421237940735663,0.04543369735071355,0.11282394946274638,-0.14552903127467445,-0.0020146302321444294,-3.1254833372511546,-13.820708819403317,-0.5861816419121766,0.2875948498210832,-1.4412859619034517,-0.07832916018341685,0.3346119311799086,-10.114001791915896,-5.8865515068829755,-1.2672373318759764,0.0311238469449186,-0.0007369973680979205
0.15,-0.10518064753590656,1.3537601421838115,-1.5624161833941839,0.011808164143686729,-0.012930571195887319,-0.00016273805252093798,-1.13012205466125,-2.558995850171803,0.03908722492078098,0.11559122122977337,-0.15566714608146742,-0.0022326241111335007,-2.3083988257633736,-12.406318161489006,-0.6134459687799598,0.2652858213816458,-1.4991935575930935,-0.09578264103168843,0.41631900212294154,-9.160570946097577,-5.486275857852928,-1.1837012741243327,0.046987259182226244,-0.0005258865495658398
0.16,-0.11671570879205649,1.326933518614421,-1.5620906941155646,0.012988948878417162,-0.014588464391338452,-0.0001874501043396358,-1.1535061256149939,-2.682662356939039,0.032548927861927694,0.11807847347304334,-0.1657893195451133,-0.002471205181869783,-1.477732766393783,-10.817508163138516,-0.616587239123163,0.24425316075242165,-1.540257026993352,-0.11608653928848378,0.4691767552980436,-8.097238284835102,-5.052370205114869,-1.0939291566292537,0.06179585651278517,-0.00031512857151105346
0.17,-0.1284035665197659,1.2990285355776736,-1.5618300514351917,0.014191940317466735,-0.016346082096613306,-0.00021476303609320796,-1.1687857727709405,-2.7904983036747506,0.026064268037291748,0.12029914390495729,-0.17576177052748546,-0.0027312931753572145,-0.6261813794407476,-9.211321907638956,-0.5984078833448159,0.2230428203308712,-1.5468493573499011,-0.1384667407737068,0.49367010036157566,-7.0048704421076575,-4.615857023057787,-1.0043629030834307,0.07531410128245011,-0.00010888635933160092
0.18,-0.1401612663411258,1.2702052431541864,-1.561631641619179,0.015414577947624944,-0.01819954332337019,-0.00024487735775008363,-1.17576998213599,-2.882329242348722,0.019840981601285997,0.12226376301582095,-0.1853461226756884,-0.003011432165687565,0.2386627875460509,-7.618016209618848,-0.5615716756957116,0.20206937465653496,-1.495953025671756,-0.1612169999465729,0.4912178993886701,-5.900844192799356,-4.184086320657536,-0.9165653193317755,0.0872839631342177,8.984182727069174e-05
0.19,-0.15190455703749758,1.2406224203147143,-1.5614910482070683,0.016654441061004766,-0.020141331083896416,-0.0002779439034956451,-1.1743290696371775,-2.9582822839472165,0.014059341211056077,0.12398631133798207,-0.19417877605262274,-0.003306654574556148,1.1041575372909265,-6.0697135436456,-0.5088247440129727,0.18168735853594242,-1.3620094645917211,-0.18140958431056076,0.4646028036746152,-4.803750128741269,-3.764366536852158,-0.8320519801970259,0.09748034315585603,0.0002780705123502543
0.2,-0.16354893231524134,1.2104343738239787,-1.5614023364608212,0.01790927896486403,-0.022158930460313784,-0.0003140148821260168,-1.1644375277743764,-3.0188046490735645,0.008871174624712205,0.1254837903859264,-0.20175993764173664,-0.0036070978630371674,1.9522766831338092,-4.588719901180129,-0.44294579531735856,0.1622668256771682,-1.1224623904036042,-0.19494273966830733,0.41780711634894263,-3.7274773645142183,-3.3618674245825604,-0.7518686848980594,0.1057255274050964,0.00045312069034205614
0.21,-0.17501117231695343,1.1797887153760105,-1.5613583349979707,0.019177035253501718,-0.024233626221687957,-0.0003529841739786295,-1.1462240001712076,-3.064565844796809,0.004400146285051535,0.12677562886376892,-0.2074695761374173,-0.0038969291852612685,2.7621838788642052,-3.213790768687191,-0.3666446500344591,0.14413444236515716,-0.7667440209849445,-0.19728094966515597,0.35577410696064177,-2.6943139628827413,-2.9842843066541067,-0.677532671085689,0.11189487556371464,0.0006123368224838833
0.22,-0.18621122429641396,1.1488224996632408,-1.5613509209856327,0.02045587991519629,-0.02633990856682052,-0.0003945281237083943,-1.1200051979460532,-3.096621571276965,0.0007414012337971709,0.12788446616945723,-0.2106282345132561,-0.004154394972976476,3.514091494629194,-2.0334656565503195,-0.28257250698572234,0.12773823105835636,-0.3057731189158073,-0.18500422735209732,0.28406350555246895,-1.7515647439989062,-2.6474779011683514,-0.6121464674880923,0.1159144603226022,0.0007526864942664314
0.23,-0.1970741550240007,1.11765340147618,-1.561371329087805,0.021744285432900055,-0.028446025995727754,-0.00043806771257119285,-1.086293072758673,-3.1169098187060778,-0.0020408102172391053,0.12884055177037662,-0.21061174289072337,-0.0043539588862798575,4.1932851713770845,-0.9836456765387415,-0.19356235427495605,0.11399152989431816,0.22383846969164267,-0.15761382955985548,0.20849976814723112,-0.8699343123232621,-2.339601016242647,-0.5532047980374611,0.11785062066670393,0.0008747381380577372
0.24,-0.20753182453727978,1.086386099034007,-1.561410380351273,0.02304103785075773,-0.030516040829709372,-0.0004827767975481561,-1.0457669513279082,-3.126730244217301,-0.0039051263468084484,0.12967524178576736,-0.2070014833981617,-0.004470908497696326,4.795493694871637,-0.41776052061041846,-0.10160636418740765,0.1030591636827849,0.7655727126994609,-0.11833858025964128,0.13449350144097225,-0.2291480315356179,-2.122133989955624,-0.5128502264302102,0.11762991284759108,0.0009718608839925449
0.25,-0.21752366512665375,1.0550770575795454,-1.5614588915324448,0.024345478156894196,-0.03251326240369223,-0.000527647707836694,-0.9991840589373965,-3.130904145446177,-0.004851118117169699,0.13044403061364673,-0.19972215739828555,-0.004487091028853784,5.325160315527215,-0.008906699353633227,-0.010558616887191181,0.09742006040777512,1.2579914663437943,-0.07338359797815741,0.06716566505945687,0.33222355042841806,-1.9341247658289964,-0.47857869204110065,0.11560478810214771,0.0010518554154901212
0.26,-0.2269965486439898,1.0237670933332952,-1.5615078302607566,0.025657456457697705,-0.03440427400011562,-0.0005716071137067323,-0.9472883517336061,-3.1309964246250184,-0.004893872831190215,0.13119783008035102,-0.18910115964233956,-0.004395940587003829,5.793838977877037,-0.0010106097154196012,0.0781986053808863,0.09658125667736567,1.6505133777019498,-0.02953487221587725,0.010483294749286234,0.6903486124051463,-1.8172456704711377,-0.45854588163332594,0.11177956989418368,0.0011110702612377185
0.27,-0.23590375773126135,0.9924570676362555,-1.5615486022723872,0.026977455346303907,-0.03616256306855694,-0.0006136454065905385,-0.8907209087271546,-3.1310025697039667,-0.004077201163076995,0.13199988886062025,-0.175828906844132,-0.004203829288380612,6.217039337082514,0.000116373003937029,0.16190193241165596,0.10173001660696646,1.913674399752856,0.007819845638649348,-0.03203838771867071,1.0413728032238176,-1.6993170054053197,-0.4381196527711563,0.1065335411298682,0.001158775489542907
0.28,-0.2442033669946927,0.9611471567800904,-1.561573067403394,0.0283064012721081,-0.03777083980253036,-0.0006529261541092103,-0.8299609263431356,-3.130991085616503,-0.002446513100681633,0.13289459258041916,-0.16082767339734258,-0.0039280747518671815,6.609778100374035,0.00037506927678852744,0.24033293435474698,0.11092282363718131,2.0404374623915302,0.03577943572832698,-0.05753314507595372,1.387644029866013,-1.5796593967947152,-0.4171733396653339,0.09993156001751331,0.0011954509113483653
0.29,-0.25185656559813036,0.9298374400574814,-1.561573569057962,0.02964550860644489,-0.039221775359217136,-0.0006888507148473692,-0.7653198603437671,-3.130971672260902,-5.0165456779428536e-05,0.13391073343367887,-0.14509355566867763,-0.0035924560738158887,6.985296707371903,0.001994571143698566,0.31312747043715716,0.12254960667712766,2.04204281679461,0.053751416534283614,-0.06343555735727788,1.7298059041333766,-1.4582555091714349,-0.3957195697399387,0.09202692544070522,0.0012214622272592283
0.3,-0.2588261589821363,0.8985281223975035,-1.561542978298986,0.030996149861804666,-0.040517307472425185,-0.0007210752014035633,-0.696959338400593,-3.1309317659977935,0.0030590758975960696,0.1350641255359778,-0.12955321132080477,-0.003222448655619408,7.353892666105475,0.004507642865999267,0.37977050712909655,0.13528721139917743,1.9414533808156755,0.06275750298839888,-0.04745460041004124,2.067262157863618,-1.3355428707565535,-0.3738648934766836,0.08286469305460051,0.001237029095990261
0.31,-0.26507542801682193,0.8672194886654649,-1.5614747526746582,0.0323597483826248,-0.04166696660343498,-0.0007494893274097994,-0.6249269034685624,-3.1308633732038498,0.0068225624327734515,0.13635985208201323,-0.11496591310097955,-0.0028414126006236075,7.7225274460853734,0.008207018216932017,0.4396221789248417,0.1480607527558062,1.766712245952589,0.06463383235361952,-0.007567405557915963,2.3998954900881606,-1.211779462460384,-0.351681075950605,0.07248805972527704,0.0012422737790810626
0.32,-0.2705673964666359,0.8359119338472902,-1.561363005271045,0.033737688848938234,-0.042685749744198274,-0.0007741724895765577,-0.5491968449814002,-3.130755481817465,0.011174740361315615,0.13779404663134304,-0.10187831407632912,-0.0024683162166758378,8.095025311315274,0.00028585574124495583,0.49198469374031517,0.15999295899960253,1.545701334222084,0.0614030605864091,0.05795855721017651,2.7211337126279727,-1.0894526310321972,-0.3296794630066152,0.06093421356482989,0.0012369836837657034
0.33,-0.27526446902872104,0.8046046881517483,-1.5612025863784635,0.03513125204119747,-0.043591981014288635,-0.0007953415841486703,-0.4697072562085123,-3.130724569554187,0.016041889258140225,0.1393563192259234,-0.09062312700903621,-0.0021169094572112503,8.472494876643516,0.01690610721385625,0.5360688440544477,0.17046230925829708,1.3027932455197542,0.054898244789356454,0.15056333920016768,3.048999324540392,-0.9623380634919256,-0.3066449882411655,0.048277620127801055,0.0012217924547124526
0.34,-0.27912837144832475,0.7732994207778119,-1.560989141894609,0.03654153519265129,-0.04440544035454585,-0.0008133010595964606,-0.38639024196037,-3.130526737393642,0.021344448385456204,0.14102831514538172,-0.08134593402572143,-0.0017959475447790344,8.853953492190819,0.02852198858851151,0.5713625473628794,0.17871154238896492,1.0572437190962054,0.04659183230574637,0.2713201700335538,3.368780895343934,-0.8359242735747994,-0.28369476934558496,0.034556929914705534,0.0011960285638811072
0.35000000000000003,-0.2821203089245759,0.7419972972999637,-1.560719186626361,0.03796940948888008,-0.04514589998101234,-0.0008284007338477951,-0.29919374762511763,-3.130212347784822,0.026995526824801736,0.14278742962287844,-0.07404596264664917,-0.0015099674251334541,9.237025538437669,0.036901625036240907,0.5972608639705996,0.18436698941309126,0.822875189793475,0.03757363627713772,0.4208949741769044,3.6815086611362373,-0.7098737215053228,-0.26077357139992474,0.019845587614733415,0.0011597031229011294
0.36,-0.2842012591928355,0.7106991564435795,-1.5603901645774199,0.03941548541731619,-0.04583208878045513,-0.0008410035586022981,-0.2080950268259606,-3.129814085638416,0.0329022048941236,0.14460759284361135,-0.06861887994427966,-0.0012602824754502976,9.618402271422905,0.04155712664705613,0.6133150100151,0.18713933643492653,0.6085783352780485,0.028588307126268475,0.599514027613914,3.987205439093629,-0.584156029709256,-0.23788442130659496,0.0042267643697486215,0.0011128422070671488
0.37,-0.2853323478710026,0.6794054619514431,-1.5600004948776323,0.040880087467152805,-0.04648104250810623,-0.0008514630711474261,-0.113108867816706,-3.129369449213636,0.03896696997875951,0.14646020498366152,-0.06489537276511012,-0.001045951254512794,9.99424443716163,0.04340623610609791,0.619247766884526,0.18683891234981242,0.41919463432214776,0.02010428338090353,0.806932525912049,4.286708192852883,-0.4583822374529944,-0.21495530908985402,-0.012203930455108907,0.0010555866410909044
0.38,-0.28547526433073717,0.6481163943597041,-1.559549599479686,0.04236323684496214,-0.04710776595647393,-0.000860109116602603,-0.014291645973459693,-3.1289067591738946,0.0450895397946314,0.1483149377809336,-0.06267234483676999,-0.0008646045455176858,10.360466026554748,0.043595297816881866,0.6149850013875038,0.18336137340746128,0.25650944404462805,0.012384682526021429,1.0424098098583985,4.581068136540859,-0.3320196435870693,-0.1918816473244114,-0.029339623825022018,0.0009881866132067853
0.39,-0.2845926909191692,0.6168319654672283,-1.5590379104051642,0.04386464205946379,-0.04772512646543684,-0.0008672400101059786,0.08825734115679437,-3.128442889247586,0.05116890745218037,0.15014052145016468,-0.06173605089629113,-0.0007130893503375572,10.71291299725044,0.043224545261549924,0.6006681672085017,0.17668457042398789,0.12017912195190483,0.005549187072137585,1.3046906099581206,4.871393363370675,-0.20444311629457582,-0.16853571756434346,-0.04706288946434647,0.000911006553962379
0.4,-0.28264872993545637,0.585552128170427,-1.5584668555367902,0.045383697365160354,-0.04834390514010174,-0.0008731193557224255,0.19439609837128508,-3.127983729680123,0.0571054868373891,0.15190553056965628,-0.06187786746648987,-0.0005879345616446855,11.047540469153576,0.04174473087089663,0.5766861768824827,0.16687390633125831,0.008508645935400239,-0.0003769736608942864,1.5920012456233086,5.158028615994674,-0.07521357025638645,-0.1448198821535125,-0.06524781157009742,0.0008245075164358154
0.41000000000000003,-0.2796093131414168,0.5542767219673114,-1.557838820855565,0.04691949080646381,-0.04897294545769195,-0.0008779759892247448,0.30394167940395994,-3.1275406203115645,0.06280346812253307,0.15357934413034516,-0.06290403175902094,-0.0004856633502319322,11.360369753217164,0.04069995358115785,0.543627333686122,0.15408408740340152,-0.0809499935428093,-0.005426667399760277,1.9020429463381197,5.442383709813367,0.05657082117634747,-0.12053859462236058,-0.08375822233232708,0.0007293015214305847
0.42,-0.27544260012661625,0.5230056270285318,-1.557157091440969,0.048470819006189284,-0.04961935337463256,-0.0008820058764836792,0.4166713014800557,-3.1271094938779522,0.06817294145960852,0.15513281997254785,-0.06464079169406077,-0.0004029887258934454,11.647635085748227,0.03979436741317076,0.5023376640404156,0.13854948623145358,-0.15096031662644194,-0.009665398958200733,2.2320093886938084,5.724949680619484,0.19156670427793063,-0.09553698851411388,-0.102451591524496,0.0006260872498741494
0.43,-0.27011935265862275,0.4917387350243705,-1.5564257681169202,0.05003621111760305,-0.05028871664876564,-0.000885375068864033,0.5323247467993532,-3.126689200416134,0.07313233240487538,0.15653921114137664,-0.06693632741330828,-0.000336919238035374,11.905744864102475,0.03972974739114277,0.4538831063718535,0.12059222910832701,-0.20431116733297117,-0.013173916162549482,2.5786040577149185,6.006672094861178,0.3306735013991433,-0.06960442912352052,-0.1211782222031222,0.0005156871750528336
0.44,-0.2636132900635548,0.4604760194030709,-1.5556496615861726,0.0516139602938103,-0.050985322058657065,-0.0008882231239153455,0.6506062595067972,-3.126271562129954,0.07761065307477266,0.15777491762072565,-0.0696605409891424,-0.00028480550513125633,12.064388717367374,1.2284585686392153,0.36657939098844805,0.09282745286965621,-0.244446540950797,-0.016037202731676636,2.927627957485191,6.872403961114112,0.6742634269303822,-0.004267214274624814,-0.1385009892953587,0.00041418401936371956
0.45,-0.25590806982796915,0.4293358767552437,-1.5548366648986884,0.05320048343830819,-0.05171227109421076,-0.0008906756813677477,0.7705220235585604,-3.114014264782724,0.08129966874840537,0.15865231444978822,-0.07269490355536933,-0.0002452557452402175,12.043422332041128,5.283566330349498,0.20418672584116493,0.035892045486214386,-0.2732605132743906,-0.018338289228221782,3.254341245286409,9.146131814201755,1.4920279363736653,0.15105662167662223,-0.1519419116230789,0.00034865275741348433
0.46,-0.24700525791102318,0.39872225603883343,-1.5540003351912748,0.05478734905410305,-0.05247143248608004,-0.000892856183495323,0.8902811916945963,-3.0613620716410295,0.08363297074135413,0.15868656157948577,-0.0759161391869282,-0.00021805021275753497,11.990689114454707,8.408268421334643,0.05505227005785862,-0.05301822616452867,-0.2879747221254121,-0.02002301494870995,3.558243453250928,10.95315938003368,2.112129001659609,0.26501397868976245,-0.16374205965601416,0.00027493610807181196
0.47000000000000003,-0.23690965778278356,0.36894644160915385,-1.5531537313678205,0.056364375858990026,-0.0532636457146855,-0.0008948580198499456,1.009560012823962,-2.977581442967959,0.08466038234542674,0.15770268048869754,-0.07922132286054522,-0.00020018363546225255,11.905839130971817,10.755202034160043,-0.08785471243880494,-0.15920434374861614,-0.29242929755648817,-0.02093244420757756,3.8310664126587524,12.366442578301132,2.5706717195079265,0.3455498346475579,-0.17361969144178685,0.00019952060853958126
0.48,-0.22562933823338915,0.3402422455994106,-1.552309906756473,0.05792062892217992,-0.05408900000273061,-0.0008967467146208554,1.1280319549394395,-2.8704196009743255,0.08438246113475552,0.155625306318989,-0.08253542880451126,-0.00018886947709098197,11.78891676432399,12.45584071736175,-0.22931101882632632,-0.2726204884524748,-0.28960460213756534,-0.021200938877165676,4.066942292027372,13.449381748629019,2.8991186094733727,0.39959088695091677,-0.1814418680728156,0.0001271918419190858
0.49,-0.21317562135347232,0.31277909642118984,-1.551482226011433,0.05944508180355179,-0.05494705029850247,-0.0008985657919407495,1.2453716879916847,-2.746314917822072,0.08276807450399554,0.15244528813718755,-0.08580502957718576,-0.00018190773198941397,11.640284348626265,13.622928596289416,-0.37236171610513225,-0.386567097269257,-0.281754574087266,-0.02098454071788325,4.2622912712561645,14.256810206335345,3.124332947639168,0.4330330321714396,-0.18719002570329127,6.126020814140574e-05
0.5,-0.19956303905646372,0.28667326468262244,-1.5506845470759216,0.06092704152806271,-0.055836979833794174,-0.0009003422003183094,1.3612582297008604,-2.61058317385674,0.07976789355113555,0.14819597245109203,-0.08899295352917065,-0.00017764083775599054,11.460549916352623,14.352865543441222,-0.5187273967271508,-0.49672512158431203,-0.27053225126808655,-0.020417686325207463,4.4155646507987925,14.836005049373032,3.2688904636931775,0.4507998692748438,-0.19092977754572174,3.8025339263886857e-06
0.51,-0.18480926573952944,0.2619974632375437,-1.5499313000689057,0.062356407420056055,-0.05675771862454715,-0.0009020907317418886,1.4753773316934293,-2.467580144507877,0.07532470070158687,0.1429365891993341,-0.09207387907529739,-0.00017485314235791844,11.250505581855501,14.727821134835596,-0.6691213513202534,-0.6004475208236286,-0.2571090524143145,-0.01960846340954081,4.526904172950334,15.22759883600607,3.3515064318109826,0.4569347818221697,-0.192785323385266,-4.410129549140061e-05
0.52,-0.16893503338062113,0.2387890312888494,-1.5492374880251705,0.06372381555673959,-0.05770802685444573,-0.0009038174744192537,1.5874232358908307,-2.320843194869428,0.06938120437351684,0.13674081366835328,-0.0950308229898581,-0.00017267426773650936,11.011078149840085,14.817598003087388,-0.8234974840249727,-0.696242636444417,-0.2422834726248979,-0.018641161282883623,4.597770811471657,15.466394131460138,3.387506477896512,0.45470749451445774,-0.192918443529411,-8.214854967383432e-05
0.53,-0.15196403401147354,0.21705688767588407,-1.5486186290789543,0.06502070627720104,-0.05868655124574183,-0.0009055224473624606,1.697099936914759,-2.1732143612965333,0.061885894621605674,0.12968907204614527,-0.09785243912961018,-0.000170497294320691,10.74329135693835,14.681271475537937,-0.9812449982280427,-0.7834001386124854,-0.22657539331055432,-0.017580228110456453,4.6305831595028195,15.582088365776194,3.389296853325498,0.4467230609068706,-0.19151180986175653,-0.00011061788543739704
0.54,-0.13392281327498173,0.19678741631811827,-1.5480906555667708,0.066239341576673,-0.059691861396108235,-0.0009072015760449763,1.8041220736491805,-2.02694713577658,0.05279735121834857,0.12186352994719613,-0.10053101503663989,-0.00016791286825156555,10.448238200250895,14.368630471944318,-1.1413421036978448,-0.8617225414159293,-0.210304281298896,-0.016474194550213372,4.628391672796004,15.599917178337378,3.366807933081411,0.43502596921214676,-0.18875617591435692,-0.00013020101393796172
0.55,-0.11484065773937743,0.1779494270854209,-1.5476697823475587,0.06737279139175457,-0.06072247182363067,-0.0009088481534992805,1.90821555356043,-1.883798923269735,0.04208732192122283,0.11334498150815761,-0.10306104275224338,-0.0001646577454304225,10.12706152932554,13.92144208746068,-1.3024780810991317,-0.9313346135443368,-0.19365145549646456,-0.015359121753250271,4.594602873191777,15.541224331139926,3.327896838537363,0.4211952785196085,-0.18484091237390365,-0.00014186240046985756
0.56,-0.09474947781077837,0.16049831787300908,-1.5473723541759021,0.0684149020350472,-0.06177685425905912,-0.000910453908652337,2.0091179928599057,-1.7451109212411828,0.029742817165666253,0.10421106432926258,-0.10543824354284467,-0.00016057551530565358,9.780941138504929,13.374559889232108,-1.4631508053301872,-0.9925500453462206,-0.1767078678595908,-0.014261455984958982,4.532758252088748,15.423965868279971,3.2787031184989726,0.40642885822213287,-0.1799473241773769,-0.00014672566785380633
0.5700000000000001,-0.07368368744263593,0.14437954814390852,-1.5472146800462896,0.06936025583622987,-0.06285344364524907,-0.0009120097801626691,2.1065790368142454,-1.6118769729100573,0.015767412961261364,0.09453538011826779,-0.10765893861899492,-0.0001555871510332045,9.411085799719377,12.756893801373968,-1.6217451227258088,-1.0457800118509795,-0.15950948985922508,-0.01320030580329501,4.4463661850714935,15.263155637731522,3.223956556381083,0.3916162069654102,-0.17424420413260128,-0.00014598420399429947
0.58,-0.05168008135834462,0.12953152045352095,-1.5472128609227673,0.07020412799327916,-0.06395064039035743,-0.0009135064725029086,2.2003606084291305,-1.4848027690387557,0.0001819123522300639,0.08438721570492852,-0.10971967451083543,-0.00014966923402394235,9.018728915677647,12.092257532164622,-1.7765961768341114,-1.0914722193004884,-0.1420625772019406,-0.012189212665661753,4.338781315578773,15.071258656798637,3.1672392829790024,0.3774001983703146,-0.16788512872339206,-0.00014083289298895635
0.59,-0.028777710154115177,0.11588795430174181,-1.547382616079208,0.0709424444353636,-0.06506681068215286,-0.0009149348527084167,2.2902371204229444,-1.3643566151779136,-0.016975515644063827,0.0738316442084437,-0.11161702917954393,-0.00014283802055082046,8.605126689595979,11.400107782697367,-1.9260407873397583,-1.1300719678844793,-0.12436097792946299,-0.011237502304578317,4.213124010271699,14.8585381506767,3.111206100689899,0.3642286030580668,-0.1610070693913399,-0.00013241773082558117
0.6,-0.005017753409654935,0.103379825899768,-1.5477391123246051,0.07157174292670178,-0.06620028609402423,-0.00091628623132181,2.375995674446024,-1.2508128401973813,-0.03564962453972727,0.06292984913381758,-0.11334754118713615,-0.00013513786133932543,8.171512637620994,10.696188206569651,-2.068457655157733,-1.1619984015991918,-0.10639783549654425,-0.010351302011498031,4.072217663597803,14.63336184007453,3.057767978795298,0.3523965466640895,-0.15372944312089523,-0.00012180181755451974
0.61,0.019556604706137546,0.0919369379671274,-1.5482967994604009,0.07208913858682578,-0.06734936325665049,-0.0009175525615782495,2.457435811579248,-1.14428879326406,-0.0557687135795671,0.05173956601240067,-0.1149077162626261,-0.00012663302564394724,7.719324769599323,9.993087626809187,-2.202308896684592,-1.1876350949741727,-0.08816960537198781,-0.009534319730073904,3.9186368559298006,14.40246906554365,3.0082415301122634,0.3420806216361342,-0.14615696535727438,-0.00010993347572051842
0.62,0.04490032000526964,0.08148917514287694,-1.5490692555910943,0.07249229393055842,-0.06851230413602692,-0.0009187265684927566,2.5343715299132095,-1.044776282425046,-0.07724561306934104,0.040315534373264,-0.11629408793764376,-0.00011740069145071513,7.249756153247381,9.300728015365484,-2.3261531705789498,-1.2073204922301493,-0.06968648383058706,-0.00878829972919526,3.7545603126864338,14.171212985347681,2.9634764950473946,0.33336745090748493,-0.13837523024523007,-9.764852574792207e-05
0.63,0.07096660827993867,0.07196749361218142,-1.550069043196595,0.07277939376399843,-0.06968733712289113,-0.0009198018464723717,2.6066288274669027,-0.9521681530695525,-0.0999787605500714,0.028709983344001492,-0.11750329868642086,-0.00010752779796151341,6.764190804416457,8.62678253337796,-2.438681001636686,-1.2213534257698822,-0.05096566154512416,-0.008113652036605412,3.5819149310846368,13.943762907670699,2.9239520063558144,0.326274791557412,-0.13045664215326913,-8.564708375846002e-05
0.64,0.09770708418008273,0.06330468658270687,-1.5513075791686535,0.0729491240023308,-0.07087265895732446,-0.0009207729154772297,2.674047590014405,-0.866280702947456,-0.12385359720584585,0.01697302383323692,-0.11853218344333256,-9.710690048579257e-05,6.2639506229181645,7.977040350933667,-2.5387249610464337,-1.22999452053085,-0.03203649560281718,-0.007509552812207998,3.402312072338305,13.72329020984179,2.889860607974265,0.3207694828969417,-0.12245871940094849,-7.450149414598117e-05
0.65,0.12507189377774405,0.05543596195252984,-1.552795019581287,0.07300065398660342,-0.07206643754650546,-0.0009216352549508129,2.7364809597661335,-0.7868724630177031,-0.14874404126334065,0.005152998427261354,-0.11937785891810009,-8.623394735832884e-05,5.7500631958395765,7.355722312357753,-2.6252678226346884,-1.233470361961583,-0.012940819181579855,-0.006974284943371378,3.2169887633074095,13.512129028428348,2.8611742148946933,0.31678107866874095,-0.11442246242878908,-6.466515310430581e-05
0.66,0.15300981769296332,0.04829936361763275,-1.5545401598172417,0.07293362170437806,-0.07326681542105194,-0.0009223853322869047,2.793792391521926,-0.713659833489709,-0.17451402359548318,-0.006703228222535879,-0.12003778745464788,-7.500773360916934e-05,5.222158667234354,6.765769022500133,-2.697430547067963,-1.2319727943167535,0.006260173341058106,-0.006505516674505607,3.026448930082333,13.311924282716173,2.8376993217774986,0.31421276278330573,-0.1063598106086076,-5.6506626258011436e-05
0.67,0.18146823485386823,0.04183606512480302,-1.5565503487008845,0.07274812183916848,-0.07447191303413928,-0.0009230206791592721,2.8458417160904923,-0.646329849282973,-0.20101888836427312,-0.018549986520958225,-0.12050976130873325,-6.353468723674576e-05,4.688106377132817,6.209006698264586,-2.75467705725163,-1.2257372577274968,0.02560777857826224,-0.006100917509039183,2.8337873733748076,13.12367698645377,2.819070923758008,0.3129393861373549,-0.09837385734201586,-5.005150763153133e-05
0.68,0.21039390723415427,0.03599055216615268,-1.5588314369090823,0.07244468915450689,-0.07567983449790204,-0.0009235395614899861,2.892567238028603,-0.5845512958650341,-0.22810882081978356,-0.03034326846615978,-0.12079214637627718,-5.188823307140943e-05,4.141077858658062,5.689160992882985,-2.7963968348979584,-1.2148935175313307,0.04489134689763219,-0.005753850980128483,2.6369001405742556,12.94939336222687,2.8053999507624305,0.3129328610627453,-0.09037580675798251,-4.558836365637194e-05
0.6900000000000001,0.23973229990476516,0.030710994221810766,-1.5613877162631378,0.07202428913642613,-0.07688867370357566,-0.0009239413545041494,2.933839267061088,-0.527955794434191,-0.25562793540553735,-0.04204000180807583,-0.12088392056736187,-4.017930141632968e-05,3.58997276252631,5.459116702824817,-2.8253555835884896,-1.2003800372781894,0.06413486064501583,-0.005464068430319213,2.4390898193838493,12.914230350664683,2.839161352353205,0.3221608374524291,-0.08218647358892975,-3.860284484621013e-05
0.7000000000000001,0.2694284692266114,0.025974437794011537,-1.5642220314588964,0.07148803290537396,-0.07809649924950494,-0.0009242274478911417,2.969616932184622,-0.47365564277992306,-0.28343151957586277,-0.053625623105215674,-0.12078255459292803,-2.860933869923209e-05,3.026573545322031,5.263214028128397,-2.8378066194307685,-1.1839079107982355,0.08339463635692113,-0.005217348067809602,2.234251336360059,12.892685208137637,2.876102214605337,0.3321850559771731,-0.07376844931612644,-3.148028951278358e-05
0.71,0.2994262430739495,0.0217613393058636,-1.5673355912431788,0.07083726341586319,-0.07930136368083815,-0.0009243997446586661,2.999777384733807,-0.42130984881479366,-0.3113559784282516,-0.06507694895107707,-0.12048644313332103,-1.7229676752444317e-05,2.458919627592861,5.020759055174069,-2.8332181559941594,-1.1649729986148998,0.10271140774711718,-0.004994126410478139,2.02480933961774,12.844656441689377,2.901905505738157,0.3402582019649732,-0.06528787022298019,-2.5195538508714012e-05
0.72,0.32966902203505016,0.018047525869581266,-1.570727965854878,0.0700736602283155,-0.08050131737552547,-0.0009244596911421808,3.024277896110067,-0.3713813436282333,-0.33923746116992326,-0.07636031875476922,-0.11999536946873184,-5.994648351465947e-06,1.9006435643179227,4.749790728079646,-2.812429243951243,-1.1427461096155076,0.12201415863902998,-0.004786373297264057,1.816261608443638,12.778780424879978,2.919301461216062,0.34687123404177406,-0.05693673361486588,-1.959048125226362e-05
0.73,0.3601011386586744,0.014805991448653516,-1.5743971519536606,0.06919928516855442,-0.0816944274484329,-0.0009244079704131517,3.0432116623624212,-0.32415344209277497,-0.3669186098782638,-0.08743750597610776,-0.11931100729074318,5.172072902908705e-06,1.3423516008348877,4.4563162182763225,-2.77594207868015,-1.1167225482739958,0.14088465403924388,-0.004591577580407735,1.605689970964415,12.69792544644343,2.9291226206695034,0.35215634725253164,-0.04861192404553378,-1.5074844716996341e-05
0.74,0.39066692177840684,0.012007494689256049,-1.578339614645799,0.06821661396429793,-0.08287879520652981,-0.000924245295974237,3.056578311973246,-0.2798496759397468,-0.3942462692138414,-0.09826712042564907,-0.11843677580969136,1.626744389147537e-05,0.7803459280775173,4.121742875851775,-2.7243679936222485,-1.086654546937627,0.15919138624289575,-0.004417643135378457,1.391968189044233,12.592475693835539,2.927807188087249,0.3554045427874556,-0.040301083565327966,-1.2249295767336049e-05
0.75,0.4213103281199027,0.009618706160195004,-1.5825503578000812,0.06712856606335887,-0.08405256287738692,-0.0009239727596516952,3.064340634149585,-0.2388788529061044,-0.42107431542821105,-0.10880479009390581,-0.11737676708571168,2.725363225417461e-05,0.21933081047486558,3.7598324782362478,-2.6587171768719227,-1.0523347399731613,0.17695155066018664,-0.0042694009491746066,1.1772073322276508,12.468850198002993,2.9173833821608373,0.35697127691417424,-0.03207481860611711,-1.1117109576196826e-05
0.76,0.4519754113870212,0.007603578772194411,-1.5870230123284466,0.06593850388359311,-0.08521391659976353,-0.0009235918871360716,3.0665083267118494,-0.20151273880005935,-0.4472654528365334,-0.11900621797657683,-0.11613537223766063,3.808725156235923e-05,-0.33809519203811406,3.4069737973207137,-2.5800042057323522,-1.0138108282907163,0.19412332961160583,-0.004147828496455841,0.9626267735940685,12.345039635137336,2.903968198285022,0.3579968656757179,-0.02393745234351489,-1.1195143899470475e-05
0.77,0.4826065815944756,0.005926972577374432,-1.5917499115430498,0.06465019470294668,-0.08636108862899772,-0.0009231048469554431,3.0631170207454415,-0.1676606194819978,-0.47268992146031824,-0.1288309180646423,-0.11471720292341887,4.870401806285469e-05,-0.8902279107452137,3.024917434719099,-2.488989340753266,-0.9714750331440626,0.21068443393104364,-0.004052732755381011,0.7486111357184561,12.201529061820072,2.8806145073572202,0.35712272234431247,-0.01594272210056592,-1.2985767484784613e-05
0.78,0.5131487749323922,0.0045508441685430286,-1.5967221930089204,0.06326780475906399,-0.08749236470148425,-0.0009225142041360617,3.054219333791655,-0.1376128408831403,-0.4972281465870675,-0.13823899438826867,-0.11312760724865357,5.9064281938130654e-05,-1.4356026651825695,2.6474942134409636,-2.386898774069496,-0.9254447185072068,0.22656522120152722,-0.003982287793490913,0.5359588817530068,12.05510513124676,2.8531293372133613,0.35543675703002187,-0.008081818638057304,-1.6045382708490434e-05
0.79,0.5435476000713815,0.003437616539192249,-1.6019298963989201,0.06179585630010612,-0.088606086997747,-0.0009218231364992155,3.0398825138989247,-0.11132276293507795,-0.5207703389999845,-0.14719484589578688,-0.11137222962627472,6.910676368461995e-05,-1.972816839323407,2.2896293614638723,-2.27476715463622,-0.8761705479200581,0.24174415463923893,-0.0039367865168845745,0.3250210373114225,11.913257841468335,2.8240998830797723,0.3534140728512831,-0.00034060412885668356,-1.993947033999767e-05
0.8,0.5737494781470289,0.0025516658271042257,-1.607362057145461,0.06023917443609818,-0.08970065555088724,-0.0009210354868153051,3.0201878075647444,-0.08859507120880235,-0.5432160746540936,-0.15566818640079375,-0.10945685531402512,7.876496839103694e-05,-2.5005275237042683,1.9279138158606943,-2.153599438763118,-0.8242070499570764,0.256215053525807,-0.003913776967599087,0.11590935485815446,11.764004502171405,2.789316325612591,0.3502219091469813,0.0072592207348435925,-2.4768901222196043e-05
0.81,0.6037017766205719,0.0018569891607477594,-1.6130068233617567,0.05860285561288545,-0.09077453259208305,-0.0009201555336850559,2.9952298473542953,-0.06946766663564663,-0.5644766216295758,-0.16363188232127257,-0.10738770411958107,8.799531302493215e-05,-3.0174564300890268,1.6151501058723128,-2.0246533886330633,-0.76989578081831,0.26994336391194906,-0.003909767902466908,-0.09094017156821321,11.63436091703527,2.7583197179837704,0.34768661315636207,0.014776133916424614,-2.9459624419878735e-05
0.8200000000000001,0.6333529370244187,0.001322464568352452,-1.6188515448612737,0.05689219237173995,-0.09182624052741535,-0.0009191882284330335,2.965116040384683,-0.05345245923953072,-0.5844721499517053,-0.1710663241145499,-0.10517079353322943,9.673052520224121e-05,-3.522386631717732,1.3078409767757777,-1.8888368884079103,-0.7139974587578863,0.28295771683933424,-0.003922076065284108,-0.29581010053614,11.502226860860628,2.7233880141945144,0.3442979013760275,0.02218511958631516,-3.4196814050035614e-05
0.8300000000000001,0.6626525961397642,0.0009175177948513166,-1.6248828954151333,0.05511264187949541,-0.09285436592484543,-0.0009181387811833495,2.9299659115345507,-0.04049467735011355,-0.6031350553859645,-0.17795504922445446,-0.10281253974300834,0.0001049447249683966,-4.014170669845246,1.0609787770990584,-1.7474239112086059,-0.6568413640996025,0.29522773639817146,-0.00394477493982244,-0.4983897442362183,11.396137062234265,2.6946877890090675,0.3420182140950567,0.029555981721310305,-3.7761746054180016e-05
0.84,0.6915517007112507,0.0006176002267666392,-1.6310869612345238,0.053269749862812105,-0.09385755659953895,-0.0009170128738347968,2.8899104571486434,-0.029991756808467745,-0.6204065819390484,-0.18428920166833093,-0.10031906746935294,0.00011259073485527803,-4.491731110550864,0.8277102305526702,-1.6012992867942444,-0.5991894993637743,0.30679063817421337,-0.003974344048775516,-0.6990923379865203,11.29227974314109,2.6639160110614215,0.3392220428106534,0.03686468812499187,-4.0318201522304224e-05
0.85,0.7200026147008449,0.0003995213998565515,-1.6374493634004748,0.051369121794676814,-0.09483452530983184,-0.0009158162005026628,2.845091398959418,-0.021807882691008768,-0.636240216595094,-0.19006280681352922,-0.09769687102928841,0.00011966733321339392,-4.954063053537185,0.6510513657670433,-1.4517041400217345,-0.5413336376254434,0.31761882066157554,-0.004004072254604099,-0.8976949090803801,11.213331110130078,2.6392387640572483,0.33749567102946043,0.044169943397799255,-4.08054590683384e-05
0.86,0.747959219757441,0.0002457337064794785,-1.6439553505493827,0.049416359181876014,-0.09578404766794446,-0.0009145546081448883,2.7956605056596024,-0.0153787693377073,-0.6505987148907999,-0.19527626128008027,-0.0949522358112622,0.00012615923577744952,-5.4002367584515545,0.5021428109463415,-1.2995475305689832,-0.48390531009117943,0.3277409931340607,-0.004030428812663606,-1.0945043775743202,11.144792353019294,2.6156613139173603,0.33585705678122335,0.05146339676004395,-3.914098853463484e-05
0.87,0.7753770078459766,0.00014145733766004803,-1.6505899106359259,0.04741702689795322,-0.09670496428644577,-0.0009132337657244383,2.7417788088535713,-0.010427636881943043,-0.6634560086543259,-0.19993322839227956,-0.09209166185013148,0.00013208424204499538,-5.829400426467198,0.3651076219754473,-1.1459248798470427,-0.42722289432031424,0.33714424520439223,-0.004047468422981468,-1.2894624889879802,11.078683105084574,2.5905073907443366,0.33377398367854516,0.05873007537611667,-3.5291610416832184e-05
0.88,0.8022131662169131,7.309819518285417e-05,-1.6573378900508828,0.045376633652682505,-0.0975961842894012,-0.0009118589691067577,2.683615837093648,-0.006835914247719386,-0.6747979414957009,-0.2040393245270712,-0.08912200029554294,0.00013747966176806087,-6.240777069279617,0.30836111061099863,-0.9920016867413165,-0.37147154046741804,0.34580226185354945,-0.004051959985285888,-1.4822231021436467,11.051539167845952,2.5769630921572046,0.33384152368951536,0.066057183313858,-2.77956557202311e-05
0.89,0.8284266552976741,3.506256908864905e-05,-1.66418405978713,0.04330055747864267,-0.09845667964022699,-0.0009104355015683363,2.621348908076101,-0.003803562609420512,-0.6846169736247112,-0.20760761740398348,-0.08604953508257931,0.00014234675384214152,-7.658057924879173,5.839296352534391,-0.5643287795463507,-0.26173960417298936,0.3640280574306445,-0.004031895039563915,-2.0817994204931063,14.050564580398092,3.6615228775808637,0.5531538739302623,0.09594049237126273,8.632262840541418e-05
0.9,0.8538761446128882,0.0005785255846514759,-1.6710824202924344,0.04119586663657214,-0.09928297572927326,-0.0009090173628392463,2.5449489315214024,0.05434630155628268,-0.6898360505304373,-0.21046908420705313,-0.08262960890462703,0.0001418138729089927,-6.980401992180538,-2.802617345266228,-0.6648138533019647,-0.3063622530165162,0.37332349375537177,-0.004116997538290201,-1.9160243682595763,9.395898725910492,1.9571386031915745,0.214778268375879,0.07990024073314063,-1.5384926374979968e-05
0.91,0.8786291462252095,0.0008425870495290071,-1.678049086317809,0.03906508167957555,-0.10007626257119967,-0.0009075238288862343,2.4753001612321337,0.026406146487753128,-0.6966666025374687,-0.2130784956996593,-0.07932868419264039,0.00014935339530120165,-7.334248366025669,-2.0826428645228288,-0.5377954552622723,-0.2212772669288281,0.3716494822807732,-0.0033995439142067707,-2.06941396365159,9.757876246390202,2.077655493689833,0.2410103371295583,0.08623255680927824,-9.35766077541593e-06
0.92,0.90265036895672,0.000898989639382838,-1.6850707064509027,0.036915090179772736,-0.10083618911166872,-0.0009059670515916157,2.4021222731510568,0.005640258985383093,-0.7021620133093741,-0.21499914998028127,-0.07599265404690594,0.00015567772946185884,-7.667386376978772,-1.3984881091570611,-0.40728388732719845,-0.15338721787905651,0.3728048120512142,-0.003558076072648214,-2.2286747755441407,10.105915890560697,2.192636720211854,0.26614702356610465,0.09300883202506188,5.877785671150702e-06
0.93,0.9259065815734917,0.000815923807040982,-1.6921337265320555,0.03475149529891326,-0.10156223962940425,-0.0009043659631747818,2.3256212616771696,-0.0083065832341856,-0.7063020081152745,-0.21635948808594768,-0.0726050517735522,0.00016010884168338638,-7.979731754057881,-0.7935781142412357,-0.27484232556415433,-0.09843661273103121,0.3755732458408403,-0.0037240487985510558,-2.3925549326103503,10.41631775319832,2.293365568720777,0.28841341941095033,0.10008794699198519,2.8691495568326874e-05
0.9400000000000001,0.9483666226693384,0.0006536977306952905,-1.699224545045616,0.032578970203405416,-0.10225382149999632,-0.0009027344285012085,2.2460041095846695,-0.016222607634569147,-0.7090818513560452,-0.21725250955078496,-0.06915818705920734,0.0001631534673573271,-8.271070322449393,-0.2682557193713975,-0.14244284801285056,-0.052984202976257944,0.3790765452835956,-0.0037859303210216466,-2.5592157519414553,10.688124805274809,2.37936801415942,0.3076800433367362,0.1073595443596178,5.79149166868763e-05
0.9500000000000001,0.9700014232880908,0.0004646992305192055,-1.706329682680342,0.03040151314508332,-0.10291032533377763,-0.0009010809973233696,2.1634800618752434,-0.018899850017608497,-0.7105137634726028,-0.21774570583220962,-0.06565038337813078,0.0001653431177838851,-8.541213351374118,0.17171103986988148,-0.011767761331612697,-0.014463955966875969,0.38272054529215893,-0.003748943106902436,-2.7268130377610325,10.917391829637198,2.4491918638985,0.32362881451124953,0.1147070374433483,9.22582670238504e-05
0.96,0.9907840266538875,0.0002928181873127854,-1.7134359334687606,0.028222640363781228,-0.10353116648024664,-0.000899410042478997,2.078260336579679,-0.017188104320642012,-0.7106250788418549,-0.217887278130209,-0.06208411464690115,0.00016709548443725978,-8.789998356421822,0.47026471240227596,0.11568167795597994,0.01906611201808306,0.3860978655145857,-0.0036328023384455954,-2.893541059218567,11.072451181950148,2.4914465512789756,0.33394170115967575,0.12194218731179648,0.00012939362424355458
0.97,1.0106896048356144,0.00016786039721404704,-1.7205305396449413,0.026045570138828605,-0.10411582027051715,-0.0008977225787055249,1.9905578181726926,-0.012495779009873835,-0.7094606176180732,-0.2177070224952621,-0.05846537902705023,0.00016874637734721074,-9.017287703531286,0.4716386676002477,0.23816174223132414,0.04945781244900882,0.3888654814873931,-0.003456844779648971,-3.057348182213393,11.065833136131971,2.474597026314919,0.3322142293880886,0.1287109496131145,0.0001646420447085384
0.98,1.0296954723845915,9.002991490979463e-05,-1.7276014655932321,0.023873474607770652,-0.1046638659908771,-0.0008960164934147751,1.9005867548976947,-0.007783048230425241,-0.7070925948290899,-0.21720955310579518,-0.0548045720359952,0.00017060852907497634,-9.222974782512985,0.2822941784726335,0.35295389916440745,0.07924694958945366,0.3905979846796157,-0.0032413456423365794,-3.214946708802252,10.953272373017267,2.4190591531817307,0.322534106247122,0.13497726357716758,0.00019774711206514635
0.99,1.0477810980959268,4.053015262956872e-05,-1.7346375681254245,0.02170957637129959,-0.10517500246285306,-0.000894288516360591,1.8085625711335331,-0.00494997622802259,-0.7036102532192421,-0.2163898236471062,-0.05111364719759628,0.00017279770541840157,-10.236755960615493,21.41882523738853,1.5142635943320784,0.3366274444770738,0.40394289684599016,-0.002953761581975911,-3.6994996888588116,22.929519105980205,6.829699978759099,1.2289040556537583,0.18477149109058544,0.0006742856706948807
