tonegas/nnodely-applications/joint_friction_estimation/dataset/train/mpc_mujoco_episode_16 copy.csv
time,q1,q2,q3,q4,q5,q6,dq1,dq2,dq3,dq4,dq5,dq6,ddq1,ddq2,ddq3,ddq4,ddq5,ddq6,tau1,tau2,tau3,tau4,tau5,tau6
0.0,0.0,1.57,-1.57,0.0,0.0,0.0,0.0,0.0,0.0,0.0,0.0,0.0,-5.482613509491926,6.326159963280905,7.820599609284345,2.8192269423748044,-0.7805626139115205,-2.870711426350425e-06,-0.7640027342596215,0.1121866599339949,-2.2344698742137417,-0.4912115069228554,-0.06884025977217469,-0.001044194431716165
0.01,-0.0005453363444000756,1.5706333012912714,-1.5692199960311504,0.0002648415368234225,-6.635407748075189e-05,-5.349483427942225e-07,-0.054533634440007556,0.06333012912713612,0.07800039688497842,0.026484153682342252,-0.006635407748075188,-5.349483427942225e-05,-5.439817070809021,6.190866203981846,7.66496431318455,2.59804730605115,-0.6551491781058161,-0.00530947492145728,-0.7651097511227543,0.0013465374531529406,-2.282368077656113,-0.5018141954357885,-0.06881498327148546,-0.001046661134074783
0.02,-0.0016313479586939584,1.5718864663067194,-1.5676765596455096,0.0007764215819676423,-0.00019128691494069052,-1.624091100033015e-06,-0.10860116142938828,0.12531650154478116,0.15434363856406974,0.05115800451442197,-0.012493283745993865,-0.00010891427572387924,-5.389413111817222,6.046317016083882,7.489313855485857,2.41315425229147,-0.5756763118800983,-0.005369325476175746,-0.7701154051817622,-0.13247346662865844,-2.3347515538809533,-0.5129230239352648,-0.06899774598117236,-0.0010476191140224877
0.03,-0.0032527894245343307,1.5737450972306326,-1.5653879729002607,0.0015193331320354495,-0.0003697591656556494,-3.2284558415457746e-06,-0.16214414658403722,0.1858630923913219,0.22885867452488823,0.07429115500678073,-0.017847225071495887,-0.00016043647415127593,-5.3328355349746115,5.892477085076865,7.296956366920741,2.255251248544539,-0.5229048264159744,-0.0047469753130324754,-0.7787134550597573,-0.28807333913233,-2.391384977448448,-0.5244963938731452,-0.06936436826295593,-0.0010469242603694021
0.04,-0.005403905876275323,1.5761938408077647,-1.5623739671388406,0.002480163245665369,-0.0005983091632497622,-5.310991277992616e-06,-0.2151116451740992,0.24487435771320956,0.3014005761419973,0.09608301136299197,-0.022854999759411288,-0.0002082535436446842,-5.2708380029937345,5.729431976237337,7.090531306187289,2.1173329668667122,-0.48531785717669607,-0.004050219681035472,-0.7905619784429548,-0.46416532327913096,-2.451990533290966,-0.5364820143581861,-0.06988668566717997,-0.0010444182782871868
0.05,-0.008078466771277425,1.5792164033145295,-1.5586555121442158,0.003646965399938396,-0.0008743591010217547,-7.839795742298782e-06,-0.2674560895002102,0.3022562506764721,0.37184549946246515,0.11668021542730266,-0.027604993777199244,-0.0002528804464306167,-5.2037613517236565,5.557367207680824,6.872172891805626,1.994141422674943,-0.4560622530494811,-0.003325001837015229,-0.805285001232168,-0.6593812877619216,-2.5162511302541692,-0.5488179115703056,-0.07053325967448194,-0.0010399269284234443
0.06,-0.011269774797985396,1.5827955740633513,-1.5542546432037823,0.005008864603796671,-0.0011958026692569174,-1.0785276547679944e-05,-0.31913080267079713,0.35791707488217217,0.44008689404335666,0.13618992038582747,-0.03214435682351628,-0.0002945480805381162,-5.131699792919461,5.376552732137509,6.643635298242742,1.8817488955239625,-0.4311110470482049,-0.0025601709103120207,-0.8224737862856393,-0.872280035286495,-2.583813691465471,-0.5614334630490065,-0.07127006506731294,-0.0010332643072408546
0.07,-0.014970660122331475,1.5869132562382837,-1.5491943165580746,0.006555763546881113,-0.0015607633936717533,-1.4117997536771514e-05,-0.3700885324346079,0.4117682174932478,0.5060326645707668,0.15468989430844424,-0.036496072441483604,-0.000333272098909157,-5.05460516130061,5.187331152768875,6.406388193936616,1.777239608542672,-0.4081503122336123,-0.0017527779963342205,-0.8416882580050704,-1.1013548646250295,-2.654292611428014,-0.5742504777993774,-0.07206116979741213,-0.001024240104172041
0.08,-0.0191734664670229,1.5915505041472693,-1.5434982859675748,0.008278125604621395,-0.0019674564849886944,-1.780758982018329e-05,-0.42028063446914227,0.46372479089855667,0.5696030590499885,0.1722362057740283,-0.04066930913169412,-0.00036895922834117743,-4.972353252465133,4.990108502276485,6.16168943457175,1.6784670728771722,-0.3859028070123678,-0.0009103182117100594,-0.8624589377142884,-1.3450415936058442,-2.7272734328732584,-0.587184331107128,-0.07286941532454903,-0.0010126681178514395
0.09,-0.02387003325437938,1.5966875661681037,-1.537190994874791,0.01016681627680053,-0.0024141133728387155,-2.1822379777454804e-05,-0.46965667873564804,0.5137062020834477,0.6307291092783656,0.18886906721791358,-0.04466568878500213,-0.0004014789957271514,-4.8847868947972355,4.7853467320427425,5.910640138449342,1.5838691596188852,-0.3637160395745447,-4.624198844815908e-05,-0.8842896750170807,-1.601727195551602,-2.802316782389867,-0.6001451576289971,-0.0736570990135422,-0.0009983750437330386
0.1,-0.02905167665215055,1.6023039327875714,-1.5302974799860476,0.01221298902230988,-0.0028989440614298374,-2.6129436821639292e-05,-0.5181643397771171,0.5616366619467804,0.6893514888743419,0.2046172745509349,-0.048483068859112216,-0.0004307057044184487,-4.791744626405764,4.573557315075937,5.654226167793176,1.492327148822497,-0.34131062579342597,0.0008237142801648112,-0.9066613807853943,-1.869759129465074,-2.878962579340851,-0.6130390995382207,-0.07438665571448934,-0.000981208941032828
0.11,-0.03470917149467713,1.608378389207949,-1.5228432831400807,0.014408004790668004,-0.003420122117423795,-3.0694847075332805e-05,-0.5657494842526583,0.607445642037753,0.7454196845966943,0.21950157683581234,-0.05211780559939577,-0.00045654102536935135,-4.693080297600626,4.355295535860823,5.393349097907724,1.4030582497082378,-0.31862597849382013,0.001683901984688152,-0.9290368862248468,-2.147455393315498,-2.956734516496182,-0.6257696022585315,-0.07502133213922582,-0.0009610470002715652
0.12,-0.04083273549465889,1.6148890720360858,-1.5148543691399212,0.016743377089225048,-0.003975782970125948,-3.548409335666627e-05,-0.6123563999981764,0.6510682828136723,0.7988914000159477,0.23353722985570435,-0.05556608527021528,-0.00047892462813334697,-4.588676762013823,4.131155168433123,5.128849042078442,1.3155335793741543,-0.29572527469148824,0.002520179517873089,-0.9508669706542118,-2.433115279913125,-3.03514479368968,-0.6382387462596091,-0.07552584506911456,-0.0009378023522168672
0.13,-0.04741201678434947,1.6218135295881746,-1.506357047854452,0.019210736354063004,-0.004564029776450663,-4.0462468988952545e-05,-0.6579281289690574,0.6924457552088894,0.8497321285469301,0.24673592648379572,-0.05882468063247153,-0.0004978375632286275,-4.478455521422337,3.901763339020868,4.861521155866811,1.2294154965549353,-0.27273670780716586,0.0033206849013556194,-0.971597518496586,-2.7250307695569456,-3.1136990695793783,-0.6503485998485214,-0.07586701259711494,-0.0009114297315285213
0.14,-0.05443608555224843,1.6291287853459715,-1.4973778993873945,0.021801808857974524,-0.0051829432883542925,-4.5595482333442256e-05,-0.702406876789896,0.73152557577968,0.8979148467057461,0.2591072503911519,-0.06189135119036289,-0.0005133013344489712,-4.362383421090972,3.6677754414296784,4.5921272309104,1.144509646817692,-0.24981712105968867,0.00407617284734485,-0.9906776861319502,-3.021498452354343,-3.191901581196939,-0.6620025748092857,-0.0760143464738737,-0.0008819298592320134
0.15,-0.06189343032767226,1.6368114040935606,-1.4879437014953172,0.024508406501782626,-0.00583059350754853,-5.084922739190045e-05,-0.7457344775423829,0.7682618747589063,0.9434197892077415,0.2706597643808101,-0.0647650219194238,-0.0005253745058458192,-4.2404770482393985,3.4298700282085184,4.321403474572253,1.0607281905696695,-0.2271295927044612,0.004780058727344105,-1.0075688851503468,-3.320831836373475,-3.269260366856754,-0.6731067641902784,-0.07594059317679189,-0.0008493524503507212
0.16,-0.06977195928609678,1.6448375602523442,-1.4780813587360098,0.027322424680560918,-0.006505051751843008,-5.619070753521744e-05,-0.7878528958424519,0.80261561587836,0.9862342759307396,0.2814018178778293,-0.06744582442944781,-0.0005341480143316996,-4.112805237922484,3.18874364269779,4.0500653338965185,0.9780615359220342,-0.20482983528859933,0.005428268951445325,-1.0217543239544837,-3.621373866462589,-3.3452925157443962,-0.6835712396352644,-0.07562221154350222,-0.000813797792881334
0.17,-0.07805900678991733,1.653183107919249,-1.4678178330619829,0.030235846058784786,-0.007204402288059298,-6.158810690693667e-05,-0.8287047503820547,0.8345547666904768,1.0263525674026928,0.2913421378223869,-0.06993505362162898,-0.0005397399371719219,-3.9794899586042627,2.945105589185396,3.7788100418428607,0.8965565467442751,-0.18305824821191408,0.00601896986800643,-1.0327487982361432,-3.9215094536430137,-3.4195293577491626,-0.693311284528483,-0.07503977568553474,-0.0007754168842620566
0.18,-0.08674134523628989,1.6618236521018712,-1.4571800757543205,0.03324074857741833,-0.007926753027362628,-6.701100884117332e-05,-0.8682338446372565,0.8640544182622244,1.0637757307662377,0.3004902518633544,-0.07223507393033296,-0.0005422901934236645,-3.8407057847813353,2.6996726625528953,3.5083174264468164,0.8162996897389903,-0.1619356512716621,0.006552228676605543,-1.0401083857031734,-4.219677797395271,-3.491521500439654,-0.7022485389930258,-0.074178293379137,-0.0007344101519062396
0.19,-0.09580520215392144,1.6707346206364275,-1.4461949607298539,0.036329316388953335,-0.008670245001685685,-7.243056364715942e-05,-0.9063856917631555,0.8910968534556271,1.0985115024466572,0.3088567811535006,-0.0743491974323057,-0.0005419554805986109,-3.696678135972864,2.453163876389913,3.2392494184699574,0.7374039594771524,-0.14156144374886281,0.007029646166637704,-1.0434396838153321,-4.51438427366905,-3.56084361698895,-0.7103120335248734,-0.07302743214499387,-0.0006910248244537194
0.2,-0.10523628237399864,1.6798913362713852,-1.434889219357423,0.03949385270197673,-0.009433060487798075,-7.7819609926778e-05,-0.94310802200772,0.9156715634957656,1.1305741372430884,0.3164536313023395,-0.07628154861123902,-0.0005389046279618581,-3.5476804519747542,2.2062952406292777,2.972248611913917,0.6599987049904303,-0.12201336962673892,0.007453990443694325,-1.0424082323556123,-4.804211660532454,-3.62709888965652,-0.7174390897931786,-0.0715816476761015,-0.0006455510587505658
0.21,-0.11501979499765652,1.6892690884024892,-1.4232893769929198,0.042726793736568916,-0.010213429744660963,-8.315275458200515e-05,-0.9783512623657877,0.9377752131104097,1.159984236450314,0.3232941034592186,-0.07803692568628877,-0.000533314465522715,-3.3940304727005173,1.9597746471401116,2.7079361681756486,0.5842216971058019,-0.10334833877785954,0.007828852150862264,-1.0367457853502917,-5.0878304811406005,-3.6899230182371596,-0.7235760698612628,-0.06984021202968839,-0.0005983169626221934
0.22,-0.12514048479443873,1.698843203954134,-1.4114216914926492,0.04602072316207824,-0.0110096363960768,-8.840641708970757e-05,-1.012068979678222,0.9574115551644645,1.1867685500270568,0.3293929425509323,-0.07962066514158364,-0.0005253662507702421,-3.236085791038564,1.7142969250439608,2.446909303824549,0.510212938562649,-0.08560392419187579,0.008158334655886446,-1.0262561378204613,-5.3640082599015715,-3.748987711597586,-0.7286789586965495,-0.0678071419246685,-0.0005496826836950134
0.23,-0.1355826675938252,1.7085891169178429,-1.3993120939941794,0.04936838652190446,-0.011820021534400076,-9.355884364911002e-05,-1.044218279938647,0.974591296370908,1.21095974984697,0.33476633598262184,-0.08103851383232762,-0.0005152426559402447,-3.074238845825951,1.4705391274927144,2.189738560612865,0.43810984162419686,-0.06880026654142668,0.008446786969235731,-1.0108192696191252,-5.631617511605809,-3.804003592666061,-0.7327137691858074,-0.06549103043554033,-0.0005000337585047419
0.24,-0.14633026917545683,1.718482436080919,-1.3869861322665178,0.0527627052551184,-0.012642986648766013,-9.859009657127545e-05,-1.0747601581631618,0.9893319163076097,1.2325961727661596,0.3394318733213942,-0.08229651143659365,-0.0005031252922165428,-2.9089115177166462,1.2291561087115752,1.9369650216941907,0.3680434899506473,-0.05294219301272918,0.008698582727734383,-0.9903936376752774,-5.889642313892622,-3.854722462510424,-0.7356567637662325,-0.06290478820137767,-0.00044977393286076064
0.25,-0.15736686712307252,1.728499010506717,-1.374468916929901,0.056196790008969925,-0.013476995497339094,-0.00010348202387453765,-1.1036597947615683,1.0016574425797993,1.2517215336616807,0.3434084753851525,-0.08340088485730805,-0.0004891927303262207,-2.740549483071982,0.9907764448777816,1.6890976083993474,0.3001357703011376,-0.03802141094124423,0.008917945188018583,-0.9650165251273716,-6.137183349339157,-3.900938886686448,-0.7374944919838304,-0.06006530284234634,-0.00039931767327284215
0.26,-0.16867573508185446,1.7386149923619165,-1.361785070832176,0.05966395300473994,-0.01432057505059656,-0.00010821821354597107,-1.1308867958781939,1.0115981855199445,1.2683846097724953,0.34671629957700156,-0.08435795532574666,-0.0004736189671433423,-2.5696164702842594,0.7559987453974675,1.4466105660986148,0.23449721079727315,-0.024018676270523898,0.009108815797397085,-0.9348024364786076,-6.37346134306422,-3.9424910860045794,-0.7382236485425997,-0.05699302748263947,-0.0003490825899785
0.27,-0.18023988884793787,1.748806896724858,-1.348958681845843,0.06315771927577701,-0.015172315633931273,-0.00011278393637848248,-1.1564153766083423,1.019190436294144,1.2826388986333022,0.3493766271037075,-0.08517405833347115,-0.0004565722832511408,-2.3965885495747297,0.5253883927882508,1.209941224702189,0.17122540033296652,-0.01090586674529348,0.00927476233897484,-0.8999396073468817,-6.5978188633454895,-3.9792611333568626,-0.7378507614610497,-0.053711511026944575,-0.00029948198492907676
0.28,-0.1920421337210472,1.759051658051603,-1.3360132593193308,0.06667183664371201,-0.01603087039462008,-0.00011716608073362052,-1.1802244873109329,1.0244761326744922,1.2945422526512305,0.3514117367935002,-0.08585547606888054,-0.0004382144355138041,-2.2219485720573227,0.29947474020608045,0.9794880988147843,0.11040389155058072,0.001352087240309885,0.009418921727447516,-0.8606847712291849,-6.809720494521189,-4.011174477313834,-0.736391724559263,-0.05024688406827592,-0.0002509177236176126
0.29,-0.2040651125651103,1.7693266830219327,-1.3229716943798033,0.07020028433879033,-0.01689495421180424,-0.00012135308203836269,-1.2022978844063108,1.0275024970329933,1.30415649395274,0.352844769507832,-0.08640838171841637,-0.00041870013047421643,-2.0461808573696456,0.07874878606372054,0.7556093740766742,0.05210151017486231,0.012795443433526899,0.009543972146099589,-0.8173563901093688,-7.008751431692432,-4.038198830986193,-0.7338711924537742,-0.0466273149871293,-0.00020377360880085844
0.3,-0.2162913540456632,1.7796098995350418,-1.3098562242444223,0.0737372802044605,-0.017763342159620523,-0.0001253348493175091,-1.2226241480552864,1.0283216513109084,1.3115470135381073,0.35369958656701816,-0.08683879478162823,-0.0003981767279146401,-1.8697662121198526,-0.13633866443036147,0.5386218096465708,-0.003627991680073217,0.023468075789423892,0.009652129198984616,-0.77032660768248,-7.194614583886158,-4.0603424803784645,-0.7303218593726485,-0.0428824509352288,-0.00015840940819503618
0.31,-0.22870332054519826,1.7898798016732236,-1.2966884006540376,0.0772772864558527,-0.01863486762382738,-0.00012910269060283097,-1.2411966499535083,1.0269902138181854,1.3167823590384629,0.35400062513921937,-0.08715254642068593,-0.00037678412853218676,-1.6931773443700933,-0.3453783502943024,0.32880007201594486,-0.056745989845433276,0.0334160951331004,0.00974516105004708,-0.7200122213782363,-7.367126305051243,-4.077652079528431,-0.7257836453076768,-0.03904285800878857,-0.00011515565849893212
0.32,-0.2412834552966293,1.8001154905004666,-1.2834890624991342,0.08081501398731075,-0.01950842016182503,-0.00013264923865081456,-1.2580134751431036,1.0235688827243095,1.3199338154903282,0.35377275314580503,-0.08735525379976485,-0.00035465480479836004,-1.5168747228749633,-0.5480034265638222,0.1263765023554394,-0.10722879385079531,0.04268666014703015,0.009824417886829195,-0.6668649912014517,-7.52621089950307,-4.090210009691978,-0.7203028142404259,-0.03513947405712299,-7.430933610216611e-05
0.33,-0.2540142283190837,1.8102967106106733,-1.2702783126637307,0.08434542524623324,-0.02038294318535109,-0.00013596837804550377,-1.273077302245438,1.018122011020667,1.3210749835403437,0.3530411258922497,-0.08745230235260593,-0.00033191393946891947,-1.3413029142232016,-0.7438898729760922,-0.06845869163443186,-0.15506724212622713,0.051326971032457536,0.00989087163668012,-0.6113616096453521,-7.671894069494116,-4.098131386458163,-0.7139310494175747,-0.031203086312284266,-3.6130452040850466e-05
0.34,-0.2668781807877197,1.8204038823864102,-1.2570754990698898,0.08786373570950694,-0.021257431534698952,-0.00013905517445965166,-1.2863952468635955,1.010717177573678,1.3202813593840879,0.351831046327369,-0.08744883493478624,-0.00030867964141478957,-1.1668874167042502,-0.9327564626155052,-0.25555683789051975,-0.20026612038984926,0.059383434592391815,0.009945162388040885,-0.5539936484784496,-7.804295487100868,-4.101560801917722,-0.7067245099653499,-0.02726384444700137,-8.395965649936088e-07
0.35000000000000003,-0.2798579675187484,1.830418129972984,-1.2438991998644546,0.0913654140150555,-0.022130929003303604,-0.00014190580659399418,-1.2979786731028722,1.001424758657388,1.317629920543528,0.3501678305548573,-0.08734974686046523,-0.00028506321343425297,-0.994031996859833,-1.1143643194529498,-0.43480982248965483,-0.24284343362774052,0.06690098727050131,0.009987648542719663,-0.49525777673723026,-7.923620680540561,-4.1006688889928204,-0.6987428916248976,-0.02335081786166101,3.138357167696832e-05
0.36,-0.29293639730101634,1.840321305013633,-1.2307672126513183,0.09484618081468986,-0.02300252586213725,-0.000144517501106872,-1.3078429782267906,0.990317504064886,1.3131987213136302,0.3480766799634354,-0.08715968588336437,-0.0002611694512877798,-0.8231165234264209,-1.2885160984341875,-0.6061487649461894,-0.28282955941907906,0.07392256154269283,0.010018458254942075,-0.43564651204186733,-8.030152426627009,-4.095648792055111,-0.6900485121970242,-0.019491604058263886,6.040092431451896e-05
0.37,-0.306096470855226,1.850096006229246,-1.2176965476375612,0.09830200642570351,-0.023871356424656803,-0.000146888470680158,-1.316007355420965,0.9774701215613067,1.307066501375702,0.3455825611013657,-0.0868830562519552,-0.00023709695732860165,-0.6544952837949698,-1.4550548253447133,-0.7695423833549375,-0.3202663080535597,0.08048868070929771,0.01003754020280545,-0.375639727030987,-8.12424183686125,-4.08671262242236,-0.6807054395657067,-0.015711992968750185,8.611560607269596e-05
0.38,-0.31932141625017074,1.8597255949599345,-1.2047034245305803,0.1017291073676635,-0.024736596685100413,-0.00014901785523767648,-1.3224945394944714,0.9629588730688491,1.2993123106980897,0.3427100941959988,-0.08652402604436099,-0.00021293845575184623,-0.48849576021777913,-1.613862436127838,-0.9249950895537458,-0.35520591284821545,0.08663716735732985,0.010044712159946512,-0.31569708708672384,-8.206299315349598,-4.074087969725145,-0.6707786770958672,-0.012035690147879355,0.00010847099758448385
0.39,-0.3325947216514229,1.8691942068157095,-1.1918032729961994,0.1051239418777466,-0.025597462055756734,-0.00015090566623443885,-1.3273305401252127,0.9468611855774951,1.2900151534380926,0.33948345100830934,-0.08608653706563196,-0.0001887810996762382,-0.3254178367333942,-1.7648580567192629,-1.0725448562677053,-0.3877099721393229,0.09240295135709142,0.01003970623146877,-0.2562515473604753,-8.276785553209583,-4.05801453101332,-0.6603334179421226,-0.008484099887301973,0.00012744898909415413
0.4,-0.34590016532111,1.878486759609355,-1.1790107364648454,0.1084832045029077,-0.02645320522241975,-0.00015255273386423045,-1.3305443669687091,0.9292552793645703,1.2792536531354013,0.3359262625161102,-0.08557431666630151,-0.00016470676297915938,-0.1655334030753661,-1.907996064870935,-1.2122608987995376,-0.41784836252763835,0.09781796410409371,0.01002220991673114,-0.19770398897817087,-8.336202707305118,-4.038740909376071,-0.649434376521047,-0.005076167615038981,0.00014306766639447135
0.41000000000000003,-0.3592218428272553,1.8875889577662726,-1.1663396790542588,0.11180381987029082,-0.027303114131566206,-0.0001539606569854796,-1.332167750614527,0.9102198156917407,1.2671057410586646,0.3320615367383127,-0.08499089091464547,-0.00014079231212491556,-0.009086318561084534,-2.0432639749757806,-1.3442412133789956,-0.4456981410971741,0.1029111066774297,0.009991902461732066,-0.14041902843495413,-8.385085892009954,-4.01652162330406,-0.6381452022307363,-0.001828279456726408,0.00015537851633886092
0.42,-0.37254419145731293,1.8964872934236545,-1.1538031953628265,0.11508293573875682,-0.028146510117814872,-0.00015513175553662418,-1.3322348630057645,0.8898335657382057,1.253648369143227,0.32791158684659866,-0.08433959862486648,-0.0001171098551144567,0.14370730301464557,-2.170680185687115,-1.4686100129548358,-0.47134245245288664,0.10770828060464782,0.009948486157193459,-0.0847219923965349,-8.423995092170287,-3.9916143575041034,-0.6265279775648704,0.0012457844190887166,0.00016446326112925337
0.43,-0.3858520118627909,1.9051690444449674,-1.141413622877343,0.11831791543436548,-0.028982746175903594,-0.00015606902519938275,-1.3307820405477935,0.8681751021312752,1.2389572485483455,0.32349796956086624,-0.08362360580887215,-9.372696627585735e-05,0.2926585272835339,-2.290291628278195,-1.5855150991480347,-0.49486945456495324,0.11223247092838151,0.009891712482412773,-0.030897013756054303,-8.453507584392005,-3.964277475793523,-0.6146428001532424,0.004134847053981033,0.0001704304287601008
0.44,-0.39913048699013526,1.9136222695855325,-1.129182556732608,0.1215063297712766,-0.029811205377705815,-0.00015677609406746033,-1.3278475127344382,0.8453225140565139,1.2231066144735159,0.31884143369111106,-0.08284592018022213,-7.070688680775634e-05,0.4376047916496342,-2.402171351329827,-1.6951252064498656,-0.5163712755511991,0.11650387224104697,0.009821403074686624,0.020813825274710998,-8.474210932982917,-3.934767807380781,-0.6025474460278567,0.006830287685407634,0.00017341176203387876
0.45,-0.4123651983773645,1.9218358010512753,-1.1171208665574925,0.12464594855698993,-0.030631299431657433,-0.00015725718108766597,-1.323471138722927,0.821353146574275,1.2061690175115374,0.3139618785713334,-0.08200940539516176,-4.8108702020563325e-05,0.578408894739517,-2.506416074588472,-1.7976273516793304,-0.5359430117222512,0.12054004924805328,0.009737465704965309,0.07021040060746384,-8.486696606983175,-3.9033387095241556,-0.5902971095967493,0.009325956106355329,0.00017355856105796092
0.46,-0.4255421399163811,1.9297992346956911,-1.1052387151426433,0.1277347317772945,-0.03144246737933424,-0.0001575170560566173,-1.317694153901662,0.796343364441595,1.1882151414849211,0.30887832203045673,-0.08111679476768048,-2.598749689513434e-05,0.7149578199688377,-2.603143741818698,-1.8932242183536867,-0.5536817754445913,0.12435612426097586,0.009639905486457268,0.1171336184187315,-8.49155424623301,-3.870238402409883,-0.5779442144154334,0.01161805431764387,0.00017103804469419573
0.47000000000000003,-0.43864772919761985,1.9375029181000991,-1.093545578668493,0.13077082055190406,-0.03224417442176793,-0.0001575610009778914,-1.310558928123875,0.7703683404408015,1.1693136474150452,0.30360887746095694,-0.08017070424336852,-4.3944921274105585e-06,0.8471614280686334,-2.6924910992866784,-1.9821316020885873,-0.5696857997024551,0.12796498476767804,0.009528831640656932,0.16146377631599024,-8.489366587738218,-3.8357085661865877,-0.5655382878660067,0.01370499146276713,0.0001660298056677758
0.48,-0.4516688165669283,1.9449379367796038,-1.0820502682383746,0.1337525279466765,-0.03303591086637698,-0.00015739477260957115,-1.3021087369308466,0.7435018679504635,1.1495310430118282,0.2981707394772428,-0.07917364446090507,1.6622836832024426e-05,0.9749510508617001,-2.77461132324681,-2.0645759395488463,-0.5840536046292044,0.1313775049322281,0.009404460224859246,0.20311834214445318,-8.480705048952654,-3.799983185446004,-0.5531258922571985,0.015587217926966067,0.00015872242250568932
0.49,-0.4645926920345728,1.9520960987522165,-1.0707609524699129,0.13667832972269933,-0.03381719118408075,-0.00015702456605878453,-1.2923875467644503,0.7158161972612567,1.128931576846179,0.2925801776022848,-0.07812803177037658,3.7020655078661524e-05,1.0982780157702503,-2.84967171654789,-2.140791939895329,-0.5968832298047992,0.13460277548816002,0.009267113224265655,0.24204927822379801,-8.46612595214073,-3.763287623006794,-0.5407506046034385,0.0172670442245002,0.00014931027967717928
0.5,-0.47740709018330235,1.9589699177016047,-1.0596851809081342,0.1395468550965136,-0.03458755316522829,-0.00015645697930746633,-1.281439814872955,0.6873818949388193,1.1075771561778591,0.2868525373814262,-0.07703619811475405,5.675867513181841e-05,1.2171121275749954,-2.917851491292783,-2.211020334210168,-0.608271534746418,0.13764833708856639,0.009117214494495901,0.2782400337224411,-8.446167363743339,-3.725837902550012,-0.5284530373778945,0.018748449921451305,0.00013799063567982705
0.51,-0.49010019322678056,1.9655525949552746,-1.048829908035569,0.14235687757947152,-0.035346557162375045,-0.0001556989785802829,-1.2693103043478213,0.6582677253669971,1.0855272872565211,0.28100224829579307,-0.07590039971467563,7.580007271834273e-05,1.331440130932318,-2.979339651435851,-2.275505755081337,-0.6183135687896772,0.1405204126998827,0.008955283015305182,0.3117023194462812,-8.421346514596813,-3.6878401783513697,-0.5162708928098587,0.02003688737590387,0.0001249609677099516
0.52,-0.5026606323717125,1.9718380004899414,-1.0382015176676498,0.1451073059578014,-0.03609378540765065,-0.00015475786449125096,-1.2560439144932014,0.6285405534666845,1.0628390367919247,0.27504283783298933,-0.07472282452756072,9.411140890319465e-05,1.4412641741651186,-3.0343329863291477,-2.334494755447449,-0.6271020104576461,0.14322413514435617,0.008781923944578385,0.34247276843405433,-8.392157760826565,-3.6494903699179777,-0.5042390437570158,0.021139084551324586,0.00011041661125846516
0.53,-0.5150774876369505,1.9778206531647013,-1.0278058475356653,0.1477971754684878,-0.036828841392450046,-0.00015364123892901225,-1.2416855265237972,0.5982652674759875,1.039567013198459,0.2689869510686407,-0.07350559847993965,0.00011166255622387207,1.5466002919420145,-3.083034183563824,-2.388233972972949,-0.6347266754540648,0.14576376637322142,0.008597817962218146,0.37060957325313015,-8.35907104108547,-3.610973939616993,-0.4923896347762935,0.022062850598143113,9.454870367778552e-05
0.54,-0.5273402862810478,1.983495700370647,-1.0176482138740994,0.1504256392196631,-0.037551349297418886,-0.00015235697266141124,-1.2262798644097308,0.5675047205945729,1.0157633661565955,0.2628463751175276,-0.072250790496884,0.00012842662676010186,1.6474769216974623,-3.1256500670235337,-2.4369684436639987,-0.6412740916125514,0.14814290552276876,0.008403709354651234,0.3961891775323607,-8.32253078333039,-3.5724657922330287,-0.4807521976960474,0.022816887325496738,7.754243260747683e-05
0.55,-0.5394389999864255,1.988858897273012,-1.007733435844129,0.15299195989792422,-0.03826095346116412,-0.00015091317365799187,-1.2098713705377693,0.5363196902364767,0.9914778029970476,0.2566320678261138,-0.07096041637452324,0.00014437990034193705,1.743933466061765,-3.162389963880352,-2.4809400661742003,-0.6468271384274882,0.15036468325584185,0.008200393300976883,0.41930308570142466,-8.28295521330611,-3.5341302766686824,-0.46935377671571926,0.02341060911894878,5.957558318847329e-05
0.56,-0.5513640409437738,1.9939065858090006,-0.9980658596401368,0.1554955017989064,-0.03895731787677284,-0.00014931815614356673,-1.1925040957348205,0.5047688535988796,0.9667576203992163,0.2503541900982182,-0.06963644156087208,0.0001595017514425157,1.8360189111907512,-3.193464202333783,-2.520386216266571,-0.6514647482605742,0.15243194032645846,0.007988702774148315,0.4400548416620046,-8.24073601710823,-3.496121271579343,-0.45821905879203584,0.023853973316252264,4.081737225524323e-05
0.5700000000000001,-0.5631062569747742,1.9986356735913693,-0.9886493821411252,0.15793572321161495,-0.03964012570603886,-0.00014758041040731953,-1.1742216031000439,0.47290877823686084,0.941647749901165,0.24402214127085653,-0.06828078292660147,0.0001737745736247191,1.9237905087272182,-3.219082740212261,-2.5555385092188576,-0.6552616658638133,0.15434738873744536,0.007769495434450435,0.458557214610947,-8.196238311400814,-3.4585823384956607,-0.4473705057851674,0.024157322543940776,2.1427553136063567e-05
0.58,-0.5746569258249138,2.0030436128547033,-0.9794874739837167,0.16031216918148533,-0.040309078802248,-0.00014570857340001669,-1.1550668850139603,0.4407939263334211,0.916190815740842,0.23764459698703944,-0.06689530962091464,0.00018718370073028383,2.0073125271977403,-3.2394539231230444,-2.5866217065490207,-0.6582882625523645,0.15611375427367413,0.0075436408745870875,0.4749296187724865,-8.149800876859013,-3.421646927838305,-0.43682848551272246,0.02433124005142069,1.5557712501698971e-06
0.59,-0.5860077487512572,2.0071283795683796,-0.9705832019478681,0.1626244646719378,-0.040963897233432064,-0.0001437114001566066,-1.1350822926343334,0.4084766713676433,0.8904272035848607,0.2312295490452485,-0.06548184311840612,0.00019971732434100883,2.0866550769513497,-3.2547833696373796,-2.61385276229719,-0.6606104011433889,0.15773389958904893,0.007312008500218736,0.48929578357670367,-8.101736612996255,-3.3854386250908006,-0.42661139947876664,0.024386418662090546,-1.8658851725324976e-05
0.6,-0.597150843522727,2.0108884528274737,-0.9619392505603767,0.16487230813934312,-0.04160431879913961,-0.00014159773608348202,-1.1143094771469806,0.3760073259093966,0.8643951387491398,0.22478434674053127,-0.06404215657075488,0.00021136640731245698,2.1618930112741976,-3.265272980018586,-2.6374400032122454,-0.662289347641714,0.1592109274050646,0.007075456315339124,0.5017816819553753,-8.05233317554514,-3.350071426205853,-0.4167358055996427,0.024333543595960093,-3.908792884633412e-05
0.61,-0.6080787369428553,2.0143227946205164,-0.9535579428346507,0.16705546553183145,-0.042230098534963484,-0.00013937649014875598,-1.0927893420128312,0.3434341793042833,0.8381307725725929,0.21831573924883474,-0.06257797358238769,0.0002221245934726043,2.2331049050581835,-3.2711200642286626,-2.6575824365206295,-0.6633817256288381,0.16054826374210762,0.006834820818146459,0.5125137169502487,-8.001853760838987,-3.31565003303254,-0.40721653473320685,0.02418318910624368,-5.9613838478975555e-05
0.62,-0.6187843569972383,2.0174308300610715,-0.9454412600779645,0.16917376471826498,-0.04284100820028275,-0.0001370566090106342,-1.0705620054382996,0.31080354405551136,0.8116682756686204,0.2118299186433516,-0.0610909665319267,0.00023198811381217692,2.3003721113487043,-3.272516584359419,-2.674469178502705,-0.6639395093194427,0.1617497214239041,0.006590908161947295,0.5216171607175418,-7.950538005057232,-3.2822701611345115,-0.39806680023212493,0.023945728612583497,-8.012959891619145e-05
0.63,-0.629261024720162,2.0202124281586538,-0.937590860709492,0.1712270903499537,-0.04343683574589842,-0.00013464705211379657,-1.0476667722923647,0.27815980975822285,0.7850399368472444,0.20533256316887327,-0.05958275456156697,0.0002409556896837637,2.363777895230507,-3.269648506214789,-2.6882789968209972,-0.6640100513574936,0.16281954440737678,0.006344486707750563,0.5292148351956204,-7.898602969646323,-3.250018853803471,-0.3892983000870266,0.023631257803655513,-0.00010053861095387175
0.64,-0.6395024458671495,2.022667883193602,-0.930008098043776,0.17321537915431914,-0.044017384759443896,-0.00013215676777672208,-1.024142114698759,0.2455455034948245,0.7582762665715999,0.19882888043654512,-0.05805490135454768,0.0002490284337074495,2.423406643814899,-3.262695254497276,-2.699179959431991,-0.6636361415495635,0.16376243375213306,0.006096281029209782,0.5354260200765077,-7.846244187622483,-3.218974797348036,-0.3809213115056681,0.023249530018590044,-0.00012075429136986911
0.65,-0.6495027024725863,2.024797896750158,-0.9226940370049312,0.1751386156566868,-0.04458247388761295,-0.00012959467028485525,-1.0000256605436806,0.21300135565558692,0.7314061038844772,0.19232365023676656,-0.056508912816905496,0.0002562097491866835,2.479343150548038,-3.2518292659064127,-2.707329182932446,-0.6628560929205847,0.16458355627496069,0.005846967403220327,0.5403655711616391,-7.793636748737433,-3.189208633854601,-0.37294477799558295,0.02280990309585807,-0.00014069961893379895
0.66,-0.6592562443641556,2.0266035604522172,-0.9156494697468075,0.1769968283237038,-0.04513193623535223,-0.000126969617995601,-0.975354189156925,0.18056637020592978,0.7044567258123714,0.18582126670170088,-0.05494623477392733,0.0002625052289254257,2.531671971648935,-3.2372156344196337,-2.7128726733287896,-0.6617038516787677,0.16528853713995417,0.005597170772519755,0.5441432305519194,-7.740936404593711,-3.1607832685782276,-0.3653763891864337,0.022321296795536474,-0.00016030661301688647
0.67,-0.6687578806986152,2.02808633943701,-0.9088749301635588,0.1787900861195116,-0.04566561874319555,-0.0001242903924518743,-0.9501636334459577,0.14827789847930745,0.6774539583248645,0.17932577958078086,-0.05336825078433217,0.0002679225543726723,2.5804768521919685,-3.2190118430818004,-2.715945252444073,-0.6602091279232116,0.16588343777871906,0.005347463141512132,0.5468631092826371,-7.688280677698978,-3.133754169937402,-0.35822265375155016,0.021792159851480173,-0.0001795157631510615
0.68,-0.6780027715764858,2.0292480565933255,-0.9023707072836064,0.18051849546373486,-0.0461833815448617,-0.00012156567849156686,-0.9244890877870595,0.11617171563152767,0.6504222879952428,0.17284093442232357,-0.05177628016661499,0.0002724713960307435,2.625840219150686,-3.197367576754849,-2.716670563483405,-0.6583975441616161,0.16637472066910952,0.005098363316948573,0.5486233228288143,-7.635789961125964,-3.108169660768251,-0.35148896587283357,0.021230445689182354,-0.00019827542607777455
0.6900000000000001,-0.6869864197865287,2.0300908775828055,-0.896136857547874,0.1821821975785543,-0.04668509730808441,-0.00011880404533146706,-0.8983648210042956,0.0842820989479786,0.6233849735732397,0.16637021148194592,-0.050171576322270435,0.0002761633160099793,2.667842738604356,-3.17242461046453,-2.715161149633003,-0.6562907989744904,0.16676920257664918,0.00485033790244771,0.5495157602476873,-7.583568597887045,-3.084071200055413,-0.345179665746128,0.02064359584842796,-0.0002165412049873174
0.7000000000000001,-0.6957046627244775,2.0306172966552953,-0.8901732159804517,0.18378136621059044,-0.0471706505623861,-0.00011601392859585015,-0.8718242937948765,0.052641907249005596,0.5963641567422222,0.15991686320361326,-0.048555325430168925,0.0002790116735616923,2.706562934258409,-3.1443167682072772,-2.711518599964805,-0.6539068434130755,0.16707399791705058,0.004603803421754593,0.5496259684743925,-7.531705931335478,-3.0614936548120153,-0.33929809465146693,0.020038530172920874,-0.00023427532382860037
0.71,-0.7041536645243559,2.030830123262197,-0.8844794062665461,0.18531620571201027,-0.04763993701813969,-0.00011320361325262219,-0.8449001799878355,0.021282660690165052,0.569380971390563,0.15348395014198407,-0.046928645575359175,0.0002810315343227957,2.7420768644306523,-3.1131699473337613,-2.7058337573329796,-0.6512600679838894,0.16729645391913017,0.004359129420823615,0.549033134339423,-7.480277319873826,-3.0404655621446524,-0.3338466451199772,0.019421642867889867,-0.00025144600780332125
0.72,-0.7123299084348692,2.030732469465227,-0.879054849758744,0.1867869494641613,-0.04809286288178224,-0.00011038121741391479,-0.8176243910513306,-0.009765379696988898,0.5424556507802017,0.1470743752151022,-0.0452925863642544,0.0002822395838707401,2.774457854695621,-3.079102203896758,-2.69818698337565,-0.6483614983094412,0.16744407924653792,0.0041166424088123765,0.5478101481406348,-7.429345110992444,-3.021009381823827,-0.3288268067214717,0.01879880357764136,-0.00026802687947610987
0.73,-0.7202301894677882,2.03032773813191,-0.8738987734383004,0.18819385862610807,-0.04852934417245052,-0.00010755467695324901,-0.7900281032918941,-0.04047313333172982,0.5156076320443675,0.14069091619467625,-0.04364812906682827,0.0002826540460665775,2.8037762834447313,-3.042223894625346,-2.6886484761497274,-0.6452189978057508,0.1675244677167882,0.003876630469814457,0.5460237340006251,-7.378959571189163,-3.003141739898637,-0.3242392079781352,0.01817536269490108,-0.0002839963783540494
0.74,-0.7278516073399516,2.029619611903477,-0.8690102168633881,0.18953722118967872,-0.048949306045601715,-0.0001047317308882636,-0.7621417872163471,-0.07081262284330764,0.48885565749122833,0.134336256357066,-0.041996187315119275,0.00028229460649854105,2.8300994177032823,-3.0026378714565927,-2.6772786363328445,-0.6418374759253069,0.16754521869106398,0.0036393483831628215,0.5437346337076344,-7.329159769649548,-2.9868736640573648,-0.3200836548836148,0.017556160179758667,-0.0002993372103256681
0.75,-0.7351915597254883,2.028612042915613,-0.8643880381410786,0.19081735132199887,-0.04935268212936515,-0.00010191990747648638,-0.7339952385536795,-0.10075689878640906,0.4622178722309525,0.12801301323201567,-0.04033760837634344,0.0002811823411777226,2.853491296636137,-2.9604397248123626,-2.6641284782975982,-0.6382191007317957,0.16751385563247467,0.003405023087220349,0.540997832222607,-7.2799744147116625,-2.972210811552796,-0.31635916647609186,0.016945537235676454,-0.0003140358320101374
0.76,-0.7422477358300874,2.0273092432476254,-0.8600309189642721,0.19203458897597983,-0.049739413879448524,-9.912651097181363e-05,-0.705617610459906,-0.13027996679878093,0.4357119176806445,0.1217237653980964,-0.038673175008337425,0.00027933965046727464,2.874012660263446,-2.9157180720420612,-2.6492400827077147,-0.6343635147451483,0.1674377442539452,0.003173859325294792,0.5378628144955131,-7.23142264311533,-2.9591536905905547,-0.3130640078806873,0.016347350261293223,-0.0003280819738514455
0.77,-0.7490181102946247,2.0257156760711146,-0.8559373687589207,0.19318929974882088,-0.05010944995839783,-9.635860899123496e-05,-0.677037446453728,-0.159356717651084,0.4093550205351377,0.11547107728410415,-0.0370036078949301,0.0002767901980578666,2.891720920992617,-2.868554887660783,-2.632647087579812,-0.6302680531706493,0.16732401156991017,0.0029460453197518444,0.5343738446395259,-7.183514762860438,-2.9476978761273225,-0.3101957212024854,0.015764986567943867,-0.0003414682046994466
0.78,-0.7555009374311731,2.023836047465061,-0.8521057279906988,0.19428187496826424,-0.05046274564489173,-9.36230204448476e-05,-0.6482827136548301,-0.18796286060536707,0.383164076822181,0.10925752194433583,-0.03532956864939025,0.0002735588546387355,2.9066701756440154,-2.819025872185013,-2.614375215008489,-0.6259279637541173,0.1671794670715112,0.0027217583258890565,0.530570259839319,-7.136252951186366,-2.937834221049007,-0.3077511546177162,0.015201381422523707,-0.00035418953964403294
0.79,-0.7616947457903723,2.0216752988603948,-0.8485341706838133,0.19531273198609536,-0.05079926227854437,-9.092630398730363e-05,-0.6193808359199252,-0.21607486046662402,0.3571557306885572,0.10308570178311235,-0.03365166336526438,0.0002696716457543974,2.9189112557050443,-2.7672008565087274,-2.594442830946718,-0.6213366276339798,0.16701052712912734,0.002501169928234237,0.5264867726043144,-7.089631909750339,-2.9295490637009007,-0.3057264899779991,0.014659036042435653,-0.00036624309200304736
0.8,-0.7675983330553161,2.0192386000735807,-0.8452207062079162,0.19628231465819718,-0.05111896674540294,-8.827474695540801e-05,-0.5903587264943806,-0.2436698786813964,0.33134644758970694,0.09695826721018251,-0.031970446685857155,0.00026515570318956294,2.9284918135836695,-2.713144238860096,-2.57286153557873,-0.6164857806450588,0.1668231436258072,0.0022844509613311192,0.5221537761094237,-7.043639479539298,-2.9228244327261916,-0.3041172692114684,0.014140036232978614,-0.0003776277696014034
0.81,-0.7732107612535123,2.016531342885502,-0.8421631803921162,0.19719109399033813,-0.051421831008965344,-8.567435476436625e-05,-0.5612428198196135,-0.2707257188078794,0.30575258158000235,0.09087793321409618,-0.030286426356239928,0.00026003921910417696,2.935456442649355,-2.6569154514401214,-2.5496367819047894,-0.6113657346052435,0.16662273771141756,0.002071775937134812,0.517597648389926,-6.998257218410041,-2.9176382501380282,-0.3029184197752865,0.013646071416992197,-0.0003883440148082469
0.8200000000000001,-0.7785313522750984,2.0135591351189706,-0.8393592760278707,0.19803956892879201,-0.05170783169111635,-8.313084074420417e-05,-0.5320591021586156,-0.2972207766531183,0.28039043642454364,0.08484749384538884,-0.028600068215100513,0.0002543514020162077,2.9398468288431827,-2.5985694538621003,-2.524768520184833,-0.6059655981647296,0.16641413946320682,0.0018633268953541782,0.5128410520722556,-6.953460944426233,-2.9139645335058217,-0.3021242793865617,0.013178453861346875,-0.00039839358721240466
0.8300000000000001,-0.7835596836823403,2.0103277951655283,-0.8368065128251029,0.19882826727484912,-0.051976949706895606,-8.06496164076387e-05,-0.5028331407241905,-0.32313399534420717,0.25527632027678926,0.07886983460571094,-0.026911801577926067,0.00024812243365654766,2.941701931611172,-2.538157250488848,-2.49825186585818,-0.6002734968138537,0.16620153412852368,0.001659296587530723,0.5079032271302695,-6.909221248358081,-2.911773598079639,-0.30172862023285185,0.012738137954599209,-0.0004077793873043438
0.84,-0.78829558479251,2.006843346909813,-0.8345022468882023,0.1995577467022808,-0.05222916995647555,-7.82357821512734e-05,-0.4735901110169724,-0.3484448255715268,0.2304265936900538,0.07294794274316846,-0.025222024957994346,0.00024138342563652962,2.9410581918645042,-2.4757264287057765,-2.4700777884673624,-0.5942767916681371,0.16598841553407517,0.0014598909439543784,0.5028002748603626,-6.86550397883871,-2.911032259608516,-0.30172467283914617,0.01232573943455763,-0.0004165053190876449
0.85,-0.7927391330135426,2.0031120149976864,-0.8324436697806473,0.20022859585686165,-0.05246448107714879,-7.58941184028283e-05,-0.4443548221032555,-0.3731331912126173,0.20585771075549833,0.06708491545808551,-0.023531112067323764,0.00023416637484450912,2.937949764601506,-2.4113217150714896,-2.440233818980322,-0.5879622966161904,0.16577754713238413,0.0012653307723765606,0.49754543187349465,-6.822270703737132,-2.911704038530001,-0.3021051497451873,0.011941554503470979,-0.00042457618915680884
0.86,-0.7968906504094055,1.9991402203925375,-0.8306278072487957,0.20084143551713793,-0.05268287525751147,-7.362907723820481e-05,-0.41515173958629253,-0.3971794605148891,0.18158625318516247,0.061283966027629415,-0.021839418036268123,0.00022650411646234878,2.9324087737382736,-2.3449855461616127,-2.4087047727158044,-0.5813164934021398,0.16557093106990095,0.0010758526679123248,0.49214933341327993,-6.779479151317155,-2.91374936611971,-0.30286226912500863,0.011585578801974,-0.00043199763944511225
0.87,-0.8007507004698975,1.9949345761627,-0.8290515176769319,0.20139691979575927,-0.05288434811538806,-7.144477450304591e-05,-0.3860050060491986,-0.42056442298374436,0.15762895718638179,0.05554842786213314,-0.020147285787659376,0.0002184302735158894,2.9244655865933975,-2.276758650767634,-2.3754734848526056,-0.5743257441595251,0.16536978555833493,0.0008917091201854355,0.4866202657327962,-6.737083634708416,-2.9171257930919974,-0.30398777845941305,0.011257526240781236,-0.00043877611056088997
0.88,-0.8043200850576281,1.9905018834418047,-0.8277114903468923,0.2018957373608678,-0.053068898640382355,-6.934498248397318e-05,-0.3569384587730624,-0.44326927208952016,0.13400273300396104,0.04988175651085316,-0.018455052499429754,0.0002099792019072727,2.914149105359445,-2.2066806399397003,-2.340521555240568,-0.5669765008645209,0.16517453073940835,0.0007131678313547773,0.480964407604793,-6.695035463124478,-2.9217882010365237,-0.30547297835161125,0.010956847711451782,-0.000444918832389585
0.89,-0.8075998415032324,1.9858491275030867,-0.8266042435765012,0.20233861265727068,-0.05323652920126647,-6.733312318442391e-05,-0.3279756445604302,-0.4652755938717897,0.11072467703910976,0.04428752964028872,-0.01676305608841219,0.00020118592995492735,2.901487072775222,-2.1347906011731737,-2.3038300989450846,-0.5592555111016635,0.1649847831320379,0.0005405102676957485,0.4751860613064759,-6.653283343125532,-2.927689016961466,-0.3073087465562564,0.010682749714428456,-0.00045043383843935286
0.9,-0.8105912398184529,1.9809834738882588,-0.8257261228116048,0.20272630710741352,-0.05338724561774247,-6.541226226883306e-05,-0.2991398315220509,-0.4865653614827954,0.08781207648963532,0.03876944501428267,-0.0150716416475993,0.00019208609155908467,2.8865063890917613,-2.0611276928461604,-2.2653804986511012,-0.5511500194740071,0.16479935866473916,0.00037402948755105303,0.4692878736168873,-6.611773773043042,-2.9347784310935427,-0.3094855622726171,0.01043421295412135,-0.0004553300002489144
0.91,-0.8132957799955897,1.9759122645315277,-0.8250732987466607,0.20305962027253185,-0.05352105729543693,-6.358510374647823e-05,-0.27045401771367783,-0.5071209356731071,0.06528240649441316,0.033331316511832756,-0.01338116776944616,0.0001827158522354838,2.8692334373089396,-1.98573173482206,-2.2251551547430495,-0.5426479639048774,0.16461628418736396,0.0002140273030588613,0.46327104749757425,-6.570451433461899,-2.9430046179589886,-0.3119935307335925,0.010210010957223719,-0.00045961707805737626
0.92,-0.8157151893609874,1.970643013819708,-0.824641765548593,0.20333939095479237,-0.05363797742232671,-6.185398547242161e-05,-0.24194093653976995,-0.5269250711819825,0.04315331980676955,0.027977068226051248,-0.01169201268897846,0.000173111827405662,2.8496944135513593,-1.9086437909495695,-2.1831382285686276,-0.5337381660107026,0.16443281727137737,6.081084787856739e-05,0.45713554520112276,-6.529259576394698,-2.9523139606399393,-0.3148224081038206,0.010008728771944652,-0.0004633057838577351
0.93,-0.8178514199497079,1.9651834045301833,-0.8244273392579321,0.20356649822175138,-0.05373802322415035,-6.0220875547410224e-05,-0.2136230588720449,-0.5459609289524731,0.021442629066092456,0.02271072669590183,-0.010004580182363242,0.0001633109925011386,2.827915659360234,-1.8299067390299681,-2.139316374103525,-0.5244105146494853,0.16424547399612344,-8.531136674627682e-05,0.45088028357228493,-6.488140415484,-2.962651277968913,-0.31796162668236505,0.009828781802682766,-0.00046640785292020274
0.9400000000000001,-0.8197066458683364,1.9595412835897108,-0.8244256564400865,0.20374186233506394,-0.053821216275744245,-5.8687369701212246e-05,-0.18552259186285452,-0.564212094047248,0.00016828178456796197,0.017536411331257808,-0.00831930515938987,0.0001533505846197977,2.8039239926050947,-1.7495658236870804,-2.0936794529684257,-0.514656141686392,0.16405006433498137,-0.00022403381163260683,0.44450332227798645,-6.4470355192341735,-2.9739600542923545,-0.3214003203885992,0.00966843482717936,-0.0004689361198804598
0.9500000000000001,-0.8212832606129974,1.953724657598754,-0.8246321731579248,0.20386644556607766,-0.05388758286466225,-5.725468974448421e-05,-0.15766147446609236,-0.5816625990956805,-0.020651671783834483,0.012458323101372041,-0.006636658891800528,0.0001432679956728039,2.777747033673444,-1.667669187476601,-2.0462212275235707,-0.5044675889623482,0.163841734646077,-0.0003550586094687169,0.43800204563038914,-6.405886208906617,-2.9861826713047495,-0.32512735049419755,0.009525821231754057,-0.0004709045955437127
0.96,-0.8225838743101128,1.9477416880681908,-0.82504216433465,0.2039412528817472,-0.053937154402899916,-5.592368317279093e-05,-0.13006136971154098,-0.5982969530563064,-0.04099911767252713,0.007480731566953535,-0.0049571538237666215,0.00013310065716932827,2.7494135235809134,-1.5842683755203615,-1.9969400265890804,-0.49383896540859684,0.16361501668579237,-0.00047810040573581514,0.43137333855672727,-6.364633962313791,-2.999260641329773,-0.3291313315498207,0.009398962485294322,-0.0004723285406603362
0.97,-0.823611310848232,1.9416006863178727,-0.8256507235732078,0.2039673324852131,-0.053969967882058566,-5.469482400283697e-05,-0.10274365381192521,-0.6141001750317959,-0.060855923855777726,0.0026079603465890442,-0.0032813479158651016,0.00012288591699539608,2.718953630664545,-1.4994188089493827,-1.9458393782214327,-0.48276609322602315,0.1633638824721242,-0.0005928913239845457,0.4246137571261305,-6.323220824321292,-3.01313484130691,-0.33340065744248404,0.009285787854740917,-0.000473224533084955
0.98,-0.8243686048703831,1.9353101079896071,-0.8264527634951802,0.2039457761964037,-0.0539860663668554,-5.35682149152712e-05,-0.07572940221511179,-0.629057832826566,-0.08020399219724036,-0.0021556288809385276,-0.0016098484796835922,0.00011266090875657663,2.6863992425814476,-1.4131802225004022,-1.8929286039296997,-0.47124664203795597,0.1630818042413651,-0.0006991858918093952,0.417719693872976,-6.281589824417857,-3.027745746633153,-0.3379235275089434,0.009184154344461869,-0.00047361052493946447
0.99,-0.8248589985978481,1.9288785471307,-0.8274430166582644,0.2038777196591443,-0.05398549952152146,-5.254359077072965e-05,-0.04903937274649406,-0.6431560858907192,-0.09902531630841795,-0.006805653725938246,5.6684533394321104e-05,0.00010246241445415499,2.6517842404364997,-1.3256170617337055,-1.838223368747724,-0.4592802499278843,0.16276181867142547,-0.0007967658161869284,0.41068753796460133,-6.239685401244416,-3.0430336639121864,-0.3426879726220341,0.009091866819763976,-0.0004735058866623255
