tonegas/nnodely-applications/joint_friction_estimation/dataset/train/mpc_mujoco_episode_30 copy.csv
time,q1,q2,q3,q4,q5,q6,dq1,dq2,dq3,dq4,dq5,dq6,ddq1,ddq2,ddq3,ddq4,ddq5,ddq6,tau1,tau2,tau3,tau4,tau5,tau6
0.0,0.0,1.57,-1.57,0.0,0.0,0.0,0.0,0.0,0.0,0.0,0.0,0.0,2.9917810062897243,0.6748970216414901,13.059701121488548,5.313336785492709,0.43526881716095644,-4.707397470937735e-06,0.4173944703829885,-1.730288352887393,-2.4029278102220366,-0.4764806242386257,0.03771975083173599,0.00028241935262727873
0.01,0.0002976187698882489,1.5700718681323746,-1.5686996671534048,0.0004955914270250055,3.673312027992743e-05,6.505423443392777e-07,0.029761876988824886,0.007186813237468856,0.13003328465952582,0.04955914270250055,0.0036733120279927433,6.505423443392777e-05,2.9881250588075523,0.7618952416244871,13.047506805219568,4.971743205999708,0.3684344998042999,0.006487998894026958,0.4196317061977702,-1.7096840921843102,-2.3901822087368756,-0.473142761218434,0.03789719970841696,0.00028464461199168424
0.02,0.0008922656609407947,1.5702244713363116,-1.5661022780625948,0.0014600763857312365,0.0001061305126065699,1.9903484671891183e-06,0.05946468910525458,0.015260320393687011,0.2597389090809892,0.0964484958706231,0.006939739232664248,0.00013398061228498404,2.982599001196694,0.8530988474103629,13.014767353113537,4.702912327287535,0.3275853404939877,0.006811660291615063,0.4227974924117569,-1.701491478689348,-2.3789026893756113,-0.46962124710551256,0.0381266014042187,0.00028491963988334576
0.03,0.0017832563653365449,1.5704670274139185,-1.5622126156623928,0.0028722722415196827,0.00020568650903095428,3.981933771900825e-06,0.08909907043957503,0.024255607760682772,0.3889662400202135,0.14121958557884462,0.009955599642438438,0.00019915853047117074,2.975939229778236,0.9473256350646208,12.966285231581617,4.488564705972273,0.30225212324972084,0.006314980673799653,0.42685331692560413,-1.7061402239113694,-2.369268821225868,-0.4659498827572972,0.03840363873555632,0.00028316681875049053
0.04,0.002969849828002532,1.5708090021995298,-1.557036620415844,0.004715120027240522,0.00033382885013845246,6.5871650956567e-06,0.11865934626659873,0.03419747856113268,0.5175995246548966,0.18428477857208392,0.012814234110749822,0.00026052313237558746,2.9684884502963884,1.0435249093118228,12.90546627302243,4.314690183616818,0.2861291500252303,0.005749788344830087,0.43173141238734436,-1.7240805330083262,-2.3614520472513933,-0.46215536106775723,0.03872144409995831,0.00027929029524797577
0.05,0.004451260324206466,1.571260016289584,-1.5505811503440965,0.006974616444183161,0.0004895376516307789,9.774295877702677e-06,0.14814104962039334,0.04510140900541461,0.6455470071747367,0.2259496416942639,0.015570880149232646,0.00031871307820459773,2.9603394703992545,1.1407423189494843,12.834621357574214,4.170537689829992,0.2754073631792213,0.0051869500863741536,0.4373339594356827,-1.7557682898345823,-2.355612466038449,-0.458256822298274,0.03907061053274739,0.00027317276139304206
0.06,0.006226653365117165,1.5718297586739094,-1.5428538268689678,0.009638992707769798,0.0006721147013801302,1.3516137476618474e-05,0.17753930409106994,0.05697423843252933,0.7727323475128661,0.26643762635866375,0.018257704974935132,0.00037418415989157964,2.951422465198582,1.238093857367563,12.755200279301015,4.0478423887194594,0.2677879948071169,0.004610997062880706,0.44353198922226567,-1.801648758224904,-2.3518955762358384,-0.4542653776387535,0.03943919352592878,0.0002646760344198753
0.07,0.00829513069387137,1.572527905317762,-1.5338629485726063,0.012698081446331904,0.0008810438627289505,1.778794542523289e-05,0.2068477328754204,0.06981466438526604,0.8990878296361577,0.3059088738562105,0.020892916134882034,0.00042718079486144146,2.941558234067953,1.3347467967070685,12.667974021391256,3.9402342442465965,0.2618889479085311,0.004004868677467854,0.4501641563957583,-1.8621386392457273,-2.350428879784397,-0.4501836130880551,0.03981271600313828,0.00025364388836061
0.08,0.010655707595747828,1.5733640412831031,-1.5236174588769023,0.016142826701612576,0.0011159067908460543,2.2565943209337726e-05,0.23605769018764586,0.0836135965341054,1.0245489695704144,0.34447452552806734,0.02348629281171037,0.00047779977841048375,2.9304910991850712,1.4299059703698862,12.573177853836288,3.842786307967657,0.2568859584396197,0.0033585186232554243,0.4570355657782709,-1.937606444773691,-2.3513182832872666,-0.44600508697159535,0.04017418893823191,0.00023990636198592834
0.09,0.013307284536365682,1.5743475853961097,-1.5121269565896653,0.01996490274992138,0.0013763323071172943,2.782637644518309e-05,0.2651576940617853,0.09835441130065385,1.1490502287236901,0.3822076048308804,0.026042551627124017,0.0005260433235845364,2.9179097519063233,1.5228042497165284,12.470624827924627,3.7516706571923635,0.25229537063419905,0.002667423038608785,0.46391685460857174,-2.0283512733956917,-2.3546442827894873,-0.4417138395946104,0.04050416002712362,0.00022328517380599503
0.1,0.016248614437817336,1.5754877167989925,-1.499401740472465,0.024156415682195773,0.0016619663239750499,3.354492548632144e-05,0.2941329901451655,0.11401314028827039,1.2725216117200207,0.41915129322743905,0.028563401685775546,0.0005718549041138344,2.9034611021885075,1.6126963661318137,12.359797054096571,3.6638972077959835,0.24784248661296715,0.0019305319563867052,0.4705437544876793,-2.1345801945437635,-2.360457955237206,-0.43728393866359005,0.04078080279836848,0.00020360007606008603
0.11,0.019478266506865384,1.5767933029913632,-1.485452880625614,0.028709668007398447,0.001972454380488973,3.9696351971028665e-05,0.32296520690480496,0.1305586192370726,1.3948859846851167,0.45532523252026746,0.031048805651392324,0.0006151426484707224,2.886760200087029,1.6988554458034666,12.2399204269301,3.57711627201396,0.2433816251181664,0.0011487374266727635,0.47661737881876703,-2.2563845707613717,-2.3687768155528506,-0.43267908963398216,0.04098005842363775,0.00018067606593502486
0.12,0.022994587320736164,1.5782728291861168,-1.4702923106928398,0.03361697140941005,0.002307431972319471,4.6254297364509265e-05,0.3516320813870779,0.14795261947535396,1.5160569932774228,0.4907303402011605,0.03349775918304979,0.0006557945393480603,2.867398079958374,1.7805717763381532,12.110027094831835,3.489470104569648,0.23884740858983378,0.00032378804144217455,0.4818054985310769,-2.393715776699018,-2.379580632583858,-0.4278523456469264,0.04107584209389436,0.00015435139351205958
0.13,0.02679565977995842,1.5799343289883758,-1.4539329357682977,0.03887049652746941,0.002666519746052579,5.319117985375256e-05,0.3801072459222255,0.16614998022591218,1.6359374924542074,0.5253525118059363,0.035908777373310816,0.0006936882489243291,2.8449486258303276,1.8571534284030402,11.969008866261085,3.399482058105221,0.23422489634513255,-0.0005424990354891968,0.48574507691690005,-2.54636090674471,-2.3928073323233425,-0.42274595727974085,0.04104032498856424,0.00012448628903781358
0.14,0.030879260507570713,1.5817853165609876,-1.4363887515288054,0.04446215150200103,0.0030493217664524872,6.0478153886693684e-05,0.40836007276122915,0.18509875726118027,1.7544184239492264,0.5591654974531619,0.03828020203999079,0.000728697403294113,2.818975087759884,1.9279284237961365,11.815663770961704,3.305974569071303,0.22953108325298643,-0.0014488320427532564,0.48804632904995504,-2.7139192055252424,-2.4083491613738404,-0.4172914097928063,0.04084430143283972,9.097229092762339e-05
0.15,0.03524281628038888,1.583832720570924,-1.4176749705933986,0.050383483228722686,0.003455425751696194,6.80851080017907e-05,0.43635557728181706,0.20474040099363808,1.871378093540672,0.592133172672166,0.040610398524370636,0.0007606954115097009,2.789036585183622,1.9922481823813372,11.648736796158941,3.2080091902432386,0.22480324907730953,-0.002394907611125152,0.48829854831889874,-2.8957801424895613,-2.4260493801940135,-0.4114097153726226,0.04045764871655596,5.374199359860232e-05
0.16,0.03988336010204423,1.5860828203199164,-1.3978081525348935,0.056625596942743425,0.003884404585209844,7.598068388338218e-05,0.4640543821655346,0.2250099748992404,1.9866818058505125,0.6242113714020738,0.04289788335136501,0.0007895575881591489,2.7546947601409357,2.049492000450855,11.466952690582037,3.104843413215427,0.22009143729303915,-0.0033817802325928348,0.48607789983742705,-3.0911044993481243,-2.4457001379136147,-0.4050121184750969,0.039849884331242064,1.2778925496648684e-05
0.17,0.0447974875582179,1.5885411845491941,-1.3768063346290185,0.06317909101118914,0.004335818661617378,8.413230437522222e-05,0.4914127456173671,0.24583642292776098,2.1001817905875186,0.655349406844572,0.04514140764075341,0.0008151620491840051,2.715520104717318,2.099072354830438,11.269120552533176,2.995899015868467,0.2154534186641186,-0.004412160597195847,0.4809572374428217,-3.298798102484494,-2.4670306279719587,-0.39799847989562587,0.03899081468756586,-3.187122995457236e-05
0.18,0.04998131407244998,1.5912126135195577,-1.354689153367917,0.07003400514311357,0.004809218771572336,9.250620070244299e-05,0.518382651423208,0.26714289703636507,2.211718126110147,0.6854914131924428,0.047340010995495785,0.0008373896327220759,2.671099803375754,2.1404409278487373,11.053979480723562,2.880747214447233,0.21095116611200737,-0.005490667827930729,0.47251823445203933,-3.5175273932914566,-2.4897320525943187,-0.3902649260710449,0.03785129619363124,-8.00947456201617e-05
0.19,0.05543043383735251,1.5941010848907304,-1.3314779718374066,0.07717977996035334,0.005304149325563389,0.00010106743371918062,0.5449119764902527,0.28884713711727983,2.3211181530510396,0.7145774817239768,0.04949305539910531,0.0008561233016737641,2.6210434743470037,2.1730943248426526,10.820425998013004,2.7590843462969943,0.20664825271830267,-0.0066240047586880735,0.4603652557918161,-3.7456836371835442,-2.5134303713218955,-0.38169857161811716,0.03640405474584556,-0.00013169743167197828
0.2,0.06113988099294538,1.597209704101263,-1.3071959909874207,0.08460522745143653,0.005820151762611945,0.00010977990183624917,0.5709447155592868,0.31086192105325094,2.4281980849986002,0.7425447491083184,0.05160024370485555,0.000871246811706855,2.5649949671668812,2.1965817062581574,10.566861925182325,2.630738550758508,0.2026078366355062,-0.00782114195508754,0.4441418906429549,-3.9814720342624246,-2.5377825584710023,-0.3722030422321232,0.03462465906344328,-0.0001864102257445845
0.21,0.06710409422598707,1.6005406596731968,-1.2818684082345317,0.09229850898450406,0.00635676804627862,0.00011860633791027375,0.5964213233041682,0.333095557193392,2.532758275288892,0.7693281533067533,0.05366162836666751,0.0008826436074024569,2.50273653161176,2.21053627114788,10.280631033656235,2.4958022577193972,0.1988921899463545,-0.009093353604515908,0.4235623027374888,-4.224208049602576,-2.5639600124598934,-0.3620699293838492,0.03249383875042271,-0.00024408514082372953
0.22,0.07331689511019178,1.6040951813872382,-1.2555236516381147,0.10024706920557035,0.006913544578284577,0.00012750839907983743,0.621280088420471,0.35545217140413454,2.634475659641707,0.7948560221066288,0.055677653200595645,0.0008902061169563691,2.439544195624065,2.216406642416262,9.383783955603967,2.3633843389334466,0.19562153189083098,-0.010452612131071959,0.39919658575468014,-4.539674169548167,-2.6719841422529673,-0.3712435843363206,0.03007279329325745,-0.0003152829528363197
0.23,0.07977201029742033,1.6078734050871302,-1.2282496458178456,0.10843497659149261,0.007490059625725145,0.00013645265725117155,0.645511518722855,0.3778223699892106,2.727400582026916,0.818790738592226,0.05765150474405678,0.000894425817133413,2.3730480120295776,2.211174385408126,8.2987559169748,2.1937882602367367,0.19297940505958877,-0.01182262020470537,0.3708624225204709,-4.863398939937487,-2.803958288747682,-0.3856202764696575,0.02734540888186252,-0.0003909539800150279
0.24,0.08646283771616728,1.6118743142648464,-1.2001529341995159,0.1168423391325864,0.008085925871984288,0.00014540525217488222,0.6690827418746953,0.40009091777162,2.8096711618329646,0.8407362541093795,0.059586624625914214,0.0008952594923710661,2.3019432248766574,2.194262777833357,7.206084584941291,1.9834510432961032,0.19099243700172153,-0.013261134115974293,0.3386316117003263,-5.1674898315508875,-2.9341923003404933,-0.39901301915952203,0.024314769784060046,-0.0004666405055593007
0.25,0.09338231754929048,1.6160957738997597,-1.1713411110466316,0.12544608413977276,0.008700787701515184,0.00015432909106154598,0.6919479833123205,0.42214596349133365,2.8811823152884233,0.8603745007186349,0.06148618295308957,0.0008923838886663767,2.226077587174607,2.166340770534747,6.127339538742239,1.7422895455468925,0.18962505201298718,-0.014809612242878467,0.302828975431116,-5.445729472529717,-3.058657781466122,-0.41056783083487175,0.021004182244620945,-0.0005409614706732352
0.26,0.10052291709162037,1.6205346010818844,-1.141920655292343,0.13422085785353827,0.009334319015051983,0.00016318376141804717,0.714059954232989,0.4438827182124758,2.9420455754288555,0.87747737137655,0.06335313135367986,0.0008854670356501195,2.1453802733102756,2.1281547319574434,5.07526260517931,1.4794860202245168,0.1888274015028788,-0.01648282291450398,0.26390475087648047,-5.693962922224886,-3.1746727521902707,-0.41976642414031884,0.017445070936580966,-0.000612711817080814
0.27,0.10787662373167424,1.6251866388805927,-1.1119956277380665,0.14313981501690493,0.009986220321644911,0.00017192589381106888,0.7353706640053873,0.4652037798708199,2.9925027554276644,0.8918957163366665,0.06519013065929287,0.0008742132393021705,2.0597987001598974,2.0804591879472882,4.065648562017847,1.2029881284602855,0.18853494004613403,-0.018290563399408377,0.22241159035404195,-5.908748430983634,-3.279277958294026,-0.42602287922984594,0.013675181271813337,-0.0006806523893052356
0.28,0.11543493981694117,1.630046832422213,-1.0816660763021937,0.15217532729363428,0.010656214766394173,0.00018050947758680618,0.7558316085266924,0.48601935416202885,3.0329551435872757,0.9035512276729369,0.06699944447492619,0.0008583583775737312,1.969287809855752,2.024021119545141,3.1264093706625666,0.9198869704018726,0.18866682447220917,-0.020242534436511583,0.17897875610946468,-6.08667479113326,-3.367963653671038,-0.4283628344926549,0.009736530713630558,-0.0007433549348395754
0.29,0.12318887835264485,1.635109310959684,-1.0510252613036577,0.16129968903505848,0.011344042838895865,0.00018888597692613308,0.7753938535703672,0.50624785374709,3.0640814998535992,0.91243617414242,0.06878280725016918,0.0008376499339326894,1.8738103623423459,1.9596598559705996,2.3127002853431478,0.6372082076882304,0.1891258761236685,-0.022350736270679294,0.13427464243615,-6.223511431374721,-3.432530987143974,-0.4248836230299192,0.005671952149509409,-0.0007989313875586276
0.3,0.13112895959164347,1.6403674848139906,-1.0201542162637764,0.1704859614411981,0.01204945551898065,0.00019700409156455767,0.794008123899862,0.5258173854306767,3.0871045039881335,0.9186272406139625,0.0705412680084786,0.0008118114638424601,1.7734834370824832,1.8884109702761112,1.549353802436067,0.3635326704585342,0.1898022045350487,-0.02463386574337867,0.08894484170546796,-6.327575580914106,-3.4829517668664645,-0.4181338673720074,0.0015263472707043937,-0.0008483009344333665
0.31,0.13924522277635973,1.6458141093206082,-0.989129032193088,0.17970822734610636,0.012772208263147048,0.00020481102401376017,0.8116263184716263,0.5446624506617606,3.1025184070688425,0.9222265904908259,0.07227527441663972,0.0007806932449202495,1.6681977531384262,1.8107986411047936,1.01642543170772,0.10101049598373368,0.19058298842134835,-0.0270883998288024,0.04369424321986626,-6.386578757500612,-3.4940929249455306,-0.402032600046198,-0.002660140326292793,-0.0008872145395526826
0.32,0.1475272160145856,1.651441402395275,-0.9580032332771469,0.18894271303669158,0.013512050753008013,0.00021225061513076296,0.8281993238225883,0.5627293074666745,3.112579891594119,0.9234485690585206,0.07398424898609651,0.0007439591117002804,1.5580650056683991,1.7280811209127027,0.5348256799676614,-0.13901899449712962,0.19133491905146016,-0.029758253420072586,-0.0010041953391309866,-6.4187174844577495,-3.490371096731294,-0.38259056181160556,-0.0068529002739818115,-0.0009190901201725928
0.33,0.15596400745528283,1.6572410884211939,-0.9268252100624428,0.19816771168599873,0.014268720454130702,0.00021926576191749446,0.8436791440697219,0.579968602591885,3.1178023214704083,0.9224998649307156,0.07566697011226894,0.0007015146786731503,1.4430532200085062,1.640623919376107,0.28218843139760863,-0.3575626907187599,0.1919428409427475,-0.0326294368289432,-0.044527645915663716,-6.41433404454502,-3.4473216349719524,-0.3538773120581549,-0.011018568480002888,-0.0009399634725127138
0.34,0.16454418309069258,1.6632044970545032,-0.8956208391959573,0.2073644205966268,0.015041931499190449,0.00022579642232442855,0.8580175635409749,0.596340863330938,3.120437086648558,0.9196708910628071,0.0773211045059747,0.0006530660406934094,1.3231331345290214,1.5493809143581012,0.14851438973349196,-0.5464559705525914,0.1922691226653921,-0.035752328577461245,-0.08655957055752306,-6.386076281242618,-3.3799776882076267,-0.3195452503528119,-0.015137147901287944,-0.0009521087504382399
0.35000000000000003,0.1732558443323955,1.6693226067208464,-0.8644041878938232,0.2165169943925135,0.015831366415390465,0.00023178096148491592,0.8711661241702927,0.6118109666343178,3.1216651302134055,0.9152573795886715,0.07894349162000168,0.0005984539160487359,1.198274135864526,1.454779120004971,0.07410267771273249,-0.7052215521108114,0.19219365374259922,-0.039137278649584356,-0.1267365074390822,-6.340613647481387,-3.2967498175119156,-0.28166849608197636,-0.019184034366860638,-0.0009567514696378462
0.36,0.18208660572194463,1.6755860627079058,-0.8331833504565235,0.22561226939099122,0.016636668346803704,0.00023715689430840265,0.8830761389549142,0.6263455987059362,3.1220837437299775,0.9095274998477696,0.08053019314132406,0.000537593282348672,1.0684415561424254,1.3570025766907254,0.029701811969331304,-0.8365994697339285,0.1915899557615801,-0.04279690652767845,-0.1646757034137014,-6.281320001967404,-3.2019894424480047,-0.24135307013679463,-0.023131805709862407,-0.0009544882712967726
0.37,0.19102359243847394,1.6819851858598385,-0.8019633269741744,0.23463939765511546,0.01745743236596808,0.00024186094204730493,0.8936986716529317,0.639912315193273,3.1220023482349095,0.9027128264124246,0.08207640191643775,0.0004704047738902294,0.9335927231437446,1.256145128874824,0.0007667681388173753,-0.9442046297062742,0.19031105625080524,-0.04674880300899914,-0.2000014999207562,-6.210020842528614,-3.098069596731305,-0.1992333638206435,-0.026951764525643514,-0.0009456280156309423
0.38,0.20005343717517848,1.6885099788596114,-0.7707474687454304,0.24358948950672696,0.01829319514253132,0.00024582874021935225,0.9029844736704529,0.6524792999772959,3.1215858228743985,0.8950091851611487,0.08357627765632387,0.0003967798172047332,0.7936753398157472,1.1522788786031442,-0.019865436597636066,-1.0315544456598726,0.1881813016488887,-0.05101287328243129,-0.23236225291980867,-6.12779738533038,-2.986356603360668,-0.15570297795612303,-0.03061490516211407,-0.0009303539499314529
0.39,0.20916227622396644,1.6951501332114414,-0.7395382007169389,0.25245530179387266,0.019143422521754983,0.000248994411173608,0.9108839048787944,0.6640154351829907,3.120926802849159,0.8865812287145689,0.08502273792236648,0.00031656709542557604,0.6486274019621422,1.0454848844294569,-0.035902524634537136,-1.101702861323619,0.1849904770612043,-0.05560929878665649,-0.2614422691408653,-6.035386136533892,-2.867736055857516,-0.11103939983989933,-0.03409256980752714,-0.0009088125712720611
0.4,0.21833574477855466,1.701895038172128,-0.7083374029568507,0.26123098023084834,0.02000749467686532,0.000251290115931063,0.9173468554588224,0.6744904960686737,3.1200797760088257,0.8775678436975677,0.08640721551103384,0.00022957047574550247,0.49836918020493437,0.9358590953353861,-0.04935615709715746,-1.157172725454297,0.180488569551426,-0.060557015404591685,-0.28697090896623173,-5.933360247614439,-2.742851443855577,-0.06546023126906711,-0.03735698657206664,-0.0008811545080918098
0.41000000000000003,0.22755897069748313,1.708733791490194,-0.6771466229436232,0.26991185210380175,0.020884688479273602,0.00025264564105914047,0.9223225918928472,0.6838753318066142,3.119078001322751,0.8680871872953427,0.08771938024082811,0.0001355525128077462,0.34280768730699657,0.8235190476628279,-0.06362705898486631,-1.1999771381432385,0.17437996310538217,-0.06587241883637096,-0.3087287865225026,-5.822275927844563,-2.6125269470756987,-0.0192249047630631,-0.04038143532914294,-0.0008476020720965453
0.42,0.23681656720417552,1.715655211755278,-0.6459674213405032,0.27849425311088133,0.021774156797517305,0.0002529880830566097,0.92575965066924,0.6921420265083692,3.1179201603119924,0.8582401007079573,0.0889468318243702,3.424419974692212e-05,0.1818517082386386,0.7086092069650456,-0.09868383048687573,-1.2317666219965941,0.16631748522044976,-0.07156712902429005,-0.32655186898144384,-5.702990123917087,-2.479849321328901,0.02685902968032093,-0.04313887576598026,-0.0008087687290397451
0.43,0.2460926259970327,1.7226478495600643,-0.6148033419051764,0.2869753081750662,0.02267490496744834,0.0002522418627400174,0.9276058792857174,0.6992637804786348,3.116407943532689,0.8481055064184911,0.09007481699310343,-7.462203165923173e-05,0.015398430699464276,0.5912555576604557,-0.14598114261951406,-1.2546631185331953,0.15589808686668033,-0.07763963092743979,-0.3402997611406015,-5.575353069562383,-2.344036021199342,0.07291013641032046,-0.045602625671839925,-0.000764689107935129
0.44,0.2553707097025075,1.7297000046784912,-0.5836590860050602,0.29535280581607193,0.023585762416076544,0.0002503284891080741,0.9278083705474848,0.7052155118426744,3.114425590011619,0.8377497641005732,0.0910857448628204,-0.00019133736319433032,-0.1566788149884676,0.4716301202669933,-0.184185927611886,-1.2698955565190926,0.14264680037253913,-0.0840842768625584,-0.34990556598173733,-5.439279884655504,-2.202538475174911,0.11948335407290209,-0.047750798030177496,-0.0007151857604769935
0.45,0.26463384249556243,1.7367997493371117,-0.5525384258976429,0.30362519811105126,0.024505348704810605,0.00024716629073682627,0.9263132793054882,0.7099744658620532,3.112066010741735,0.8272392294979314,0.09195862887340615,-0.0003162198371247808,-0.3345095842161232,0.34997237567753314,-0.218005887478199,-1.2774389673377888,0.126010753152778,-0.09089105864737948,-0.35540571760348105,-5.295514159125593,-2.0563176487965102,0.16630601684938762,-0.04956587290616771,-0.0006607068885897037
0.46,0.27386450089270964,1.7439349512865476,-0.5214446676388149,0.3117915838117658,0.025432035343279043,0.00024267071781379197,0.9230658397147204,0.7135201949435891,3.109375825882798,0.8166385700714519,0.09266866384684361,-0.0004495572923034298,-0.5181593866039332,0.22656394438200061,-0.28190506558538975,-1.277355409815812,0.1053645868492723,-0.09803091547973915,-0.35689906692711043,-5.144937808686917,-1.9103887908277069,0.21212902093377894,-0.05102916497644731,-0.0006023788750751506
0.47000000000000003,0.2830446113983483,1.751093296753278,-0.4903840379261508,0.31985155820968686,0.026363904463163567,0.00023675536051476223,0.9180110505638668,0.7158345466730296,3.1060629712664096,0.8059974397921063,0.09318691198845258,-0.0005915357299029737,-0.7077189359010377,0.10161725417271696,-0.3505003882739976,-1.2711770438166785,0.08001505582782986,-0.10543945721066011,-0.3544850305814786,-4.987450101124455,-1.761697173905168,0.25762344840212126,-0.05212450605792144,-0.0005400587856828063
0.48,0.29215554690416845,1.7582623186013582,-0.45936319949842536,0.32780520262052854,0.027298699981138992,0.0002293325442158037,0.9110935505820155,0.7169021848080315,3.102083842772544,0.7953644410841685,0.09347955179754253,-0.0007422816298958538,-0.884983014873231,-0.011107569610467643,-1.9841574840907625,-1.2342377518174716,0.04902336471730817,-0.11303967305908445,-0.3478511677119707,-4.824241531556671,-1.821426294821678,0.25203502846439413,-0.05257390917138067,-0.0005092987693375293
0.49,0.30117990629625246,1.7654305686374663,-0.4285424920466879,0.3356486329264762,0.028233911246050816,0.00022033462385610052,0.9024359392084035,0.7168250036108028,3.0820707451737497,0.7843430305947637,0.09352112649118241,-0.0008997920359703171,-1.033479747520278,-0.10066474565047526,-5.926368869865438,-1.213273561225483,0.012598272904044139,-0.11989671321417716,-0.33508227290054277,-4.62954512425035,-2.1930922256948415,0.16920178204806652,-0.05192583750787615,-0.0005272777241226126
0.5,0.3101031219082645,1.7725887644106957,-0.3983092840568677,0.34336735944968333,0.02916689125010668,0.00020972871117295758,0.8923215612012055,0.7158195773229411,3.0233207989820126,0.771872652320714,0.09329800040558645,-0.0010605912683142931,-1.1837633858352417,-0.19005738746264136,-8.91805537981964,-1.3386509630761907,-0.02806434991959761,-0.124548724006114,-0.31512710193198673,-4.391674802020388,-2.4424096452098274,0.11105146715998931,-0.050316545470567284,-0.0005207198008098444
0.51,0.3189104911249896,1.7797279543052393,-0.36895820581092437,0.35093901646528164,0.030094645601979643,0.0001974865340570862,0.8807369216725102,0.713918989454374,2.9351078245943363,0.7571657015598336,0.09277543518729647,-0.0012242177115871374,-1.333659766253366,-0.27472605288077523,-11.133190361555945,-1.542009337296335,-0.07474083296562184,-0.1270712634575154,-0.2903863819285931,-4.132426862097796,-2.592062471299693,0.07299791493370311,-0.04793391120588416,-0.0004957136246975411
0.52,0.32758738809829824,1.7868398569784065,-0.34070789920025335,0.3583380890005592,0.031013726928009733,0.00018359146401420462,0.8676896973308618,0.711190267316717,2.825030661067099,0.7399072535277532,0.09190813260300904,-0.0013895070042881576,-1.480803274061782,-0.35167004990752276,-12.714781277028626,-1.7776777176154255,-0.12774572589263622,-0.12721739926154285,-0.26288825177796943,-3.8683286412805344,-2.661112019275609,0.05127783074571651,-0.04495527046728663,-0.0004573352529749422
0.53,0.33611949677212216,1.7939170747929851,-0.31371484853381215,0.36553897413350755,0.031920227937880276,0.00016804898833155295,0.8532108673823929,0.7077217814578596,2.699305066644118,0.720088513294837,0.09065010098705399,-0.0015542475682651662,-1.6226493999257783,-0.4191207593854006,-13.78093534136628,-2.016109136209259,-0.18626322346426227,-0.12479316196839607,-0.23427515938081203,-3.6112352836044295,-2.665573914542577,0.04277892579558995,-0.04154425046347513,-0.0004097589471851501
0.54,0.3444930622231922,1.8009532077437518,-0.28808485107725296,0.37251786981339835,0.03280985220515881,0.00015089507581939645,0.8373565451070022,0.7036132950766724,2.5629997456559184,0.6978895679890816,0.08896242672785291,-0.0017153912512156491,-1.756546490344951,-0.4762642921024373,-14.429599170032139,-2.239026643205314,-0.24860912383555833,-0.11974178333700858,-0.20581757543854612,-3.369102490286928,-2.6188884810052047,0.044911800777127586,-0.03784819140123366,-0.0003563602745494227
0.55,0.352695151715626,1.8079428905753188,-0.26388256546968547,0.3792538541835739,0.03367804561208988,0.0001322013248003199,0.8202089492433811,0.6989682831567021,2.4202285607567493,0.6735984370175506,0.08681934069310784,-0.0018693751019076565,-1.8798548798782755,-0.5230061658004316,-14.74225882135663,-2.435884679575267,-0.3124757033698924,-0.1121689435765062,-0.17844702600629977,-3.1467863995599643,-2.5323084896997257,0.05551315479191904,-0.03399639811061229,-0.0002998147945681264
0.56,0.36071391249184503,1.8148817725402175,-0.241139481600023,0.3857294187517718,0.03452017160347788,0.00011207662716460838,0.8018760776219043,0.6938881964898866,2.2743083869662484,0.6475564568197938,0.08421259913880019,-0.002012469763571151,-1.9900961967534128,-0.55977225188746,-14.786843156669486,-2.601329287837352,-0.3751855900090608,-0.10234258807793883,-0.15280082737943224,-2.9467856520876756,-2.41522318621907,0.07277139930231458,-0.03009926376743629,-0.0002421930498620414
0.5700000000000001,0.3685388107481779,1.8217664563879075,-0.21986058305846928,0.39193064327596217,0.035331711955445995,9.066542863151765e-05,0.7824898256332862,0.6884683847689912,2.1278898541553706,0.6201224524190383,0.08115403519681158,-0.0021411198533090718,-2.085111517856131,-0.5873420420478958,-14.620021519606537,-2.7334065312991527,-0.43395720355411527,-0.09067236822846658,-0.12927193488020258,-2.7698835415904015,-2.2754323388453326,0.09516845761597048,-0.02624819841622631,-0.00018505124367552023
0.58,0.3761608358901979,1.8285944105550824,-0.20002991813562604,0.39784714384262587,0.03610847342417316,6.814296455582834e-05,0.7622025142019995,0.6827954167175027,1.9830664922843242,0.5916500566663707,0.07767614687271607,-0.002252246407568931,-2.1632055881708316,-0.6067115282448486,-14.289042309690986,-2.8323224309134645,-0.48616699053792156,-0.07767216836988339,-0.10805884357568198,-2.615675772973036,-2.1193802001667272,0.12143340133453445,-0.022516243811096827,-0.00012951647516322668
0.59,0.38357265612386054,1.835363866057517,-0.18161525344771143,0.40347188418471736,0.03684678067123233,4.4708125603009214e-05,0.7411820233662684,0.6769455502434518,1.84146646879146,0.5624740342091491,0.07383072470591735,-0.0023434838952819128,-2.223256551333054,-0.6189835180429444,-13.8332232242825,-2.8996019043125187,-0.5295841118107968,-0.06391147846408862,-0.0892120626689475,-2.4829860757239377,-1.9523565758675714,0.15050486018217207,-0.018959237704925178,-7.636533576012143e-05
0.6,0.3907687153934104,1.842073707244039,-0.16457195235401817,0.40880091044732414,0.03754363794387618,2.0574811592652692e-05,0.7196059269549846,0.6709841186522035,1.7043301093693244,0.5329026262606759,0.06968572726438542,-0.002413331401035652,-2.2647765222021716,-0.6252831725960643,-13.285175752484925,-2.9375303189036046,-0.5625520827515375,-0.04996318743436179,-0.07267508116261426,-2.3701810600588487,-1.7786703320488157,0.18150003297046452,-0.01561738850069419,-2.6094827352414333e-05
0.61,0.3977452669320492,1.848723363392485,-0.14884619584220005,0.4138330486032178,0.03819684613691781,-4.037278853950793e-06,0.6976551538638811,0.6649656148446089,1.5725756511818123,0.5032138155893628,0.06532081930416261,-0.0024612090446603486,-2.287916692900233,-0.6266962162083557,-12.671824737483627,-2.94879059752418,-0.5840981952740875,-0.03635558672804201,-0.05831884929551706,-2.275399771333259,-1.6017993991146542,0.21368875205290028,-0.012517126157600011,2.1015156923199195e-05
0.62,0.4045003443371324,1.8553127061556915,-0.1343776445223835,0.4185695893074727,0.0388050675073175,-2.891151788779244e-05,0.6755077405083203,0.6589342763206416,1.4468551319816547,0.47365407042549135,0.06082213703996882,-0.0024874239033841647,-2.2934195956614523,-0.6242268699247011,-12.015267371011506,-2.9362322785533763,-0.5939628073281487,-0.02353489688383753,-0.0459696063882638,-2.1967142592569635,-1.4245204639243758,0.24647149399392237,-0.009673103983921932,6.484819522674937e-05
0.63,0.4110336762106466,1.8618419561512733,-0.12110162531526439,0.42301397536544055,0.03936783651222646,-5.384213225498497e-05,0.6533331873514254,0.65292499955818,1.3276019207119094,0.44443860579678535,0.0562769004908958,-0.0024930614367192527,-2.2825286780747227,-0.6187722800544706,-11.33350383783758,-2.9027273152469384,-0.5925532563045802,-0.011841984629954928,-0.03543042495771392,-2.132236471127767,-1.2490209506659842,0.2793605400264011,-0.007090238048007738,0.00010540656037602878
0.64,0.4173465543129405,1.8683116005642744,-0.10895091425877168,0.42717150076517124,0.03988552097602287,-7.864039364019282e-05,0.631287810229386,0.6469644413001049,1.215071105649271,0.4157525399730663,0.05176844637964094,-0.0024798261385207848,-2.2568700679649303,-0.6111101311898982,-10.641063082961136,-2.8510814288823703,-0.5808378596605898,-0.001503947964202005,-0.026497163931929198,-2.0801848250304964,-1.0769954804631152,0.31196370856430516,-0.004765686820757944,0.00014277493994259064
0.65,0.42344166748295486,1.874722322506236,-0.09785717681777834,0.4310490263218167,0.04035924223335077,-0.00010313897081841261,0.6095113170014389,0.6410721941961637,1.109373744099334,0.38775255566454336,0.047372125732790274,-0.002449857717821979,-2.2183228108143807,-0.6018962631088539,-9.949541032460276,-2.7839802172856523,-0.5602019324658822,0.007361302718561294,-0.018969682177353887,-2.038921522674638,-0.909728704599672,0.3439702348101172,-0.0026906931678337513,0.00017709195896562033
0.66,0.42932291424579666,1.881074942035399,-0.0877521186213876,0.434654714606621,0.04079076557698071,-0.00012719444000407678,0.5881246762841793,0.6352619529163087,1.0105058196390733,0.3605688284804268,0.04315233436299433,-0.0024055469185664167,-2.1688923320114726,-0.5916694141502159,-9.26806437461918,-2.70395665253222,-0.5322892556999862,0.01473095202192587,-0.012659203251355606,-2.0069693894611325,-0.7481661817097244,0.37513847842756537,-0.0008522327349662884,0.0002085285692821521
0.67,0.43499520629964894,1.8873703681611933,-0.07856839230314637,0.4379977854242625,0.041182373196445445,-0.0001506881358992714,0.5672292053852285,0.6295426125794453,0.9183726318241225,0.3343070817641499,0.03916076194647288,-0.0023493695895194615,-2.110598373995685,-0.5808606298891242,-8.603690132405092,-2.6133717205720757,-0.4988496601796319,0.020657714044543557,-0.007392681669149235,-1.9830149821145349,-0.5929747856174646,0.40528521351908153,0.0007655648588293538,0.00023727223523944559
0.68,0.4404642733522651,1.8936095607920116,-0.07024029983047657,0.441088292275941,0.04153673108974093,-0.0001735256426514615,0.5469067052616189,0.623919263081821,0.8328092472669797,0.3090506851678497,0.03543578932954854,-0.002283750675219013,-2.045384328406503,-0.5698053403274347,-7.961749518572025,-2.5144033266429737,-0.4616078973419254,0.02524851093709765,-0.003014931025880888,-1.9659029645085122,-0.44459399999006255,0.4342762990614468,0.002180234972188194,0.0002635158125945656
0.6900000000000001,0.4457364775102682,1.8997935013948113,-0.06270432423101358,0.4439369197519983,0.04185675962480883,-0.00019563527341954015,0.5272204158003033,0.6183940602799797,0.7535975599462987,0.2848627476057288,0.03200285350678996,-0.002210963076807865,-1.975050730433731,-0.5587565780511242,-7.346142587327855,-2.409040723315311,-0.42216250105163755,0.028644254499204408,0.0006108410055468783,-1.954625365540504,-0.30327923062114226,0.46201858212535163,0.0034100326370557887,0.0002874500925852921
0.7000000000000001,0.45081864301092317,1.905923171074681,-0.055899519774578355,0.44655480148499893,0.04214551503277649,-0.000216965882705574,0.5082165500654965,0.6129669679869517,0.6804804456435221,0.2617881733000634,0.028875540796766068,-0.0021330609286033865,-1.9012123185399281,-0.5478982228338741,-6.759590600928369,-2.299082918488498,-0.3819173532214019,0.031002543767517265,0.003603567680658567,-1.948308204482616,-0.16913831541309576,0.48845286889649964,0.004473205984283049,0.00030925907188966023
0.71,0.4557179048274522,1.9119995348149639,-0.04976778549776449,0.44895335807364506,0.04240608658807377,-0.00023748431487405962,0.4899261816529038,0.6076363740283016,0.6131734276813862,0.23985565886461474,0.026057155529728336,-0.002051843216848562,-1.8252758270332121,-0.5373575327518553,-6.203850623171203,-2.1861402572596536,-0.3420440366089612,0.032484122008725136,0.006065522697643631,-1.9461971861816085,-0.04216207207674827,0.5135478670861747,0.0053874629170187465,0.00032911720111854193
0.72,0.4604415777588098,1.9180235307098508,-0.04425404323134333,0.45114415421584103,0.042641511910544196,-0.0002571727327849698,0.47236729313575443,0.6023995894886902,0.5513742266421158,0.21907961421959637,0.023542532247042152,-0.001968841791091019,-1.7484344754945247,-0.5272165049231067,-5.6798976688067055,-2.0716386355514924,-0.30347012142567603,0.03324318830754697,0.008083882245758152,-1.9476435281968896,0.07775020343164496,0.5372949740698086,0.00616960166128698,0.00034718799059054
0.73,0.4649970461173838,1.923996063147159,-0.03930633809074869,0.45313877414598364,0.04285471091521815,-0.0002760260061564482,0.4555468358574025,0.5972532437308368,0.49477051405946443,0.19946199301426126,0.02131990046739553,-0.0018853273371478392,-1.6716748255662504,-0.5175218484001473,-5.188077473781386,-1.9568259857940422,-0.2668871752110795,0.033421176080058734,0.009732435504302781,-1.952090597536099,0.19076970720520114,0.5597038492543791,0.006835274788179387,0.00036362354180130986
0.74,0.46939167305598756,1.9299179990381201,-0.03487587649466099,0.4549487143530221,0.04304843751914073,-0.0002940492795634104,0.4394626938603774,0.5921935890961114,0.4430461596087697,0.18099402070384488,0.019372660392258434,-0.0018023273406962178,-1.5957918589175426,-0.5082934475776235,-4.728239121389955,-1.8427805266994248,-0.23277216637863657,0.03314336531638046,0.011073298305080755,-1.9590615569126804,0.29712020870789047,0.5807985164345327,0.007398859162473506,0.00037856454238883574
0.75,0.47363272789356387,1.935790166338389,-0.030917014791818288,0.45658529245274543,0.04322524728435021,-0.0003112557899176906,0.4241054837576287,0.5872167300268946,0.3958861702842706,0.1636578099723352,0.01768097652094789,-0.0017206510354280178,-1.521408998122726,-0.49953146306039226,-4.299838849318549,-1.730420810108578,-0.20141660178957008,0.03251763064732771,0.012158542034850508,-1.9681484952886341,0.3970642613356552,0.6006142812820359,0.00787340428480364,0.0003921407782941991
0.76,0.47772732941431095,1.9416133542302834,-0.027387208741721413,0.4580595710205699,0.043387478667235246,-0.0003276649648246264,0.40946015207470743,0.5823187891894479,0.35298060500968736,0.14742785678244713,0.01622313828850365,-0.001640917490693585,-1.4490001781765705,-0.49122206342997365,-3.902032949795553,-1.62051660337929,-0.17295886293862375,0.03163467041886514,0.013031681856755288,-1.9790026649234431,0.4908911103387459,0.6191949406287117,0.00827063966724639,0.0004044716572965168
0.77,0.48168240298653486,1.947388314465474,-0.024246933020925468,0.45938229514467654,0.0435372453679675,-0.0003433008057074612,0.39550735722239366,0.5774960235190736,0.3140275720795947,0.1322724124106652,0.014976670073225225,-0.001563584088283479,-1.3789121109638571,-0.4833419762650719,-3.533751179808122,-1.513700670136993,-0.1474163865169856,0.03056917336822257,0.013729005389883083,-1.991326064379375,0.5789073432331973,0.6365905560256908,0.008601021863529927,0.0004156669041634931
0.78,0.48550464937691384,1.9531157634737646,-0.021459578010824598,0.46056384244423726,0.043676437334536265,-0.0003581905417134269,0.38222463903789683,0.5727449008290649,0.2787355010100871,0.11815472995606928,0.013919196656876315,-0.0014889736005965725,-1.3113856095980048,-0.47586215451481595,-3.1937617606710007,-1.4104811442931329,-0.12471548230772186,0.02938149899252418,0.014280726597973878,-2.00486405359275,0.6614287729611471,0.6528554635173285,0.008873808556177134,0.00042582718856704077
0.79,0.48920052325606167,1.9587963849233865,-0.018991330296718803,0.46161418427081713,0.043806728189573,-0.0003723635298776382,0.36958738791478407,0.5680621449621935,0.2468247714105795,0.10503418265798634,0.01302908550367317,-0.0014172988164211282,-1.2465747041414204,-0.4687503462334205,-2.880717102932573,-1.3112537000084332,-0.10471751883391273,0.028119570089225,0.014711990669413425,-2.019399188155077,0.7387749455011865,0.6680468659671436,0.009097146672053155,0.0004350448897545398
0.8,0.49277621961952944,1.9644308325158428,-0.016811041411682538,0.46254285689492164,0.04392958714362956,-0.0003858503722396907,0.3575696363467801,0.5634447592456396,0.21802888850362664,0.09286726241044874,0.012285895405656218,-0.0013486842362052502,-1.1845637950990642,-0.46197319652719193,-2.593198597942444,-1.2163137843608176,-0.08724093196089006,0.02682077155675433,0.015043716979436442,-2.034745758069097,0.8112638265448139,0.682223448016906,0.00927816933455022,0.00044340467139414443
0.81,0.49623766654247137,1.970019732839423,-0.014890089267414041,0.4633589414749319,0.04404629378635174,-0.0003986822192221418,0.3461446922941897,0.5588900323580304,0.19209521442684963,0.08160845800102651,0.011670664272218112,-0.0012831846982451099,-1.1253822951745034,-0.45549766912259365,-2.3297494124822316,-1.1258684087048305,-0.07207900815652005,0.025513735615364685,0.01529331484585933,-2.0507452094064913,0.8792080937384544,0.6954443581302562,0.009423094054675611,0.00045098409414439516
0.8200000000000001,0.4995905229264852,1.9755636881648841,-0.013202235533601989,0.4640710516859931,0.044157954469607665,-0.0004108902298022578,0.33528563840138415,0.5543955325460963,0.16878537338120514,0.0712110211061223,0.011166068325592386,-0.0012208010580116,-1.0690169951360893,-0.4492920336502378,-2.0889025843883386,-1.0400473805603774,-0.059013726705138436,0.024219944178138275,0.015475281184112562,-2.0672621935738227,0.9429120599180257,0.707768337438225,0.009537319138837137,0.0004578541449545675
0.8300000000000001,0.5028401801105628,1.9810632791046583,-0.01172348176398953,0.46468732795055573,0.04426551929315448,-0.0004225051614817171,0.3249657184077578,0.5499590939774053,0.14787537696124575,0.06162762645626481,0.010756482354681534,-0.0011614931679459302,-1.0154223112356278,-0.44332649423153175,-1.8692038958553923,-0.958913889964708,-0.047826119075193824,0.022955122324752386,0.01560169823053495,-2.0841811861986392,1.0026692792183467,0.7192530121771952,0.00962551556621879,0.000464079716748652
0.84,0.5059917664142919,1.9865190670877741,-0.01043192655223739,0.46521543728617315,0.0443697989619787,-0.00043355706618540427,0.3151586303729191,0.5455787983115822,0.12915552117521398,0.052810933561739465,0.010427966882421633,-0.0011051904703687184,-0.9645285642592664,-0.43757348189999234,-1.6692385404189292,-0.8824742579592151,-0.038303682862606714,0.021730420812654083,0.01568264506772021,-2.101403364148337,1.0587596393956937,0.7299540752722151,0.009691714498015022,0.0004697198516136169
0.85,0.5090501538624753,1.9919315966348548,-0.009307626371395766,0.4656625778433027,0.044471481001526,-0.0004440750714191141,0.3058387448183445,0.541252954708067,0.11243001808416245,0.044714055712958334,0.010168203954730509,-0.0010518005233709842,-0.9162465609639556,-0.43200627283117304,-1.4878444128651052,-0.810684478169613,-0.030245413669299198,0.020553402173600244,0.015726506675947133,-2.1188385729758425,1.1114218721998999,0.7399187774730787,0.009739428385541947,0.0004748234974471039
0.86,0.5120199666870174,1.99730139764425,-0.008332481089768931,0.4660354867878252,0.04457114500884727,-0.00045408722684943907,0.29698128245421035,0.5369801009395124,0.0975145281626834,0.037290894452244046,0.009966400732127042,-0.0010012155430324991,-0.8703713391729357,-0.4265277972494971,-1.3335120392996547,-0.7433309643480221,-0.023466323584002385,0.019428889140549355,0.015738699967741486,-2.1361404655370317,1.1596177242970453,0.7488992711882658,0.009773711884635898,0.00047921066822118497
0.87,0.5149056008555852,2.002628997914537,-0.007491067985452686,0.46634042686877636,0.04466927755663328,-0.00046362028446200775,0.28856341685677717,0.5327600270286892,0.08414131043162448,0.030494008095117438,0.009813254778601276,-0.000953305761256869,-0.8255376421548216,-0.4202112678754375,-1.316820556388416,-0.6790092811517203,-0.017803129797878098,0.018361351577703577,0.015709810169312003,-2.1501098765199465,1.1888565150603911,0.7535292104875895,0.009821294018498888,0.0004803083189851807
0.88,0.5177113548317994,2.0079150523187708,-0.006781509410255202,0.46658289643524364,0.04476629539023923,-0.00047269824933244024,0.2805753976214205,0.5286054404234074,0.07095585751974845,0.02424695664672882,0.009701783360594896,-0.0009077964870432495,-0.7824661823714149,-0.41318660967863524,-1.3280741251983352,-0.6233947158483,-0.012917310831906087,0.0173716407363384,0.015692139610908182,-2.163673018445526,1.2133061142353176,0.7570730053597703,0.0098683654691314,0.00048062443462132046
0.89,0.5204413606481088,2.0131602906551063,-0.0062047079048842,0.46676755563610606,0.04486255852943201,-0.0004813439700379557,0.2730005816309359,0.5245238336335593,0.057680150537100204,0.018465920086240383,0.009626313919277917,-0.0008645720705515444,-0.7413635906877798,-0.4056419985925675,-1.3283630031790838,-0.5765968324065742,-0.008665338103599873,0.016442349949888246,0.015700159033539995,-2.1778995606848373,1.2380741446905001,0.760714353413928,0.009909078797729958,0.00048106536503951384
0.9,0.5230995639890972,2.0183654859361897,-0.0057605207753171125,0.4668983609335594,0.04495837714435302,-0.0004895798717183101,0.265820334098847,0.5205195281083632,0.04441871295670875,0.01308052974533502,0.009581861492101147,-0.0008235901680354435,-0.7020299728571586,-0.3976179533137999,-1.3278138507685984,-0.5367332126726048,-0.004981435978208881,0.01556260489214406,0.015730865012004727,-2.1925193174715463,1.2619083014943935,0.7641680149269706,0.009945652576232452,0.00048141285066418245
0.91,0.5256897431709222,2.0235314546685013,-0.005448748813840635,0.4669786865941278,0.04505401792460685,-0.0004974277958164676,0.2590179181825077,0.5165968732311704,0.03117719614764771,0.008032566056839201,0.009564078025383102,-0.0007847924098157414,-0.6643293506563106,-0.3891491374468342,-1.3286739762417152,-0.5026610947023116,-0.001794024369436903,0.014731177941537582,0.015784812106374495,-2.2074719816466866,1.2845610087714319,0.7673796202856873,0.009979152946320515,0.00048162567891085685
0.92,0.5282155220223453,2.0286590547253693,-0.005269353027216876,0.46701141286660597,0.04514970992670962,-0.0005049088744420547,0.252577885142308,0.5127600056868182,0.01793957866237586,0.003272627247818285,0.009569200210276737,-0.0007481078625587132,-0.628253155541973,-0.3803394823773404,-1.3201985146673352,-0.47366095936529007,0.0009643835968440873,0.01394673450356726,0.015865243611601666,-2.2230588912592313,1.3074810860714936,0.7706874885205532,0.010007933938158744,0.0004819624559733852
0.93,0.5306803705509389,2.0337491718134157,-0.005221395473096922,0.46699902644969254,0.045245648749446206,-0.0005120436128383872,0.24648485285934874,0.5090117088046411,0.004795755411995398,-0.0012386416913424412,0.009593882273658379,-0.0007134738396332545,-0.5936440882922561,-0.37122003572693946,-1.310562216382014,-0.4485218674961491,0.0033357359061431113,0.013205635329738952,0.01596959658946383,-2.2390576614920366,1.3296528624955335,0.773859389511132,0.010033793926038505,0.0004822465633844939
0.9400000000000001,0.5330876198718953,2.038802719758677,-0.0053038385405784535,0.4669436925104103,0.045342000780298077,-0.0005188517253756995,0.24072493209565382,0.5053547945261447,-0.008244306748153143,-0.005533393928227155,0.009635203085186887,-0.0006808112537312176,-0.560417205901011,-0.36183185630123504,-1.2990932455362396,-0.4266094124241855,0.00536870482144261,0.012507196214444419,0.01609856348547194,-2.255485057058109,1.3512003265073804,0.7769258039423872,0.010057029453848149,0.0004825019441578084
0.9500000000000001,0.5354404702175263,2.043820636544082,-0.0055154765325799195,0.46684731073072855,0.045438906925690345,-0.000525352102299448,0.23528503456309616,0.5017916785404923,-0.021163799200146556,-0.009638177968173851,0.009690614539226705,-0.0006500376923748517,-0.5284907635300247,-0.35221298281533747,-1.2856095486407602,-0.40735977812126256,0.007104946130876005,0.011849540993242993,0.016252529025893893,-2.272343857666874,1.372181793361101,0.7799017541261387,0.010077971179533324,0.0004827407701425388
0.96,0.5377419986480252,2.04880388078026,-0.00585491566570712,0.4667115635799737,0.045536485846463984,-0.0005315627980821289,0.23015284304988753,0.4983244236178301,-0.033943913312720085,-0.01357471507548607,0.009757892077363644,-0.0006210695782680865,-0.4977874523152064,-0.3423980490430536,-1.2701441545800416,-0.3902887014414822,0.008580705899136953,0.01123070409234693,0.016431731214724427,-2.2896300510671095,1.3926254368614062,0.7827949865043256,0.010096954896241954,0.00048296966330787567
0.97,0.5399951663451202,2.0537534285487866,-0.006320575511559098,0.46653795707174583,0.045634836789291804,-0.000537501028209271,0.2253167697095031,0.4949547768526531,-0.04656598458519784,-0.017360650822782323,0.00983509428278221,-0.000593823012714215,-0.468234944313913,-0.3324184799257642,-1.2527997041411634,-0.3749881497247234,0.00982783220441022,0.010648762704658601,0.01663633819838584,-2.3073367644033778,1.4125483625516777,0.7856103882312148,0.01011430380982514,0.00048319303775635965
0.98,0.5422028254362637,2.058670270549636,-0.006910697564204331,0.4663278548237995,0.04573404207575716,-0.0005431831733754616,0.2207659091143521,0.4916842000849385,-0.05901220526452329,-0.021010224794631,0.009920528646535776,-0.0005682145166190568,-0.43976582787729473,-0.3223027870098912,-1.2337009210966086,-0.36111739393837894,0.010874438694698618,0.010101841360849607,0.01686647603948048,-2.32545561523296,1.4319630629849895,0.7883515000861433,0.0101303236014632,0.0004834142299991516
0.99,0.5443677253552127,2.0635554095110376,-0.0076233562277534354,0.4660825063506247,0.04583416929601837,-0.0005486247902779306,0.21648999189489165,0.4885138961401782,-0.07126586635491038,-0.024534847317479014,0.01001272202612078,-0.0005441616902468994,-0.4123172764820425,-0.3120768119671439,-1.2129880672168898,-0.34839336584361025,0.01174540459127052,0.00958811303929203,0.01712223877325889,-2.3439769634312677,1.450878527222175,0.7910207952914359,0.010145303537554499,0.0004836356929372072
