tonegas/nnodely-applications/joint_friction_estimation/dataset/train/mpc_mujoco_episode_36 copy.csv
time,q1,q2,q3,q4,q5,q6,dq1,dq2,dq3,dq4,dq5,dq6,ddq1,ddq2,ddq3,ddq4,ddq5,ddq6,tau1,tau2,tau3,tau4,tau5,tau6
0.0,0.0,1.57,-1.57,0.0,0.0,0.0,0.0,0.0,0.0,0.0,0.0,0.0,-9.29277169605838,-17.512511008685284,-0.563016634848239,0.7636981271234191,-1.46441445601112,-3.5251961350013516e-09,-1.2964447705229827,-13.511334227804138,-7.7186899150760855,-1.676504324996086,-0.11766101670993602,-0.0022787961904373742
0.01,-0.000924804386036094,1.568254327107321,-1.5700604640490428,6.692482728640102e-05,-0.00012108412092479989,-1.1891226571645985e-06,-0.0924804386036094,-0.1745672892678958,-0.006046404904267142,0.006692482728640101,-0.012108412092479988,-0.00011891226571645985,-9.066739295706897,-17.207975375421935,-0.6574229165588115,0.6354733346116319,-1.2237418852886748,-0.011987301136699102,-1.259481919554859,-13.381649773892578,-7.676899616349772,-1.6685014726279435,-0.1148479201547334,-0.0022450695961174216
0.02,-0.0027511739640366387,1.5647933476228089,-1.5701911746697186,0.0001900151635133014,-0.00034795947217467003,-3.6124974748422244e-06,-0.18263695780005446,-0.34609794845121233,-0.0130710620675762,0.012309033622690037,-0.022687535124987016,-0.00024233748176776259,-8.81128650616692,-16.876800214715622,-0.7509737173939435,0.5279018780447515,-1.0753210114781382,-0.012753605966963732,-1.2023044929659212,-13.225049980867219,-7.618805250844561,-1.6567972051773499,-0.11074199888496881,-0.0022009239687942354
0.03,-0.0054532407092530485,1.5596500692820554,-1.570401684628415,0.00036010853395275646,-0.0006709057693337697,-7.1957172053625174e-06,-0.270206674521641,-0.5143278340753423,-0.021050995869636893,0.017009337043945506,-0.032294629715909975,-0.0003583219730520293,-8.52781606619904,-16.51833579079158,-0.8403397483072865,0.4371236893234851,-0.9855606677422628,-0.012571951744806853,-1.126536935501632,-13.040836538197112,-7.544464342102483,-1.6414243765931498,-0.10539452457347753,-0.0021465742925000837
0.04,-0.009002533537189328,1.552860210590714,-1.570701018300565,0.000569358922928297,-0.0010837399303735978,-1.1884489407185585e-05,-0.3549292827936279,-0.6789858691341344,-0.02993336721499691,0.02092503889755406,-0.0412834161039828,-0.0004688772201823066,-8.216634590518822,-16.132051233075178,-0.922546314382366,0.3603231979043784,-0.9341264097178126,-0.012871939655120457,-1.0341447186468038,-12.828288169742683,-7.453977644231692,-1.6224283981171181,-0.09886140235919655,-0.0020821380318161165
0.05,-0.01336794304230889,1.5444622573607534,-1.571097400801257,0.0008110360082732405,-0.001582573029279354,-1.76546628682563e-05,-0.43654095051195607,-0.8397953229960723,-0.03963825006920839,0.02416770853449435,-0.04988330989057562,-0.0005770173461070716,-7.877456240635733,-15.71759774406887,-0.9949382278097545,0.2954711106850283,-0.9086563642393202,-0.013796612357673155,-0.9274140387200809,-12.586696578241984,-7.347500600109867,-1.5998696487463133,-0.09120481024295961,-0.0020076806131805298
0.06,-0.018515656349770242,1.5344975003701027,-1.571598013158021,0.0010793837134522653,-0.0021650461038532063,-2.4506827914289025e-05,-0.5147713307461353,-0.9964756990650667,-0.0500612356763925,0.026834770517902482,-0.05824730745738524,-0.0006852165046032721,-7.509703817904252,-15.274863171306285,-1.0551634136857437,0.24111929680509547,-0.9016246976258699,-0.015348527505361531,-0.8089274513232009,-12.315402581059313,-7.225253123828892,-1.5738253752903155,-0.08249507400456156,-0.0019232535940867284
0.07,-0.02440908103124094,1.5230100488665776,-1.5722087732882697,0.0013695222010354207,-0.0028298562544369077,-3.2461443555384255e-05,-0.5893424681470697,-1.1487451503525024,-0.061076013024876835,0.02901384875831553,-0.06648101505837012,-0.0007954615641095231,-7.112689805162525,-14.804018246932577,-1.1011702254962117,0.1962407304700804,-0.9084484128490047,-0.017552911828293105,-0.6815319660127791,-12.013832757752922,-7.087527763916253,-1.5443910874279814,-0.07281257572159444,-0.0018289291278658117
0.08,-0.031008769734199467,1.5100468154215292,-1.5729341435782418,0.001677380906607373,-0.003576458541245763,-4.15558952745079e-05,-0.6599688702958527,-1.296323344504837,-0.07253702899720607,0.030785870557195238,-0.07466022868088551,-0.0009094451719123643,-6.6857250345758175,-14.305554206671113,-1.1312138341223985,0.1601049095397542,-0.926328582778229,-0.020475349260983045,-0.5482968787593447,-11.68153660758279,-6.934696287476876,-1.5116814552390108,-0.062249534438963465,-0.0017248323181803362
0.09,-0.03827235270839429,1.4956574684652715,-1.573776966505902,0.001999652916547319,-0.004404873283473455,-5.184304377021186e-05,-0.7263582974194825,-1.4389346956257654,-0.08428229276602045,0.0322272009939946,-0.08284147422276916,-0.0010287148495703958,-6.228183340805682,-13.780310919182885,-1.143867750507649,0.13218097892377045,-0.9535239340528712,-0.02422124645583157,-0.41245941578161105,-11.318223792207373,-6.767214691253821,-1.4758307177359105,-0.05091152119544138,-0.001611171912885989
0.1,-0.04615448264859791,1.4798943497590957,-1.5747383300642732,0.0023337631094408466,-0.005315554435643346,-6.33907836474671e-05,-0.7882129940203617,-1.576311870617565,-0.09613635583711509,0.033411019289352736,-0.09106811521698908,-0.0011547739877255238,-5.739540098974065,-13.229496599215743,-1.1380372112488715,0.11206260826130432,-0.9888720502062007,-0.02893494458708279,-0.27735714692014957,-10.92380181033762,-6.5856270395493075,-1.436992701292328,-0.038918585611273246,-0.0014882691288343657
0.11,-0.05460679460473569,1.4628123548814904,-1.5758174647781107,0.0026778441549740683,-0.006309289762226253,-7.62822613371222e-05,-0.8452311956137786,-1.708199487760533,-0.10791347138374952,0.03440810455332219,-0.09937353265829063,-0.0012891477689655107,-5.21939821263862,-12.654694976749251,-1.112971697550222,0.09941016321231899,-1.0314408259514636,-0.034799582972549814,-0.14634718354065201,-10.498411522410663,-6.390567605233448,-1.395340368843197,-0.02640588958735618,-0.0013565839509217465
0.12,-0.0635778829316993,1.4444687760456771,-1.577011673905188,0.0030307158060918623,-0.007387111645265144,-9.061648370565714e-05,-0.8971088326963613,-1.8343578835813172,-0.11942091270773392,0.0352871651117794,-0.10778218830388919,-0.0014334222368534932,-4.667513806030835,-12.057864022536954,-1.0682744468855923,0.0939067320439193,-1.0802305000034806,-0.04203589456925183,-0.02271323757778665,-10.042461799127784,-6.182762261101651,-1.3510651324003595,-0.013523755219839652,-0.0012167381181554474
0.13,-0.07301329731539083,1.424923107401041,-1.578316298029399,0.0033918640109094488,-0.008550200900790866,-0.00010650906386695662,-0.9435414383691524,-1.9545668644636314,-0.13046241242110393,0.03611482048175865,-0.1163089255525723,-0.0015892580161299486,-4.083836777735185,-11.441322987878154,-1.0039072373360867,0.09522546890129036,-1.13386639581935,-0.050896717499147925,0.09043718671830875,-9.556660487262366,-5.96302867813456,-1.30437588557119,-0.0004370560646740629,-0.001069533839137512
0.14,-0.08285556108190671,1.4042368141336272,-1.5797247147172353,0.003761417272466797,-0.009799766280530786,-0.00012409279747911973,-0.9842263766515886,-2.0686293267413642,-0.14084166878363666,0.03695532615573483,-0.12495653797399188,-0.0017583733612163111,-3.4685865768456963,-10.80772853547835,-0.9201891643386659,0.10300630063192528,-1.1902324536688784,-0.06165205494787429,0.19028210369810655,-9.042040580794023,-5.732275524722179,-1.2554978501108647,0.012676102302000503,-0.0009159673291464483
0.15,-0.09304421766911791,1.382473067770246,-1.5812283732638597,0.004140118441202945,-0.011136880168279281,-0.00014351763231748132,-1.0188656587211198,-2.1763746363381213,-0.15036585466243552,0.03787011687361477,-0.13371138877484956,-0.0019424834838361583,-2.822391899384602,-10.160038632187012,-0.8177884547956715,0.1168405796588381,-1.2460032055385373,-0.07455652264310686,0.2743964898208596,-8.49997909248162,-5.491500349610655,-1.2046712291190413,0.025626448821476286,-0.0007572362979294974
0.16,-0.10351591594099654,1.359696451316996,-1.582816863827409,0.004529290773342598,-0.012562246961335887,-0.00016494936819488277,-1.0471698271878633,-2.2776616453249967,-0.15884905635492508,0.03891723321396536,-0.14253667930566055,-0.002143173587740144,-2.146524270598875,-9.50156075200818,-0.6977052041077272,0.1362629193463114,-1.2960475445766058,-0.08978705965367428,0.3408612508099728,-7.9322554868564055,-5.241802987802479,-1.1521531335844741,0.038216443262285356,-0.0005947411889004828
0.17,-0.11420455187557801,1.33597262947547,-1.5844780193851895,0.004930797746853186,-0.014075875660097416,-0.00018856608171501386,-1.0688635934581472,-2.372382184152613,-0.16611555577805148,0.04015069735105871,-0.1513628698761529,-0.0023616713520131097,-1.443306736378717,-8.835632255064313,-0.5612506008857991,0.16074977657201828,-1.3327192541734263,-0.10733505012915456,0.3883615670094358,-7.340918044858109,-4.984333322564275,-1.0982063419477297,0.050243797726197734,-0.00043007597812325023
0.18,-0.12504149805709563,1.3113680158396706,-1.5861980483430607,0.00534699641132195,-0.01567662451118291,-0.000214550811804458,-1.0836946181517622,-2.4604613635799253,-0.17200289578710853,0.04161986644687647,-0.1600748851085493,-0.0025984730089444155,-0.7166607537691759,-8.165879290434498,-0.4100082393051885,0.18972350710787111,-1.3451455423972383,-0.126837272955463,0.41627304378581503,-6.728435328987439,-4.720342797196688,-1.0431094230913933,0.06150607825076855,-0.00026501555436083145
0.19,-0.13595596237974847,1.2859494113592165,-1.587961694227089,0.0057806849237064415,-0.017361586889219394,-0.00024307850711720728,-1.0914464322652844,-2.5418604480454166,-0.17636458840285088,0.04336885123844915,-0.16849623780364856,-0.0028527695312749266,0.027132763798343163,-7.495956292185521,-0.2457929700266046,0.22256572763967597,-1.3188048625736633,-0.1473432965765411,0.4247246504338486,-6.097573937515434,-4.45114030088493,-0.9871475779650167,0.07180602488903974,-0.00010148794282249606
0.2,-0.14687553652067728,1.2597836401046933,-1.5897524182650926,0.006235045271005961,-0.019125302366459204,-0.0002742948372154853,-1.0919574140928823,-2.616577125452311,-0.17907240380035366,0.045436034729951974,-0.17637154772398106,-0.0031216330098278056,0.7786262014075918,-6.8294796732841085,-0.07059528162606021,0.2586371202283715,-1.2359630846551661,-0.1670573122009506,0.4146344780247901,-5.451361264668612,-4.178081183530498,-0.9306105446267455,0.08095786713836052,5.84635342532383e-05
0.21,-0.1577270034711471,1.232937189004014,-1.5915525993183244,0.006713582850252537,-0.020958816632852362,-0.00030828464665497244,-1.0851466950469832,-2.684645110067935,-0.18001810532318097,0.047853757924657535,-0.18335142663931586,-0.003398980943948711,1.5246406176170626,-6.16987790374077,0.11348428201598892,0.2973045427795462,-1.0777968107659341,-0.18317234905197768,0.3877104630691587,-4.792990530731904,-3.9025377152531036,-0.8737870133630583,0.08879455128728893,0.0002127343873243195
0.22,-0.1684374658908454,1.2054758664740433,-1.5933437444924492,0.007220065158860606,-0.02284869198464341,-0.00034502939992983334,-1.071046241969831,-2.746132252997061,-0.17911451741249051,0.050648230860806914,-0.1889875351791046,-0.0036744753274860873,2.248463797510764,-5.520079841124987,0.3043067077354209,0.33797057250636264,-0.8289564235354643,-0.19201609930380714,0.34640857752711735,-4.125626952551589,-3.625836739190312,-0.8169527264662919,0.09517563813085364,0.00035923344641550285
0.23,-0.17893581342176537,1.1774645108459847,-1.59510670294457,0.007758462112901194,-0.024776189535784317,-0.0003843569139871718,-1.049834753091997,-2.8011355628058565,-0.176295845212082,0.053839695404058786,-0.19274975511409065,-0.003932751405733842,2.931583347262145,-4.884342849332744,0.4998274209147233,0.380110874442666,-0.48438901407199353,-0.18975634887019766,0.2938486606402365,-3.45328551269615,-3.3495722323118686,-0.7604345472335332,0.09999561775543493,0.0004959659970163549
0.24,-0.1891544319301885,1.1489665661579962,-1.5968218706456911,0.00833289326538079,-0.026716974220111676,-0.0004258932678506728,-1.0218618508423134,-2.8497944687988466,-0.17151677011211833,0.05744311524795949,-0.19407846843273602,-0.004153635386350099,3.5563375503210763,-4.2631860364625975,0.6980445933952772,0.42326991436135053,-0.05627796081527592,-0.1737079963850805,0.23365970256683,-2.778191089503969,-3.0746760584402297,-0.7044231481679454,0.10319014377284211,0.0006211900014618986
0.25,-0.19903097370604406,1.1200440296596852,-1.5984693876217848,0.008947578632680819,-0.028641755751036557,-0.0004690343312958715,-0.9876541775855553,-2.892253649831106,-0.16475169760935923,0.06146853673000287,-0.19247815309248825,-0.004314106344519869,4.110109166732592,-3.658684805203767,0.8972024616142411,0.46705322142742034,0.42288567416023426,-0.14379026209031842,0.16980466447466708,-2.1033955077823996,-2.8023630209881785,-0.6491668540757534,0.10473956320205018,0.0007334869115384864
0.26,-0.20850980281174233,1.090757243375077,-1.6000293112097352,0.009606798190606152,-0.030518145492124334,-0.0005129569242104446,-0.947882910569829,-2.9286786284608333,-0.15599235879503373,0.06592195579253336,-0.18763897410877764,-0.004392259291457312,4.588048607910999,-3.072049524306811,1.095753003707876,0.5111026794674194,0.9046246418777129,-0.10324360862589899,0.10636154095127925,-1.4314813149518564,-2.5336639375365886,-0.5948774059220774,0.10466756301908371,0.0008318917112134682
0.27,-0.2175427706334839,1.061164771032474,-1.6014817678075082,0.010314856653901167,-0.03231363953059424,-0.000556681718237234,-0.9032967821741559,-2.9592472342602774,-0.14524565977730008,0.07080584632950149,-0.17954940384699025,-0.004372479402678936,4.993842778023855,-2.5049799424172026,1.2923798037112912,0.5550660525446287,1.335745291264539,-0.05792151459554207,0.04731532999464719,-0.7651973533464653,-2.2696520775383418,-0.5417766567002569,0.10303384083657033,0.0009159315044179325
0.28,-0.2260890991055819,1.0313232259008507,-1.602807082240434,0.01107605167127143,-0.033999153617351265,-0.0005991806519581243,-0.8546328472097983,-2.9841545131623475,-0.1325314432925663,0.07611950173702633,-0.16855140867570217,-0.004249893372089025,5.3379692579399,-1.9592132235039068,1.4859287177255203,0.598575097367915,1.6716788767278157,-0.014397897925071845,-0.0036159265491999965,-0.10719879999615267,-2.0113450009495044,-0.4900765900480216,0.09992297867840719,0.0009856055356373345
0.29,-0.23411442925544823,1.0012870951023218,-1.603985891710315,0.011894641778746074,-0.0355522278959802,-0.0006395012692441665,-0.8025330149866324,-3.003613079852881,-0.11788094698810879,0.08185901074746427,-0.15530742786289348,-0.004032061728604217,5.634553744202532,-1.435335821426111,1.6752930360255998,0.6412273304590055,1.8859789893136671,0.022042141891283507,-0.04309886113058253,0.5405668830515798,-1.759488270572744,-0.43993555189327715,0.09543289226422175,0.0010412946405502351
0.3,-0.2415893391140301,0.9711086791385519,-1.6049992550366883,0.012774810097851077,-0.03695910566302453,-0.0006768728149313041,-0.7474909858581876,-3.0178415963769893,-0.10133633263734694,0.08801683191050029,-0.14068777670443333,-0.0037371545687137652,5.898286109327475,-0.9329239224920447,1.8593480488150607,0.6825828274436363,1.9730210747306955,0.04853038920993846,-0.06824358030776206,1.176782652793253,-1.514591866619659,-0.3914658237395397,0.08966583307691163,0.001083616426772527
0.31,-0.24848771874274722,0.9408381327841927,-1.6058287636838242,0.01372062286929113,-0.03821531477083008,-0.0007107688044891431,-0.6898379628717122,-3.027054635435926,-0.08295086471359284,0.0945812771440054,-0.1256209107805553,-0.0033895989557839014,6.1422045004565655,-0.45183637348158157,2.0369540946856897,0.7221843337439076,1.9447576761256364,0.06461910406650606,-0.0766225616565456,1.8000905551957347,-1.277171464875425,-0.3447819719134732,0.08272349889851932,0.0011132783712210132
0.32,-0.25478531829100676,0.9105234785125301,-1.606456654929112,0.014735985621083676,-0.039324875918647306,-0.0007409198690675758,-0.6297599548259517,-3.031465427166259,-0.06278912452877078,0.10153627517925456,-0.11095611478172242,-0.0030151064578432607,6.376450351565618,0.00721374404962217,2.2069702549772554,0.7595864432310035,1.8243698297500868,0.07156739007035107,-0.06627634198040791,2.4087902965129775,-1.0478473184199304,-0.30001956301374877,0.07470636678474457,0.0011309809336950973
0.33,-0.2604586478646741,0.8802105353686973,-1.6068659259444436,0.015824600315364507,-0.04029858704289383,-0.0007672868654928376,-0.5673329573667368,-3.0312943143832793,-0.040927101533170085,0.10886146942808306,-0.09737111242465236,-0.0026366996425261904,6.607850290981773,0.44314902136751083,2.368256668272955,0.7943756197095038,1.6395940598286214,0.07146202967927007,-0.03572234051894724,3.0010872600008462,-0.8272456939576665,-0.25731396875506607,0.06571583735011911,0.0011373816547681163
0.34,-0.2654842780728398,0.8499428118996939,-1.6070404480230664,0.016989925210700318,-0.041151914799480015,-0.0007900112960405333,-0.5025630208165718,-3.0267723469003416,-0.01745220786229945,0.11653248953358102,-0.08533277565861833,-0.00227244305476957,6.840047887948191,0.8561230925292499,2.519649404619744,0.8261673998638113,1.4174459482301836,0.066523589500596,0.01602740266841307,3.5759119762521174,-0.6157067604565146,-0.2167411000328749,0.055857715513811974,0.001133110728255233
0.35000000000000003,-0.26983850790163777,0.8197615218717813,-1.6069650822644177,0.018235136236156472,-0.04190292952524451,-0.0008093590535023337,-0.4354229828797945,-3.0181290027912575,0.007536575864880539,0.1245211025456154,-0.07510147257644981,-0.001934775746180041,7.074464446996098,1.2424433593579187,2.6601779109487635,0.8546531678740834,1.1809435093642315,0.05870023972539329,0.08946815127480201,4.130342084261855,-0.41418723480199704,-0.17849792843978513,0.04524129867591843,0.0011187445483539877
0.36,-0.2734972786632215,0.7897052168792583,-1.6066257785422902,0.019563098482406772,-0.04257055556501652,-0.0008256684105935088,-0.36587707615837367,-3.005630499252303,0.033930372212763,0.13279622462503005,-0.06676260397720105,-0.0016309357091175139,7.31034893550385,1.6039323104828525,2.7887596703062725,0.8795427678702019,0.9476604878032695,0.0495055954694239,0.18456396550650322,4.664386036758,-0.22255825256823925,-0.14255965363648207,0.033985878719039575,0.001094944322552558
0.37,-0.2764363076031557,0.7598099682130228,-1.6060096815707774,0.020976334924294092,-0.04317325289441567,-0.000839307990509292,-0.2939028939934204,-2.9895248666235497,0.06160969715127991,0.14132364418873192,-0.06026973293991485,-0.0013639579915783154,7.545941777688251,1.9401277786808668,2.9045053469767814,0.9005904847684398,0.7296254369544357,0.04000737838305568,0.3007723512270321,5.177015038381349,-0.041035260390857586,-0.10896878212667521,0.022215758283174163,0.0010623942757703724
0.38,-0.27863131426562476,0.7301093210399934,-1.6051052193514344,0.02247700164610047,-0.04372813414978891,-0.0008506461370400425,-0.21950066624690923,-2.970064717302945,0.09044622193429676,0.15006667218063785,-0.055488125537324386,-0.001133814653075054,7.778855184236474,2.2506690044257742,3.006648748839612,0.9175970457080176,0.534001754175077,0.030893632123349057,0.4370531664079526,5.667382715884575,0.1302706048561283,-0.07774362344776187,0.010060500655457692,0.0010218556980414629
0.39,-0.2800582968536205,0.7006342585508657,-1.6039021792201937,0.024066867571638447,-0.04425045791249455,-0.0008600308032332201,-0.14269825879957188,-2.94750624891277,0.12030401312405734,0.1589865925537975,-0.052232376270564006,-0.0009384666193177507,8.006437814796625,2.53564302437771,3.094544269707436,0.9304046674352264,0.3641121994750769,0.022561069899612818,0.5918986252611962,6.135001239096114,0.29141340683987516,-0.048866099568966065,-0.0023467882276988344,0.000974180298891829
0.4,-0.2806938220913049,0.6714132106053504,-1.602391771559658,0.025747297999510622,-0.04475341361270116,-0.0008677779773331075,-0.06355252376844248,-2.9221047945515317,0.1510407660535747,0.16804304278721752,-0.05029557002066048,-0.0007747174099887425,8.226048235978034,2.7953393681314536,3.16768032478746,0.9388951213889918,0.22050924948619155,0.015199846340063772,0.7633803975915405,6.579611258689442,0.44256259616962823,-0.02229188722967468,-0.01487195703420882,0.0009203045140650822
0.41000000000000003,-0.2805153033862635,0.6424720824798071,-1.600566680069166,0.027519242007124092,-0.04524811229776554,-0.000874166421764934,0.017851870504135517,-2.894112812554325,0.18250914904920096,0.17719440076134693,-0.049469868506438495,-0.0006388444431826482,8.435208054582564,3.030302389383001,3.2256772976633705,0.9429873602600765,0.1019248882240209,0.008863530063297986,0.9492081127123871,7.001199151505138,0.5840056002011638,0.0020499629044961054,-0.02738220744545173,0.000861238179604373
0.42,-0.27950125471207793,0.613834308969275,-1.5984210987988925,0.02938322346082644,-0.045743709023446294,-0.0008794367190409776,0.10140486741855821,-2.8637773510532063,0.21455812702735133,0.18639814537023455,-0.04955967256807552,-0.0005270297276043693,8.631707309343277,3.240961583415323,3.2682991292023065,0.942639512776033,0.006031116413518944,0.0035218180818388234,1.1467997969388066,7.399797530574656,0.7160740721678439,0.024242242138512338,-0.03974877186241222,0.0007980414302020353
0.43,-0.27763151225848903,0.5855208970547491,-1.59595075507654,0.03133933610473163,-0.04624759882844997,-0.0008837930084581573,0.18697424535888926,-2.831341191452596,0.24703437223525776,0.19561126439051876,-0.05038898050036737,-0.0004356289417179685,8.813599967295149,3.428234362338934,3.2954246325845213,0.9378430192847098,-0.06999930679516808,-0.0009022163748024781,1.3533529029740574,7.775776393262403,0.8392421238712494,0.044398901097408516,-0.051848584629734115,0.0007318095946948376
0.44,-0.2748874263313366,0.5575505172027257,-1.59315292077248,0.03338724165349168,-0.046765644371028744,-0.0008874062241213692,0.2744085927152433,-2.7970379852023384,0.279783430406002,0.20479055487600528,-0.051804554257877326,-0.00036132156632119584,8.97923429740835,3.5929970684763557,3.307061884740488,0.9286235558112033,-0.1291076261322459,-0.004507291723911955,1.56592326361751,8.129559571057305,0.954019541392363,0.06264342753935248,-0.063566537963169,0.0006636423027293866
0.45,-0.2712520220153458,0.5299395906256571,-1.590026410861097,0.035526171420165537,-0.047302407236885155,-0.0008904180014405338,0.3635404315990784,-2.7610926577068633,0.312650991138278,0.21389297666738555,-0.05367628658564131,-0.00030117773191645357,9.127226659929232,3.7362423209328086,3.303334985737389,0.9150394896404279,-0.17410691081691,-0.0073981535079648,1.7814999253450807,8.461688997240564,1.0609695845561957,0.07911211256491779,-0.07479687113068194,0.0005946218675190518
0.46,-0.2667101322456561,0.5027023881862424,-1.5865715704786199,0.03775493116107793,-0.04786136580056822,-0.0008929447162186728,0.4541889769689734,-2.7237202439414707,0.34548403824772295,0.22287597409123924,-0.05589585636830614,-0.00025267147781389863,9.256436236886314,3.859056625383049,3.2844775477835517,0.8971803449622691,-0.20754561064727284,-0.009676287939879735,1.9970770172837,8.772798412015241,1.1606935200740316,0.09395057954763791,-0.08544433355827714,0.0005257909758605848
0.47000000000000003,-0.2612485064715212,0.4758511387204427,-1.5827902511379017,0.04007190899137166,-0.04844511044200773,-0.0008950813346167981,0.5461625774134897,-2.6851249465799616,0.37813193407182033,0.23169778302937358,-0.05837446414395073,-0.0002136618398125226,9.365936694275051,3.962602646709835,3.250825895166,0.8751652479266632,-0.231645340872074,-0.011434938829032681,2.209719633763707,9.063590593457345,1.2538163143922403,0.10731051297567695,-0.09542499322837364,0.0004581330977408552
0.48,-0.2548558981285484,0.44939614501403524,-1.578685776782163,0.04247508621890221,-0.04905551233490072,-0.0008969049023634153,0.6392608342972801,-2.645499370640747,0.41044743557388685,0.24031772275305519,-0.06104018928929898,-0.00018235677466172637,9.454988402218556,4.048103921781122,3.202812207218689,0.8491413174565388,-0.2482873274652846,-0.012756895224993237,2.4166220955604207,9.334817397764832,1.3409733639449792,0.11934657267996271,-0.10466671471646039,0.000392556116335177
0.49,-0.24752313389425798,0.4233459059073941,-1.5742629003612603,0.044962050937907796,-0.04969386548190734,-0.0008984776008411687,0.7332764234290444,-2.60502391066411,0.44228764209026905,0.2486964719005584,-0.06383531470066173,-0.00015726984777533233,9.523013156005282,4.116831346120392,3.1409577009779843,0.8192819841611048,-0.2590283514121481,-0.013713973495256049,2.6151575163898926,9.58726252721996,1.4227983700821176,0.13021352664128658,-0.11310933918814645,0.0003298794072407238
0.5,-0.23924316733271803,0.3977072431777675,-1.5695277516075243,0.047530014217026864,-0.05036100369929387,-0.000899849359481827,0.8279966561539944,-2.5638662729626587,0.47351487537358705,0.25679632791190676,-0.06671382173865331,-0.00013717586406583856,9.569572194507387,4.170093206559155,3.0658658083201935,0.7857852041991968,-0.2651326318239633,-0.014367469034028524,2.8029181021732943,9.821728020100544,1.4999128229841665,0.14006370460716572,-0.12070460133081987,0.0002708244104120596
0.51,-0.23001111913281114,0.37248543220022645,-1.5644877766857452,0.05017582870501161,-0.05105739529189718,-0.0009010600494898309,0.9232048199906888,-2.522181097754105,0.5039974921779096,0.2645814487984745,-0.06963915926033108,-0.0001210690008003937,9.59434773577971,4.209229316487433,2.978215311784962,0.7488715341800294,-0.2676105606874195,-0.014769107101174406,2.977746057495435,10.03902471067397,1.5729172639842037,0.14904481405029857,-0.12741582057198345,0.00021600856825615248
0.52,-0.2198243057535901,0.3476843357964135,-1.5591516703932722,0.05289600946285962,-0.05178321855009723,-0.0009021413019826643,1.018681337922104,-2.480109640381294,0.5336106292473014,0.2720180757848008,-0.07258232582000487,-0.00010812524928334208,9.563017088651707,5.076382275537024,2.848890701709328,0.7002838512920881,-0.2676268117818452,-0.014962175599479544,3.1309443347646857,10.653167206486323,1.783024129467747,0.18417896261149727,-0.1323194841223451,0.00017817289831448908
0.53,-0.2086856493759867,0.32339029444690953,-1.5535317199833287,0.05568528989757575,-0.05253835609916202,-0.0009031228894694235,1.1138656377603422,-2.4294041349503956,0.5619950409943479,0.2789280434716131,-0.07551375490647909,-9.815874867592086e-05,9.445979688742291,7.358809088275891,2.6552063276724347,0.6260742845682827,-0.2652448859451475,-0.014974554607009694,3.2491091659518996,11.943982521601706,2.2175903016519065,0.2612743644571398,-0.13432422929004645,0.00016808795253769437
0.54,-0.19660662308524976,0.29983063198311183,-1.5476457314284962,0.05853495421373769,-0.05332232919468844,-0.0009040362300042819,1.207902629073692,-2.3559662463797686,0.5885988554832569,0.2849664316161941,-0.07839730955264232,-9.133405348583676e-05,9.309724035712032,9.054665204106781,2.463910478177233,0.5339720079528192,-0.2588435348876317,-0.014765084549361873,3.3339008504207532,12.921387243905382,2.5282735201223496,0.3128982229473579,-0.13478039573836587,0.0001609679038670328
0.55,-0.183600642955831,0.27717424930567436,-1.5415117745346008,0.06143532659687885,-0.05413438596821354,-0.0009049014053845034,1.300598012941874,-2.2656382677437468,0.6133956893895427,0.29003723831411665,-0.08120567735250982,-8.65175380221431e-05,9.15492070018014,10.264211421705248,2.271166272977492,0.43265039207061307,-0.2499202832305727,-0.014265927168008119,3.3852491082012053,13.636726760859949,2.7385100259627113,0.34416847111216536,-0.13375353305821264,0.00015861845725729943
0.56,-0.16968299795149006,0.25554160418230776,-1.5351484329814442,0.06437635282144956,-0.05497360447562999,-0.000905728292938525,1.3917645004340962,-2.1632645123366614,0.6363341553156496,0.2941026224570707,-0.08392185074164518,-8.2688755402163e-05,8.982380184288017,11.073374677473767,2.074550562324994,0.32796492476818884,-0.23948610827036987,-0.013540242583087725,3.404278957295178,14.134498569643785,2.86828437051059,0.35942474484401576,-0.13135420904606188,0.00016202547982391974
0.5700000000000001,-0.15487076615046771,0.23501326599691663,-1.5285749451330322,0.06734798139780415,-0.055838961723707094,-0.0009065191459206407,1.4812231801022329,-2.0528338185391117,0.6573487848412144,0.29716285763545974,-0.08653572480771038,-7.908529821158114e-05,8.793015977786771,11.555519858297428,1.8727145340529319,0.22376215943528877,-0.22820021242666755,-0.012655970988803666,3.393022315787538,14.453101209130216,2.9344126814544786,0.3622878292193352,-0.12772155143758795,0.00017152944718450982
0.58,-0.13918272100503015,0.21563722116917683,-1.5218112620935742,0.0703404037783719,-0.05672937813735698,-0.0009072708088339042,1.5688045145437575,-1.9376044827739811,0.6763683039457923,0.299242238056775,-0.08904164136498845,-7.516629132634875e-05,8.587811779558061,11.773087010238187,1.6651185557069823,0.12247305785898277,-0.21647167832326275,-0.011668845958885843,3.3541461496912484,14.625547187991526,2.9508895496354812,0.3557372005816155,-0.12301036575003063,0.0001869827612824708
0.59,-0.12263923090142981,0.19743509175099766,-1.5148780437697154,0.0733441969534123,-0.05764374465609454,-0.0009079764157697615,1.654349010360035,-1.820212941817916,0.6933218323858773,0.30037931750403873,-0.09143665187375574,-7.056069358572756e-05,8.36779494020878,11.779033317133846,1.451826320501116,0.02554558721968192,-0.20453618036698273,-0.010622238783935867,3.290712268599562,14.680103882499587,2.9292459358042047,0.3421934817222605,-0.11738138839823942,0.00020788591898860743
0.6,-0.10526215464800082,0.18040741040678548,-1.5077966091168677,0.07635039978798823,-0.05858093788001859,-0.0009086266556153917,1.7377076253428991,-1.702768134421216,0.70814346528477,0.3006202834575939,-0.09371932239240546,-6.502398456301437e-05,8.134015362402941,11.61810034984059,1.2333447150836818,-0.06624201778839378,-0.19251319807098355,-0.009549317708494875,3.205976419582358,14.640867841642198,2.878894722041604,0.3235993262467756,-0.11099416538506382,0.00023350182211037175
0.61,-0.08707473496652353,0.16453807769055215,-1.500588853202709,0.07935054558980431,-0.05953982729460004,-0.000909210703694946,1.8187419681477286,-1.5869332716233342,0.7207755914158742,0.30001458018160787,-0.09588894145814496,-5.840480795543144e-05,7.8875289694858335,11.327926334232437,1.0104989971548655,-0.1525562663299702,-0.18044794942214892,-0.008475207134867269,3.1032285585075323,14.528278552662371,2.8074507135672673,0.3014949468820746,-0.1040020629113865,0.00026294908067343273
0.62,-0.06810149160440992,0.14979811217864752,-1.493277140973053,0.08233666686825385,-0.06051927751421364,-0.0009097169032941172,1.8973243362113599,-1.4739965511904627,0.7311712229656077,0.29861212784495417,-0.09794502196136008,-5.061995991712563e-05,7.629384898904826,10.94002116210526,0.7843353311497943,-0.23334846576118906,-0.1683414709023765,-0.00741879299359649,2.9856721947466514,14.35957741925894,2.7210185480217572,0.2770862994937282,-0.09654895810401103,0.00029527611091620403
0.63,-0.04836811531530344,0.13614879040741726,-1.4858841854672116,0.08530128345685735,-0.06151814764166895,-0.0009101332623066384,1.9733376289106481,-1.3649321771230278,0.739295550584148,0.29646165886035036,-0.09988701274553108,-4.163590125211756e-05,7.360615692433359,10.480619933570107,0.5560446066913407,-0.3087424904091556,-0.15617163998696526,-0.006394157990638583,2.8563383422104955,14.149217254317456,2.624446283841376,0.25130511940255634,-0.08876721520975575,0.00032951831787245134
0.64,-0.027901363659986876,0.12354426151272829,-1.4784329165588221,0.0882373816791904,-0.06253528919941499,-0.0009104478145990882,2.0466751655316564,-1.260452889468896,0.7451268908389358,0.29360982223330473,-0.1017141557746039,-3.145522924497522e-05,7.0822298237811365,9.97142911266167,0.326902890830155,-0.37895736981008454,-0.14390739616472814,-0.005411694786162435,2.718028508752976,13.909227125231189,2.521545139964054,0.2248607629379626,-0.0807766155140723,0.0003647408085770663
0.65,-0.006728959350096677,0.1119337108069139,-1.4709463449851916,0.09113838970853566,-0.06356954360820147,-0.000910648883106656,2.11724043098902,-1.1610550705814395,0.748657157363048,0.2901008029345264,-0.10342544087864808,-2.0106850756784516e-05,6.795206220861757,9.43027774258283,0.0982249418649701,-0.444255125620284,-0.13151794838406516,-0.004478955671546547,2.573281031898429,13.64953688291422,2.4152774278762914,0.1982842613136968,-0.0726839745396601,0.00040006903092360685
0.66,0.015120508338113563,0.10126313709826819,-1.46344742539154,0.09399815245390822,-0.06461973983693103,-0.0009107252718462313,2.184946768821024,-1.0670573708645714,0.7498919593651647,0.2859762745372557,-0.10501962287295692,-7.638873957535912e-06,6.500490149022992,8.871684983810988,-0.12867196239890966,-0.5049067677512937,-0.11897836465333711,-0.003601293863358279,2.424355347616124,13.378265368215182,2.3079155845708392,0.17196525304353194,-0.0645832342559534,0.00043470952998750465
0.67,0.037617678685163844,0.09147680024308599,-1.4559589212928474,0.09681090801332967,-0.06568469259434556,-0.000910666406540959,2.2497170347050286,-0.9786336855182194,0.7488504098692416,0.28127555594214476,-0.10649527574145237,5.886530527237883e-06,6.198990399296017,8.307353767404969,-0.3524960162495372,-0.5611712200669032,-0.10627260448911358,-0.0027823442068735105,2.2732296077458276,13.101975782788955,2.2011755168450953,0.1461825703652241,-0.0565558740517504,0.000467962782433796
0.68,0.06073251091739733,0.08251838807549818,-1.4485032741987864,0.09957126682987404,-0.06676320125549644,-0.0009104624379212039,2.311483223223348,-0.8958412167587816,0.7455647094061025,0.27603588165443627,-0.10785086611508826,2.0396861975507626e-05,5.8915774015246365,7.746599460374657,-0.5720023551904827,-0.6132833256926986,-0.09339479431893949,-0.002024382389449464,2.1216077563415148,12.825901463351652,2.0963275350987187,0.1211292907161744,-0.04867152242305406,0.0004992297831344603
0.6900000000000001,0.08443437168608492,0.07433194539801666,-1.4411024786196913,0.10227419406360788,-0.06785404959451166,-0.0009101043176201314,2.3701860768687584,-0.8186442677481511,0.7400795579095168,0.2702927233733839,-0.10908483390152272,3.5812030107254216e-05,5.579082158903403,7.196721351095297,-0.7860093046342591,-0.6614481146154123,-0.08034933172835679,-0.0013285940371359217,1.97093303031968,12.554144941210662,1.9942879831973452,0.09693303566259118,-0.040988687417765575,0.0005280138045489146
0.7000000000000001,0.10869211853898743,0.06686260202822401,-1.433777964246546,0.10491499527591296,-0.06895600631498286,-0.0009095838535695219,2.4257746852902504,-0.7469343369792643,0.7324514373145405,0.2640801212305079,-0.11019567204711968,5.2046405060956717e-05,5.2622956953763165,6.663323941731003,-0.9934104307073266,-0.7058392804523699,-0.06715024415187543,-0.00069527800607605,1.822405491821453,12.28985292913946,1.895694426704404,0.07367224527432646,-0.033555547221599896,0.0005539184993750884
0.71,0.13347417933642042,0.06005713190332601,-1.4265504862538783,0.1074893052547537,-0.07006782631869823,-0.0009088937496585512,2.478206079743299,-0.6805470124898002,0.7227477992667674,0.2574309978840735,-0.111182000371537,6.901039109706876e-05,4.941969252931436,6.150594171870004,-1.1931832169858634,-0.7466003870801412,-0.05382009836698742,-0.00012400252743871576,1.6770019499963909,12.035369604086764,1.8009669468261627,0.051389081302515835,-0.026410766905473528,0.0005766433281766282
0.72,0.1587486276374311,0.053864370858909334,-1.4194400243962397,0.10999307964746421,-0.0711882526238964,-0.000908027632900589,2.5274448301010697,-0.6192761044416679,0.7110461857638442,0.25037743927105144,-0.11204263051981653,8.661167579622398e-05,4.618814730276371,5.661540106293613,-1.3843950103256883,-0.7838477409505549,-0.04038867514658051,0.00038627207071351144,1.5354968907527666,11.792370402388183,1.7103577980434481,0.030099539128695646,-0.019584312901517638,0.0005959770817801759
0.73,0.18448325410486863,0.04823551686271291,-1.4124656913421612,0.11242258898080551,-0.07231601882906835,-0.0009069800703284202,2.573462646743752,-0.5628853996196425,0.6974333054078502,0.2429509333341295,-0.11277662051719461,0.00010475625721688082,4.293505568640371,5.198195887795413,-1.566206767291443,-0.8176741829731373,-0.026891545846648768,0.0008370936974246845,1.3984836085025671,11.561978305660181,1.6239913657858684,0.009801267843356692,-0.013098253459232906,0.0006117901463638892
0.74,0.21064563402199996,0.043124333125914634,-1.4056456505058281,0.114774414612821,-0.07344985201294295,-0.000905746577141907,2.616237991713133,-0.511118373679827,0.6820040836332982,0.23518256320154876,-0.11338331838745977,0.00012334931865132538,3.9666779167249895,4.7617972567458615,-1.7378750246488455,-0.8481532800201874,-0.013368646680584462,0.0012304347541516325,1.2663949029154593,11.344864460382231,1.5418960947711227,-0.009520472045867062,-0.006967535352092463,0.0006240260171256072
0.75,0.23720319104063076,0.03848727158386355,-1.3989970434875476,0.11704544616078072,-0.07458847596235153,-0.0009043236171830333,2.6557557018630797,-0.46370615420510836,0.6648607018280442,0.2271031547959731,-0.11386239494085854,0.00014229599588737592,3.63893203262986,4.352931426340372,-1.8987524406159286,-0.875343565371844,0.00013708953904689736,0.0015686192513550967,1.1395229418740325,11.141334815419805,1.4640298052692353,-0.02788835014387525,-0.001200732071719876,0.0006326924668700657
0.76,0.26412325730392705,0.03428353168445622,-1.392535927113393,0.11923287997187824,-0.07573061462480606,-0.0009027085965331321,2.6920066263296305,-0.4203739899407332,0.6461116374154533,0.21874338110975225,-0.11421386624545272,0.00016150206499011247,3.3108362303857404,3.971663644001453,-2.0482872008264286,-0.8992926075885732,0.01358102575326825,0.0018542574684021762,1.018038713352014,10.951403880111496,1.3902994507260196,-0.04532972671666158,0.004199213859567633,0.0006378527802034929
0.77,0.2913731303403262,0.03047506710031428,-1.3862772199688411,0.12133421823958608,-0.07687499569163735,-0.0009008998507380339,2.7249873036399137,-0.38084645841419407,0.6258707144551938,0.21013382677078352,-0.11443810668312972,0.00018087457950982931,2.982920356828196,3.6176487491523437,-2.1860214532978604,-0.9200407130174054,0.02691788519511107,0.002090187313469438,0.9020071801332987,10.774859390072407,1.3205771065850789,-0.06187424423582473,0.009234395149351135,0.0006396167910659725
0.78,0.3189201260819299,0.027026551486406508,-1.380234658235082,0.12334726841281901,-0.07802035422228455,-0.0008988966266375432,2.7546995741603713,-0.34485156139077705,0.6042561733759263,0.2013050173232927,-0.11453585306472006,0.00020032241004906386,2.655688630227132,3.290218177563312,-2.3115891107503574,-0.9376243283782146,0.040102946361731284,0.0022794145948045186,0.7914066347007667,10.611313750957695,1.254711202793813,-0.07755235608903852,0.01391117248565446,0.0006381330849675308
0.79,0.3467316292890787,0.023905311958621382,-1.374420760588611,0.12527014258958272,-0.07916543623406123,-0.000896699058716523,2.7811503207148816,-0.3121239527785126,0.5813897646470991,0.1922874176763697,-0.11450820117766786,0.00021975679210201743,2.3296147434680807,2.9884601358230354,-2.424713010776737,-0.952078908036996,0.05309280975764441,0.002425067134739889,0.6861415974041779,10.460250396012892,1.1925360757280354,-0.09239420946256661,0.018239632020837795,0.0006335810443725389
0.8,0.37477514089633523,0.021081238288074726,-1.368846801863871,0.1271012566362641,-0.08030900219200132,-0.0008943081407932297,2.8043511607256515,-0.2824073670546655,0.5573958724739888,0.18311140466813813,-0.11435659579400939,0.000239091792329323,2.005145169326388,2.7112850253929017,-2.525201667688101,-0.963441405567723,0.06584620087410453,0.002530343705259286,0.5860566862328453,10.321061594716072,1.1338788350023585,-0.10642901987560316,0.022232993581130064,0.0006261638655835389
0.81,0.40301832261192083,0.018526674336091457,-1.3635227951456326,0.12883932881550755,-0.0814498303408501,-0.0008917256934832152,2.824318171558561,-0.25545639519832697,0.5324006718238457,0.17380721792434708,-0.11408281488487731,0.00025824473100145227,1.6827069761481703,2.4574562520447145,-2.612945601482738,-0.9717523375569428,0.07832465526731358,0.00259847077732156,0.49095039778471855,10.193069591355071,1.0785611836698672,-0.11968529697722091,0.02590698365512973,0.0006161021884099686
0.8200000000000001,0.4314290395517938,0.01621629480569572,-1.3584574819334103,0.13048337776703695,-0.08258671983722372,-0.0008889543274615111,2.841071693987296,-0.23103795303957342,0.506531321222219,0.1644048951529403,-0.11368894963736224,0.0002771366021704051,1.3626780775024903,2.2259643782233045,-2.687915799543813,-0.9770576588203843,0.09049263641730487,0.0026326664131042787,0.40057747903372365,10.07569189108248,1.0264474315290846,-0.13218333918249242,0.029280015846544175,0.0006036308567046088
0.8300000000000001,0.45997539794932607,0.014127004592110283,-1.3536583300400984,0.13203271942123804,-0.08371849360665137,-0.0008859974067779322,2.8546358397532305,-0.20892902135854388,0.47991518933118527,0.1549341654201087,-0.11317737694276514,0.00029569206835788496,1.0454523082343807,2.015391363453486,-2.750154553285543,-0.9794119354672786,0.10231912851097302,0.0026360863198778284,0.3146730843251144,9.968174652471378,0.9773551269785437,-0.14395070768000526,0.03237152556856253,0.0005889905426409161
0.84,0.4886257844218482,0.012237797398995,-1.3491315387030853,0.13348696314737407,-0.08484400094302813,-0.0008828590046055925,2.8650386472522102,-0.18892071931152835,0.4526791337012971,0.14542437261360308,-0.11255073363767568,0.0003138402172339632,0.7313843988364006,1.8238304184955791,-2.7997700036226427,-0.9788751715171262,0.11377662009090495,0.0026118527000569824,0.23294831411355882,9.869566801733896,0.9310445605098427,-0.15502418679305402,0.035201714194430564,0.000572417649646269
0.85,0.517348901316592,0.010529565637284733,-1.3448820504008818,0.13484600748585476,-0.08596211987057242,-0.0008795438541032759,2.8723116894743748,-0.17082317617102677,0.42494883022034985,0.1359044338480681,-0.1118118927544291,0.00033151505023166133,0.42068490666748803,1.7036731801729175,-2.8374773839346754,-0.9756126691378038,0.12482632913400571,0.0025629794990696952,0.1551253345186105,9.80166372138383,0.8944272492288108,-0.16426367771147554,0.03785754755577708,0.000554769137247492
0.86,0.5461137878970661,0.008990320001575042,-1.340913593215756,0.13610998200500696,-0.08707175494638401,-0.0008760576868749607,2.876488658047415,-0.15392456357096918,0.3968457185125732,0.12639745191521998,-0.11096350758115962,0.0003486167228315198,0.11372356774277889,1.6366670065419529,-2.8632653903076406,-0.9701308373682753,0.1355067940227387,0.0024916736251470867,0.08042239132710707,9.756450968954617,0.8649531368636455,-0.17210080536568764,0.04037831738498189,0.0005364031025826185
0.87,0.5748898570232901,0.007613371202783097,-1.3372286927247898,0.13727922126746275,-0.08817183639698155,-0.000872406970486376,2.8776069126223964,-0.13769487987919451,0.3684900490966273,0.11692392624557826,-0.11000814505975358,0.0003650716388584705,-0.1890930416352342,1.565616449087075,-2.8768411768594424,-0.9626216307093927,0.1458438290059516,0.002404954764603076,0.008196543409467572,9.70986470843618,0.8350664512287298,-0.17978038850939992,0.04274227515708619,0.0005171253390658445
0.88,0.6036469353533443,0.006391631651364698,-1.33382867525497,0.1383542954096764,-0.08926132408390512,-0.0008685983327524905,2.875707833005427,-0.12217395514183978,0.34000174698199037,0.10750741422136316,-0.10894876869235795,0.00038086377338854543,-0.4874631244557394,1.486099198065445,-2.878624304007625,-0.9528603407882681,0.15579121793972606,0.0023094856632494137,-0.061657513038576195,9.660062036260666,0.8042400062323396,-0.18738529947161625,0.044952418121031616,0.0004969943458597193
0.89,0.6323552933799597,0.005317174393590091,-1.3307137095518016,0.13933602852066648,-0.0903392114628791,-0.000864638497158584,2.870835802661527,-0.10744572577746074,0.3114965703168478,0.09817331109900938,-0.10778873789739819,0.00039598355939066116,-0.7811081305654397,1.3946533253867919,-2.8690957937652275,-0.9406817443753468,0.16531164370937956,0.0022064602678344702,-0.12921127140362604,9.605611468633828,0.7720769869671328,-0.19497764632320944,0.047010069073453835,0.00047605085544147086
0.9,0.6609856731397036,0.004380887760837289,-1.3278828542976924,0.1402255112829332,-0.09140452882461912,-0.0008605342978430439,2.8630379759743882,-0.09362866327528017,0.28308552541091475,0.08894827622667206,-0.10653173617400243,0.0004104199315540073,-1.0697709807876883,1.2981033396729076,-2.848822304336648,-0.9259820793336351,0.17437438362614976,0.0020959894512197763,-0.19449995718874863,9.549340078417524,0.7395146374796657,-0.20240313209932204,0.04892733913666976,0.00045442700724550273
0.91,0.6895093138127368,0.0035731548955775776,-1.32533410890846,0.14102410034258767,-0.09245634502901033,-0.0008562927763714163,2.852364067303328,-0.08077328652597111,0.2548745389232407,0.07985890596544754,-0.1051816204391215,0.0004241521471627616,-1.353206287717189,1.1983433555447003,-2.8183275651207684,-0.9087751512702935,0.1829665732560608,0.001977684286742276,-0.25762457166206393,9.492010795739239,0.7068366615255237,-0.20961622599876417,0.05071506920277469,0.0004322379499071267
0.92,0.7178979761160272,0.002884042174287755,-1.3230644635293158,0.14173341252694924,-0.09349376844377355,-0.0008519212189224218,2.8388662303290446,-0.06891127212898226,0.2269645379144164,0.07093121843615742,-0.10374234147632191,0.0004371557448994499,-1.6311825602767012,1.088291055128448,-2.778138638897028,-0.8891276246877551,0.1910834286017522,0.0018517904320983214,-0.3187107673145081,9.430678916276133,0.673162048239553,-0.21676211217248637,0.05237375869199807,0.0004095074330351811
0.93,0.7461239652645791,0.002302593338700543,-1.3210699544476792,0.14235532186594405,-0.0945159482145881,-0.0008474271034147305,2.822598914855189,-0.058144883558721244,0.19945090816365943,0.06219093389948111,-0.10221797708145493,0.0004494115507691209,-1.903478893822694,0.9774007531169955,-2.7288927297045644,-0.8670879760994419,0.1987151457621401,0.0017189883696017705,-0.3778019796252767,9.369213703649185,0.639739332424935,-0.223641379128703,0.053920269468124046,0.0003863939136826438
0.9400000000000001,0.7741601529492681,0.001817771143524665,-1.3193457214057032,0.1428919446067054,-0.09552207418776404,-0.0008428181757073113,2.8036187684688922,-0.04848221951758778,0.172423304197597,0.05366227407613547,-0.10061259731759419,0.0004608927707419304,-2.1698885279221023,0.8636088265546411,-2.671160229628313,-0.8428079808172866,0.20586855125969095,0.00157914154878247,-0.4350324568684573,9.30673354967872,0.6063264676302512,-0.2302979962421416,0.055362828179431035,0.0003629822316970227
0.9500000000000001,0.8019799978399078,0.0014182515719547504,-1.31788606514109,0.1433456254350512,-0.09651137681593623,-0.0008381024200869154,2.781984489063975,-0.03995195715699146,0.14596562646131378,0.04536808283457889,-0.09893026281721966,0.0004715755620395841,-2.430215273596897,0.7575316031112586,-2.6055617557545108,-0.8164357719593971,0.21254936141436787,0.001433002856464638,-0.49049865792711056,9.247562340558847,0.5743025969717714,-0.2365148850739079,0.05672474100164567,0.00033947693578266627
0.96,0.8295575650899805,0.0010934813564919107,-1.3166845031409362,0.14371891387578944,-0.09748312579439826,-0.0008332881178178572,2.7577567250072597,-0.032477021546283964,0.1201562000153795,0.03732884407382568,-0.09717489784620308,0.00048143022690582185,-2.6842738757659794,0.6498458026471651,-2.53266326613819,-0.7882101910755344,0.21877779482930748,0.0012809796120183403,-0.5444005562643889,9.187842480238034,0.5424848723993678,-0.242490744808802,0.05800940099217811,0.00031592426755046337
0.97,0.8568675446542972,0.0008327489859941909,-1.3157338311253883,0.14401454934676702,-0.09843662975342932,-0.0008283837275173914,2.730997956431671,-0.026073237049771988,0.09506720155478138,0.029563547097758436,-0.09535039590310511,0.0004904390300465828,-2.9318891731786625,0.557549062423476,-2.453116496870283,-0.7582884718882932,0.22456217002373968,0.0011247042993242085,-0.5968204157115234,9.134507230239704,0.513053792762481,-0.24788189071523561,0.05924879494766984,0.0002925915269482434
0.98,0.8838852687285663,0.0006268780092055675,-1.3150261785736468,0.14423543174148096,-0.09937123397567232,-0.0008233979809192369,2.7017724074269203,-0.02058709767886234,0.07076525517414906,0.022088239471393153,-0.09346042222430126,0.000498574659815454,-3.17289718477563,0.4533556456164264,-2.367478856598207,-0.726965493166845,0.22993259852276005,0.0009645263284762118,-0.6480197471546043,9.07636532153768,0.48252838363166295,-0.2532595963082839,0.060425079467628345,0.00026936427592275287
0.99,0.9105867278650612,0.00046550847248770836,-1.3145530791479778,0.14438461608132733,-0.10028632132422417,-0.0008183396006108708,2.6701459136494936,-0.016136953671785918,0.04730994256689766,0.014918433984637255,-0.09150873485518557,0.0005058380308366168,-3.4071439651475974,0.37410501929488227,-2.2764761263919784,-0.6942986841506267,0.23488461211484335,0.0008030766381907917,-0.6979519873029546,9.028465281827494,0.4556108680095976,-0.2578753408754799,0.06158965124952914,0.0002466471842969743
