tonegas/nnodely-applications/joint_friction_estimation/dataset/train/mpc_mujoco_episode_18 copy.csv
time,q1,q2,q3,q4,q5,q6,dq1,dq2,dq3,dq4,dq5,dq6,ddq1,ddq2,ddq3,ddq4,ddq5,ddq6,tau1,tau2,tau3,tau4,tau5,tau6
0.0,0.0,1.57,-1.57,0.0,0.0,0.0,0.0,0.0,0.0,0.0,0.0,0.0,-13.991800838671802,8.42094761609276,13.598053471776945,5.061248516163104,-1.9763813809309312,-1.8616018362394016e-06,-1.9495738853034563,2.276546981605402,-0.9642754384213892,-0.1809719918340703,-0.17581526069164766,-0.0021913765556134386
0.01,-0.0013916608442706509,1.5708441288941624,-1.568644339273884,0.000474522796430017,-0.00016839114835028255,-1.4636439231518805e-06,-0.13916608442706507,0.08441288941622692,0.13556607261160308,0.0474522796430017,-0.016839114835028254,-0.00014636439231518805,-13.977993662296758,8.549685747199675,13.442558739374519,4.682831097241909,-1.6698638382151927,-0.014482467613559535,-1.9688133129754157,2.280445451171812,-0.967334316640668,-0.18204868928086926,-0.17708831664953942,-0.0021956961606880744
0.02,-0.004172587134423862,1.5725453493977204,-1.5659504008636247,0.00139306694103011,-0.0004864603819022676,-4.454150151985625e-06,-0.2780926290153211,0.17012205035579864,0.26939384102592584,0.0918544144600093,-0.0318069233551985,-0.00029905062288337447,-13.945588677239586,8.672342366102365,13.242435268023334,4.36525669829652,-1.4770375862048155,-0.014588710834072316,-2.0032719525715765,2.2361514823155124,-0.9789730393805725,-0.18401069705578432,-0.17918916314666972,-0.0021925142986206608
0.03,-0.008338971984892748,1.5751159433697126,-1.561939494581119,0.0027295696055945323,-0.0009422382097610096,-8.869112510403898e-06,-0.4166384850468886,0.2570593971992133,0.40109062825057934,0.13365026645644223,-0.0455777827858742,-0.0004414962358418273,-13.896137815305401,8.78423317803622,13.000202605545862,4.09074020912098,-1.3490227798047414,-0.012628337442333049,-2.0523583160563574,2.1418909458427686,-0.9999535523115437,-0.1870094398717499,-0.1820429621649783,-0.0021810987791461523
0.04,-0.013885581145897437,1.578567059103222,-1.556636730153918,0.004461041338906285,-0.0015275468874295782,-1.4603648680500281e-05,-0.5546609161004689,0.34511157335094234,0.5302764427201053,0.17314717333117524,-0.058530867766856856,-0.0005734536170096383,-13.829367625073099,8.880859830578183,12.71727741900099,3.8457106819102904,-1.256458804103687,-0.010257763168775469,-2.115211400704878,1.9962327477566806,-1.0308473497025332,-0.19114192301451105,-0.18554552227158586,-0.0021605293000735454
0.05,-0.02080562188493345,1.5829082738310414,-1.5500709711661538,0.006566522984089124,-0.0022362232480440452,-2.155988335403536e-05,-0.6920040739036013,0.4341214727819431,0.6565758987764103,0.21054816451828398,-0.07086763606144672,-0.0006956234673535078,-13.743896660756702,8.957945312725087,12.394353695130508,3.6198768497575173,-1.1818553322457461,-0.007634020820042053,-2.190674661994423,1.798206528228521,-1.0720035402506274,-0.196445867064987,-0.18956448878202853,-0.0021297066181822357
0.06,-0.02909054232906059,1.588147175852691,-1.5422748386030305,0.009026293573983065,-0.0030630588728694777,-2.9640068046367234e-05,-0.8284920444127137,0.5238902021649698,0.7796132563123325,0.24597705898939407,-0.08268356248254322,-0.0008080184692331871,-13.637712053817014,9.011489250015499,12.0317190140733,3.4055091279806646,-1.1149889129393955,-0.004771456203798152,-2.2772680134213,1.5474218883551387,-1.1235174794500944,-0.2028953893815586,-0.19394110878916143,-0.002087394246359654
0.07,-0.03872979284826761,1.5942889724532345,-1.533284737700435,0.01182127508545448,-0.0040031803548408774,-3.874164744198885e-05,-0.9639250519207018,0.6141796600543471,0.8990100902595523,0.2794981511471413,-0.09401214819714,-0.0009101579395621618,-13.508499675004485,9.037834885288143,11.629516940730777,3.1968918001126667,-1.0501034506185647,-0.0017131193025470282,-2.3731628031705894,1.2441812497420432,-1.1852029239458024,-0.21039796775197983,-0.1984927896284245,-0.0020322812738928966
0.08,-0.04971057256577534,1.601336130785393,-1.5231408859723004,0.014932592975095483,-0.005051700914257793,-4.875530762851617e-05,-1.0980779717507727,0.7047158332158545,1.0143851728134767,0.3111317889641004,-0.10485205594169153,-0.0010013660186527318,-13.353884200209583,9.033740698302136,11.187962685116862,2.989904673855726,-0.9841967629226644,0.0014679232784722274,-2.476164994327747,0.8895783984673624,-1.2565706488834203,-0.21879336749490474,-0.2030166146217415,-0.0019630591969507076
0.09,-0.062017578867421985,1.6092880592252474,-1.5118873240128217,0.018341261241130443,-0.006203540159425399,-5.956505471209346e-05,-1.2307006301646644,0.7951928439854266,1.125356195947863,0.34086682660349593,-0.11518392451676059,-0.0010809747083577292,-13.171611613882467,8.996450461855808,10.707516675403022,2.7817018452553697,-0.9159631425462038,0.0046851755877188594,-2.5837118243068975,0.4855750640536307,-1.3368162978829679,-0.22785512000363917,-0.20729390983051213,-0.0018785074901326237
0.1,-0.07563277437234274,1.6181408364609136,-1.499571894145729,0.02202796806262915,-0.007453348334559155,-7.104947672009157e-05,-1.361519550492075,0.8852777235666238,1.2315429867092684,0.36867068214987087,-0.12498081751337567,-0.0011484422007998108,-12.959691972823911,8.92375629962666,10.189018999850152,2.5704624886849174,-0.8451326991595352,0.007852455372417744,-2.692886879222913,0.03504864586675627,-1.4248198635737896,-0.2372949982124679,-0.21109587204219474,-0.0017775832023308245
0.11,-0.0905351833083171,1.627886994801793,-1.4862461753393255,0.02597294342919016,-0.008795495259590684,-8.308360933653598e-05,-1.490240893597436,0.9746158340879627,1.3325718806403437,0.3944975366561009,-0.134214692503153,-0.0012034132616444415,-12.716511415597955,8.814050152582622,9.63378675603139,2.3551944985838418,-0.772051642801749,0.010893164767008301,-2.800457671080025,-0.458194522173228,-1.5191586057369175,-0.24677074071715932,-0.21419017485417385,-0.001659509812971581
0.12,-0.1067007270680822,1.6385153629821123,-1.4719653660776983,0.030155894051975628,-0.010224098602754582,-9.554102596025154e-05,-1.616554375976511,1.062836818031919,1.4280809261627208,0.41829506227854685,-0.14286033431638978,-0.0012457416623715557,-12.440917407958006,8.666360040055654,9.043676063498333,2.1355765424609388,-0.697410316569929,0.013745791948245767,-2.9029383940751723,-0.989444197479548,-1.6181344148329502,-0.25589703810962583,-0.21634837246726168,-0.0015238603691880132
0.13,-0.12410210661887316,1.6500109721706684,-1.4567881100741769,0.03455599361004526,-0.011733074935454783,-0.00010829590774799964,-1.7401379550790956,1.1495609188556064,1.5177256003521387,0.4400099558069626,-0.15089763327002012,-0.0012754881787748107,-12.132278728741085,8.480368615302355,8.421110693129778,1.9118278599764338,-0.6220635557400982,0.016366420964278205,-2.9966785867769996,-1.553151176961503,-1.7198156624750567,-0.2642595277006098,-0.21735382767624345,-0.001370629816994902
0.14,-0.14270873727571076,1.6623550270976188,-1.440776262790411,0.03915191833130869,-0.013316202491721319,-0.00012122494181679254,-1.8606630656837588,1.2344054926950399,1.6011847283765828,0.45959247212634297,-0.15831275562665356,-0.001292903406879289,-11.790516477641356,8.256412573782047,7.769079800715922,1.6845981879312504,-0.5469105427142154,0.01872892262202175,-3.077975296958151,-2.143031390220286,-1.822092532904001,-0.2714312711766511,-0.21700975289278485,-0.0012002911066245302
0.15,-0.16248673868775748,1.6755249422725542,-1.423994599612311,0.04392191927674681,-0.014967188051174843,-0.0001342089609675596,-1.9778001412046724,1.316991517493535,1.6781663178100161,0.47700009454381187,-0.16509855594535233,-0.0012984019150767045,-11.416125453546917,7.99546346100063,7.091107977988127,1.4548722498744837,-0.4728143307041748,0.020823435292253833,-3.143207716898454,-2.7522054226865995,-1.9227436415094337,-0.2769909147968366,-0.21514719936198484,-0.0010138329534710683
0.16,-0.18339898206037533,1.6894944413931392,-1.4065104691481194,0.048843923654843927,-0.016679732742251686,-0.000147134284934342,-2.091224337261786,1.3969499120585063,1.7484130464191516,0.4922004378097118,-0.1712544691076844,-0.001292532396678241,-11.010142934134924,7.699089474137981,6.391201226400733,1.2238858285129055,-0.40054995995565434,0.022653705796751744,-3.1889799338233944,-3.3733684556821872,-2.0195110974300525,-0.28054158113381855,-0.21163197316923618,-0.0008127706034741299
0.17,-0.20540519149297295,1.7042337161335892,-1.3883933973999765,0.053895658245544674,-0.0184475931697913,-0.00015989375672611833,-2.200620943259761,1.4739274740450017,1.811707174814302,0.5051734590700747,-0.17678604275396143,-0.0012759471791776323,-10.574224599714713,7.369404110565713,5.673771048762209,0.9930492798959278,-0.3307714309089391,0.024233793090713718,-3.2122916255992244,-3.9989812047278352,-2.110179975563156,-0.2817293705837458,-0.2063721672124427,-0.0005991447257125755
0.18,-0.22846210698148617,1.7197096391809232,-1.3697146506588986,0.05905478845709567,-0.02026463575533498,-0.00017238748872567527,-2.3056915488513203,1.547592304733414,1.8678746741077865,0.5159130211550994,-0.181704258554368,-0.0012493731999556946,-10.11032151287184,7.008993710214779,4.943552206466887,0.763883332604788,-0.2640002868367475,0.02558461896037123,-3.210632687045819,-4.621476448794134,-2.1926575547900007,-0.2802600828199849,-0.19931905807751849,-0.0003754534436718424
0.19,-0.25252367706416934,1.7358860242781318,-1.3505467655362882,0.06429906746682634,-0.02212488245766081,-0.00018452335419700348,-2.406157008268316,1.6176385097208548,1.9167885122610575,0.5244279009730675,-0.18602467023258273,-0.0012135865471328202,-9.62093110654661,6.620846712219717,4.2054981354263035,0.5379553070605105,-0.2006125819006499,0.02673055810845204,-3.1821687488002004,-5.233462750274214,-2.2650486757477237,-0.27591360788930325,-0.19047410352439786,-0.00014462309031204167
0.2,-0.2775413060288452,1.7527239262002718,-1.3309630567276989,0.06960648979114838,-0.02402254758707549,-0.00019621725615948172,-2.5017628964675835,1.6837901922140144,1.9583708808589353,0.5307422324322032,-0.18976651294146807,-0.001169390196247825,-9.108792515905462,6.208266406501774,3.4646828467044024,0.31682850071898017,-0.140850198143589,0.02769661578666449,-3.1257999419063482,-5.82792527462887,-2.3257217363615146,-0.26855431803285584,-0.17988663479310374,9.010100948887256e-05
0.21,-0.3034641254723017,1.7701819719454437,-1.3110371124149847,0.0749554447125615,-0.025952065475274365,-0.000207393221156469,-2.5922819443456544,1.745804574517183,1.9925944312714248,0.5348954921413134,-0.19295178881988734,-0.0011175964996987288,-8.575802649560993,5.774775526792353,2.72622625218969,0.1020279597473106,-0.0848372607202279,0.02850599185388525,-3.041017477641338,-6.398405878903493,-2.373359481928185,-0.2581365050991463,-0.16763858996826933,0.0003253329201394993
0.22,-0.33023918253707796,1.7882167136151508,-1.290842284849418,0.08032486642641934,-0.027908107284477762,-0.00021798338846186098,-2.6775057064776204,1.803474166970707,2.019482756556648,0.5369421713857838,-0.19560418092033957,-0.0010590167305391974,-8.026723750209642,5.32406877698449,1.9950954287661187,-0.10504236830669988,-0.032534631845642537,0.0291778868633652,-2.928699928654898,-6.93914807862846,-2.407011002165105,-0.24471016217724276,-0.15389371101206908,0.0005573454787011247
0.23,-0.35781191299474613,1.8067829982237265,-1.2704511960184308,0.08569437320216432,-0.029885593430579397,-0.00022792781141838658,-2.7572730457668153,1.8566284608575778,2.0391088830987214,0.5369506775744974,-0.19774861461016358,-0.0009944422956525611,-7.2875635854818945,4.858770369315556,1.2809643222151132,-0.30106975636689626,0.014454668533403492,0.02972822244594342,-2.7523296785150277,-7.445016355582013,-2.425499078310105,-0.22825508711201167,-0.1363637064839365,0.0007942000899717916
0.24,-0.386108854347044,1.8258342311452285,-1.2499347735182962,0.09104458414351832,-0.03187938023322051,-0.00023718062809914293,-2.8296941352297886,1.905123292150191,2.0516422500134524,0.5350210941354008,-0.1993786802641112,-0.0009252816680756348,-6.314824200628889,4.382971353521598,0.5900486328549839,-0.4844389714006603,0.06015076192259272,0.030078998781337685,-2.5014093408698885,-7.910208448658233,-2.428997842035373,-0.20917683777655702,-0.11459960730465482,0.0010305127922269992
0.25,-0.4150333071868064,1.845322785318176,-1.229361632203015,0.09635728052414254,-0.03388393117370008,-0.00024571092742398966,-2.8924452839762393,1.9488554172947485,2.0573141315281123,0.5312696380624212,-0.2004550940479567,-0.0008530299324846746,-5.367050195630971,3.9018718058996993,-0.079681844262665,-0.6569375257754491,0.11067394792797458,0.03020099894048478,-2.232474501465524,-8.330192119601042,-2.419628638269881,-0.1883730530654567,-0.09242525184120785,0.001243483871308011
0.26,-0.44449101600692353,1.8652005200156168,-1.2087982786352456,0.101615250426385,-0.035893551458369984,-0.00025349105003354204,-2.9457708820117126,1.987773469744081,2.056335356776946,0.5257969902242455,-0.20096202846699016,-0.0007780122609552362,-4.463578992420899,3.4189670124807585,-0.7251982635636027,-0.8180187836596451,0.16219973811515231,0.030224769815476393,-1.9537778689711285,-8.70351746343759,-2.3984434383887354,-0.16630037606775105,-0.07038468648179513,0.0014300384425063755
0.27,-0.4743921051448802,1.8854191296024734,-1.1883088094380903,0.10680234724850789,-0.03790266306098075,-0.00026049661495220996,-2.990108913795671,2.02186095868567,2.0489469197155317,0.518709682212289,-0.2009111602610769,-0.0007005564918667942,-3.621092939710271,2.937459614715421,-1.3437397685940966,-0.9672377309740803,0.21221339129551708,0.030156246209970816,-1.673483799383193,-9.029892464210416,-2.366612766116042,-0.14339056141970638,-0.048980870460708384,0.00158835174373491
0.28,-0.504652747534353,1.905930462980881,-1.167954636370054,0.11190353836367627,-0.03990599027018007,-0.00026670743366751686,-3.0260642389472765,2.0511333378407715,2.0354173068036427,0.510119111516838,-0.20033272091993184,-0.0006210818715306928,-2.848387567622733,2.46025734030918,-1.9328245458920497,-1.1042538738393244,0.2590591331077565,0.02998732736601256,-1.3981701587201425,-9.310039596136994,-2.325328001638338,-0.12002679840019048,-0.028590055109155757,0.0017179659006350187
0.29,-0.5351960470563988,1.9266868134855117,-1.1477942392516007,0.11690494365857267,-0.04189867297542212,-0.000272108181202873,-3.054329952204584,2.0756350504630565,2.0160397118453277,0.5001405294896404,-0.19926827052420543,-0.0005400747535356146,-2.1562221537703525,1.989981696305386,-2.490374011241358,-1.2288780312897476,0.301809878259645,0.02970837369296464,-1.1347379718167145,-9.545503823583534,-2.2757636211010817,-0.09653941479190582,-0.009587825058236424,0.0018192249462468826
0.3,-0.5659531140449046,1.9476411801153994,-1.1278829591572959,0.12179385959355422,-0.04387633809340828,-0.00027668837133687155,-3.0757066988505772,2.095436662988763,1.9911280094304769,0.4888915934981562,-0.19776651179861604,-0.00045801901339985815,-1.5737186764341136,1.528961986691762,-3.0147357028254964,-1.341073290703318,0.33993798064507974,0.029314881129694964,-0.8939838928720617,-9.738527637430954,-2.218992172669246,-0.0731859044567269,0.0074387202892309615,0.0018930111023911383
0.31,-0.5968659655266707,1.968747499556675,-1.108272834146247,0.12655876868380544,-0.04583518366051079,-0.0002804410253319586,-3.091285148176611,2.110631944127546,1.9610125011048676,0.4764909090251223,-0.19588455671025085,-0.0003752653995087083,-1.075902956026634,1.0792381755966616,-3.504425632309579,-1.4408461090451326,0.3726515388047327,0.028816889421432068,-0.6738978458344616,-9.891994606614356,-2.1557822872882624,-0.050104839178764675,0.02268419661408083,0.0019423460792511
0.32,-0.6278850462412957,1.9899608490886542,-1.089012451826846,0.13118934436926158,-0.04777196612884384,-0.0002833637448473965,-3.1019080714624954,2.121334953197934,1.9260382319401046,0.4630575685456144,-0.19367824683330453,-0.0002922719515437892,-0.6997794587979683,0.6425720430898124,-3.9585210496137835,-1.528400917180706,0.4002589903095535,0.028197372873217635,-0.4859462048691096,-10.008941911049916,-2.0869297614132454,-0.027419449092533285,0.035546988773274266,0.001969376605570671
0.33,-0.6589729100624281,2.01123762185857,-1.070146857934531,0.13567643707013816,-0.049684046596398954,-0.0002854563876400385,-3.108786382113233,2.1276772769915526,1.8865593892314998,0.44870927008765776,-0.19120804675551187,-0.00020926427926419895,-0.4134423533764766,0.2204633793844049,-4.376289269752661,-1.6039829939639656,0.42230343694618866,0.027477754310145375,-0.3251699637426294,-10.092827108765242,-2.012822061208939,-0.005121691347974994,0.046399225397265424,0.001977792431991808
0.34,-0.6901010495872467,2.03253567570592,-1.0517174839094503,0.14001205578506706,-0.05156934578699069,-0.00028672214078604704,-3.112813952481863,2.1298053847349894,1.8429374025080678,0.43356187149289,-0.18852991905917343,-0.00012657531460085071,-0.20462772697721526,-0.18583784725847535,-4.75734466933088,-1.6679404271173226,0.43927498233978657,0.026643864262336503,-0.19038627866578856,-10.146969862662283,-1.9339047252143258,0.01678465802719986,0.055373969682588065,0.0019705300832548104
0.35000000000000003,-0.7212486764117794,2.0538144571055454,-1.033762109100086,0.1441893395775209,-0.05342628108863456,-0.0002871675102388353,-3.114762682453264,2.127878139962544,1.7955374809364413,0.41772837924538364,-0.18569353016438644,-4.453694527882736e-05,-0.0536475919449659,-0.57531221562015,-5.101587235372514,-1.7206953421174465,0.4517964189321091,0.0256938646588607,-0.07812853692759858,-10.174624295905945,-1.850583433160677,0.038310717329856386,0.06272238683569066,0.0019501774722125037
0.36,-0.7524007623427248,2.075035102042454,-1.0163148514669809,0.14820252160170388,-0.05525368252263479,-0.00028680250351167166,-3.115208593094543,2.1220644936908153,1.7447257633105095,0.40131820241830024,-0.182740143400023,3.650067271636153e-05,0.05948077683010566,-0.9471525810953629,-5.409179472086805,-1.7627318753488712,0.4606784954115336,0.024625417489912954,0.015602647850510798,-10.178887877905678,-1.7633038395455762,0.05945841974729249,0.06870897423222158,0.0019187831092036616
0.37,-0.7835460506100624,2.0961605156801766,-0.9994061844638817,0.1520468868010338,-0.05705069828223585,-0.00028564079737638626,-3.1145288267337623,2.112541363772301,1.6908667003099107,0.38443651993298966,-0.17970157596010608,0.00011617061352853823,0.15162893230971392,-1.3007430029256581,-5.680513491498903,-1.7945810773980142,0.46680418246711575,0.023438216915527332,0.09444243238792144,-10.162672446103363,-1.672578803185254,0.08021328972891756,0.07356191614076696,0.0018779106068714196
0.38,-0.8146753762135689,2.117155432943125,-0.9830629767965107,0.15571872471504927,-0.05881670340264085,-0.00028369974609955735,-3.112932560350643,2.099491726294838,1.6343207667371105,0.3671837914015486,-0.17660051204050006,0.0001941051276828924,0.2521596814506581,-1.6356366373556994,-5.9161695589060175,-1.8168030882966413,0.47096527489165185,0.022135913301333854,0.16508817835026207,-10.12870135500153,-1.5789905717708521,0.10054263313063819,0.0776613356340786,0.00182836162891699
0.39,-0.8457787440040999,2.1379864621635125,-0.9673085509384743,0.15921527903767443,-0.06055119324955786,-0.0002810012365265884,-3.110336779053106,2.0831029220387856,1.5754425858036307,0.3496554322625175,-0.1734489846917005,0.00026985095729689326,0.5171525298490616,-1.9515106815133645,-6.116707977458242,-1.829907533674465,0.47282724772632556,0.02071571048066395,0.2627262576712317,-10.079423877134474,-1.483349777676326,0.1203395123497982,0.08288557385293262,0.0017664496873706311
0.4,-0.8768298054690201,2.158622115806393,-0.9521627398941713,0.16253470114951585,-0.062253527990903425,-0.00027758144642172673,-3.1051061464920164,2.0635653642880616,1.514581104430306,0.3319422111841423,-0.17023347413455686,0.0003419790104861709,0.8921490319404772,-2.2484337218261823,-6.283915722426238,-1.8348086752247283,0.47609593400612216,0.019082418715271887,0.3748754934360783,-10.01666358588027,-1.3878172221817895,0.13917500873860353,0.08846336423085491,0.0016918508787009555
0.41000000000000003,-0.9077912687188939,2.1790328031145805,-0.9376420658136164,0.165675965356109,-0.06392279730589727,-0.000273486058067775,-3.0961463249873806,2.0410687308187163,1.4520674080554936,0.3141264206593172,-0.16692693149938492,0.00040953883539517213,1.2748160953950414,-2.5265987770077536,-6.4196210406439285,-1.8323733485980327,0.4826842318452993,0.017294666575789597,0.4788223607130921,-9.942456869211513,-1.2940229160833492,0.15678802536551958,0.09313665643072556,0.0016076972908470545
0.42,-0.9386250737470544,2.199190810462209,-0.9237599224671977,0.16863878826689938,-0.06555787786278908,-0.0002687614407921353,-3.083380502816049,2.015800734762858,1.388214334641866,0.2962822910790357,-0.1635080556891811,0.0004724617275639751,1.6327847711156178,-2.786239052835839,-6.52542626702898,-1.8233280549125688,0.4916226554830292,0.015458499147399274,0.5679981452245911,-9.859098537229823,-1.20262769321124,0.17316758796073298,0.09657123326990644,0.0015167109293952245
0.43,-0.9692956140146837,2.2190702772934388,-0.9105267352615755,0.1714235609344871,-0.06715755133587017,-0.00026345175745332423,-3.0670540267629223,1.9879466831229453,1.3233187205622312,0.27847726675877255,-0.15996734730810924,0.0005309683338811049,1.9780333198533637,-3.0277056675054657,-6.603044796403079,-1.8083857717453427,0.5013381915714961,0.013622580965902853,0.6458667871627675,-9.768809344973072,-1.1139491639714232,0.18837875423036304,0.0989763457073234,0.0014202714195872674
0.44,-0.99976854804237,2.23864716010389,-0.8979501323535104,0.17403128172464255,-0.06872058593672058,-0.000257600248908953,-3.0472934027686365,1.9576882810451215,1.2576602908065075,0.26077207901554583,-0.15630346008503992,0.0005851508544371251,2.3076236618992176,-3.2514297188246366,-6.654223266405257,-1.7882224126657427,0.5110975753918758,0.01179352663082922,0.712686388355863,-9.673534957791599,-1.0283049303800202,0.20247825026319502,0.10039244934682388,0.001320095379020961
0.45,-1.0300110929351969,2.257899188598951,-0.8860351188926667,0.1764634921641689,-0.0702457886079711,-0.000251249478977028,-3.024254489282687,1.9252028495060902,1.1915013460843618,0.2432210439526355,-0.15252026712505215,0.0006350769931924977,2.6202792744155365,-3.457912047688392,-6.680734218196113,-1.7634780946240056,0.5203362869355495,0.009988122913231035,0.7691493519922954,-9.575013028590234,-0.9459094455928858,0.21553765275804887,0.10088705264835376,0.0012177404300361273
0.46,-1.0599921522234679,2.2768058149423367,-0.8747842537370091,0.17872221573459476,-0.07173204338232496,-0.0002444413739909197,-2.9981059288270977,1.89066263433861,1.125086515565765,0.22587235704258693,-0.148625477435386,0.0006808104986108312,2.91775135990399,-3.6477185911266066,-6.684381710558039,-1.734762345344258,0.528617885722257,0.008224323419812274,0.8166221386355841,-9.4747774074243,-0.8669056254577134,0.22763406216330906,0.10056445140569738,0.001114479565539973
0.47000000000000003,-1.089682142256775,2.295348156553399,-0.864197829212858,0.1808098991623414,-0.0731783365306336,-0.0002372173306295455,-2.96899900333071,1.8542341611062245,1.0586424524150984,0.20876834277466155,-0.14462931483086397,0.0007224043361374169,3.2003537427314557,-3.821458044701658,-6.6669547991087965,-1.7026415554766992,0.5356807821180549,0.006517958992057427,0.8561430266633243,-9.374154956847306,-0.791393748618137,0.23884310905394696,0.09951334773160808,0.0010114810147628277
0.48,-1.1190529611983544,2.313508934709755,-0.8542740492669083,0.18272935743465732,-0.07458377258590881,-0.000229618113915871,-2.9370818941579366,1.8160778156356203,0.9923779945949714,0.19194582723159365,-0.14054360552752151,0.0007599216713674514,3.4685866621747703,-3.979773568920135,-6.630220460239409,-1.6676406092989247,0.541349201337006,0.004885121384631708,0.8887508827985275,-9.274285851426402,-0.7194316550312767,0.24923862748493525,0.09782350707750768,0.0009097437709213961
0.49,-1.1480779392939982,2.3312724097716093,-0.8450092053221644,0.18448372244076564,-0.07594758443142516,-0.0002216836955372563,-2.9024978095643705,1.7763475061854153,0.9264843944743947,0.17543650061083121,-0.13638118455163376,0.0007934418378614694,3.7231524187417744,-4.123333518458649,-6.575911618679675,-1.6302427458033435,0.5455136067074609,0.0033403244097092166,0.9154688402699867,-9.176138422433873,-0.651045429046481,0.25889025550838723,0.09558422236430483,0.0008100971043684035
0.5,-1.1767317689119765,2.3486243139527905,-0.836397848653008,0.18607639529605857,-0.0772691387041128,-0.000213453081192169,-2.865382961797825,1.7351904181181343,0.8611356669156374,0.1592672855292942,-0.13215542726876406,0.0008230614345087262,3.964458597958752,-4.252820016968427,-6.5057091873976205,-1.590887520928277,0.5481226061659683,0.0018957920646776039,0.9371873034713374,-9.080523331993057,-0.5862370794029454,0.2678621077397535,0.09287805171226612,0.0007132345289962451
0.51,-1.2049904637892639,2.3655517827808827,-0.8284329574956519,0.18751100258605172,-0.07854793777365411,-0.0002049641132091687,-2.8258694877287356,1.6927468828092045,0.7964891157356071,0.14346072899931356,-0.12787990695413168,0.0008488967983000312,4.193313135596789,-4.368925510581297,-6.421242867546118,-1.549975154556602,0.5491598163280909,0.0005614771683082331,0.954802037393725,-8.988111877605283,-0.5249908015427798,0.27621177524148194,0.08978700926591604,0.0006196849161082609
0.52,-1.2328312784073832,2.3820432855849845,-0.821106098988176,0.1887913561622391,-0.07978361877569003,-0.00019625331569376732,-2.7840814618119234,1.6491502804101787,0.7326858507475934,0.1280353576187383,-0.1235681002035921,0.0008710797515401396,4.410348189688886,-4.472343345921696,-6.324076669984338,-1.5078655776641838,0.548648575213381,-0.0006556245701252461,0.9690900252366802,-8.899449329362705,-0.4672797419809238,0.2839895733137713,0.08638603339402418,0.0005298549618415403
0.53,-1.2602326447983185,2.3980885559533225,-0.8144075845034074,0.1899214166188519,-0.08097595023464191,-0.00018735575041328248,-2.74013663909354,1.6045270368338207,0.6698514484768533,0.11300604566127928,-0.119233145895188,0.0008897565280484835,4.6162006147374175,-4.563763250438249,-6.215705868946411,-1.4648813243679584,0.546639915446292,-0.0017510827396225448,0.9807475644798511,-8.814970567289105,-0.41306928684497035,0.291238551715549,0.08274449763602254,0.00044403270987055185
0.54,-1.287174108858247,2.413678522608211,-0.8083266180831332,0.19090526021665188,-0.08212482680139543,-0.00017830489999845297,-2.6941464059928313,1.5589966654888257,0.6080966420274181,0.0983843597799982,-0.1148876566753527,0.0009050850414829507,4.811501500699878,-4.643866786990328,-6.097553288287848,-1.421309977571731,0.5432077520416243,-0.0027230478401631952,0.9903907847607236,-8.735013955172338,-0.3623203813979545,0.2979945751178378,0.07892592445296212,0.00036240147709528975
0.55,-1.3136362672225286,2.428805241149313,-0.8028514376140554,0.1917470490585019,-0.0832302624415122,-0.0001691325818751436,-2.6462158364281696,1.5126718541102024,0.5475180469077849,0.08417888418500298,-0.11054356401167699,0.0009172318123309384,4.996869492853014,-4.713323586170005,-5.970966988632405,-1.3774068601500034,0.538444528051448,-0.0035720753571859554,0.9985588869831097,-8.659834173573781,-0.3149919779106314,0.30428661763051945,0.07498790698711752,0.00028505377671158834
0.56,-1.3396007053768055,2.4434618270380986,-0.7979694485253425,0.19245100429556333,-0.08429238237735653,-0.00015986889296912263,-2.596443815427705,1.465658588878533,0.4881989088712924,0.07039552370614267,-0.10621199358443274,0.0009263688906020948,5.172905990761442,-4.772788249547556,-5.837219146229094,-1.3333978592555198,0.5324572228368112,-0.004300873345389755,1.0057190827148434,-8.589613927808632,-0.27104276763919266,0.3101372088276044,0.07098218519304966,0.0002120049148361166
0.5700000000000001,-1.365049937489982,2.4576423901290614,-0.7936673499060029,0.19302138212743675,-0.08531141406369568,-0.00015054218364459458,-2.5449232113176588,1.418056309096278,0.43020986193396515,0.05703778318734028,-0.10190316863391485,0.0009326709324528052,5.340191456992225,-4.822897825162396,-5.697505931183534,-1.2894822879025085,0.5253636664429777,-0.0049140075478044665,1.012272554855553,-8.524474505617114,-0.2304323316184662,0.3155629804213831,0.06695483808484176,0.00014320598439678277
0.58,-1.3899673483426371,2.471341970995887,-0.7899312530393213,0.19346245235288181,-0.08628767745656471,-0.0001411790583288753,-2.491741085265517,1.3699580866825678,0.3736096866681518,0.04410702254450667,-0.0976263392869034,0.0009363125315719271,5.499282494039539,-4.864269764772128,-5.552948208196484,-1.2458357037701617,0.5172891418375407,-0.005417584472411807,1.0185609481323363,-8.464485200471458,-0.19312182833048963,0.3205752724676264,0.06294656162470355,7.85560440105094e-05
0.59,-1.414337137646424,2.4845564792524795,-0.7867467924328405,0.1937784792285024,-0.08722157481631805,-0.00013180439962476152,-2.4369789303786815,1.3214508256592339,0.3184460606480791,0.031602687562057453,-0.09338973597533354,0.000937465870411379,5.650709513641899,-4.897500280699375,-5.404592898149378,-1.2026126202398686,0.5083632808097356,-0.0058189286918066685,1.0248730230677847,-8.40967164491844,-0.15907432044381287,0.32518076656428,0.05899300687244484,1.7913333645987347e-05
0.6,-1.4381442669897249,2.4972826340287666,-0.7840992294873795,0.1939737043996117,-0.08811358026604081,-0.00012244141234225286,-2.3807129343300923,1.2726154776287089,0.2647562945460962,0.019522517110932787,-0.08920054497227554,0.0009362987282508648,5.794974889744533,-4.923163028504896,-5.253414854086117,-1.1599490588938188,0.49871726960873275,-0.006126267536808783,1.0314512020659201,-8.360023117106813,-0.12825482720473558,0.3293821210972233,0.05512515709761802,-3.88945635622202e-05
0.61,-1.4613744095955625,2.5095179067286475,-0.7819735489989205,0.19405233167912866,-0.08896422930517653,-0.00011311168373632232,-2.323014260583772,1.2235272699880888,0.21256804884590225,0.00786272795169557,-0.0850649039135723,0.0009329728605930541,5.9325515154176,-4.941808050016948,-5.100319120273515,-1.117964905772098,0.4884813807728676,-0.006348433426501376,1.0384978126060502,-8.315498894933523,-0.10063017404009056,0.3331785901836033,0.05136972615532693,-9.2061655206254e-05
0.62,-1.4840139030366033,2.5212604661714857,-0.7803545487243966,0.19401851346562943,-0.08977410845538956,-0.00010383525626885035,-2.263949344104072,1.1742559442838123,0.16190002745238594,-0.0033818213499239233,-0.08098791502130293,0.0009276427467471969,6.063881698129975,-4.9539609193220535,-4.946143457850961,-1.0767660454872559,0.4777828419717274,-0.006494591238884073,1.0461808945987414,-8.27603373784501,-0.07616869696965323,0.3365666135558302,0.04774956368429897,-0.00014179557148034737
0.63,-1.506049705017623,2.532509126198388,-0.7792269222679952,0.19387633860953582,-0.09054384519179613,-9.463070937682668e-05,-2.2035801981019723,1.124866002690217,0.11276264564013591,-0.014217485609360241,-0.07697367364065648,0.0009204546892023661,6.18937633588954,-4.9601220420550005,-4.791661034916593,-1.0364462576145073,0.46674404413117543,-0.006573995617219275,1.0546394888786952,-8.241542577704442,-0.05483984688779242,0.3395403692428338,0.044284055621856645,-0.00018831066646668757
0.64,-1.5274693523072187,2.543263295809348,-0.7785753355600004,0.1936298215559375,-0.09127409828844761,-8.551524698839759e-05,-2.141964728959582,1.075416961096049,0.06515867079947953,-0.024651705359832177,-0.07302530966514748,0.0009115462388429095,6.309414322490838,-4.960766065636264,-4.6375831925549225,-0.9970888686000254,0.4554810818062762,-0.006595780884866009,1.0639883630957039,-8.211924498467502,-0.03661372786901196,0.3420922846015305,0.04098951113607699,-0.00023182213728111791
0.65,-1.5482609228772548,2.553522931886448,-0.778384497206828,0.19328289261292803,-0.09196554868305765,-7.650478785102839e-05,-2.079157057003618,1.0259636077100054,0.019083835317239513,-0.0346928943009468,-0.06914503946100417,0.0009010459137369196,6.424342134928726,-4.9563413649497665,-4.484562211175959,-0.9587681597233288,0.44410261013630503,-0.006568784418823359,1.0743221612900336,-8.187066080651764,-0.021460594452766157,0.3442135041190551,0.037879529343635095,-0.0002725410933937692
0.66,-1.5684130012900448,2.563288494550991,-0.778639222990052,0.19283938921492735,-0.09261889094310138,-6.761405609545754e-05,-2.0152078412789964,0.9765562664542612,-0.025472578322395162,-0.04435033980006585,-0.06533422600437332,0.0008890731755570856,6.534473560543845,-4.947269574313378,-4.333194013522171,-0.921550537510452,0.4327089955603398,-0.006501402906406106,1.0857189855458982,-8.16684418149053,-0.009350325335481524,0.3458943145481064,0.0349653411155807,-0.0003106704980866207
0.67,-1.587914647359122,2.5725609051980762,-0.779324494785094,0.1923030480707319,-0.09323482539413451,-5.885666983407826e-05,-1.950164606907707,0.9272410647085269,-0.06852717950420985,-0.053634114419545464,-0.06159344510331197,0.0008757386261379278,6.640089525906208,-4.933945142477511,-4.184020751776989,-0.8854954774899415,0.4213917321864855,-0.006401479818663347,1.0982434336089657,-8.151128215813877,-0.0002518849347677987,0.34712452946151207,0.03225612288607746,-0.0003464018984138096
0.68,-1.6067553680991866,2.58134150725009,-0.7804255141579641,0.19167749810556559,-0.09381405095189604,-5.024522596598982e-05,-1.8840720740064625,0.878060205201365,-0.1101019372870117,-0.06255499651663003,-0.05792255577615348,0.0008611443868088441,6.741437993909473,-4.916734892818626,-4.037533236375765,-0.8506562554651325,0.41023309234731187,-0.0062762216913800906,1.111949126454334,-8.139781996539112,0.005867220258237715,0.34789383632264814,0.02975928069276177,-0.00037991285824940106
0.6900000000000001,-1.6249250929739754,2.589632029670338,-0.7819277508820144,0.19096625412489326,-0.09435725868273753,-4.17913797208402e-05,-1.8169724874788675,0.8290522420247894,-0.15022367240502135,-0.07112439806723282,-0.054320773084148524,0.000845384624514962,6.838733900070546,-4.8959775759130775,-3.894173173398878,-0.8170804827113667,0.39930597832587367,-0.006132140333799718,1.1268807656117976,-8.132665187504513,0.009041486929765474,0.3481921097626834,0.027480703719340586,-0.00041136501020386907
0.7000000000000001,-1.6424141524469116,2.5974345532791063,-0.7838169865970361,0.1901727111449839,-0.09486512610229325,-3.35059178108527e-05,-1.7489059472936122,0.7802523608768241,-0.18892357150217118,-0.07935429799093476,-0.05078674195557177,0.00082854619099875,6.932159103614471,-4.871983406331695,-3.7543351858795724,-0.7848104628309578,0.3886739422478662,-0.00597501785453769,1.1430757625748438,-8.129634415477689,0.00930796043024229,0.3480096950199364,0.025424987412070478,-0.0004409026456411662
0.71,-1.659213259838,2.60475147991629,-0.7860793538110264,0.1893001393510403,-0.09533831221008231,-2.539882436941519e-05,-1.679910739108848,0.7316926637183971,-0.22623672139903578,-0.08725717939436356,-0.04731861077890594,0.0008107093441437511,7.021862333575381,-4.845033579842828,-3.618368602047384,-0.7538833886103813,0.37839134240317307,-0.005809891333229622,1.1605654826787923,-8.130544082673161,0.006706780473439866,0.3473376655048911,0.02359562683379361,-0.00046865176712329067
0.72,-1.6753134964910397,2.6115855044969787,-0.788701370421343,0.18835167965806562,-0.09577745324782927,-1.7479339131944305e-05,-1.610023665303962,0.6834024580688561,-0.2622016610316611,-0.09484596929746611,-0.043914103774696046,0.0007919485237470883,7.107959114865122,-4.815379771306293,-3.4865790005398325,-0.7243313972699301,0.3685036064747571,-0.005641054053910022,1.1793761441357313,-8.135246916127365,0.0012817276237153674,0.3461680582681471,0.02199518133396554,-0.000494719533846103
0.73,-1.6907063002573686,2.61793959000859,-0.7916699699074484,0.18733033986249442,-0.09618315916154863,-9.75600755921108e-06,-1.5392803766328798,0.6354085511610962,-0.29685994861053616,-0.1021339795571197,-0.04057059137193621,0.0007723331572733226,7.190531664057939,-4.78324361744484,-3.3592295090477813,-0.6961815021298392,0.35904757501212714,-0.005472070397472439,1.1995294100358764,-8.143594285866786,-0.006919228863466853,0.3444940908174812,0.02062541188099362,-0.0005191940376037893
0.74,-1.7053834573055404,2.6238169454999376,-0.7949725273226529,0.1862389913839801,-0.09655601074165276,-2.236722815187834e-06,-1.4677157048171852,0.5877355491347775,-0.33025574152045173,-0.10913484785143421,-0.03728515801041363,0.0007519284744023245,7.269628749525905,-4.748816192440563,-3.2365418588050776,-0.6694554180931664,0.3500519017286159,-0.005305801736881666,1.2210427075310728,-8.15543631999733,-0.017843381788301915,0.3423103622932865,0.019487392552687013,-0.00054214435420995
0.75,-1.7193370972700608,2.629221007113596,-0.7985968811877835,0.18508036660664298,-0.09689655741127522,5.071240307857822e-06,-1.3953639964520317,0.5404061613658572,-0.36243538651305696,-0.11586247773371147,-0.03405466696224557,0.0007307963123045656,7.34526551554632,-4.712257487976662,-3.118697202899023,-0.6441692975778945,0.34153749060456917,-0.0051444409534000535,1.2439293044727158,-8.170621841651444,-0.031432736187336,0.33961304149862576,0.018581597737843514,-0.0005636208228630237
0.76,-1.7325596917560826,2.634155422212732,-0.8025313513660807,0.18385705683758236,-0.09720531563040051,1.2161199272796556e-05,-1.3222594486021735,0.4934415099136052,-0.3934470178297233,-0.12233097690606175,-0.030875821912529182,0.0007089958964938734,7.417423275099527,-4.673695912958863,-3.0058367116627625,-0.6203333927240955,0.33351795317775057,-0.0049895535010038294,1.2681981697692097,-8.188998150147041,-0.047623461023213465,0.33640004371289867,0.017907966590689134,-0.0005836555134843983
0.77,-1.7450440562202676,2.6386240366518625,-0.806764752976381,0.18257151090759477,-0.09748276788200509,1.902704512021665e-05,-1.2484364464184936,0.44686144391304894,-0.42334016103002603,-0.12855459299875954,-0.027745225160457774,0.0006865845847420097,7.486049281288739,-4.633227831738259,-2.8980619634945883,-0.5979516589801914,0.32600007265034137,-0.004842123225527573,1.2938536398772191,-8.210410666723364,-0.06634534594589114,0.3326711976125879,0.017465946221348526,-0.0006022628494369044
0.78,-1.7567833552503287,2.6426308852373794,-0.8112864063812687,0.18122603444486232,-0.0977293622059992,2.5663230759303848e-05,-1.1739299030061148,0.4006848585516893,-0.4521653404887782,-0.13454764627324536,-0.024659432399410545,0.0006636185639087198,7.551056492634592,-4.590917163219499,-2.7954351544300526,-0.5770213145497021,0.31898426447775563,-0.004702601454257049,1.3208949103147716,-8.234702463798396,-0.08752126838149799,0.3284284029898594,0.017254515018798135,-0.0006194403601431491
0.79,-1.7677711112665542,2.6461801854178257,-0.8160861432688796,0.17982278985691152,-0.09794551224708771,3.2064765675021626e-05,-1.0987756016225534,0.35493001804464197,-0.479973688761096,-0.14032445879508054,-0.021615004108851088,0.0006401534915717775,7.612323352904826,-4.546795066768539,-2.6979791547093677,-0.557532369785589,0.3124650258482582,-0.004570958110126089,1.349315368011675,-8.261713695811,-0.11106667805940185,0.32367577930816704,0.017272187404771676,-0.0006351695448844074
0.8,-1.7780012166673305,2.64927633423545,-0.8211543088318782,0.17836379705941072,-0.09813159778353212,3.822721643619897e-05,-1.023010540077631,0.3096148817624037,-0.5068165562998603,-0.14589927975008027,-0.018608553644440362,0.0006162450761177344,7.669693611590636,-4.500859744290799,-2.605677445497506,-0.5394671404110145,0.30643136890722644,-0.004446733870895336,1.3791017777936556,-8.291280949332977,-0.13688910806030574,0.31841980447001655,0.017517001222909508,-0.00064941683540456
0.81,-1.7874679494367864,2.65192390855916,-0.8264817600353103,0.176850934992372,-0.09828796570500917,4.414671234029316e-05,-0.9466732769455941,0.2647574323709783,-0.5327451203432073,-0.15128620670387116,-0.0156367921477058,0.0005919495904094183,7.722976216567702,-4.453076391177415,-2.5184739738164694,-0.5227997585143083,0.30086723470827437,-0.004329092597629813,1.4102333344097846,-8.323236530222248,-0.16488772351456193,0.3126694425018249,0.01798648889039197,-0.0006621346508089465
0.8200000000000001,-1.7961659922256306,2.6541276686043243,-0.8320598599570231,0.17528594396502598,-0.0984149314091611,4.981995549387387e-05,-0.8698042788844033,0.22037600451641307,-0.5578099921712821,-0.15649910273460255,-0.01269657041519362,0.0005673243153580713,7.771945315782356,-4.403377331914579,-2.436272968637681,-0.5074956955352885,0.2957518867008808,-0.004216873447869585,1.4426805903220392,-8.357407706091974,-0.19495292115100304,0.30643625819164916,0.018677633391119587,-0.0006732625435735055
0.8300000000000001,-1.8040904549055172,2.655892564726596,-0.8378804681806367,0.17367042887000392,-0.09851278058787565,5.524423460088415e-05,-0.7924462679886618,0.17648961222717796,-0.5820608223613556,-0.1615515095022046,-0.009784917871454149,0.0005424279107010285,7.816340409848176,-4.351662378897836,-2.3589387658725385,-0.4935113119896055,0.291060284110614,-0.004108642248750627,1.476404269034107,-8.393615923238798,-0.2269659949349352,0.2997345160565725,0.019586810180417136,-0.0006827284401980515
0.84,-1.8112369005823545,2.6572237474548133,-0.8439359272221131,0.17200586330542805,-0.09858177137570097,6.041744171146668e-05,-0.7146445676837412,0.1331182728217548,-0.60554590414764,-0.1664565564575865,-0.006899078782531974,0.0005173207110582526,7.8558667020571,-4.297799455231145,-2.2862956946095325,-0.48079344933278456,0.2867634368468366,-0.0040027418468731035,1.5113539740881174,-8.431676018344088,-0.2607988849690542,0.292581260380137,0.020709716109906774,-0.0006904499840709406
0.85,-1.81760137503439,2.6581265807018166,-0.8502190449772631,0.17029359464000238,-0.09862213683398949,6.533809117079882e-05,-0.6364474452035476,0.09028332470034575,-0.6283117755150026,-0.17122686654256775,-0.004036545828852376,0.0004920649459332146,7.890195696291094,-4.241625523825661,-2.218128081201702,-0.469279080176932,0.28282874461661933,-0.0038973412475034053,1.5474668050380467,-8.471395446661502,-0.2963140285787642,0.28499637246253917,0.022041286574602026,-0.0006963359913683695
0.86,-1.8231804395162838,2.6586066580615744,-0.8567230731894712,0.16853485005112914,-0.09863408774529235,7.000533999883882e-05,-0.5579064481893878,0.0480077359757566,-0.650402821220807,-0.17587445888732425,-0.0011950911302857684,0.0004667248828040002,7.9189660964210855,-4.182947865730172,-2.1541804315258957,-0.45889503387772734,0.27922032375176187,-0.0037904834434123735,1.5846658937423976,-8.512573549946262,-0.33336433396226633,0.27700260068816057,0.023575602237493852,-0.0007002880331846938
0.87,-1.8279712068403966,2.6586698220662583,-0.8634416819548809,0.16673074355936368,-0.09861781569312666,7.441900892715308e-05,-0.47907673241128396,0.006316400468390167,-0.6718608765409771,-0.18041064917654723,0.0016272052165692647,0.000441366892831426,7.94178506272126,-4.121545750076527,-2.0941578546510833,-0.4495578152744173,0.2758993258759581,-0.00368013188779015,1.6228588772175163,-8.555000888964548,-0.3717932978381724,0.2686255585620662,0.02530578690276808,-0.0007022021584592621
0.88,-1.8319713806109703,2.6583221862379136,-0.8703689303065523,0.16488228407408606,-0.09857349640246099,7.857960331761494e-05,-0.40001737705737955,-0.03476358283449566,-0.6927248351671371,-0.18484594852776295,0.004431929066567199,0.00041605943904618605,7.9582298813037,-4.0571725360528506,-2.037726792988402,-0.44117353492157463,0.2728242529752407,-0.0035642155976631784,1.6619363270485445,-8.598458666928826,-0.4114352890358284,0.25989368552991055,0.027223898387471024,-0.0007019707725002809
0.89,-1.835179297445734,2.6575701597263097,-0.8774992329498578,0.16299038445505307,-0.0985012933160759,8.248833318966486e-05,-0.32079168347635534,-0.0752026511603951,-0.7130302643305503,-0.1891899619033004,0.007220308638508619,0.0003908729872049929,7.967850101275658,-3.989558243665844,-1.9845161244125133,-0.43363796940954114,0.2699512736768561,-0.0034406728785936203,1.7017701599341555,-8.64271827150428,-0.45211601979948085,0.250838165209376,0.02932081457992229,-0.0006994846848707545
0.9,-1.8375939719728314,2.656420474277828,-0.8848273232586723,0.16105587158247042,-0.09840136138133851,8.614713158839761e-05,-0.24146745270973452,-0.11496854484819422,-0.7328090308814512,-0.1934512872582646,0.009993193473739169,0.0003658798398732746,7.970170190924162,-3.9184126244752835,-1.9341187005057048,-0.4268367701665303,0.26723454560118043,-0.00330749365050087,1.7422120592764603,-8.687540963976005,-0.49365322556344626,0.2414927956643898,0.031586117264746603,-0.0006946353379640065
0.91,-1.8392151443391964,2.654880213230352,-0.8923482126855892,0.15907949741440877,-0.09827385102088083,8.955867053566646e-05,-0.1621172366364969,-0.15402610474760037,-0.7520889426916877,-0.19763741680616562,0.012751036045767073,0.0003411538947268852,7.964692758451295,-3.843428755770588,-1.8860933816254946,-0.4206458383541021,0.264626548507934,-0.003162760315675417,1.783091943709505,-8.732677744599014,-0.5358575719480447,0.23189380658650155,0.034007976728100145,-0.0006873172236397397
0.92,-1.8400433299101495,2.6529568421768923,-0.9000571467891221,0.15706195099484846,-0.09811891225920803,9.272637382179635e-05,-0.08281855709530223,-0.19233710534596687,-0.7708934103532931,-0.2017546419560317,0.01549387616727995,0.0003167703286129883,7.950902374378284,-3.7642871716627413,-1.8399676236157076,-0.41493188195318,0.2620784326136132,-0.003004687056880062,1.8242165249281945,-8.777869422910152,-0.5785338045822774,0.2220796187513135,0.03657304061685416,-0.0006774304897288422
0.93,-1.84007987077991,2.650658240887048,-0.9079495581360361,0.15500387135851879,-0.09793669897541873,9.565442591772577e-05,-0.003654086976038237,-0.2298601289844455,-0.7892411346913961,-0.20580796363296747,0.018221328378929164,0.00029280520959294254,7.928270021543229,-3.6806605322189343,-1.795240662386119,-0.4095531688070553,0.25954038589603456,-0.002831657388298936,1.8653680039142864,-8.822846920701256,-0.6214821529599216,0.21209054192877996,0.039266330991492994,-0.0006648837310057167
0.9400000000000001,-1.839326988650012,2.6479927360216506,-0.9160210163967325,0.15290586126021455,-0.09772737325005104,9.834777631796026e-05,0.07528821298979249,-0.26655048653974667,-0.8071458260696419,-0.20980100983042296,0.020932572536769428,0.00026933504002344923,7.896258184581761,-3.59221881711935,-1.7513873310958217,-0.4043604861163024,0.25696202340975915,-0.0026422596943143084,1.9063029613715425,-8.86733183328655,-0.6644999937996057,0.20196840857501303,0.04207115395853718,-0.0006495969503949165
0.9500000000000001,-1.8377878385686848,2.644969134123489,-0.9242671760148433,0.15076850163673391,-0.09749110977164899,0.00010081213866538684,0.15391500813272976,-0.30236018981615986,-0.8246159618110845,-0.2137359623480641,0.023626347840205113,0.00024643623474265765,7.854326573983164,-3.498635013549303,-1.7078625301998813,-0.3991983126740779,0.2542928006182983,-0.002435320406632968,1.946751504522308,-8.911037271517133,-0.707383772279962,0.19175614213953804,0.0449690266638261,-0.0006315046658331624
0.96,-1.8354665629607758,2.641596754317552,-0.9326837218974184,0.1485923666893825,-0.09722810026607251,0.00010305398406137743,0.23212756079089192,-0.3372379805936914,-0.8416545882575167,-0.21761349473514244,0.02630095055764802,0.00022418453959905906,7.801938460498902,-3.3995912494898737,-1.6641063532516012,-0.3939062049372657,0.25148245150698756,-0.0022099343891324175,1.9864167379562403,-8.953669002610715,-0.7499311711036143,0.18149726069000865,0.04793962673822307,-0.0006105591265590853
0.97,-1.832368345316701,2.6378854601096084,-0.9412663136375834,0.14637803945461902,-0.0969385579089642,0.00010508052803007677,0.30982176440748277,-0.3711294207943495,-0.8582591740164965,-0.22143272347634707,0.02895423571083033,0.00020265439686993262,7.738567574275006,-3.2947853037455195,-1.6195498513276076,-0.3883203919635889,0.24848145078746242,-0.001965492003965341,2.0249746304686167,-8.994926902234067,-0.7919435077397792,0.17123531877110504,0.05096076947450582,-0.000586733589979991
0.98,-1.828499462852312,2.633845689634139,-0.9500105288452974,0.14412612771044983,-0.09662272167927413,0.00010689971068570768,0.3868882464389164,-0.4039770475469287,-0.8744215207713913,-0.22519117441692071,0.03158362296900745,0.00018191826556309158,7.6637055001980485,-3.183937403619318,-1.573621396718147,-0.3822755674335898,0.24524149787632155,-0.001701702284301554,2.0620743522370333,-9.034506723420558,-0.8332283296367988,0.16101329293667224,0.054008418039324206,-0.0005600255971231458
0.99,-1.8238673374017902,2.6294884836736894,-0.9589118062216336,0.14183728004725818,-0.0962808606094779,0.00010852016974652062,0.4632125450521618,-0.4357205960449921,-0.8901277376336258,-0.22888476631916377,0.03418610697962337,0.00016204590608129315,7.57686947739438,-3.0667972009503095,-1.5257535827619182,-0.3756068595890998,0.24171601857300828,-0.0014186115670473676,2.0973391566869974,-9.072102179920826,-0.8736021660217507,0.15087291915843104,0.05705673184910089,-0.0005304601716035909
