tonegas/nnodely-applications/joint_friction_estimation/dataset/train/mpc_mujoco_episode_31 copy.csv
time,q1,q2,q3,q4,q5,q6,dq1,dq2,dq3,dq4,dq5,dq6,ddq1,ddq2,ddq3,ddq4,ddq5,ddq6,tau1,tau2,tau3,tau4,tau5,tau6
0.0,0.0,1.57,-1.57,0.0,0.0,0.0,0.0,0.0,0.0,0.0,0.0,0.0,-4.2217482511880124,-10.999472907045666,-0.31675337609695475,0.4846914346831781,-0.6459071920971482,-1.3899058108890472e-06,-0.5886809847724049,-10.18163109119964,-6.540162430753595,-1.4363024328613223,-0.05346506209042005,-0.0013617457098948713
0.01,-0.00042007466456005596,1.5689035758331804,-1.5700343695042902,4.2656926012227814e-05,-5.384152915345339e-05,-5.209408478829225e-07,-0.042007466456005595,-0.10964241668196682,-0.0034369504290222607,0.004265692601222781,-0.005384152915345339,-5.209408478829225e-05,-4.137855466525911,-10.782290481659007,-0.31570221465077,0.4286827903520418,-0.5396349025288139,-0.0052371121167160695,-0.5765612828854572,-10.074652821940406,-6.500891724920692,-1.4281770499256545,-0.05251679983851953,-0.0013472227022165314
0.02,-0.0012515428413889188,1.5667324027485652,-1.5701032299979756,0.00012348606066393835,-0.00015481359433357724,-1.5822700107753883e-06,-0.08314681768288629,-0.2171173084615311,-0.006886049368527836,0.008082913465171053,-0.010097206518012384,-0.00010613291628924659,-4.045529825905941,-10.550686133859521,-0.3127451435039248,0.38469775919000426,-0.47371109308001635,-0.005522090630849519,-0.5587668086610953,-9.950111634575297,-6.453609726464579,-1.4183436519381962,-0.05121134089726922,-0.0013295480045389134
0.03,-0.002485017784552802,1.5635095863633064,-1.5702064332216157,0.0002389415340474308,-0.00029864554443387623,-3.150097316974265e-06,-0.12334749431638832,-0.32228163852587244,-0.01032032236401637,0.011545547338349244,-0.0143831950100299,-0.00015678273061988767,-3.9459833999333687,-10.305018707369662,-0.3067870724374835,0.35027736337600857,-0.43302974554390516,-0.005341622406482394,-0.5357206290285927,-9.808198509487006,-6.3985402741987185,-1.4068577263547952,-0.04956650843163871,-0.0013088532213010589
0.04,-0.004110475628540881,1.5592596291883367,-1.570343470841677,0.0003862319484898983,-0.0004825954533407305,-5.198024288019265e-06,-0.1625457843988079,-0.42499571749696796,-0.013703762006140218,0.014729041444246745,-0.018394990890685428,-0.0002047926971045,-3.8399080254428775,-10.045658896787955,-0.29693544208691947,0.32356895287534826,-0.4084607767783197,-0.00530881148064033,-0.5079006415348728,-9.64910654055383,-6.335916148936196,-1.3937771881233563,-0.04760070769768345,-0.001285246773075882
0.05,-0.006117293330806257,1.5540083954394843,-1.570513399899595,0.0005631821109497818,-0.0007048964066893909,-7.71133900335712e-06,-0.20068177022653755,-0.5251233748852326,-0.01699290579180737,0.01769501624598835,-0.022230095334866036,-0.0002513314715337856,-3.727691049358334,-9.77300182618411,-0.28246213563143385,0.30318005248477675,-0.3944599651378482,-0.005471169542294874,-0.4758329372128972,-9.473037802801304,-6.265980709471793,-1.3791627036489786,-0.04533297034491325,-0.0012588234505879004
0.06,-0.008494269040146949,1.5477830730077855,-1.5707147812802704,0.0007681295502214439,-0.0009644187085910267,-1.068449726245544e-05,-0.23769757093406924,-0.6225322431698784,-0.02013813806753838,0.020494743927166218,-0.025952230190163572,-0.0002973158259098319,-3.6095429798724443,-9.487477067830488,-0.26277559602321787,0.2880647577270352,-0.3876497953820497,-0.005810559894705136,-0.44008545713171476,-9.280210047872961,-6.188989286619155,-1.3630779421805153,-0.042783066222726235,-0.0012296713346546518
0.07,-0.011229632561231898,1.5406121316861403,-1.570945629230091,0.0009998471406507008,-0.0012604627296569648,-1.4118826062485069e-05,-0.273536352108495,-0.7170941321645243,-0.023084794982062357,0.023171759042925684,-0.029604402106593816,-0.00034343288000296293,-3.485573130492726,-9.189556610270943,-0.23740077072696764,0.27743672954362,-0.38596604577478466,-0.0063130114096541234,-0.40126153416822685,-9.070863281718562,-6.105210365879913,-1.3455897635454173,-0.03997164409004474,-0.0011978772613550387
0.08,-0.014311050455786185,1.532525276929276,-1.5712033705419217,0.0012574851976847317,-0.0015926309106121263,-1.8021036676653904e-05,-0.30814178945542875,-0.8086854756864238,-0.02577413118308121,0.025763805703403087,-0.033216818095516146,-0.0003902210614168833,-3.3558343892715405,-8.87976103674965,-0.20596484571177953,0.27070274390537463,-0.388141513213208,-0.006974893540252491,-0.3599930479826345,-8.84526618718103,-6.014926559190145,-1.326768344571123,-0.036920375871107844,-0.0011635314270111077
0.09,-0.01772562845913819,1.5235533985841507,-1.5714848124524865,0.0015405279740530148,-0.0019607477124439173,-2.2402341280165152e-05,-0.34145780033520035,-0.8971878345125454,-0.028144191056480798,0.02830427763682831,-0.03681168018317912,-0.0004381304603511249,-3.2203495998931806,-8.55866411382833,-0.16818718063561278,0.2674119682618681,-0.39339189125229623,-0.0078010877283887226,-0.3169330185585838,-8.60372234956667,-5.918435369475027,-1.3066872471279187,-0.033652086958850004,-0.0011267314224657995
0.1,-0.021459912780337768,1.5137285141729246,-1.5717861186029614,0.0018487606804059946,-0.0023648084944194766,-2.7277959599036107e-05,-0.37342843211995796,-0.9824884411226044,-0.030130615047486473,0.030823270635297995,-0.04040607819755594,-0.0004875618318870956,-3.0791270019642214,-8.226895909427386,-0.12387221925454739,0.2672172621226636,-0.40122291216597716,-0.008803048735487096,-0.2727475405677507,-8.34657621549174,-5.81604974643202,-1.2854234296588563,-0.030190859790897404,-0.0010875858175518733
0.11,-0.025499891193358444,1.5030837064472344,-1.5721027926241664,0.002182244068957612,-0.002804945626176213,-3.2666870470039455e-05,-0.40399784130206784,-1.0644807725690106,-0.0316674021204984,0.033348338855161724,-0.04401371317567363,-0.000538891087100335,-2.932169246649798,-7.885144526041823,-0.07290443347256748,0.2698456840949106,-0.4113099398793185,-0.009997517235921016,-0.22810702907255553,-8.074218703875438,-5.708098432578453,-1.263057204328645,-0.02656210104506798,-0.0010462173252436442
0.12,-0.029830994441154654,1.4916530550631302,-1.5724296690452346,0.0025412943204461604,-0.0032814045254565835,-3.859171521234912e-05,-0.43311032477962086,-1.1430651384104185,-0.03268764210683179,0.03590502514885483,-0.04764588992803703,-0.0005924844742309666,-2.7794788151064465,-7.534156518082725,-0.015244579853337825,0.27507606391819195,-0.42342036079647194,-0.011405697090888012,-0.18367681117633655,-7.787092379912631,-5.594926099922629,-1.2396721423856998,-0.022792565090970038,-0.0010027655269509803
0.13,-0.034438098263666075,1.479471562351732,-1.5727609113060095,0.0029264665147132793,-0.0037945249140920803,-4.507879173121163e-05,-0.4607103822511422,-1.2181492711398159,-0.033124226077487974,0.03851721942671187,-0.0513120388635497,-0.0006487076518862511,-2.621061721758527,-7.174736057534368,0.049073280513376005,0.28272201139577646,-0.43736058484156715,-0.013052650615736905,-0.14010715947701688,-7.485696098131143,-5.476893279328987,-1.2153549308831735,-0.01891032822175645,-0.0009573891175166966
0.14,-0.03930552627044912,1.4665750732814118,-1.5730900166920299,0.003338540382185971,-0.004344724095346898,-5.215809615021361e-05,-0.48674280067830455,-1.289648907032027,-0.03291053860204724,0.04120738674726916,-0.05501991812548181,-0.000707930441900198,-2.4569308925759255,-6.807742914722915,0.1199444124883744,0.29261912325691597,-0.45293632884574997,-0.01496669569557696,-0.09802292087097725,-7.170589018554798,-5.354376086245992,-1.190195184406062,-0.014944709890079021,-0.0009102676203959989
0.15,-0.04441705388141806,1.4530001898225127,-1.5734098280174482,0.003778507356898504,-0.004932479892988534,-5.9863377176509954e-05,-0.5111527610968943,-1.357488345889913,-0.03198113254182803,0.04399669747125331,-0.0587755797641636,-0.0007705281026296345,-2.2871104009811813,-6.434089327605435,0.1971959940952459,0.30461544380892747,-0.4699189643756121,-0.017178600203128447,-0.05801294661402001,-6.842393900192485,-5.227765747619297,-1.1642852158045338,-0.010926138774823568,-0.0008616025242965694
0.16,-0.049755913645750105,1.4387841800343708,-1.5737125518640995,0.004247558203630001,-0.005558311308547147,-6.823217021717501e-05,-0.533885976433204,-1.421600978814181,-0.030272384665131546,0.046905084673149675,-0.06258314155586128,-0.0008368793040665057,-2.1116417193156853,-6.0547358410449235,0.2805898813789849,0.31856445877984996,-0.48801320749234023,-0.01972035336098754,-0.02061957435002118,-6.501799578314546,-5.097467935310702,-1.1377197700731765,-0.006885963026350767,-0.0008116177986623506
0.17,-0.05530480242141264,1.4239648822957085,-1.5739897831510947,0.004747070689075072,-0.006222755103004975,-7.730577509652889e-05,-0.5548888775662538,-1.4819297738662243,-0.027723128699511386,0.049951248544507124,-0.0664443794457828,-0.0009073604879353875,-1.9305932343587033,-5.670686205023334,0.36982570365356615,0.3343200715322876,-0.5068230308411037,-0.022623255525616948,0.013671552156633598,-6.149562536031503,-4.963901911062288,-1.110595725403861,-0.002856205451497139,-0.000760559754424012
0.18,-0.061045891165483715,1.4085806051924463,-1.5742325357642677,0.005278596922446033,-0.006926336492887826,-8.712913392575324e-05,-0.5741088744071071,-1.5384277103262192,-0.024275261317306628,0.05315262333709607,-0.07035813898828507,-0.000982335882922436,-1.744074423259858,-5.282981426054904,0.4645443877211708,0.35173314033109904,-0.5258138870592681,-0.02591501579638189,0.04444101645446227,-5.786507486283661,-4.827499486932351,-1.083011765062366,0.0011307343402230247,-0.0007086962266181097
0.19,-0.06696083846177388,1.3926700236609988,-1.5744312789230246,0.0058438501142056305,-0.007669532042468313,-9.775055473532247e-05,-0.591494729629016,-1.5910581531447603,-0.01987431587568809,0.056525319175959765,-0.07431955495804878,-0.0010621420809569227,-1.5522562218725628,-4.892693067970167,0.5643321670333155,0.37064925485084643,-0.5442705402212651,-0.02961549528158769,0.07134419629685668,-5.413526887159459,-4.688703803195631,-1.0550680231046057,0.005042427745831926,-0.0006563150652531633
0.2,-0.07303080941002073,1.3762720720598998,-1.5745759789070968,0.006444690600150158,-0.00845272270221585,-0.0001092212123852901,-0.606997094824685,-1.6397951601098926,-0.014469998407228634,0.06008404859445274,-0.07831906597475377,-0.001147065764996763,-1.3553991384128006,-4.500915895926332,0.6687250987782587,0.3909075072934094,-0.5612513696485202,-0.03373070910212239,0.09411854681934048,-5.031579321149061,-4.5479679230157135,-1.0268657060874593,0.008846811008394462,-0.0006037219287668448
0.21,-0.07923650212592709,1.3594258349082955,-1.5746561457100987,0.007083111057514215,-0.00927613486933519,-0.00012159434191784663,-0.6205692715906367,-1.6846237151604344,-0.00801668030019411,0.06384204573640574,-0.08234121671193402,-0.0012373129532556521,-1.1538904150053406,-4.1087599510618364,0.7772140867866701,0.41234007390808003,-0.5755422937674002,-0.03824474798808275,0.11258929775372317,-4.641686677479271,-4.4057532399838575,-0.9985066919102882,0.012512620512312018,-0.000551237379378916
0.22,-0.08555818484236877,1.3421704360869742,-1.574660884132597,0.00776122090460267,-0.010139767437226048,-0.00013492402274953497,-0.6321682716441686,-1.7255398821321333,-0.0004738422498316965,0.06781098470884543,-0.0863632567890858,-0.0013329680831688337,-0.9482907924186794,-3.717342132397835,0.8892503891655119,0.4347724698398707,-0.5856167783957544,-0.04310947302819801,0.12667328804756475,-4.244930085800168,-4.262527691025367,-0.9700931058045216,0.016009864392230636,-0.0004991932808408703
0.23,-0.09197574741627948,1.3245449273471046,-1.5745789487760635,0.008481229929160077,-0.011043303205315498,-0.00014926343837321176,-0.6417562573910714,-1.7625508739869487,0.008193535653352797,0.07200090245574071,-0.09035357680894497,-0.001433941562367679,-0.7393899023727456,-3.327777351108939,1.0042515746975882,0.45802437536643215,-0.5896128925929345,-0.048232274346395876,0.136380695173997,-3.842444561013652,-4.118763764058152,-0.9417268724714354,0.019310324597671905,-0.0004479284967316489
0.24,-0.09846877183856709,1.3065881770146144,-1.5743988023516222,0.009245431235939872,-0.011986003933736687,-0.00016466249140209652,-0.6493024422287601,-1.7956750332490259,0.018014642444130397,0.07642013067797954,-0.09427007284211888,-0.0015399053028884746,-0.5282667108255085,-2.941169312322499,1.1216078788769552,0.4819109537410524,-0.5853437632602112,-0.053462975614307684,0.14181445616254232,-3.435412334222945,-3.9749362877539918,-0.9135092425946566,0.02238808231140916,-0.00039778388337911337
0.25,-0.1050166269473416,1.2883387598148268,-1.574108676674809,0.01005618364261469,-0.012966589980009274,-0.00018116466674597396,-0.6547855108774505,-1.8249417199787459,0.02901256768133937,0.08107524066748187,-0.09805860462725866,-0.0016502175343877437,-0.3163476348132934,-2.5586009782750025,1.2406888963595977,0.5062445868458858,-0.5703628960797646,-0.058582175109922585,0.14316722146996982,-3.0250548677666695,-3.8315199913377893,-0.8855402917379962,0.02522005731225866,-0.00034909657019891713
0.26,-0.11159859269673987,1.2698348487722995,-1.5736966356806683,0.010915893686223576,-0.013983108074198638,-0.00019880307846307916,-0.6581965749398269,-1.8503911042527261,0.041204099414051815,0.08597100436088845,-0.10165180941893633,-0.0017638411717105212,-0.10545026218447744,-2.181124784358472,1.3608505291564978,0.5308369404193225,-0.5421081760246035,-0.06329484794711199,0.14071573222797756,-2.612623589250827,-3.688986827742246,-0.857918390395477,0.02778654787439612,-0.0003021935298304693
0.27,-0.11819401868196769,1.2511141101625887,-1.573150639763994,0.011826997429552415,-0.015032794508213498,-0.0002175957220094892,-0.6595425985227821,-1.872073860971089,0.05459959166743571,0.09111037433288388,-0.10496864340148598,-0.0018792643546410033,0.1022038759813921,-1.8097527256513992,1.4814420873789607,0.5555012333664885,-0.4981439519763192,-0.06723448465059426,0.13481257126883706,-2.199389436281386,-3.547803065682892,-0.8307396460434607,0.030071751566606665,-0.0002573844729461432
0.28,-0.12478251976393308,1.2322136025011468,-1.5724586107298124,0.012791942276524028,-0.01611194572377907,-0.00023754009433318474,-0.6588501081965396,-1.8900507661441963,0.0692029034181705,0.09649448469716135,-0.1079151215565573,-0.0019944372323695537,0.30402615684510453,-1.4454465179118274,1.601813411748973,0.5800545301100521,-0.4365048449379116,-0.0699835553599486,0.1258753189929815,-1.786631387343802,-3.4084261779584764,-0.8040973218842921,0.03206423876003672,-0.00021495417283046468
0.29,-0.13134420823292398,1.2131696805414691,-1.5716084966329107,0.013813169014676122,-0.017215813434353328,-0.000258607540479181,-0.65616884689909,-1.904392195967773,0.08501140969017874,0.10212267381520927,-0.11038677105742574,-0.002106744614599627,0.4971629226065777,-1.0891081650712924,1.7213218562644514,0.6043198184349317,-0.35611518813652565,-0.07111445833342406,0.11437326131929294,-1.3756242662320084,-3.2713015853937693,-0.778081242624739,0.033757340639077225,-0.0001751544458722549
0.3,-0.1378599569080419,1.1940179052083701,-1.5705883357968486,0.014893094296967991,-0.01833854585510814,-0.0002807379173681602,-0.6515748675117927,-1.9151775333098957,0.10201608360620107,0.10799252822918697,-0.11227324207548099,-0.002213037688897922,0.6786676898075882,-0.7415714193300323,1.8393389389877075,0.6281276094618096,-0.25721790182571835,-0.07025032244130469,0.10081196308014412,-0.9676262393151918,-3.136859356363474,-0.7527772046177756,0.03514940439988569,-0.00013819618880632538
0.31,-0.14431168127689586,1.174792960299583,-1.5693863193373803,0.016034093750648192,-0.01947319858292522,-0.0003038353835493321,-0.6451724368853969,-1.9224944908787227,0.12020164594684458,0.11409994536802026,-0.11346527278170808,-0.002309746618117191,0.8457306736316191,-0.403594757203948,1.9552564436296538,0.6513168384009882,-0.1417094102493348,-0.06713731160819625,0.08571624085814634,-0.5638665532090396,-3.0055110040128086,-0.7282664146783562,0.03624386414285637,-0.00010424208251004357
0.32,-0.15068262228163437,1.1555285766384085,-1.5679908515764331,0.017238485856447997,-0.02061183614834343,-0.00032776624855848364,-0.6370941004738504,-1.9264383661174451,0.13954677609470892,0.12043921057998053,-0.11386375654182095,-0.002393086500915152,0.9959327167302141,-0.07585654707209633,2.0684917408244066,0.6737349743213743,-0.013264129136323355,-0.061711875565028995,0.06961232629796124,-0.1655341458028923,-2.877646555136789,-0.70462498667751,0.03704908167723248,-7.340076393205188e-05
0.33,-0.1569576062993539,1.1362574641481937,-1.5663906078218908,0.018508516680612805,-0.021745736762761297,-0.0003523597565109355,-0.6274984017719527,-1.9271112490214704,0.16002437545423442,0.12700308241648095,-0.1133900614417869,-0.0024593507952451877,1.1274769137155827,0.2410470208710222,2.1784921054628956,0.6952374416128331,0.122838190592224,-0.054142141569073265,0.053010254035069926,0.2262322400927999,-2.7536320713915092,-0.6819235251086101,0.037577930951293526,-4.5723360665611054e-05
0.34,-0.1631232570915521,1.1170112520557614,-1.564574589102035,0.019846345475110633,-0.02286569837641019,-0.00037741237386172764,-0.6165650792198184,-1.9246212092432358,0.18160187198557712,0.13378287944978287,-0.11199616136488957,-0.0025052617350792145,1.2393515944977118,0.5466009670768821,2.284737848771928,0.7156866449653707,0.26019546581596975,-0.044826458763748356,0.03638765911308314,0.6103519375008047,-2.6338077733445227,-0.6602268184477046,0.03784713309752821,-2.1203188546048224e-05
0.35000000000000003,-0.16916813733337763,1.0978204371418523,-1.56253217357302,0.021254031102301483,-0.02396242621807772,-0.00040269561447988105,-0.6044880241825541,-1.919081491390903,0.20424155290150842,0.1407685627190851,-0.10967278416675291,-0.0025283240618153417,1.3313944775617823,0.8403676868640182,2.386744172518865,0.7349509883034919,0.39199742135077464,-0.03434438963883735,0.020176145663263867,0.9858079739738439,-2.518486849575905,-0.6395936525415752,0.03787639012753085,2.2091894842757926e-07
0.36,-0.175082804860087,1.0787143396819456,-1.5602531644500488,0.022733519203978654,-0.025026964962756526,-0.00042796677941472254,-0.5914667526709382,-1.9106097459906615,0.2279009122971187,0.14794881016771722,-0.10645387446788035,-0.002527116493484147,1.40425302993852,1.1219808866947503,2.4840617848159923,0.752904239580543,0.5118206281469382,-0.023371310972163384,0.004751147793849742,1.351650488309518,-2.4079549402260807,-0.6200767382659953,0.037687402752734495,1.8657717147540992e-05
0.37,-0.18085977953628424,1.0597210665037857,-1.5577278344330234,0.024286630029593168,-0.026051127661861573,-0.0004529814003559291,-0.5776974676197228,-1.8993273178159977,0.25253300170254,0.15531108256145154,-0.10241626991050483,-0.0025014620941206547,1.459259495147047,1.3911382753801742,2.576276465737455,0.7694254414695827,0.614335958513843,-0.012579540396363331,-0.009574227283651784,1.7069983064140333,-2.302470192460207,-0.6017227328924185,0.037302879122615956,3.425377304733166e-05
0.38,-0.186493428104446,1.040867480461754,-1.5549469666920601,0.025915046863233152,-0.027027872185513016,-0.00047750583978989716,-0.5633648568161762,-1.8853586042031902,0.2780867740963394,0.16284168336399837,-0.09767445236514422,-0.0024524439433968063,1.4982525593212728,1.6475940952581316,2.663007892346311,0.7843993786461638,0.6957979656253599,-0.002551071788368553,-0.022551404139643374,2.0510392375619775,-2.202263721038233,-0.5845723253814699,0.03674563873271269,4.7181991519749925e-05
0.39,-0.19197978379869365,1.022179175604847,-1.551901892539195,0.027620305032685682,-0.02795158468276078,-0.0005013285172045017,-0.5486355694247652,-1.8688304856906894,0.30450741528652003,0.17052581694525282,-0.09237124972477648,-0.0023822677414604533,1.5233796917940945,1.891152424159252,2.7439080876569637,0.7977174627294321,0.7542567483756275,0.006280257828881641,-0.033995096480312445,2.3830297042701707,-2.1075402866211954,-0.5686603543878694,0.036037890395213656,5.762987391897428e-05
0.4,-0.1973163230555537,1.003680457382214,-1.5485845259384023,0.02940378153123698,-0.028818245721720842,-0.0005242685728218629,-0.5336539256860025,-1.8498718222633113,0.331736660079265,0.17834764985512971,-0.08666610389600628,-0.0022940055617361246,1.536908368056555,2.121661846506416,2.8186598336811866,0.809278825075106,0.7895050049371073,0.013651156621410143,-0.043779436926734326,2.7022942312277376,-2.0184790268780883,-0.5540159333408169,0.035200724103633736,6.578885479506526e-05
0.41000000000000003,-0.202501722802893,0.9853943273575972,-1.5449873950016286,0.031266685320096625,-0.02962547365065761,-0.0005461813182994186,-0.5185399747339321,-1.8286130024616745,0.3597130936773755,0.18629037888596478,-0.08072279289367676,-0.002191274547755571,1.5410653578972204,2.3390117050345895,2.886975302666494,0.8189914116419761,0.8028232502691299,0.01946037800130851,-0.0518324082025637,3.008225143184169,-1.9352341262459456,-0.5406625666059921,0.03425381634958919,7.18457087891397e-05
0.42,-0.2075356192729552,0.9673424720546261,-1.5411036705930157,0.03321004839890086,-0.03037245665012433,-0.0005669603910730412,-0.5033896470062205,-1.8051855302971198,0.3883724408613059,0.19433630788042383,-0.07469829994667196,-0.0020779072773622607,1.5379142807760184,2.5431298145485974,2.9485950476796807,0.8267729253675675,0.7966072707835079,0.023739792800351767,-0.05812943009280759,3.300282624365849,-1.8579353695172158,-0.5286182509530746,0.03321531731151706,7.597652913314239e-05
0.43,-0.21241838446121974,0.9495452556962055,-1.5369271921273115,0.03523471773304553,-0.031059796770589603,-0.0005865369895041933,-0.4882765188264565,-1.7797216358420616,0.4176478465704197,0.20246693341446703,-0.06873401204652761,-0.0019576598431152183,1.5292741627029975,2.7339813083327247,3.003287387268493,0.8325515293397991,0.7739585523589327,0.026616448864543063,-0.06268676604691897,3.5779951254398403,-1.7866885758256705,-0.5178955647308052,0.03210187130875164,7.834329778215509e-05
0.44,-0.21715093071882738,0.9320217167119761,-1.5324524906109964,0.03734134811397262,-0.03168929487757396,-0.0006048768500196603,-0.47325462576076416,-1.7523538984229474,0.4474701516315122,0.21066303809270875,-0.06294981069843518,-0.0018339860515466946,1.5166762228056223,2.9115682055294507,3.0508481397764697,0.8362662862826404,0.7383004133541284,0.028274723455218975,-0.06555518395687095,3.840959994673492,-1.7215759443017702,-0.5085017521201578,0.03092871856292223,7.90927009797158e-05
0.45,-0.22173454867567474,0.9147895679592795,-1.527674808942651,0.03953039600829289,-0.03226370549925743,-0.0006219757309336466,-0.45836179568473695,-1.7232148752696588,0.4777681668345432,0.21890478943202732,-0.057441062168347434,-0.0017098880913986245,1.5013526174347953,3.075929306780155,3.091100617260599,0.8378673549856508,0.693059340840573,0.02892416480101767,-0.06681409712482403,4.088844159906763,-1.6626563593716814,-0.5004388116775081,0.02970983281558766,7.835663743305623e-05
0.46,-0.2261707794195937,0.8978652006366477,-1.5225901194663276,0.0418021144295555,-0.032786486709847344,-0.0006378541294814931,-0.443623074391898,-1.6924367322631766,0.5084689476323552,0.22717184212626057,-0.05227812105899121,-0.0015878398547846523,1.4842492159108092,3.22714010433409,3.123895773022121,0.8373159894557425,0.6414292264222525,0.028775387794034435,-0.06656625585750847,4.321384684654333,-1.609965705846661,-0.49370359788364904,0.028458060939471605,7.625381036939532e-05
0.47000000000000003,-0.23046131884480547,0.8812636918719406,-1.517195138759265,0.044156548846544824,-0.033261564235260305,-0.0006525518336326386,-0.42905394252117685,-1.660150876470699,0.5394980707062549,0.23544344169893294,-0.04750775254129615,-0.001469770415114553,1.4660543377448956,3.3653124933924645,3.1491124020538095,0.834584394472877,0.5862193526423805,0.028024103261161226,-0.06493296488238445,4.5383890475828625,-1.563517236814654,-0.48828794255631064,0.02718524330907145,7.28918497153502e-05
0.48,-0.2346079502685208,0.8649988159495112,-1.511487339632445,0.046593534126147425,-0.033693122510889524,-0.0006661227494654491,-0.4146631423715323,-1.626487592242939,0.5707799126819908,0.2436985279602603,-0.043155827562922175,-0.0013570915832810462,1.447236283650791,3.4905941668411935,3.1666573112425693,0.829655487186578,0.5297761212999665,0.026842089802238345,-0.062049758412270034,4.739735033923617,-1.5233020257938958,-0.4841788005991673,0.025902304761953057,6.836952807009813e-05
0.49,-0.23861250057684402,0.8490830591113413,-1.5054649603273602,0.04911269249745237,-0.03408542953476834,-0.0006786302855630402,-0.40045503083232176,-1.5915756838169943,0.6022379305084762,0.25191583713049426,-0.03923070238788155,-0.0012507536097591048,1.4280839572619695,3.603167651605935,3.1764653985738294,0.8225226039787188,0.47396308879046534,0.025373435956793866,-0.05806245793819631,4.925370168729502,-1.4892895222296745,-0.4813584222199885,0.024619314287535454,6.277877200701936e-05
0.5,-0.24247681502886084,0.8335276378333019,-1.499127010902722,0.051713432516237216,-0.03444269762102244,-0.0006901434398333771,-0.38643144520168254,-1.5555421278039414,0.6337949424638235,0.26007400187848456,-0.035726808625410125,-0.0011513154270336979,1.4087464932735962,3.703248997474461,3.1784996027825168,0.8131891795427855,0.4201825733938085,0.02373439391335097,-0.05312355211279076,5.095310658639127,-1.4614282183591485,-0.47980455176695197,0.02334551695066331,5.620629943879334e-05
0.51,-0.24620274616723672,0.8183425204446264,-1.4924732768185056,0.05439494900436082,-0.034768978748018146,-0.000700733630367169,-0.37259311383758753,-1.5185117388675498,0.6653734084216298,0.2681516488123605,-0.0326281126995701,-0.0010590190533791865,1.3892693013884083,3.7910861603449417,3.172750703942909,0.8016684139061567,0.369423458709742,0.02201544596530569,-0.04738886084898962,5.249639838067495,-1.4396464267117781,-0.47949065182229583,0.022089344398862364,4.873481851170588e-05
0.52,-0.2497921528500531,0.8035364519293825,-1.4855043197399072,0.0571562239358227,-0.03506809103301777,-0.0007104722407716202,-0.35894066828163734,-1.4806068515243882,0.696895707859855,0.27612749314618845,-0.029911228499962843,-0.0009738610404451203,1.3696251555888026,3.8669571362198565,3.159236970125111,0.7879829343945417,0.3223225582439928,0.020284524234361223,-0.041014468531292134,5.388506137037677,-1.42385316124831,-0.48038615015181185,0.02085841125085767,4.04437984353524e-05
0.53,-0.25324690608372535,0.7891169817246246,-1.4782214755991132,0.059996028239520875,-0.035343571734482,-0.0007194288074336645,-0.3454753233672258,-1.4419470204757914,0.7282844140793963,0.283980430369817,-0.027548070146422653,-0.00089565666620443,1.3497398595144523,3.931167905146102,3.1380036553536357,0.7721644536031569,0.2792300842672002,0.018590648773284535,-0.03415392930098645,5.512120602065941,-1.4139391111251753,-0.4824567064703879,0.019659504363153633,3.140986927617362e-05
0.54,-0.2565688990035695,0.7750904943113421,-1.470626849967369,0.06291292448744519,-0.03559865182361485,-0.0007276697550644684,-0.33219929198441484,-1.4026487413282542,0.7594625631744254,0.2916896247924321,-0.02550800891328547,-0.0008240947630804023,1.3295126214439164,3.98405024029704,3.1091223602136644,0.7542534209998095,0.24027278002945807,0.016967517383967623,-0.026955758865319937,5.620754010030483,-1.4097776938724575,-0.48566449565980674,0.01849857096068629,2.1706931035778907e-05
0.55,-0.25976005896026416,0.7614622423809718,-1.4627233108031388,0.0659052704358054,-0.03583624732924819,-0.0007352575812706703,-0.319115995669465,-1.3628251930370365,0.7903539164230143,0.2992345948360198,-0.023759550563333894,-0.0007587826206201807,1.308831629584322,4.025959429960607,3.0726902694073566,0.7342986642471097,0.2054108146371394,0.015436781820104883,-0.019561232191864446,5.714733619285921,-1.4112261739265408,-0.48996850397900343,0.01738071029627135,1.1406058435347644e-05
0.56,-0.26282236019951405,0.7482363823514545,-1.4545144786539896,0.06897122338521168,-0.0360589631359371,-0.0007422503952625867,-0.306230123924988,-1.3225860029517331,0.820883214914923,0.30659529494062876,-0.02227158066889071,-0.0006992813991916449,1.2875854923788292,4.057271951674549,3.0288292812606175,0.7123570160737707,0.1744864946928485,0.01401088512596127,-0.012102505816862848,5.794439603762665,-1.4181268325442675,-0.495324834865716,0.01631017213777807,5.752825820951751e-07
0.5700000000000001,-0.26575783606027403,0.7354160120018153,-1.4460047144001582,0.07210874532442511,-0.036269105545118044,-0.0007487017258305473,-0.2935475860759961,-1.2820370349639223,0.8509764253831515,0.31375219392134296,-0.02101424091809454,-0.0006451330567960619,1.2656712572831017,4.0783831295321376,2.9776850434343025,0.6884929230203696,0.14726423283008583,0.012695425496541013,-0.004701078785856148,5.860301215481351,-1.4303081758036116,-0.5016870210849991,0.01529036412917185,-1.0720681049093483e-05
0.58,-0.26856858996709715,0.7230032099922744,-1.4371991046367139,0.07531560882037364,-0.03646870058202937,-0.000754660526292853,-0.2810753906823103,-1.241280200954089,0.8805609763444373,0.3206863495948523,-0.019959503691132308,-0.0005958800462305707,1.2429996922846225,4.089704798494788,2.919425907555608,0.6627780332771067,0.12346211268143248,0.01149106590474136,0.0025334010322819386,5.912792719614517,-1.4475861684093028,-0.5090063401929388,0.014323869010170182,-2.242070349284012e-05
0.59,-0.27125680476379915,0.710999077037283,-1.4281034447989636,0.07858940361513198,-0.03665951567568891,-0.0007601713171793034,-0.26882147967019915,-1.2004132954991378,0.9095659837750212,0.3273794794758342,-0.019081509365954364,-0.0005510790886450266,1.219498442635654,4.091662993666536,2.8542418136581063,0.6352907618206629,0.10277590843423012,0.010395037119625083,0.009503987019681581,5.952429144493549,-1.4697654821878272,-0.5172321305247465,0.013412471834922527,-3.446747219025068e-05
0.6,-0.2738247501404825,0.6994037785010688,-1.4187242201424635,0.0819275438884493,-0.036843082915399124,-0.0007652744197116945,-0.25679453766833404,-1.1595298536214211,0.9379224656500059,0.33381402733173354,-0.018356723971021335,-0.0005103102532391079,1.1951135851757504,4.084695677921287,2.7823431135221792,0.6061158320548969,0.08489665934317547,0.00940229340886578,0.016126950688689537,5.979761887142485,-1.4966407493521263,-0.5263121051666975,0.012557196696642771,-4.68076539009408e-05
0.61,-0.27627478805616523,0.6882165881888346,-1.409068584694877,0.0853272761422467,-0.0370207225769147,-0.0007700062440158831,-0.24500379156827135,-1.1187190312234254,0.9655635447586493,0.33997322537973923,-0.01776396615155767,-0.00047318243041885637,1.169810009733006,4.0692505178951075,2.7039593404607984,0.5753437940444535,0.06952295550726661,0.008506381684900033,0.022331983803288567,5.995374213223194,-1.5279978117653124,-0.5361926616198784,0.011758352019321096,-5.939197649236714e-05
0.62,-0.2786093761660576,0.6774359331113529,-1.3991443383021072,0.08878568766136082,-0.03719356601106808,-0.0007743996051870001,-0.2334588109892364,-1.0780655077481762,0.9924246392769853,0.34584115191141257,-0.01728434341533811,-0.00043933611711170073,1.1435709703761792,4.045782715972169,2.6193379318866574,0.543070520219775,0.056369032109317985,0.007700080661146913,0.02806211104807392,5.999876688787797,-1.5636149584919394,-0.5468191851041707,0.011015583189300479,-7.217522505458164e-05
0.63,-0.28083106933571156,0.6670594390061048,-1.388959901895738,0.0922997155027428,-0.03736257730262442,-0.0007784840478188319,-0.22216931696539693,-1.0376494105248149,1.0184436406369153,0.3514027841381983,-0.01690112915563398,-0.00040844426318317826,1.1163970731909378,4.014752904301252,2.52874291017441,0.5093966800809486,0.04516964761234976,0.006975859617543323,0.03327334397171302,5.993902579966601,-1.6032641448742904,-0.5581363436801896,0.010327931137412186,-8.511615510043219e-05
0.64,-0.28294251937199344,0.657083976404163,-1.3785242911129247,0.09586615596338408,-0.037528573347394026,-0.0007822861655328746,-0.21114500362818928,-0.9975462601941706,1.0435610782813145,0.3566440460641278,-0.016599604476960843,-0.00038021177140427903,1.0883049033080991,3.976625105887221,2.4324535268640846,0.47442719599987093,0.03568257327611846,0.006326198546950934,0.03793411079077204,5.9781032556348395,-1.6467121872053947,-0.5700883735839773,0.009693895417673714,-9.817733084248583e-05
0.65,-0.2849464731296845,0.6475057070386151,-1.3678470884035114,0.09948167447548395,-0.03769224217295855,-0.0007858299066037772,-0.20039537576910713,-0.9578269365547937,1.0677202709413398,0.36155185120998695,-0.01636688255645224,-0.0003543741070902667,1.059325441921327,3.9318647672427454,2.330762875103848,0.4382706826834806,0.027689370040046846,0.005743803791099622,0.0420244989513681,5.953143627129872,-1.6937219277956004,-0.5826193533742294,0.009111500336327447,-0.00011132489997286416
0.66,-0.2868457691676745,0.6383201303973989,-1.3569384137623306,0.10314281587583779,-0.03785415945461817,-0.0007891368601996606,-0.18992960379899979,-0.9185576641216247,1.0908674641180887,0.36611414003538456,-0.016191728165962014,-0.00033069535958833935,1.029502382869735,3.880936866819603,2.2239764753366433,0.40103887325476073,0.020994987943453614,0.005221746344188483,0.04553534821663771,5.9196976581502545,-1.7440533658558497,-0.5956734656852496,0.008578362744671914,-0.00012452831832379492
0.67,-0.288643333134164,0.6295221302309553,-1.3458088942273454,0.10684601499514805,-0.038014803264244126,-0.0007922265202556367,-0.17975639664895024,-0.8798000166443606,1.1129519534985306,0.37031991193102565,-0.016064380962595916,-0.00030896600559760564,0.9988904264998523,3.82430410334997,2.112410839529521,0.3628460352364513,0.0154265997211393,0.004753544027883194,0.04846723164166139,5.8784439769708765,-1.797464750162973,-0.6091952455616267,0.008091760204346153,-0.00013776003855955673
0.68,-0.2903421720590387,0.6211060208330665,-1.3344696322864757,0.11058760751197402,-0.03817456714509334,-0.0007951165257729107,-0.16988389248746752,-0.8416109397888707,1.1339261940869685,0.37415925168259695,-0.015976388084921602,-0.00028900055172739714,0.9675536043519916,3.762425168231588,1.9963920196575602,0.32380837998907097,0.010831976494469264,0.004333203800643393,0.05082936031035185,5.830061621974504,-1.8537136299445969,-0.623129814523542,0.0076486983518254245,-0.00015099517692021726
0.6900000000000001,-0.2919453677258508,0.6130655929216492,-1.3229321733375832,0.11436384101536917,-0.038333771638194895,-0.0007978228775519207,-0.16031956668120892,-0.8040427911417386,1.1537458948892685,0.37762335033951533,-0.015920449310155464,-0.0002706351779010021,0.9355636702244803,3.6957531061121265,1.8762541466291331,0.2840434693636542,0.007077629331894375,0.0039552364397484885,0.05263844534931703,5.775225950156619,-1.9125578608386067,-0.6374230996753837,0.007245976420350095,-0.00016421117124251942
0.7000000000000001,-0.29345606928726237,0.6053941589550998,-1.3112084723471005,0.11817088621992781,-0.03849267440200151,-0.0008003601321651033,-0.1510701561411576,-0.7671433966549392,1.1723700990482628,0.3807045204558643,-0.015890276380661577,-0.00025372546131825514,0.9029985800230658,3.624733767820845,1.7523379663163485,0.2436696234830169,0.004046874125503086,0.003614652662823681,0.05391754770881029,5.71460473665315,-1.9737565631574703,-0.6520220373253988,0.006880250015332966,-0.00017738744222265526
0.71,-0.2948774852775309,0.5980845977290496,-1.2993108598531502,0.1220048482769944,-0.038651479071583915,-0.0008027415744644279,-0.1421415990268507,-0.7309561226050202,1.189761249395016,0.38339620570665767,-0.01588046695824017,-0.0002381442299324644,0.8699410733814866,3.54980435972081,1.624989379790689,0.2028053336615585,0.0016379262856763832,0.0033069472869822203,0.054694942706385766,5.648854491428833,-2.037071030033265,-0.666874760730777,0.006548090378430098,-0.00019050506832224017
0.72,-0.2962128751644623,0.591129398108054,-1.2872520074586344,0.12586177812619015,-0.03881034300052557,-0.0008049793701880677,-0.13353898869314132,-0.6955199620995721,1.2058852394515662,0.38569298491957643,-0.01588639289416569,-0.00022377957236398857,0.8364773634286481,3.471392093389728,1.4945579952214523,0.16156868451168727,-0.00023790643010157542,0.003028076123978485,0.05500302254359594,5.57861701702797,-2.1022655833443586,-0.6819307717208793,0.006246039512361294,-0.0002035464829827845
0.73,-0.2974655405717766,0.584520701756813,-1.2750448929586795,0.12973768383218973,-0.038969384020675076,-0.0008070847003464985,-0.12526654073142687,-0.6608696351240927,1.2207114499954856,0.3875905705999571,-0.01590410201495063,-0.00021053301584306912,0.8026959365537011,3.389912939269567,1.3613956991436087,0.12007678927033538,-0.0016578925651583587,0.0027744288894815394,0.054877256088234766,5.504516228726284,-2.169108375637413,-0.697141096081243,0.005970660670767383,-0.00021649520100810586
0.74,-0.2986388162913929,0.5782503447459575,-1.2627027652449394,0.13362854185283532,-0.03912868634408628,-0.0008090678790811103,-0.11732757196163014,-0.6270357010855581,1.2342127713740014,0.3890858020645603,-0.015930232341120627,-0.0001983178734611849,0.7686864610173371,3.3057704875472465,1.225855254927331,0.07844524229442307,-0.0026893865944979667,0.0025428003411944733,0.05435522130039756,5.427155255547813,-2.2373721365645887,-0.7124584227023647,0.005718583843213786,-0.00022933557917831845
0.75,-0.2997360611939843,0.5723098979181958,-1.2502391091265974,0.1375303081862035,-0.03928830571927472,-0.0008109384566351382,-0.10972449025914555,-0.5940446827761736,1.2463656118342095,0.39017663333681657,-0.01596193751884336,-0.00018705775540279072,0.7345388013460743,3.219354919046399,1.0882889362653456,0.03678759255456132,-0.0033911727998990338,0.002330361080592591,0.05347572188386859,5.3471138374561065,-2.3068348626593593,-0.7278372266097813,0.005486545983756984,-0.00024205261443429162
0.76,-0.30076064913541534,0.5666907059116667,-1.2376676102044508,0.1414389293461282,-0.03944827394133923,-0.0008127053089841042,-0.10245879414310063,-0.5619192006528998,1.257149892214661,0.39086211599247095,-0.01599682220645103,-0.00017668523489659712,0.700342134301429,3.131042088329161,0.9490472033397319,-0.004785158242966325,-0.003814645815677975,0.0021346289026185072,0.05227799615713417,5.264946030639416,-2.377280449578097,-0.7432338760954937,0.0052714258415097,-0.00025463178136376894
0.77,-0.3017159599464374,0.5613839247486028,-1.225002119930242,0.1453503531179188,-0.03960860280319773,-0.0008143767155597036,-0.09553108110220686,-0.530678116306393,1.2665490274208702,0.39114237717905886,-0.01603288618585042,-0.00016714065755994327,0.6661841615984486,3.0411927205399816,0.8084774290338608,-0.046165029505253585,-0.0040048360802250604,0.0019534411793739603,0.050801022832299716,5.181178229242557,-2.448499266238911,-0.75860672426497,0.00507027335283658,-0.000267058909262908
0.78,-0.30260537058331627,0.5563805579088247,-1.2122566209784253,0.14926053904856995,-0.03976928756357674,-0.0008159604263800826,-0.0889410636878875,-0.5003366839778088,1.2745498951816698,0.3910185930651163,-0.01606847603790113,-0.00015837108203790157,0.6321504142831498,2.950151722788456,0.6669226821240111,-0.08724750445273344,-0.004001291842701149,0.0017849285025864359,0.04908292541790738,5.0963075082193825,-2.5202886705946796,-0.7739161853987658,0.004880333646801103,-0.00027932009776308723
0.79,-0.3034322465079013,0.5516714908190833,-1.199445193051891,0.1531654686286194,-0.03993030999671275,-0.0008174637197790966,-0.08268759245850384,-0.47090670897413933,1.2811427926534262,0.39049295800494477,-0.01610224331360125,-0.00015032933990140305,0.598323643640208,2.858247610078471,0.5247205738406233,-0.1279319388850233,-0.0038388311169491596,0.0016274896321275545,0.047160474358390415,5.010800288260275,-2.592453467082044,-0.7891247966030845,0.004699065797984159,-0.0002914016689169376
0.8,-0.3041999333570179,0.5472475237007539,-1.1865819792368533,0.15706115512593538,-0.04009164107908516,-0.0008188934518126904,-0.07676868491166224,-0.4423967118329377,1.2863213815037848,0.3895686497315988,-0.01613310823724091,-0.00014297320335937715,0.5647832936021315,2.7657920449716356,0.3822021735281038,-0.16812193356814653,-0.0035481775949376404,0.0014797676994637854,0.045068683808386384,4.925091320063519,-2.6648063060910085,-0.8041972652894239,0.004524156533595848,-0.0003032901527370665
0.81,-0.30491174895294615,0.543099402729797,-1.1736811530152067,0.16094365303507963,-0.04025324335994011,-0.0008202560983148249,-0.0711815595928256,-0.41481209709569267,1.2900826221646613,0.38824979091442513,-0.016160228085494638,-0.00013626465021345934,0.5316050498071653,2.6730794893378906,0.2396909983952944,-0.2077256682015074,-0.0031564944151677987,0.0013406275514900035,0.04284049812037016,4.839582981640657,-2.73716802609794,-0.8191005030799434,0.004353529164759589,-0.00031497230247710153
0.8200000000000001,-0.3055709756991195,0.5392178494741379,-1.1607568860352584,0.16480906710945367,-0.040415073054864775,-0.0008215577904798499,-0.0659226746173356,-0.388155325565906,1.2924266979948336,0.3865414074374057,-0.016182969492466722,-0.00013016921650249233,0.4988604606635366,2.580386965717957,0.09750208153409368,-0.24665619531503813,-0.0026878291125345677,0.0012091341111853948,0.040506561693214226,4.754644878945237,-2.8093679393957967,-0.8338036467826078,0.004185348064886942,-0.00032643513543337456
0.8300000000000001,-0.3061808533980132,0.5355935885846077,-1.1478233167339087,0.16865356094716144,-0.04057708189518267,-0.000822804344762948,-0.06098776988936956,-0.36242608895301676,1.2933569301349632,0.38444938377077714,-0.01620088403178979,-0.0001246554283098147,0.4666166259944775,2.4879739250195105,-0.044058878473808516,-0.28483169287794574,-0.0021634822433493905,0.0010845316314279652,0.038095064771385176,4.670613736956084,-2.881244062636435,-0.8482780671188722,0.0040180190611848274,-0.00033766599471828654
0.84,-0.30674457252146736,0.5322173737262433,-1.1348945198951916,0.1724733651053672,-0.040739218760394415,-0.0008240012878148676,-0.05637191234541537,-0.33762148583643714,1.2928796838717056,0.3819804158205777,-0.016213686521174615,-0.00011969430519196073,0.43493594904406563,2.3960822165051,-0.18469628393055304,-0.3221756748143232,-0.001602311211624241,0.0009662237408356311,0.03563165707535486,4.5877935654881785,-2.952643293667781,-0.86249736591705,0.0038501861386409353,-0.00034865262730069703
0.85,-0.3072652679573852,0.529080011746996,-1.121984477221667,0.17626478472185753,-0.04090143111620851,-0.0008251538771006612,-0.05206954359178381,-0.3137361979247263,1.2910042673524593,0.37914196164903347,-0.016221235581409633,-0.00011525892857936393,0.40387594780780167,2.30493615532311,-0.32412531883753637,-0.35861715905939096,-0.0010209798022810523,0.0008537542148894794,0.03313942075268835,4.50645608149393,-3.023421536401205,-0.8764373625071675,0.0036807248795200018,-0.0003593832736091272
0.86,-0.3077460132508431,0.5261723850906685,-1.1091070489865849,0.1800242066264858,-0.04106366627681235,-0.0008262671177933704,-0.048074529345790394,-0.29076266563274594,1.2877428235081982,0.37594219046282673,-0.016223516060383764,-0.00011132406927091604,0.37348912180856014,2.214742682195232,-0.4620725435016002,-0.3940907931990717,-0.00043416290185427364,0.0007467884355185084,0.030638894030668978,4.4268413674931475,-3.093443775678545,-0.8900760700684872,0.0035087330757926317,-0.0003698467641321103
0.87,-0.30818981535213164,0.5234854724701303,-1.0962759468260972,0.18374810592915125,-0.04122587250684504,-0.0008273457764813676,-0.044380210128854805,-0.2686912620538217,1.2831102160487555,0.37238993026654565,-0.01622062300326897,-0.00010786586879972185,0.34382287056609095,2.125691609313816,-0.5982764031380126,-0.42853693814578625,0.00014528511638600694,0.0006450955485291787,0.028148137086474345,4.349158744057008,-3.1625841043221725,-0.9033936626896951,0.003333518957450533,-0.0003800326187069991
0.88,-0.30859960987910373,0.5210103678254934,-1.0835047077221651,0.18743305207490119,-0.04138799997597245,-0.0008283943921810067,-0.04097945269720781,-0.24751046446369357,1.2771239103932133,0.36849461457499444,-0.01621274691274059,-0.00010486156996390753,0.31491946010728467,2.0379559460297485,-0.7324876514925387,-0.46190171068889985,0.0007061908328708788,0.0005485313454210994,0.025682831989497598,4.273587832985326,-3.23072570474292,-0.9163724339044989,0.0031545874769023457,-0.00038993114454297974
0.89,-0.3089782568964284,0.5187382975999184,-1.0708066692182843,0.19107571436060894,-0.04155000157695582,-0.0008294172851034421,-0.037864701732462626,-0.22720702255750025,1.2698038503880797,0.3642662285707754,-0.016200160098336778,-0.00010228929224353538,0.28681603393738353,1.9516922975304938,-0.8644696912661931,-0.494136986126515,0.0012389444659114401,0.00045702193977473216,0.023256409071794378,4.200279786960374,-3.2977607876484187,-0.9289967474627762,0.0029716250792736856,-0.00039953352945470196
0.9,-0.309328537209931,0.5166606363730256,-1.0581949459018016,0.19467286691143704,-0.041711833616576564,-0.0008304185635847136,-0.03502803135025957,-0.20776612268928357,1.2611723316482615,0.3597152550828111,-0.01618320396207427,-0.00010012784812715226,0.25954466494298184,1.8670413294215038,-0.993998833820825,-0.5252003625228443,0.001735399104024371,0.0003705483189503783,0.020880192707280754,4.129358661028001,-3.3635904905370064,-0.9412529810899645,0.0027844833712415175,-0.00040883192726855525
0.91,-0.3096531491701384,0.5147689208984799,-1.0456824071784903,0.1982213931189124,-0.041873456387662454,-0.0008314021295507823,-0.032461196020742815,-0.18917154745457287,1.2512538723311317,0.35485262074753804,-0.01616227710858886,-9.835659660687066e-05,0.23313244473068848,1.784128290933077,-1.1208644812685993,-0.5550550884412624,0.0021887816378885483,0.00028913186613167136,0.018563560190740555,4.060922901230144,-3.4281247387794735,-0.9531294639757375,0.002593162077891544,-0.00041781953288385325
0.92,-0.3099547059754377,0.5130548625981843,-1.0332816563572607,0.2017182895458892,-0.04203483462968924,-0.0008323716828534761,-0.030155680529932297,-0.17140583002956125,1.2400750821229614,0.34968964269767794,-0.016137824202678553,-9.69553302693727e-05,0.20760160692613153,1.7030635893773258,-1.2448692345883248,-0.5836699562879746,0.002593611348154612,0.0002128209578425959,0.01631410816949141,3.995046926067353,-3.491282072181926,-0.9646164087176453,0.0023977916489429114,-0.00042649064500680607
0.93,-0.31023573346189987,0.5115103585706415,-1.021005011055456,0.20516066930692908,-0.04219593788494473,-0.0008333307247787178,-0.028102748646211286,-0.1544504027542769,1.2276645301804534,0.3442379761039904,-0.016110325525549345,-9.590419252417882e-05,0.1829696809722184,1.6239434084723663,-1.365828931872923,-0.6110191636400422,0.002945622869874015,0.00014167872840243007,0.014137821862947908,3.931782777172238,-3.5529894399881865,-0.9757058384268662,0.002198615843524097,-0.0004348407151087402
0.9400000000000001,-0.31049866836381185,0.5101275011754307,-1.008864484928167,0.2085457649356656,-0.04235674075698117,-0.0008342825609948359,-0.026293490191197606,-0.13828573952108597,1.21405261272892,0.3385095628736519,-0.01608028720364351,-9.518362161181076e-05,0.1592496729790864,1.5468503632283603,-1.4835726211886098,-0.6370821451405555,0.003241690970843203,7.57720972793495e-05,0.012039243081736857,3.8711618165866697,-3.613181967319882,-0.9863915096819057,0.001995974587512985,-0.00044286638167615193
0.9500000000000001,-0.3107458570263037,0.5088985862594009,-0.9968717707184309,0.21187093075351743,-0.04251722307799192,-0.0008352303041758322,-0.02471886624918248,-0.12289149160298825,1.1992714209735982,0.332516581785182,-0.016048232101074707,-9.477431809962982e-05,0.13645027019657477,1.4718541842461952,-1.5979424728169758,-0.6618433777208517,0.003479755250095029,1.516212158100827e-05,0.010021633806318424,3.8131964493141535,-3.6718026960675334,-0.9966688319925109,0.0017902873602704313,-0.0004505654893057917
0.96,-0.310979554549144,0.5078161200931238,-0.985038224619105,0.21513364475666194,-0.04267736999178006,-0.0008361768765024825,-0.02336975228402811,-0.1082466166276997,1.1833546099325976,0.3262714003144501,-0.016014691378814516,-9.465723266503422e-05,0.1145760657087017,1.3990124245060154,-1.7087936358613822,-0.6852921620490031,0.0036587434726292056,-4.010427436580005e-05,0.008087132787653394,3.757881851319,-3.7288023032374515,-1.0065347844104955,0.0015820373293632922,-0.0004579370926424298
0.97,-0.31120192433881183,0.5068728250883963,-0.9733748519316069,0.218331510040458,-0.042837171959093714,-0.0008371250122129963,-0.02223697896678371,-0.09432950047275462,1.16633726874981,0.31978652837960697,-0.015980196731365293,-9.481357105138652e-05,0.09362779999297047,1.3283711820118735,-1.8159940443324891,-0.7074223832029292,0.0037784928059256817,-9.00011665892625e-05,0.006236903276118246,3.705197684818571,-3.7841387997287224,-1.015987829897012,0.0013717564134964988,-0.0004649814455522022
0.98,-0.31141503804432324,0.5060616443691645,-0.9618922940016612,0.22146225578250955,-0.042996624692245924,-0.0008380772603448841,-0.021311370551140813,-0.08111807192318476,1.1482557929945725,0.3130745742051544,-0.015945273315221282,-9.522481318877895e-05,0.07360261604937035,1.259965832001722,-1.9194241778857366,-0.7282322536426253,0.0038396687031904686,-0.00013452910293189346,0.00447127056062154,3.6551097845182836,-3.837777212463357,-1.0250278280273293,0.0011600114161840743,-0.00047169997626487543
0.99,-0.3116208758509932,0.5053757452692024,-0.950600816407634,0.22452373780727988,-0.0431557290260813,-0.0008390359877809985,-0.020583780666996572,-0.06858990999620436,1.129147759402719,0.30614820247703345,-0.015910433383537717,-9.587274361144192e-05,0.054494324887331524,1.193821762817449,-2.0189767823759537,-0.7477240415884072,0.003843681586671671,-0.00017371920814487907,0.0027898485025091685,3.607571800325505,-3.889689252722631,-1.033655946584626,0.0009473913364209819,-0.0004780952495008165
