tonegas/nnodely-applications/joint_friction_estimation/dataset/train/mpc_mujoco_episode_13 copy.csv
time,q1,q2,q3,q4,q5,q6,dq1,dq2,dq3,dq4,dq5,dq6,ddq1,ddq2,ddq3,ddq4,ddq5,ddq6,tau1,tau2,tau3,tau4,tau5,tau6
0.0,0.0,1.57,-1.57,0.0,0.0,0.0,0.0,0.0,0.0,0.0,0.0,0.0,2.1544255008568145,14.212988437603803,9.296156476629797,2.9562095675650824,0.2980636661823084,-4.9410926177273495e-06,0.30008962955537255,4.369822206205802,-0.623378499144041,-0.15230301355721676,0.027400386992005702,0.00032103254363402165
0.01,0.00021426183995783632,1.5714199147771208,-1.569071232993085,0.0002798452502915325,2.5557997276036115e-05,4.097979271139085e-07,0.02142618399578363,0.14199147771208626,0.09287670069151062,0.027984525029153245,0.0025557997276036116,4.097979271139085e-05,2.136547532311653,13.769569966956025,8.92111308324505,2.665694046328838,0.2497890690601956,0.004070262638279587,0.30170812352064164,4.055938156084816,-0.7576135734092606,-0.18218171173896425,0.02742829567243718,0.0003034194198680572
0.02,0.0006408570118014748,1.5742155157080073,-1.5672521718837367,0.0008148412500870394,7.36664757716241e-05,1.2457209548265345e-06,0.04265951718436385,0.27956009308865015,0.1819061109348371,0.05349959997955068,0.004810847849558799,8.35923027712626e-05,2.113939673361103,13.301579985548978,8.516920804782771,2.4121855457418064,0.2184598504098716,0.004146537448871612,0.30647048120282616,3.69467087645792,-0.8975205821501309,-0.21232939915193472,0.027616020586477438,0.00028497467343977076
0.03,0.001277455011060813,1.5783400819546285,-1.5645838920621384,0.001582994960289152,0.0001423099660086888,2.473641254093772e-06,0.0636597999259338,0.41245662466212096,0.26682798215982395,0.07681537102021124,0.006864349023706469,0.00012279202992672376,2.0870822151490573,12.810666645720293,8.088952603053063,2.1863917327513605,0.1965452869740485,0.003661056242494354,0.31409013342258607,3.2905512742811256,-1.0424111068148965,-0.24264793597062173,0.027939620014615706,0.00026561907458881704
0.04,0.0021213442405812162,1.583744574545654,-1.5611096093422414,0.002564326477733919,0.00023001339460564508,4.05728462680901e-06,0.08438892295204031,0.5404492591025428,0.3474282719897023,0.09813315174447666,0.008770342859695628,0.00015836433727152376,2.0562111894450106,12.298656377534936,7.641874335951073,1.9814697779418111,0.17961769403715522,0.003108162256548752,0.3242564543726504,2.848261170320656,-1.1915235203747199,-0.2730230772293555,0.028371567360304946,0.0002452726714903344
0.05,0.0031694390120957233,1.590377826232431,-1.5568742709686847,0.00374036666907885,0.0003355767252229996,5.96292789994085e-06,0.10480947715145073,0.6633251686776984,0.4235338373556783,0.11760401913449307,0.010556333061735446,0.00019056432731318404,2.0214213634303086,11.76752099442703,7.179802300414593,1.7924295114896722,0.16512735157674285,0.0025503574499050607,0.33663284026172036,2.372579150191572,-1.3440375900340071,-0.30332802769365796,0.028881706883290156,0.00022385699277097717
0.06,0.004418278926773083,1.598186744300243,-1.551924188110671,0.0050937953768591705,0.00045792306566252105,8.158638999862476e-06,0.12488399146773592,0.7808918067811981,0.4950082858013901,0.13534287077803206,0.012234634043952149,0.00021957110999216265,1.9827324523034888,11.219347629927697,6.706418873209984,1.615678289878531,0.15166501225405327,0.001996667376589656,0.35085492535971025,1.8683270179235683,-1.4990894629524991,-0.3334270164238421,0.029438188524368813,0.00020130068105748446
0.07,0.005864024742901535,1.607116523682871,-1.5463067014533558,0.0066081854828153805,0.0005960157980959312,1.0613452368314589e-05,0.14457458161284523,0.8929779382627943,0.5617486657315028,0.15143901059562104,0.013809273243341016,0.0002454813368452113,1.9401322465201454,10.656310610951898,6.225056347782605,1.4486730360332274,0.13851006704237,0.0014544575643049562,0.3665297782614412,1.3403174216560636,-1.6557867264292985,-0.3631788182470781,0.03000838451723395,0.0001775463706629632
0.08,0.0075024534749659096,1.6171108678365946,-1.5400698739274767,0.00826782626050369,0.0007488174223266353,1.3296991453149485e-05,0.1638428732064374,0.9994344153723541,0.6236827525879126,0.16596407776883104,0.015280162423070403,0.0002683539084834896,1.893605039464678,10.080644789708028,5.738756689466893,1.289654126753625,0.12535165421125605,0.0009332186508763662,0.38323670835324086,0.7933032999009315,-1.8132232516412667,-0.392440150903711,0.030559782382498783,0.00015255752629436995
0.09,0.009328954592198247,1.628112214911472,-1.533262206453243,0.010057605680425689,0.0009152732405847813,1.617941505669405e-05,0.18265011172323384,1.100134707487728,0.6807667474233706,0.17897794199219974,0.016645581825814607,0.0002882423603544565,1.8431504362221405,9.49462012142115,5.250313219149945,1.1374419185851394,0.1121156968914363,0.0004426170087334924,0.4005300923553644,0.23192983332364392,-1.970493553526849,-0.42106888269660947,0.031060842567122042,0.00012632447449230106
0.1,0.011338528596094294,1.640061966834062,-1.5259323739434096,0.011962936100892203,0.0010943094080962444,1.9231542135097254e-05,0.20095740038960466,1.1949751922589977,0.7329832509833523,0.19053304204665147,0.0179036167511463,0.0003052127078403205,1.7887956017617366,8.900517548346222,4.762298924246691,0.9912812549667507,0.09885738159594659,-9.190174763418213e-06,0.41794440680830036,-0.33931036408968307,-2.1267064087510708,-0.44892699059658847,0.03148180466382598,9.886916689424475e-05
0.11,0.01352578883517158,1.6529007190100624,-1.5181289798126445,0.01396971143291453,0.0012848388212181297,2.2425054832090748e-05,0.2187260239077286,1.283875217600046,0.7803394130765245,0.20067753320223264,0.019052941312188522,0.00031935126969934944,1.7306027972081321,8.300606109463704,4.277085053254099,0.8507227668363484,0.08569448374759858,-0.00041642242204309454,0.4350014310297385,-0.9161182432322912,-2.280997547772244,-0.47588322793240917,0.031795423650917726,7.024840325334767e-05
0.12,0.01588496709181296,1.6665684884506613,-1.5099003279561554,0.016064286672558083,0.0014857707771727933,2.5732717997850553e-05,0.23591782566413783,1.3667769440598942,0.8228651856489064,0.2094575239643552,0.020093195595466372,0.0003307663165759805,1.6686733740879565,7.697121674093778,3.796852864646956,0.7155324254316007,0.0727665086978071,-0.000775909522254814,0.4512193815072685,-1.4944247936706203,-2.4325411946200663,-0.5018154566041577,0.031977617181253845,4.055538880367709e-05
0.13,0.018409923214531144,1.6810049382682601,-1.5012942116499235,0.018233472851153502,0.001696021896020601,2.912857988683377e-05,0.2524956122718183,1.4436449817598844,0.8606116306231808,0.2169186178595421,0.021025111884780776,0.0003395861888983215,1.6031490082743352,7.092247318105954,3.3236007343901584,0.5856228287038903,0.060210359093247234,-0.00108691749585077,0.4661235604154819,-2.0704225800678273,-2.5805603334498883,-0.5266126243125948,0.032008006055768715,9.919598085663187e-06
0.14,0.021094158850561755,1.696149596636107,-1.4923577191403568,0.02046454211662716,0.0019145267940299758,3.25881360778569e-05,0.26842356360306097,1.514465836784686,0.8936492509566811,0.223106926547366,0.02185048980093747,0.0003459556191023133,1.534210760789779,6.488095591979736,2.859148331412422,0.46100124142406784,0.04814668984261594,-0.0013507472935865295,0.4792579645885212,-2.6405919273394747,-2.7243355739598183,-0.5501763695380035,0.031870332886826655,-2.1494988460215962e-05
0.15,0.02393083515142517,1.7119420684839748,-1.4831370558711556,0.02274523894481985,0.002140247646354512,3.60884497328255e-05,0.28366763008634155,1.5792471847867637,0.9220663269201208,0.22806968281926882,0.022572085232453604,0.0003500313654968601,1.4620764445738372,5.886692828473909,2.4051391566792386,0.3417305798997248,0.03667319739460684,-0.001570237355840387,0.49019721260315086,-3.2017215130784806,-2.8632125369860493,-0.5724222499459362,0.03155274801979915,-5.3493135208220865e-05
0.16,0.026912794175184322,1.7283222383972323,-1.4736773833726584,0.02506379447676235,0.0023721822013122165,3.96082280975523e-05,0.2981959023759153,1.6380169913257554,0.9459672498497317,0.2318555531942501,0.023193455495770454,0.00035197783647267943,1.3869967150910265,5.28996560987709,1.9630424143358347,0.22790042149357248,0.025862370364462706,-0.001749259185391372,0.4985581129276064,-3.75092326144002,-2.996607715115279,-0.5932805988840295,0.031047956789718178,-8.585288670326217e-05
0.17,0.030032583592646378,1.7452304633959759,-1.4640226748401597,0.027408941753700462,0.002609370085150051,4.312785902209823e-05,0.31197894174620566,1.6908224998743488,0.9654708532498727,0.23451472769381151,0.023718788383783416,0.000351963092454593,1.3092502583945353,4.699729469209454,1.534154919464875,0.11960579414413353,0.01576203538227361,-0.0018922611819267576,0.5040102154020296,-4.285641573867412,-3.1240127976072634,-0.6126970230249467,0.030353227696669247,-0.00011833113646279723
0.18,0.033282484219737056,1.7626077544891878,-1.454215587374145,0.029769930227115608,0.00285089741289486,4.662941320173966e-05,0.32499006270906755,1.737729109321186,0.9807087466014784,0.2360988473415146,0.024152732774480937,0.00035015541796414333,1.2291384098804459,4.1176798504209335,1.1196035346766129,0.01693201342091122,0.006397558812248683,-0.0020038898710164066,0.5062847573754918,-4.803657067317392,-3.2449974818567267,-0.6306325615402633,0.029470266659500043,-0.0001506699448727461
0.19,0.036654539842997824,1.7803959461208463,-1.4442973507645145,0.03213653839461147,0.0030958998288247116,5.0096618497136986e-05,0.3372055623260772,1.7788191631658434,0.9918236609630534,0.23666081674958606,0.024500241592985146,0.0003467205295397324,1.1469794953593906,3.545385305364295,0.7203484574546701,-0.08005577628034821,-0.0022250774292862374,-0.002088698800900346,0.5051815262473391,-5.303085113344006,-3.359210824005001,-0.6470635333148858,0.028404967744939124,-0.00018260330488438498
0.2,0.04014058877701459,1.798537852845469,-1.434307672586855,0.03449908378353226,0.0033435641602537845,5.351481256873186e-05,0.3486048934016763,1.8141906724622694,0.9989678177659395,0.23625453889207942,0.024766433142907277,0.00034181940715948765,1.06310314244852,2.9842828593944226,0.33718754464466816,-0.1713194038061916,-0.010115856481542451,-0.002150942835989045,0.5005733004790112,-5.782369578626154,-3.4663812090043944,-0.6619811036827862,0.027167055318656236,-0.00021386405354808003
0.21,0.04373229658824668,1.8169774127849365,-1.4242846592530245,0.03684842979471697,0.0035931288954754075,5.687087949467603e-05,0.35917078112320916,1.8439559939467616,1.0023013333830497,0.2349346011184708,0.024956473522162292,0.0003356066925944168,0.9778447658760718,2.4356754394024445,-0.029238246222758058,-0.256851638233079,-0.017297313404498915,-0.0021944481500192348,0.49240768813001284,-6.240272253857674,-3.566315044140718,-0.6753906058205912,0.0257696361599315,-0.0002441906419403286
0.22,0.04742118943540028,1.8356598176226315,-1.4142647525297625,0.039175989145765304,0.0038438837015330237,6.01531752637759e-05,0.36888928471536053,1.8682404837695092,1.0019906723261967,0.23275593510483383,0.025075480605761633,0.0003282295769099873,0.8915403868157955,1.9007312237318303,-0.3784383014369097,-0.3366779695067308,-0.02380134704793857,-0.0022225446794339465,0.48070634203620544,-6.675858523904232,-3.658894300044865,-0.6873106544321448,0.024228682552220764,-0.00027333350391406353
0.23,0.05119868750822225,1.8545316290813953,-1.4042826809147149,0.04147372382953346,0.004095168187826898,6.335144619435388e-05,0.3777498072821965,1.8871811458763834,0.9982071615047577,0.22977346837681542,0.02512844862938743,0.0003198270930577979,0.8045219054979851,1.380484747872444,-0.7100647460929099,-0.41085671825524417,-0.02966638115857556,-0.002238046919527392,0.46556168127820896,-7.088479874930147,-3.744073038515081,-0.697772090591039,0.022562468638041424,-0.0003010608025922194
0.24,0.05505613809049944,1.8735408820059098,-1.3943714251444048,0.043734141639271404,0.004346370103164593,6.645674351800709e-05,0.3857450582277187,1.9009252924514541,0.9911255770310045,0.2260417809737941,0.025120191533769525,0.00031052973236532115,0.7171129092767806,0.8758395807755728,-1.0239038990065494,-0.47947788695576254,-0.03493493217183907,-0.0022432697684550695,0.4471313790311362,-7.477753855343465,-3.8218730771709533,-0.7068167967071375,0.020790982431105123,-0.00032716337953322126
0.25,0.058984847825514115,1.8926371743258912,-1.3845621970070672,0.04595028941463018,0.004596923130881796,6.946133663439594e-05,0.3928709735014674,1.90962923199814,0.9809228137337642,0.22161477753587797,0.025055302771720293,0.0003004593116388842,0.629625065820982,0.3875723745945985,-1.3198669274335573,-0.542661083705557,-0.039651595540775464,-0.002240067843596316,0.42563097951432827,-7.84354210790133,-3.892378946900385,-0.7144964196138102,0.018935334913836564,-0.00035145878168682125
0.26,0.06297611381998613,1.9117717443126898,-1.3748844305473833,0.048115743238829445,0.004846304422019579,7.235862691265428e-05,0.39912659944720197,1.9134569986798675,0.9677766459683966,0.21654538241992624,0.024938129113778296,0.0002897290278258338,0.5423551234629268,-0.08366191498451202,-1.5979798599803217,-0.6005527858408124,-0.0438614329239595,-0.002229888816610563,0.40132507703236153,-8.185927072340524,-3.955732299384401,-0.7208710378566902,0.01701718577738599,-0.0003737942923832998
0.27,0.06702125328283144,1.9308975356579388,-1.3653657846814504,0.05022459587146731,0.005094031982215166,7.51430633919272e-05,0.4045139462845303,1.912579134524899,0.9518645865932877,0.2108852632637864,0.024772756019558664,0.000278443647927292,0.4555825179851814,-0.5373238406204245,-1.8583731248582027,-0.6533231594427926,-0.047608724955889414,-0.0022138334073241867,0.3745175266663597,-8.505187924155143,-4.012125918993922,-0.7260078065479143,0.01505820278688217,-0.00039404894172521667
0.28,0.07111163145555406,1.9499692509987612,-1.3560321561893633,0.05227144173772941,0.005339662005192922,7.781006131324021e-05,0.4090378172722614,1.9071715340822442,0.9333628492087097,0.2046845866262092,0.024563002297775617,0.00026669979213130176,0.3695675670148451,-0.9729825053108367,-2.1012707815997675,-0.7011626092966825,-0.050936045318166645,-0.002192716631930214,0.3455411605552354,-8.801776268697209,-4.0617974865059985,-0.729979609797899,0.01307956869895039,-0.00041213451643269656
0.29,0.07523868764989484,1.968943394590215,-1.3469077020194284,0.054251359816357286,0.005582786225242651,8.035592408633172e-05,0.4127056194340786,1.897414359145391,0.9124454169934881,0.1979918078627877,0.02431242200497289,0.0002545862773091502,0.2845502193479239,-1.3903080235671668,-2.3269796092226525,-0.7442781999323866,-0.053883608784888626,-0.0021671265305442944,0.3147474597301583,-9.076292053847592,-4.105023231968703,-0.7328637469280259,0.011101546343522317,-0.0004279956275783701
0.3,0.07939395926404257,1.987778304882995,-1.3380148698215906,0.0561598947783671,0.005823029343171887,8.277776904539927e-05,0.4155271614147719,1.8834910292779805,0.8892832197837981,0.19085349620098171,0.02402431179292359,0.0002421844959067552,0.20074931647380975,-1.7890635789109877,-2.5358782041208388,-0.7828900602645739,-0.05648884677453658,-0.0021374779421242107,0.2824965845850198,-9.32946010228819,-4.14211160132352,-0.7347406745826259,0.009143109114184438,-0.0004416089255275228
0.31,0.08356910370021686,2.0064341778041097,-1.3293744356270092,0.05799303672844032,0.006060046564984278,8.507345716329294e-05,0.4175144436174293,1.8655872921114802,0.8640434194581321,0.1833141950073218,0.02370172218123901,0.0002295688117893674,0.11836231680858904,-2.169097240688536,-2.728406227991978,-0.8172278609012409,-0.05878616718825225,-0.0021040599277841743,0.2491481036277049,-9.562107598923147,-4.17339704678784,-0.7356928226718005,0.007221640869882871,-0.0004529815741888461
0.32,0.08775591815304178,2.0248730815617275,-1.3210055476044842,0.059747199893068814,0.006293521279863713,8.724152676185546e-05,0.4186814452824913,1.8438903757617977,0.836888802252492,0.17541631646284953,0.023347471487943534,0.00021680695985625153,0.037565429167180114,-2.530333687601961,-2.905053931009528,-0.8475274334709102,-0.060806859834089094,-0.0020670762109812335,0.21505268671892216,-9.775142802966647,-4.199234035223445,-0.7358034979464032,0.0053527062799246655,-0.00046214911136545134
0.33,0.09194635727941372,2.0430589638041696,-1.3129257748509933,0.061419200585577226,0.006523162893729705,8.928113116560946e-05,0.41904391263719387,1.8185882242442157,0.8079772753490883,0.16720006925084138,0.02296416138659919,0.00020396044037540058,-0.04148589968059132,-2.8727659689949125,-3.0663520591686018,-0.8740275846979753,-0.06257911377343348,-0.0020266785612453875,0.1805449517580789,-9.969535189980535,-4.219991352451703,-0.7351558850700695,0.003549890049595237,-0.0004691728290328872
0.34,0.09613254879633808,2.0609576519587867,-1.3051511602112906,0.06300623475947963,0.006748704826418249,9.119198018704334e-05,0.41861915169243524,1.7898688154617,0.7774614639702652,0.15870341739023952,0.022554193268854487,0.0001910849021433868,-0.11865619837136059,-3.196447418387517,-3.2128622380584275,-0.8969671439266023,-0.06412811797829454,-0.0019829934240758185,0.14593757811036973,-10.146297168616504,-4.23604676533528,-0.7338321514205963,0.0018247013124658654,-0.0004741368075818626
0.35000000000000003,0.10030680708346422,2.0785368475608106,-1.2976962761685946,0.06450585543946713,0.006969902674161175,9.297428529631262e-05,0.41742582871261374,1.7579195602023716,0.7454884042696052,0.14996206799874978,0.02211978477429257,0.0001782305109269289,-0.19382893864967962,-3.501483817511013,-3.345167908877478,-0.9165822709590543,-0.06547622144561038,-0.0019361423364431252,0.11151673030097634,-10.30646746145732,-4.247782087953385,-0.7319126586056074,0.00018653779884525163,-0.00047714473251527455
0.36,0.10446164489193738,2.095766115356858,-1.290574282903187,0.0659159502947044,0.007186532534217523,9.462870830981346e-05,0.4154837808473152,1.722926779604765,0.7121993265407732,0.1410094855237272,0.021662986005634804,0.00016544230135008374,-0.26690530819346686,-3.7880258935220326,-3.4638658767720187,-0.9331040412042633,-0.06664313322178006,-0.0018862568135491475,0.07753877474444532,-10.451096190181667,-4.255578683771986,-0.7294752808674705,-0.0013572968121061111,-0.0004783166119833878
0.37,0.1085897832809666,2.112616867934135,-1.283796987676649,0.06723471959291119,0.007398389485001848,9.61563134255378e-05,0.4128138389029229,1.6850752577276629,0.6777295226537867,0.13187692982067956,0.021185695078432425,0.00015276051157243358,-0.33780283596569965,-4.0562622174558145,-3.569558516925026,-0.9467563168945645,-0.06764614656962187,-0.0018334884539104035,0.04422822244548036,-10.581231662909977,-4.259813422662438,-0.7265948282048329,-0.0028015297015470805,-0.0004777855001108952
0.38,0.11268415991851688,2.129062346585988,-1.277374904764983,0.06846065474665917,0.00760528621262988,9.755852243447025e-05,0.409437663755028,1.644547865185317,0.6422082911666223,0.1225935153747987,0.02068967276280325,0.0001402209008932455,-0.40645391363785643,-4.306412558497291,-3.6628466704649014,-0.9577539064114156,-0.06850037475871051,-0.0017780150281039298,0.011776792523213786,-10.69790882627423,-4.2608551001553066,-0.7233425701538377,-0.004142817573475627,-0.00047569431550390103
0.39,0.11673793589315594,2.145077599078661,-1.271317315232644,0.06959251763603341,0.007807051773262043,9.883707294343646e-05,0.40537759746390545,1.6015252492673093,0.6057589532338978,0.1131862889374239,0.020176556063216236,0.00012785505089662046,-0.47280425252017927,-4.53872173641917,-3.7443232503514396,-0.9663010083433221,-0.06921898870633036,-0.0017200432802814136,-0.01965653502648515,-10.802139316434193,-4.259061316535921,-0.7197858547321528,-0.005379614861118813,-0.0004721928277004638
0.4,0.1207445011907357,2.160639454934088,-1.2656323259103546,0.07062932086478788,0.008003530479796765,9.999397945375274e-05,0.40065652975797506,1.5561855855426885,0.5684989322289488,0.10368032287544601,0.019647870653472135,0.00011569065103162733,-0.5368113112471157,-4.7534540035948645,-3.814567566987737,-0.9725899326268284,-0.06981344899282682,-0.001659809142533497,-0.04994462452360518,-10.894903021629817,-4.254775805313976,-0.7159878160192358,-0.006512018881027961,-0.0004674348675751235
0.41000000000000003,0.12469747899268502,2.1757264987904623,-1.2603269270113988,0.0715703090807607,0.008194580901200304,0.00010103149714990145,0.39529778019493206,1.508704385637432,0.5305398898955805,0.0940988215972823,0.01910504214035386,0.00010375176961487086,-0.5984427253408197,-4.950887978331189,-3.874140374382372,-0.9768000878605569,-0.07029372667414746,-0.0015975759817516977,-0.07899060103831579,-10.977141053422793,-4.248326194180514,-0.7120071631821265,-0.0075415988322452086,-0.00046157580158022796
0.42,0.12859072895265045,2.190319042347062,-1.2554070478930386,0.0724149414659123,0.008380074962932249,0.00010195208826248515,0.38932499599654224,1.4592543556599742,0.49198791183601487,0.08446323851515974,0.018549406173194522,9.205911125837034e-05,-0.6576747658122621,-5.131312142819964,-3.9235796301745918,-0.9790972215136087,-0.0706685088846255,-0.0015336314341584112,-0.10672572954674694,-11.049750013916833,-4.240022176695954,-0.7078980434065558,-0.008471214874898114,-0.00045477029478407834
0.43,0.13241834960544382,2.204399095343255,-1.2508776105409618,0.07316287547713254,0.008559897137429714,0.0001027583908791217,0.3827620652793385,1.408005299619316,0.45294373520767106,0.07479340112202398,0.01798221744974643,8.063026166365466e-05,-0.7144908502280706,-5.295020911682119,-3.963396956639249,-0.9796328980850006,-0.07094538650558757,-0.0014682833070893686,-0.1331069003114579,-11.113577441254936,-4.230154069487753,-0.7037099711048715,-0.00930483276118149,-0.00044717037435232127
0.44,0.13617468005711686,2.2179503359644843,-1.2467425804246606,0.07381395189609234,0.008733943714359253,0.00010345319008537829,0.37563304516730356,1.3551240621229264,0.4135030116301297,0.06510764189598028,0.01740465769295399,6.94799206256601e-05,-0.7688801262134165,-5.4423112707583226,-3.9940747847491656,-0.9785441992696917,-0.07113102223364187,-0.0014018549479151154,-0.15811385155225102,-11.169418314838296,-4.218991727506722,-0.6994878158925195,-0.010047338682989924,-0.000438923793663735
0.45,0.13985430109783004,2.230958081010956,-1.2430050144398292,0.07436818122498992,0.008902122141258286,0.00010403939132521919,0.36796210407131896,1.3007745046471757,0.37375659848314086,0.055422932889758456,0.01681784268990333,5.8620123984089886e-05,-0.8208361441961137,-5.573479980347833,-4.016064159341643,-0.9759536296670746,-0.07123129824280294,-0.0013346804079392705,-0.18174624515371046,-11.218012504259779,-4.2067837887144695,-0.6952718421036359,-0.010704358187358017,-0.0004301726877692099
0.46,0.1434520358703375,2.2434092561082837,-1.2396671057198625,0.07482573144511785,0.009064350426204114,0.00010451999587674837,0.3597734772507455,1.2451175097327805,0.33379087199667384,0.04575502201279272,0.01622282849458282,4.8060455152918065e-05,-0.8703556333243507,-5.688821332372518,-4.029783180240271,-0.971969211452393,-0.07125144334532418,-0.0012670996531327638,-0.20402069433640635,-11.260043051190324,-4.193757219267894,-0.6910977930086031,-0.011282082227665656,-0.00042105250339544224
0.47000000000000003,0.1469629502166577,2.2552923661839275,-1.2367302251619996,0.07518691713677161,0.009220556595215092,0.00010489807834447294,0.3510914346320204,1.1883110075643868,0.2936880557862887,0.036118569165375876,0.015620616901097808,3.7808246772456806e-05,-0.917437391895289,-5.7886254468019676,-4.03561605164303,-0.9666847516158334,-0.07119614012901643,-0.001199454018644186,-0.22496782504460403,-11.2961351807393,-4.180117130650977,-0.6869970133624234,-0.011787102691161767,-0.0004116911810824073
0.48,0.1503823528141057,2.266597466379339,-1.2341949595743507,0.07545218994212362,0.00937067819816059,0.00010517676607392067,0.34194025974479925,1.1305100195411824,0.2535265587648894,0.02652728053520037,0.015012160294549787,2.7868772944773407e-05,-0.9620813012874867,-5.8731770889828985,-4.033912710039326,-0.9601802657768843,-0.0710696130211872,-0.0011320820288882594,-0.24462943617275928,-11.326855947533538,-4.166046841113609,-0.6829966044189739,-0.012226259089830514,-0.00040220856318142005
0.49,0.15370579519955965,2.277316133515637,-1.2320611464077487,0.0756221303372674,0.009514661857996596,0.00010535922039867199,0.33234423854539497,1.071866713629805,0.213381316660203,0.016994039514378667,0.014398365983600602,1.8245432475132047e-05,-1.00428747026292,-5.942754986145434,-4.0249889992046,-0.9525225430903745,-0.0708756986038015,-0.0010653156705751066,-0.2630558083244338,-11.352714431393558,-4.151708155060297,-0.6791196060650673,-0.012606497533055847,-0.00039271599914633324
0.5,0.15692907176783835,2.2874414381807235,-1.2303279050909215,0.0756974406656545,0.009652462859121387,0.00010544861963364678,0.32232765682787057,1.0125304665086283,0.1733241316827247,0.007531032838708722,0.013780100112479134,8.939923497480068e-06,-1.0440555145555357,-5.9976316182020435,-4.009127359299638,-0.9437658373374944,-0.0706178998000695,-0.0009994771443941897,-0.28030319701094497,-11.374162407569997,-4.137241835555905,-0.675385201238266,-0.012934742622066236,-0.0003833161186195751
0.51,0.16004821981657147,2.2969679174583395,-1.2289936650387276,0.07567893937255323,0.009784044771535676,0.00010544814373226823,0.31191480487331263,0.9526479277616038,0.13342400521939407,-0.0018501293101269908,0.013158191241428856,-4.759013785505296e-08,-1.0813839748525762,-6.038073454922592,-3.9865779956400864,-0.9339526698870237,-0.07029942577876724,-0.0009348760972460735,-0.2964315343047993,-11.391595426646038,-4.1227682467663325,-0.6718089382772627,-0.013217782517957737,-0.00037410274303541886
0.52,0.16305951969613292,2.30589154827493,-1.2280561904509948,0.07556755636890598,0.00990937910827427,0.00010536096052884783,0.30112998795614504,0.892363081659017,0.09374745877328808,-0.01113830036472456,0.012533433673859378,-8.718320342040292e-06,-1.116269874563317,-6.064341608594001,-3.9575604912271896,-0.9231147307197283,-0.06992321958152115,-0.0008718073051239283,-0.31150235306109086,-11.405354249086797,-4.108388144835507,-0.6684029673022239,-0.013462167133507508,-0.00036516090762847184
0.53,0.16595949510925115,2.3142097212986417,-1.2275126020637024,0.07536432944300658,0.010028445014237001,0.00010519021349133979,0.28999754131182204,0.8318173023712048,0.05435883872924269,-0.02032269258994062,0.0119065905962732,-1.7074703750804115e-05,-1.1487084171221342,-6.076692868315384,-3.9222658255481537,-0.9112738641558096,-0.06949197557456888,-0.0008105487478131668,-0.3255769398831338,-11.41572658875672,-4.094183597339662,-0.6651762871276652,-0.01367411917736511,-0.0003565669676511345
0.54,0.1687449135909733,2.321921215286635,-1.2273593960546962,0.07507040162972717,0.010141228985075844,0.00010493901091366088,0.27854184817221345,0.7711493987993339,0.015320600900612602,-0.029392781327941035,0.01127839708388433,-2.5120257767890627e-05,-1.1786928209586252,-6.075381079124636,-3.880858760431991,-0.898443126280565,-0.06900814887138562,-0.0007513600181090485,-0.33871471692038463,-11.42294912831765,-4.080219012998011,-0.6621349995688608,-0.013859457628808209,-0.0003483887650910217
0.55,0.17141278718590441,2.3290261717423824,-1.2275924603426491,0.07468701943956634,0.010247724615187324,0.0001046104164808095,0.2667873594931106,0.7104956455747641,-0.023306428795291247,-0.03833821901608274,0.010649563011148055,-3.2859443285136854e-05,-1.2062142886651468,-6.060658826208358,-3.833480551883378,-0.8846279012566001,-0.06847395885489771,-0.0006944809903096649,-0.35097184816802507,-11.427209777097325,-4.066542264714066,-0.6592825683141632,-0.014023533131970682,-0.0003406858350803474
0.56,0.17396037332622855,2.3355260697141347,-1.2282070885503966,0.07421553184355387,0.010347932374114193,0.00010420744114415948,0.25475861403241407,0.6499897971752164,-0.061462820774739996,-0.04714875960124679,0.01002077589268696,-4.029753366500228e-05,-1.2312621052877326,-6.032779381559478,-3.780251944809333,-0.8698270638345313,-0.06789138886138968,-0.0006401306777067406,-0.3624000629695271,-11.428650148657853,-4.053185890248355,-0.6566200798021414,-0.014171174759433481,-0.0003335096343639195
0.5700000000000001,0.17638517590110583,2.341423700539449,-1.2291979919318874,0.07365738990502693,0.010441859410781504,0.00010373303624835636,0.24248025748772875,0.5897630825314246,-0.09909033814906855,-0.05581419385269363,0.009392703666731022,-4.7440489580311675e-05,-1.2538238590561557,-5.991998867669573,-3.721276405462463,-0.8540341753837097,-0.06726218397469452,-0.0005885062207322544,-0.3730456876662188,-11.427368240808155,-4.040168355868545,-0.6541465037682574,-0.014306647595199274,-0.00032690377752074725
0.58,0.17868494649578928,2.3467231423189596,-1.230559309585584,0.07301414694549171,0.010529519384987335,0.00010319008785495555,0.22997705946834418,0.5299441779510865,-0.13613176536966046,-0.06432429595352157,0.00876599742058315,-5.429483934008118e-05,-1.27388577626034,-5.93857859026567,-3.656643544327352,-0.8372387006621729,-0.06658784870759771,-0.000539781945972595,-0.38294887554506607,-11.423421305141094,-4.02749536918747,-0.6518589513165987,-0.014433620615380987,-0.00032090427001124936
0.59,0.18085768576737835,2.3514297338856176,-1.2322846172960218,0.07228745912921786,0.010610932325449737,0.00010258141221132818,0.21727392715890753,0.470659156665797,-0.17253077104378628,-0.0726687816273862,0.008141294046240146,-6.0867564362737226e-05,-1.2914331603890203,-5.872787489823814,-3.58643268014648,-0.8194272324489233,-0.06586964614909885,-0.0004941084647367422,-0.3921430251657651,-11.416828896310992,-4.015161228094062,-0.6497529285347212,-0.014555144390938943,-0.0003155397304574202
0.6,0.1829016449136817,2.3555500480237,-1.234366935359185,0.07147908634989542,0.010686124513493562,0.000101909752316004,0.20439591463033427,0.4120314138082769,-0.2082318063163385,-0.08083727793224482,0.007519218804382612,-6.716598953241877e-05,-1.306450924100921,-5.794904659726788,-3.510716493962109,-0.8005847110017825,-0.06510859990153417,-0.00045161178619568254,-0.40065437757133837,-11.407576093204456,-4.003150193226378,-0.6478225838112364,-0.014673638190754321,-0.0003108315977772303
0.61,0.18481532718235374,2.3590918636851756,-1.2367987357562067,0.07059089330263538,0.010755128391162829,0.00010117777553350833,0.1913682268672062,0.3541815661475345,-0.2431800397021705,-0.0888193047260038,0.006900387766926758,-7.319767824956676e-05,-1.3189242011321138,-5.705221877602958,-3.429564720546166,-0.7806956251943085,-0.06430549986429579,-0.0004123924435210924,-0.4085017835909916,-11.395616884928264,-3.9914378718571655,-0.646060947144078,-0.014790886116447403,-0.00030679432181588665
0.62,0.1865974893594467,2.3620641369496087,-1.2395719490434922,0.06962485062583026,0.01081798249218617,0.00010038807221262855,0.17821621770929583,0.2972273264433032,-0.27732132872855314,-0.09660426768051167,0.006285410102334116,-7.897033208797768e-05,-1.3288390238996688,-5.604046095707367,-3.343047823541956,-0.759745182148098,-0.06346091261253939,-0.00037652464775173033,-0.4156966332401213,-11.380877714197284,-3.979992601393114,-0.6444601598497972,-0.014908041945008015,-0.00030343553888110403
0.63,0.1882471431699139,2.3644769704778255,-1.2426779713256098,0.06858303599991995,0.010874731393828148,9.954315526182102e-05,0.16496538104671954,0.2412833528216922,-0.31060222821176486,-0.1041814625910309,0.005674890164197705,-8.449169508075213e-05,-1.3361830513860755,-5.491701836296975,-3.2512406001827188,-0.7377204322507467,-0.0625751968137438,-0.00034405549894767073,-0.42224293994450535,-11.363261169335257,-3.968776820965491,-0.6430116932077682,-0.015025642385173744,-0.0003007562360381738
0.64,0.18976355651753282,2.366341581218964,-1.2461076716701291,0.06746763509392807,0.010925425687250714,9.864546063408874e-05,0.1516413347618939,0.1864610741138403,-0.34297003445193075,-0.11154009059918774,0.005069429342256696,-8.976946277322858e-05,-1.3409463309318101,-5.368533438909542,-3.154225661707545,-0.7146113366588374,-0.06164852380023067,-0.00031500429812147956,-0.4281375728252085,-11.342649813805547,-3.9577484198498922,-0.6417065547038973,-0.015143628463689723,-0.0002987509100994607
0.65,0.19114625448828068,2.367670266145262,-1.2498514003110595,0.06628094225573018,0.010970121963611265,9.769734867112098e-05,0.1382697970747846,0.13286849262984562,-0.37437286409303366,-0.11866928381978922,0.004469627636055086,-9.481119629677527e-05,-1.3431220768712575,-5.234907108355235,-3.0520967366636897,-0.6904117648128008,-0.06068090311224772,-0.0002893620107727868,-0.4333706304674335,-11.318910139096674,-3.94686205173388,-0.6405354806813139,-0.015261374744781356,-0.000297407728903501
0.66,0.19239502003946327,2.3684763658087817,-1.2538989979697464,0.0650253608483521,0.011008882812759092,9.670110625289188e-05,0.12487655511825896,0.08060996635196804,-0.404759765868694,-0.12555814073780752,0.003876084914782768,-9.962424182291054e-05,-1.342707448565159,-5.0912127151233975,-2.9449617462593256,-0.6651204101156729,-0.05967221253171573,-0.00026709094887145124,-0.43792594938077706,-11.291896623049315,-3.9360704041887513,-0.6394891143641461,-0.015377726048672026,-0.0002967087036793081
0.67,0.19350989429690924,2.3687742255389233,-1.2582398065992253,0.06370340314211984,0.011041776831082257,9.565894969424842e-05,0.1114874257445974,0.02978597301415778,-0.4340808629478908,-0.13219577062322604,0.003289401832316397,-0.00010421565586434546,-1.3397043103473498,-4.937865303806573,-2.832945603869377,-0.6387416127643597,-0.05862223186893356,-0.00024812472046342737,-0.441781739692353,-11.261455871496869,-3.925325413126468,-0.6385581683968045,-0.01549104127276421,-0.000296629881998507
0.68,0.19449117638429853,2.3685791541287164,-1.262862681830404,0.062317689681115805,0.011068878634820358,9.457302832478242e-05,0.09812820873892922,-0.0195071410207025,-0.4622875231178822,-0.13857134610040292,0.0027101803738102054,-0.0001085921369465996,-1.3341199562421628,-4.775306270033352,-2.7161926946993207,-0.6112860798461419,-0.057530679548584374,-0.00023236850654884122,-0.4449113394834883,-11.227430816588488,-3.914579412560506,-0.6377335712354898,-0.015599243833823224,-0.00029714157100914037
0.6900000000000001,0.19533942271216653,2.367907379890929,-1.2677560073664425,0.06087094805203752,0.011090268875010576,9.344542868251963e-05,0.08482463278680138,-0.06717742377872105,-0.4893325536038387,-0.14467416290782864,0.0021390240190218342,-0.00011275996422628011,-1.3259677830374323,-4.6040041722187635,-2.594868996488964,-0.5827714941211433,-0.056397250866703885,-0.00021969971650326325,-0.44728407760478367,-11.189664940572271,-3.90378621065888,-0.6370065969395283,-0.015699878144419088,-0.0002982086003115908
0.7000000000000001,0.19605544565924024,2.366776004001498,-1.2729077115358005,0.059366010994081654,0.011106034250185987,9.227817924600308e-05,0.07160229470737103,-0.11313758894312523,-0.5151704169358023,-0.15049370579558685,0.001576537517541031,-0.00011672494365165472,-1.3152678964165616,-4.424455151087723,-2.4691638079071083,-0.5532230044628719,-0.05522165669354706,-0.00020996905003933808,-0.4488662328366271,-11.148006489343144,-3.892902083888374,-0.6363689781342583,-0.01579017141673173,-0.00029979063298585576
0.71,0.1966403115854095,2.365202951086938,-1.278305286175225,0.05780581379974362,0.011116267513002178,9.10732556237035e-05,0.058486592616928235,-0.15730529145598482,-0.5397574639424605,-0.15601971943380305,0.0010233262816191665,-0.00012049236222995668,-1.302047636349734,-4.237182937270821,-2.3392910578644814,-0.5226735926673456,-0.05400366133703294,-0.00020300198745826226,-0.4496220749888294,-11.102312635916713,-3.8818866820039455,-0.6358130021501449,-0.01586709995762167,-0.0003018425319356652
0.72,0.19709533812366772,2.3632069170535535,-1.283935807972084,0.05619339096826533,0.011121067467132656,8.983258611458314e-05,0.045502653825821374,-0.19960340333846627,-0.5630521796858882,-0.16124228314782899,0.0004799954130477854,-0.00012406695091203665,-1.286342009788101,-4.042738435142872,-2.2054901762179435,-0.4911643132305681,-0.0527431183121454,-0.00019860071164623516,-0.4495149710699229,-11.052453550380363,-3.8707038377283154,-0.6353315905783725,-0.015927458987636017,-0.00030431478692270286
0.73,0.1974220907075866,2.3608073141986075,-1.2897859623516694,0.05453187208570117,0.011120538951040862,8.855805754941664e-05,0.03267525839188729,-0.23996028549459203,-0.5850154379585392,-0.1661518882564159,-5.285160917934881e-05,-0.00012745285651664983,-1.268194020853668,-3.841698879279747,-2.0680265140961858,-0.45874440467499866,-0.05144000283525951,-0.00019654643912481173,-0.4485085371450333,-10.998316329989384,-3.8593222761791144,-0.6349183627146009,-0.01596793489104367,-0.0003071540054877506
0.74,0.19762237830110777,2.3580242136863534,-1.2958420699501534,0.05282447691801377,0.01111479280559872,8.725152131956728e-05,0.020028759352116128,-0.2783100512253981,-0.6056107598484063,-0.17073951676873975,-0.0005746145442142684,-0.0001306536229849356,-1.2476548911135248,-3.6346665682379617,-1.9271913101347016,-0.4254712730810013,-0.05009444000627905,-0.00019660213044125907,-0.44656781410160834,-10.939808741091635,-3.847716220410837,-0.634567683582276,-0.01598517869203437,-0.0003103034684776534
0.75,0.19769824830839794,2.354878285514099,-1.3020901156685876,0.051074509716055295,0.011103945822964973,8.591479949840219e-05,0.007587000729016817,-0.3145928172254644,-0.624804571843413,-0.17499672019584744,-0.0010846982633747272,-0.0001336721821165088,-1.2247841651025337,-3.422267188586988,-1.7833012070904068,-0.39141035049978967,-0.048706727831656416,-0.00019851552013216978,-0.44366044342591243,-10.87686272362642,-3.8358658908173204,-0.634274697427353,-0.0159758794616677,-0.0003137037482173659
0.76,0.19765198065296968,2.3513907361344883,-1.3085157802585166,0.049285352743538964,0.01108812067464448,8.454969096079709e-05,-0.004626765542824991,-0.3487549379610594,-0.642566458992906,-0.17891569725163295,-0.001582514832049179,-0.00013651085376051018,-1.1996496989370742,-3.2051477500274217,-1.636697331358394,-0.3566348329410438,-0.047277354473028055,-0.0002020224049501529,-0.43975781743282877,-10.809437609163156,-3.823757897552273,-0.6340353477500956,-0.015936836298206837,-0.00031729338459786144
0.77,0.19748608102694726,2.347583243939134,-1.3151044743462295,0.04746045905096046,0.011067445817202157,8.315797740812596e-05,-0.01658996260224227,-0.38074921953542396,-0.65886940877128,-0.18248936925785034,-0.0020674857442324083,-0.00013917135526711382,-1.17232753256312,-2.98397415979056,-1.4877439556553211,-0.32122530449017717,-0.0458070093657037,-0.00020685010893695122,-0.4348361773506128,-10.73752300489903,-3.811385526534053,-0.6338463850804308,-0.015865027496252432,-0.00032100961161507686
0.78,0.19720327332298698,2.3434778928448674,-1.3218413747611604,0.04560334452970353,0.011042055374680828,8.174142920990536e-05,-0.02828077039602776,-0.41053510942667054,-0.6736900414930941,-0.18571145212569326,-0.002539044252132935,-0.0001416548198220602,-1.1429016488221542,-2.7594284711430475,-1.3368267723273703,-0.2852692558467158,-0.044296588121223834,-0.00021272103362002248,-0.42887763238369475,-10.661141298751621,-3.7987489209676397,-0.6337053638057455,-0.015757675532288292,-0.00032478912431690055
0.79,0.1968064912726801,2.3390971042565663,-1.3287114629952108,0.04371757929108387,0.011012088997348762,8.030181097883819e-05,-0.039678205030687516,-0.438078858830105,-0.687008823405047,-0.18857652386196577,-0.0029966377332065986,-0.0001439618231067165,-1.1114636250179442,-2.5322058465382997,-1.1843508112258392,-0.2488605070790939,-0.04274719141000727,-0.00021935622268931532,-0.4218710734723548,-10.580349744647956,-3.7858551616047005,-0.6336106294203366,-0.015612306548773621,-0.00032856887381603754
0.8,0.1962988693260222,2.334463567709162,-1.335699565584418,0.041806778424695906,0.010977691696957347,7.884088680283535e-05,-0.050762194665790614,-0.46335365474044254,-0.6988102589207087,-0.19108008663879672,-0.003439730039141457,-0.00014609241760028441,-1.0781121849530835,-2.303011280633166,-1.0307380416899035,-0.21209854565969977,-0.041160118264769174,-0.0002264788276071794,-0.4138129570089697,-10.495242092266384,-3.7727182501384764,-0.6335612975821019,-0.015426803116648978,-0.0003322868761181649
0.81,0.19568373281649784,2.329600170515562,-1.3427903961730185,0.039874592198995855,0.010939013659202843,7.736042506615087e-05,-0.06151365095243681,-0.4863397193600183,-0.7090830588600651,-0.19321862257000544,-0.0038678037754505128,-0.00014804617366844758,-1.042952661409246,-2.072556131914061,-0.8764247027620518,-0.1750877918642475,-0.03953685449123068,-0.00023381742434980257,-0.4047079362791876,-10.405949731724139,-3.7593590011644547,-0.6335572263345001,-0.015199449195814684,-0.00033588301909294845
0.8200000000000001,0.19496458746530151,2.3245299267665094,-1.3499685989929944,0.037924695774473126,0.010896210034539165,7.58622028008361e-05,-0.07191453511963398,-0.5070243749052206,-0.7178202819975863,-0.19498964245227257,-0.004280362466367766,-0.0001498222265314771,-1.0060963807182526,-1.8415545140017782,-0.721858409249915,-0.1379368043224911,-0.037879057053818777,-0.00024110908253432983,-0.3945693218422476,-10.312642330878925,-3.7458048490091453,-0.6335989827826324,-0.014928966391390972,-0.0003392998510545998
0.8300000000000001,0.19414510828602685,2.3192759060425794,-1.3572187934699813,0.03596077850595099,0.010849440708867291,7.434800951988125e-05,-0.08194791792746564,-0.5254020723930198,-0.7250194476986893,-0.19639172685221398,-0.004676932567187323,-0.00015141932809548513,-0.9676599823702053,-1.610719598800049,-0.5674950835770103,-0.10075743894812206,-0.036188535457795545,-0.0002481021520415183,-0.3834193563624117,-10.215527950841528,-3.732089576421558,-0.6336878054053617,-0.014614540814968335,-0.00034248333416694724
0.84,0.1932291279576758,2.3138611622074756,-1.3645256196492166,0.033986532915463594,0.010798870055919469,7.281965049350727e-05,-0.09159803283510592,-0.5414743835103644,-0.7306826179235252,-0.19742455904873932,-0.005057065294782222,-0.00015283590263739756,-0.9277646875064828,-1.3807598835512103,-0.41379576452835964,-0.06366397461830964,-0.03446723123644002,-0.0002545587074823108,-0.37128929441565944,-10.114852633772392,-3.7182529726300477,-0.6338255630469798,-0.01425584009743608,-0.00034538354626501315
0.85,0.19222062473897553,2.3083086626555818,-1.3718737841230901,0.032005643420755764,0.010744666673356764,7.127894944035627e-05,-0.10085032187002824,-0.5552499551893997,-0.7348164473873533,-0.1980889494707828,-0.005420338256270388,-0.00015407010531509992,-0.8865355306381301,-1.1523754726172524,-0.26122334402008196,-0.026772218833642558,-0.032717196694279416,-0.00026025663601630944,-0.35821928333838937,-10.010899465824675,-3.7043404285906147,-0.634014711469074,-0.01385302035476768,-0.0003479553156797199
0.86,0.19112371000069486,2.3026412183853866,-1.3792481061348598,0.030021774906747255,0.010687003104703793,6.972775061501267e-05,-0.10969147382806561,-0.5667444270195132,-0.737432201176958,-0.19838685140085072,-0.005766356865297225,-0.00015511988253436018,-0.844100569019735,-0.926254422514371,-0.11023928195553978,0.009801393772741473,-0.030940574037004787,-0.00026499134569535343,-0.34425804703722174,-9.903987126960688,-3.6904024774016135,-0.6342582481647864,-0.013406723170830302,-0.0003501587752242079
0.87,0.1899426154549121,2.2968814152642603,-1.3866335635310776,0.028038561228322014,0.010626055549256868,6.816792028245238e-05,-0.11810945457827847,-0.5759803121126503,-0.73854573962177,-0.198321367842524,-0.006094755544692539,-0.0001559830332560296,-0.8005900838146908,-0.703069195515637,0.038699652813427354,0.04594069783964572,-0.029139575947792373,-0.0002685771140268911,-0.3294623805962142,-9.794467948065124,-3.6764942878493883,-0.6345596659526193,-0.012918062921927702,-0.00035195982358125305
0.88,0.18868168016103187,2.291051546839341,-1.3940153382380458,0.026059593732597662,0.01056200356202734,6.660134757800347e-05,-0.1260935293880217,-0.5829868424919504,-0.7381774706968129,-0.19789674957243528,-0.006405198722952764,-0.00015665727044489116,-0.7561357865359944,-0.4834732631388921,0.185144570338993,0.0815306771353696,-0.027316468555352635,-0.00027084807531274624,-0.3138964692426182,-9.682725504069495,-3.6626751188990845,-0.6349229056844184,-0.01238860501642338,-0.00035333048482975176
0.89,0.18734533738784592,2.2851735490344645,-1.40137886094488,0.02408840988747108,0.01049502974562976,6.502994475856968e-05,-0.13363427731859406,-0.5877997804876457,-0.7363522706834297,-0.1971183845126581,-0.006697381639757905,-0.00015714028194337888,-0.7108700432892909,-0.26809789622687824,0.3286575348171796,0.11645831738584711,-0.02547355757998293,-0.00027165889792551967,-0.29763105051819994,-9.569171779478385,-3.649007742683776,-0.6353523082319957,-0.011820335850303175,-0.0003542491596554688
0.9,0.18593810140917266,2.2792689370545425,-1.4087098546871382,0.022128482100812273,0.010425319435807375,6.345564685647939e-05,-0.14072359786732705,-0.5904611979922008,-0.7330993742258036,-0.19599277866588094,-0.006971030982238494,-0.00015742979020902877,-0.6649251281181727,-0.05754917325327258,0.4688144900556408,0.1506134226539877,-0.0236131782559319,-0.00027088516788825734,-0.28074244311495045,-9.454243949545289,-3.635557843194809,-0.6358525657660672,-0.011215625477490537,-0.0003547007647847987
0.91,0.18446455430772044,2.2733587447971004,-1.4159943770400434,0.020183206811291054,0.010353060382019953,6.188041075202064e-05,-0.14735471014522372,-0.5910192257441839,-0.7284522352905275,-0.19452752895212203,-0.007225905378742198,-0.0001575236104458748,-0.6184325153201564,0.14759476686562156,0.6052080027035345,0.18388938702514324,-0.021737689420549877,-0.00026842353889711124,-0.26331146957874474,-9.338400826231688,-3.622393397469135,-0.6364286722177439,-0.010577184155508498,-0.00035467676023449255
0.92,0.18292933285793817,2.267463467046355,-1.4232188606486298,0.018255893927582256,0.01027844242421715,6.030621368395655e-05,-0.15352214497822814,-0.5895277750745095,-0.7224483608586462,-0.19273128837087986,-0.007461795780280373,-0.00015741970680640838,-0.5715222190190852,0.34678620665382714,0.7374497957642339,0.21618391455231434,-0.019849471940446062,-0.00026419168439288654,-0.24542230280891866,-9.222119022866217,-3.609584045629824,-0.6370858727216562,-0.009908014047596588,-0.0003541750669601253
0.93,0.1813371155539045,2.2616030046987734,-1.4303701518431484,0.016349756687721633,0.010201657166601388,5.873505121960794e-05,-0.15922173040336782,-0.586046234758179,-0.7151291194518551,-0.19061372398606244,-0.007678525761576159,-0.00015711624643486113,-0.5243221866051513,0.5395100513068033,0.8651730500271924,0.24739968166153092,-0.017950931420374516,-0.00025812809656999836,-0.22716126788755173,-9.105888895015017,-3.597200455688619,-0.6378296117846424,-0.009211357438566372,-0.000353199880294735
0.9400000000000001,0.17969260984293015,2.2557966132410763,-1.4374355471113045,0.014467902004799173,0.010122897648864612,5.71689347074527e-05,-0.16445057109743574,-0.5806391457697009,-0.706539526815605,-0.188185468292246,-0.007875951773677656,-0.00015661165121552418,-0.47695775094377546,0.7252857392100641,0.9880344561884036,0.2774449374016994,-0.016044504931004955,-0.00025019178351973377,-0.20861563121839266,-8.990210317432252,-3.5853136885845927,-0.6386654799063756,-0.008490642852429892,-0.00035176138709404136
0.9500000000000001,0.17800053961967818,2.2500628546726498,-1.444402827223821,0.012613321359097648,0.010042358015079059,5.560988823567031e-05,-0.16920702232519746,-0.5733758568426343,-0.6967280112516534,-0.18545806457015251,-0.008053963378555327,-0.000155904647178239,-0.4295511445626414,0.9036688566917345,1.1057160054200779,0.30623403813078287,-0.014132671289701193,-0.00024036188096437927,-0.18987240825848395,-8.875588358071758,-3.573994568526565,-0.6395991583980105,-0.007749430446025874,-0.00034987539666070323
0.96,0.17626563302941323,2.2444195530347906,-1.4512602888359463,0.010788882290332688,0.009960233180148565,5.40599451203428e-05,-0.1734906590264951,-0.5643301637859149,-0.6857461612125373,-0.18244390687649595,-0.008212483493049396,-0.00015499431153275105,-0.38222107739974653,1.0742524565784102,1.2179265109329325,0.33368791431567413,-0.01221796425690913,-0.00022863722511562434,-0.17101721935717415,-8.762528910036181,-3.5633130633398435,-0.6406363621996284,-0.0069913579971757,-0.0003475628972442191
0.97,0.17449261062263605,2.2388837536796347,-1.457996773414373,0.008997320536937723,0.009876718493496545,5.252114394676658e-05,-0.17730224067771788,-0.5535799355156078,-0.6736484578426777,-0.17915617533949657,-0.008351468665201988,-0.00015388011735762135,-0.33508237817618464,1.2366680842924953,1.3244028575322067,0.3597344681665158,-0.010302987866276148,-0.0002150358945948727,-0.1521332204968297,-8.65153434108035,-3.5533376791956703,-0.641782780582973,-0.006220088712564528,-0.0003448495511649969
0.98,0.1726861738969962,2.233471686382385,-1.4646016933661594,0.0072412328624695925,0.009792009399490462,5.0995524187239576e-05,-0.18064367256398592,-0.5412067297249826,-0.6604919951786407,-0.175608767446813,-0.008470909400608316,-0.00015256197595270036,-0.2882456980795,1.3905865188892523,1.4249109802410165,0.3843089017871897,-0.00839043299465514,-0.00019959473215988566,-0.13330013221535614,-8.543099217960949,-3.544134873824928,-0.6430440157371705,-0.0054392619550625515,-0.00034176514237373667
0.99,0.17085099425614161,2.228198732371951,-1.4710650552732427,0.0055230706022879,0.009706301093988477,4.9485121418806065e-05,-0.18351796408545792,-0.5272954010434036,-0.6463361907083349,-0.1718162260181693,-0.008570830550198432,-0.00015104027684335135,-0.24181727423332147,1.5357182395468094,1.519246576718377,0.4073539763419145,-0.00648309420509241,-0.0001823688466118245,-0.11459338586874417,-8.43770615965135,-3.535768492083469,-0.6444255193654933,-0.004652447839001915,-0.0003383429905366029
