tonegas/nnodely-applications/joint_friction_estimation/dataset/train/mpc_mujoco_episode_15 copy.csv
time,q1,q2,q3,q4,q5,q6,dq1,dq2,dq3,dq4,dq5,dq6,ddq1,ddq2,ddq3,ddq4,ddq5,ddq6,tau1,tau2,tau3,tau4,tau5,tau6
0.0,0.0,1.57,-1.57,0.0,0.0,0.0,0.0,0.0,0.0,0.0,0.0,0.0,-2.970445381251779,-4.823041149157518,6.538796571372137,2.955792014333638,-0.4419991721939045,-2.6223583367013248e-06,-0.4139282061011188,-5.7525433279802325,-4.385774574152049,-0.9374547546857949,-0.03750837690551397,-0.0008944593372649893
0.01,-0.0002955224041037911,1.5695215890101994,-1.5693502289117023,0.000274389470545777,-3.713921140411874e-05,-2.2460220943680277e-07,-0.029552240410379113,-0.0478410989800719,0.06497710882976737,0.027438947054577695,-0.0037139211404118733,-2.2460220943680278e-05,-2.9415163226520558,-4.749052295710647,6.509163132658033,2.7503067032341058,-0.3722501477648681,-0.0022481147594590745,-0.4111896048897082,-5.728354169537731,-4.37700566867751,-0.9354598671371464,-0.037298115387410985,-0.0008903745818307426
0.02,-0.0008834595616677196,1.5685722483402202,-1.568054812739516,0.0008069570467918053,-0.00010709404163442411,-6.795347000227493e-07,-0.05879371575639285,-0.09493406699791034,0.1295416172186336,0.05325675762460283,-0.006995483023030538,-4.549324905859464e-05,-2.909297453082471,-4.671710111671419,6.468228628092829,2.587943895482475,-0.3293316454245261,-0.0023066820937587273,-0.4070493291694717,-5.698663528447378,-4.3667551056632,-0.9330534942547744,-0.037001325344712115,-0.0008843893740480903
0.03,-0.001760468437850876,1.5671597563914983,-1.566118690648422,0.0015847697603682785,-0.0002071624115021127,-1.3494333335582644e-06,-0.08770088761831565,-0.14124919487218984,0.19361220910940538,0.07778127135764731,-0.010006836986768857,-6.698986335355151e-05,-2.8746750005415853,-4.5915146229425225,6.419090885198356,2.458295668645964,-0.3028527382944475,-0.0021476158354638564,-0.40156947762128303,-5.663655739586057,-4.355116907043018,-0.9302596647529309,-0.036621138790914574,-0.0008765792662607679
0.04,-0.0029230224760911807,1.565292147537142,-1.5635473811120497,0.0025973830470198958,-0.0003356372666163241,-2.2229576930200894e-06,-0.11625540382403046,-0.18676088543563227,0.2571309536372132,0.10126132866516172,-0.012847485511421139,-8.735243594618249e-05,-2.8381667646673976,-4.508873966413605,6.364077434803413,2.3534307175601468,-0.28653638459281794,-0.002018902437099346,-0.39481785282576537,-5.623522892821027,-4.342187885293914,-0.9271026473887651,-0.03616078414363739,-0.0008670207010888003
0.05,-0.00436744126732193,1.5629776780890297,-1.5603468071172675,0.0038362387653101604,-0.000491427286723618,-3.2934749628262933e-06,-0.14444187912307496,-0.23144694481122835,0.32005739947822875,0.12388557182902643,-0.01557900201072938,-0.00010705172698062039,-2.8000692826301607,-4.424125940593123,6.304922884398061,2.2673065502999465,-0.27657943020212983,-0.0019253621106019025,-0.3868671404766588,-5.578463515186961,-4.328067263300703,-0.9236069311457912,-0.03562355208829606,-0.0008557898943314771
0.06,-0.006089906904535781,1.560224797701075,-1.556523166909255,0.00529420644799763,-0.0006738267516402327,-4.5573048880097285e-06,-0.1722465637213851,-0.2752880387954661,0.3823640208012422,0.145796768268747,-0.018239946491661475,-0.00012638299251834352,-2.760546152829509,-4.337554199427551,6.242904884573296,2.195319239274248,-0.27067174299201646,-0.0018478742140350946,-0.3777941957117266,-5.528681429167965,-4.31285635161806,-0.9197971980746668,-0.03501277511391164,-0.0008429625303308891
0.07,-0.008086472353382635,1.557042124971213,-1.5520828399241773,0.006965233563122201,-0.0008823755131047899,-6.012375628395861e-06,-0.19965654488468537,-0.3182672729862106,0.4440326985077611,0.1671027115124571,-0.020854876146455724,-0.0001455070740386133,-2.7196811205297684,-4.2494004650121955,6.178948282085502,2.1339594456663384,-0.26740532889041013,-0.0017715379200924364,-0.3676793887781401,-5.474384734150055,-4.296658268611922,-0.9156982919627639,-0.03433181449251968,-0.0008286138180579446
0.08,-0.010353065042592657,1.5534384263104353,-1.5470323199780793,0.008844078661562959,-0.0011167734266838267,-7.657401470299558e-06,-0.22665926892100227,-0.3603698660777662,0.5050519946097936,0.18788450984407581,-0.023439791357903667,-0.00016450258419036968,-2.677510021266357,-4.159873768951066,6.1137049228845965,2.080549952073186,-0.2659175639161795,-0.00168661720133656,-0.3566059857304004,-5.415784870889589,-4.279577690374303,-0.911335184220859,-0.03358405132800448,-0.0008128186835437592
0.09,-0.012885487601562402,1.5494225973746567,-1.5413781696314726,0.010926107489015395,-0.00137682770576502,-9.491404534576738e-06,-0.25324225589697447,-0.4015828935778633,0.5654150346606863,0.2082028827452436,-0.02600542790811934,-0.00018340030642771788,-2.634040025393486,-4.069157466476604,6.047614847672241,2.033045572441596,-0.26567555962840395,-0.0015866821138958986,-0.3446595525625793,-5.353095738253435,-4.261720619042433,-0.9067329373706782,-0.03277287986527539,-0.000795651994435158
0.1,-0.015679416905866186,1.5450036465252257,-1.5351269910619876,0.013207136882656366,-0.001662420175608255,-1.1513438388230637e-05,-0.2793929304303785,-0.4418950849430956,0.625117856948491,0.22810293936409698,-0.02855924698432352,-0.00020220338536538986,-2.5892612504215355,-3.9774145752778747,5.980953286280672,1.9898807478438094,-0.2663457278747785,-0.0014671498828475737,-0.3319273779610456,-5.286532838788825,-4.24319415992593,-0.9019166659820521,-0.03190170211046023,-0.0007771887727510806
0.11,-0.018730402131012246,1.5401906799115046,-1.5282854098546528,0.015683314896539756,-0.001973486549189837,-1.3722424726404768e-05,-0.305098522514606,-0.4812966613721094,0.6841581207334787,0.2476178013883388,-0.031106637358158176,-0.00022089863381741294,-2.5431537859506914,-3.88479185075364,5.913866827829722,1.9498535693519514,-0.2677148103119311,-0.001324379895929484,-0.31849791342754713,-5.216312435535258,-4.2241062995049745,-0.8969114946536483,-0.030973923284125265,-0.000757504380840057
0.12,-0.022033862238370658,1.5349928878650017,-1.5208600689393927,0.018351028367022217,-0.002310002954694825,-1.611705073938065e-05,-0.33034601073584113,-0.5197792046503039,0.7425340915259975,0.2667713470482462,-0.03365164055049881,-0.00023946260129758813,-2.4956919635205055,-3.7914229061190703,5.846401352342097,1.9120376103156698,-0.2696420058046112,-0.0011551442498249909,-0.3044602313504886,-5.142650707299887,-4.204565677848476,-0.8917425125428675,-0.029992947887160858,-0.0007366746785004601
0.13,-0.02558508315160993,1.5294195323670419,-1.512857630528593,0.021206831241553467,-0.002671976823075307,-1.8695697017343775e-05,-0.35512209132392736,-0.5573355497959862,0.8002438410799706,0.2855802874531252,-0.036197386838048205,-0.0002578646277963126,-2.446846975627722,-3.6974306091410925,5.778523701767265,1.8757149779699258,-0.2720298920293107,-0.0009563267958672128,-0.28990350250181884,-5.06576289365689,-4.184681350305848,-0.8864347239606922,-0.028962176299081092,-0.0007147761542968686
0.14,-0.029379214783193157,1.5234799354068034,-1.5042847843803604,0.024247388605386867,-0.0030594403796756374,-2.1456378996630485e-05,-0.37941316315832263,-0.5939596960238568,0.8572846148232527,0.3040557363833401,-0.038746355660033004,-0.00027606819792867115,-2.3965885104793014,-3.6029289300587277,5.710138601891138,1.8403255488389032,-0.27480670533322105,-0.0007247575343169999,-0.27491649484054465,-4.985862424399462,-4.164562534466338,-0.8810129946156087,-0.027885001903761215,-0.0006918860354402092
0.15,-0.033411268012047086,1.5171834680881182,-1.4951482610709907,0.027469432569472346,-0.003472445670405987,-2.4396692621092883e-05,-0.40320532288539307,-0.6296467318685133,0.9136523309369552,0.322204396408548,-0.041300529073034976,-0.0002940313624462396,-2.344885805667723,-3.508024372351477,5.641101988751214,1.8054285428481212,-0.27791548319305015,-0.0004571266517818806,-0.2595870956387077,-4.903160031217187,-4.144318339383163,-0.8755019931931609,-0.026764808776713202,-0.0006680823802898493
0.16,-0.03767611167950784,1.5105395403750255,-1.48545484923039,0.030869727119520723,-0.003911060467894829,-2.751375931473601e-05,-0.42648436674607504,-0.6643927713092779,0.9693411840600734,0.3400294550048375,-0.04386147974888415,-0.0003117066693643126,-2.291708365336504,-3.412817085768476,5.571231618765867,1.7706735017336257,-0.2813073504904402,-0.00014994557399194974,-0.24400185892794718,-4.8178628420972505,-4.124057474954008,-0.8699261280797098,-0.02560496998628519,-0.0006434441566063611
0.17,-0.04216846965147815,1.5035575913901233,-1.4752114158976974,0.03444503974019492,-0.00437536465380609,-3.080416787889481e-05,-0.44923579719703116,-0.6981948984902179,1.0243433332692509,0.3575312620674197,-0.04643041859112611,-0.0003290408564158804,-2.2370264898209142,-3.317401736731662,5.500315631415219,1.7357784333559163,-0.28493730506300174,0.0002004637461434644,-0.22824558015207833,-4.7301734614271105,-4.103887940160211,-0.8643094791717711,-0.02440884656683008,-0.0006180513076100285
0.18,-0.046882917984628736,1.4962470801981547,-1.4644249293071576,0.038192118172463936,-0.004865446824971783,-3.426391233769731e-05,-0.4714448333150586,-0.7310511191968649,1.0786486590539772,0.37470784322690137,-0.049008217116569365,-0.0003459744458802503,-2.180811709134597,-3.221868192896899,5.428119572063861,1.7005134149579808,-0.2887615077180712,0.0005979618382088159,-0.2124008997309989,-4.640289041054564,-4.083916689614993,-0.8586757248504822,-0.023179787219178655,-0.0005919848068833884
0.19,-0.051813882229962215,1.4886174770213583,-1.45310248352867,0.04210767107669969,-0.005381400962425109,-3.788832553225651e-05,-0.49309642453334757,-0.7629603176796302,1.1322445778487606,0.39155529042357534,-0.05159541374533255,-0.0003624413194559201,-2.1230371769470855,-3.126302064821238,5.354392258906123,1.6646883538430108,-0.2927354750739344,0.0010465726348394266,-0.19654793700665785,-4.5484003496597065,-4.064249278571533,-0.8530480643404266,-0.021921128784833394,-0.0005653267022649303
0.2,-0.05695563490603911,1.480678254843982,-1.4412513244728495,0.04618835168987317,-0.005923323057579067,-4.1672008685629815e-05,-0.5141752676076897,-0.7939222177376122,1.1851159055820633,0.4080680613173483,-0.054192209515395814,-0.0003783683153373302,-2.0636780607750262,-3.0307851372378467,5.278870783218702,1.6281439129973263,-0.2968128117195139,0.0015504549823210922,-0.1807639557596524,-4.454690849716183,-4.044989487205737,-0.8474491358107731,-0.02063619752626066,-0.0005381601481251274
0.21,-0.062302293175383196,1.4724388813717697,-1.4288788768340892,0.05043074380565542,-0.006491307623066339,-4.5608757390198174e-05,-0.5346658269344083,-0.8239373472212327,1.237244763876026,0.42423921157822503,-0.05679845654872721,-0.0003936748704568358,-2.0027119515101646,-2.9353957145549705,5.201284859373431,1.5907448445497199,-0.3009442626239185,0.0021138656567971648,-0.16512306216038392,-4.359335793054138,-4.0262389256221125,-0.8419009307120504,-0.019328311227073652,-0.0005105694247815974
0.22,-0.06784781676028284,1.4639088113187957,-1.4159927715926008,0.05483134958919406,-0.0070854440358575025,-4.969148460153092e-05,-0.5545523584899641,-0.8530070052974058,1.2886105241488313,0.4400605783538647,-0.05941364127911633,-0.0004082727211332749,-1.9401193078135988,-2.840208899243407,5.121360685207733,1.5523751530659347,-0.3050769546147638,0.002741113732983136,-0.14969593565706424,-4.262501347560421,-4.008096621637174,-0.8364247049721449,-0.018000782103124245,-0.0004826399432787939
0.23,-0.07358600613793438,1.4550974789991817,-1.4026008737319893,0.05938657887738758,-0.0077058126725048585,-5.391214131251671e-05,-0.5738189377651542,-0.8811332319613912,1.3391897860611537,0.4555229288193521,-0.0620368636647356,-0.00042206567109857824,-1.8758839463074055,-2.745296817287221,5.038824430409317,1.5129346468863787,-0.30915374955734354,0.003436505496687614,-0.13454959291135987,-4.164343768830695,-3.990658593972696,-0.8310408877982224,-0.01665692048888303,-0.0004544582333126183
0.24,-0.07951050105936111,1.44601429120532,-1.3887113098559132,0.06409273972093138,-0.00835248080395233,-5.826163565949054e-05,-0.5924494921426733,-0.9083187793861773,1.3889563876076148,0.47061608435437985,-0.06466681314474729,-0.00043494943469738346,-1.8099935856613827,-2.6507288014858847,4.9534054375388505,1.472336539182784,-0.31311266523525916,0.004204278688260121,-0.1197471844799827,-4.065008631583666,-3.9740174140379523,-0.8257689889454681,-0.015300039233366126,-0.00042611191171131827
0.25,-0.08561477944162296,1.436668620357505,-1.374332495408325,0.0689460300040922,-0.009025498222300756,-6.272975129551773e-05,-0.6104278382261852,-0.9345670847814951,1.4378814447588224,0.4853290283160819,-0.06730174183484257,-0.00044681156360271845,-1.7424404508442308,-2.5565715408415945,4.8648391948711565,1.430505839008342,-0.3168863411324052,0.005048524622950912,-0.10534782351801111,-3.9646301363185,-3.958261759990912,-0.8206275054169105,-0.01393345870675673,-0.000397689628585231
0.26,-0.09189215668840295,1.4270697979125386,-1.3594731612186524,0.07394253003802446,-0.00972489257547265,-6.730506596425284e-05,-0.6277377246779989,-0.9598822444966361,1.4859334189672557,0.49965000339322646,-0.06993943531718942,-0.00045753146687351035,-1.6732219425036765,-2.4628892023396287,4.772870120660377,1.3873783322443085,-0.3204015403793967,0.005973096594318328,-0.09140644535983292,-3.8633305069998176,-3.9434759672365796,-0.815633828649234,-0.012560512283415337,-0.0003692809880315719
0.27,-0.09833578550004314,1.41722710802105,-1.3441423791075946,0.07907819606798053,-0.010450664388692058,-7.197487132594561e-05,-0.644362881164019,-0.9842689891488667,1.5330782111057855,0.513566602995607,-0.07257718132194081,-0.00046698053616927725,-1.6023413753410334,-2.3697435299750103,4.677254183379423,1.342899997627697,-0.32357868913178756,0.0069815029569024745,-0.07797369643043275,-3.7612194954516216,-3.9297395799390347,-0.8108041533156557,-0.01118455212997201,-0.0003409764401302228
0.28,-0.10493865624044268,1.4071497814250908,-1.3283495863021375,0.08434885466740692,-0.011202781754639683,-7.672509522722082e-05,-0.6602870740399542,-1.0077326595958984,1.5792792805457108,0.5270658599426391,-0.07521173659476253,-0.0004750223901275215,-1.5298087882288278,-2.277193924781551,4.577761370978937,1.2970267374025628,-0.32633146246820566,0.008076783341478988,-0.06509585056846018,-3.6583940075976784,-3.917126908483808,-0.806153388936873,-0.0098089550896231,-0.0003128671409035881
0.29,-0.11169359793485732,1.396846989589098,-1.3121046084208443,0.08975019801525475,-0.0119811746774756,-8.154022776920392e-05,-0.675494169441464,-1.0302791835992888,1.6244977881293299,0.540134334784782,-0.07783929228359181,-0.00048151325419831017,-1.4556418275136533,-2.1852975087886777,4.4741780134749165,1.2497243282906076,-0.3285664326795805,0.00926136666062688,-0.05281475051876891,-3.5549378656760764,-3.9057065981211054,-0.8016950755332678,-0.008437128416749732,-0.0002850447769481041
0.3,-0.11859327997947197,1.3863278390586202,-1.2954176808031255,0.0952777800688396,-0.012785729059983092,-8.640325271387468e-05,-0.689968204461465,-1.0519150530477839,1.6686927617718772,0.552758205358485,-0.08045543825074919,-0.00048630249446707577,-1.3798667033055438,-2.094109175205766,4.36630895667537,1.2009685183690024,-0.3301828022446136,0.010536909917873594,-0.041167772091516563,-3.450921719065298,-3.8955412142396724,-0.7974413045746858,-0.007072515080836474,-0.0002576013515924224
0.31,-0.1256302146505483,1.37560136604235,-1.2782994679695565,0.10092701365476732,-0.013616280328187921,-9.129558597468925e-05,-0.7036934671076339,-1.0726473016270162,1.7118212833569013,0.5649233585927724,-0.08305512682048288,-0.0004892333260814568,-1.3025192164480848,-2.0036816266589925,4.253979580126921,1.1507452107365115,-0.33107225022195763,0.01190411735921032,-0.03018780830237866,-3.3464031143876434,-3.8866868498589153,-0.7934026464871644,-0.0057185983268410005,-0.00023062892971054675
0.32,-0.13279676050783382,1.3646765312139921,-1.2607610810147358,0.10669316850595507,-0.014472606694251471,-9.61970231621871e-05,-0.7166545857285513,-1.0924834828357837,1.753838695482062,0.5766154851187755,-0.08563263660635506,-0.0004901437187497851,-1.2236458511666746,-1.914065402951681,4.13703764912311,1.0990506865984493,-0.33111892738033877,0.013362540285831559,-0.01990327071746595,-3.241426733117375,-3.8791927609763244,-0.7895880859582962,-0.004378905152217647,-0.00020421933873259458
0.33,-0.14008512679356583,1.3535622147313893,-1.2428140927499245,0.11257137027451491,-0.01535442206653309,-0.00010108569839445579,-0.7288366285732011,-1.1114316482602795,1.7946988264811403,0.5878201768559844,-0.08818153722816176,-0.0004888675232268695,-1.1433049249914782,-1.8253088995547924,4.015354988590104,1.0458918295902908,-0.33019964208152963,0.01491035890466158,-0.010338105238593825,-3.1360248020480395,-3.8731010353638653,-0.7860049662442121,-0.003057008340397512,-0.0001784638239641306
0.34,-0.14748737893456354,1.3422672114711212,-1.2244705504298952,0.11855660054893218,-0.016261368625785016,-0.00010593805683017484,-0.7402252140997704,-1.1295003260268173,1.834354232002927,0.5985230274417255,-0.09069465592519259,-0.00048523584357190605,-1.06156778334522,-1.737458377843655,3.888828965673452,0.9912863204425886,-0.32818428550643386,0.016544148949695137,-0.0015118196881323542,-3.0302176787155535,-3.8684463002671707,-0.7826589436215936,-0.001756526678404733,-0.00015345265705773366
0.35000000000000003,-0.15499544526025172,1.3308002264775072,-1.2057429859171207,0.12464369790012488,-0.017193009098805393,-0.00011072884363084537,-0.7508066325688182,-1.1466984993614049,1.8727564512774408,0.6087097351192704,-0.09316404730203763,-0.00047907868006705277,-0.9785200211014061,-1.6505579679657556,3.7573837677433586,0.9352627769660167,-0.3249365508457709,0.018258637561760355,0.006560479207307124,-2.924014610299011,-3.865255474223634,-0.779553953048217,-0.0004811229841893798,-0.000129274697386437
0.36,-0.16260112505359867,1.3191698706255928,-1.1866444231565971,0.13082735997507308,-0.018148818775844885,-0.00011543111229766059,-0.7605679793346952,-1.1630355851914485,1.9098562760523463,0.6183662074948209,-0.09558096770394935,-0.0004702268666815223,-0.8942627074242723,-1.5646496651434165,3.6209714631793455,0.8778608192245159,-0.3203150059467479,0.02004645500674375,0.013868041478092535,-2.8174146607155524,-3.8635475678806457,-0.7766921859962892,0.0007655004210997858,-0.00010601690715031486
0.37,-0.17029609805438287,1.3073846564982792,-1.1671883828561558,0.13710214664914555,-0.01912817733592444,-0.00012001625554341965,-0.7694973000784192,-1.1785214127313501,1.945604030044137,0.6274786674072462,-0.0979358560079554,-0.0004585143245759063,-0.808913583330955,-1.4797733201791199,3.4795728335903253,0.8191310439309456,-0.31417458177695323,0.02189789127981507,0.02040442379203236,-2.710407796690297,-3.8633335382657052,-0.7740740813056453,0.00197960913767313,-8.3763822303814e-05
0.38,-0.1780719355343343,1.295452994478277,-1.1473888842899005,0.14346248423936345,-0.020130360565197535,-0.00012445406203294985,-0.7775837479951436,-1.1931662020002105,1.9799498566255271,0.6360337590217893,-0.10021832292730931,-0.00044378064895301953,-0.7226081937921226,-1.395966624935154,3.333197967962428,0.7591348957980859,-0.3063685388861468,0.023800669404176123,0.026167434556779057,-2.602976119632183,-3.864616200440703,-0.7716983297703442,0.0031574473124324105,-6.259698281354955e-05
0.39,-0.18592011306083273,1.283383189056011,-1.1272604441662257,0.14990267077093103,-0.02115453207769818,-0.00012871280243450804,-0.7848177526498401,-1.206980542226605,2.0128440123674656,0.6440186531567592,-0.10241715125006474,-0.0004258740401558191,-0.6355009080469185,-1.3132650936026107,3.1818866115255964,0.6979444269195838,-0.29675096957874647,0.025739750166301294,0.031159074589434455,-2.4950952263060597,-3.8673901998700675,-0.7695618930243963,0.004295251715175051,-4.259432732751873e-05
0.4,-0.19383202505919608,1.2711834353549825,-1.1068180725264702,0.15641688227871173,-0.022199735175216402,-0.0001327593482430447,-0.7911911998363361,-1.2199753701028442,2.0442371639755557,0.6514211507780702,-0.10452030975182225,-0.00040465458085366725,-0.5477657735318718,-1.2317020406544752,3.0257082647840354,0.6356419384145919,-0.28517988339165523,0.027697185923217855,0.03538547297810549,-2.3867356776909334,-3.8716420481550617,-0.7676600371322804,0.0053892694450508455,-2.3829559030990138e-05
0.41000000000000003,-0.20179900127229178,1.2588618158763867,-1.086077265665373,0.16299918011420358,-0.023264885013374894,-0.0001365593267335465,-0.7966976213095694,-1.232161947859575,2.0740806861097343,0.658229783549185,-0.10651498381584909,-0.00037999784905017893,-0.45959714094996257,-1.1513085564934882,2.864762031088304,0.5723195015841975,-0.27152090633205384,0.029652043731556027,0.03885681700587949,-2.2778645521839724,-3.8773502240437816,-0.7659863811197801,0.0064357793586981,-6.37149124341587e-06
0.42,-0.2098123251993321,1.2464262974649734,-1.0650539960898182,0.16964351921722998,-0.024348761273688253,-0.00014007731514449243,-0.801332392704031,-1.2435518411413353,2.1023269575554755,0.66443391030264,-0.10838762603133584,-0.00035179884109459486,-0.37120999124064213,-1.0721134819555904,2.699176214237344,0.5080783587782038,-0.2556515989601025,0.03158041989796172,0.04158727425505107,-2.168447056575743,-3.8844853408296,-0.7645329605025915,0.007431117206534792,9.71661687367241e-06
0.43,-0.2178632545723609,1.2338847284982228,-1.0437646995575556,0.17634375730026414,-0.025450001575541503,-0.0001432770767424844,-0.8050929373028777,-1.254156896675043,2.1289296532262645,0.6700238083034147,-0.11012403018532507,-0.0003199761597991955,-0.2828398904147536,-0.9941433830115803,2.5291076708036364,0.44302820706748136,-0.23746636398342447,0.033455568834115545,0.04359490429934709,-2.0584481660987493,-3.893010380411028,-0.763290305686108,0.008371704342740134,2.4377722343344865e-05
0.44,-0.22594304389825004,1.221244836300857,-1.02222625926234,0.18309366488229983,-0.02656709589625265,-0.0001461218407430951,-0.8079789325889145,-1.263989219736585,2.1538440295215717,0.6749907582035694,-0.11170943207111486,-0.00028447640006107257,-0.19474249636429514,-0.9174225272170855,2.354740925073857,0.37728637070299786,-0.21688187043527096,0.03524816811386784,0.04490155676957196,-1.9478342634364352,-3.90288099341511,-0.7622475349214624,0.00925407973947585,3.756164430230951e-05
0.45,-0.23404296905531383,1.2085142247864982,-1.0004559872559189,0.18988693609871585,-0.02769838229980172,-0.0001485746271290149,-0.8099925157063799,-1.273061151435884,2.1770272006421054,0.6793271216416011,-0.11312864035490681,-0.00024527863859197897,-0.10719254386918294,-0.8419728636879587,2.176287057581078,0.31097687115288775,-0.19384286958723507,0.03692673854590173,0.0455327520912721,-1.8365747459521349,-3.9140458639009696,-0.7613924613129865,0.010074934889894653,4.922567852594089e-05
0.46,-0.24215435388649478,1.1957003723279171,-0.9784716032201818,0.19671720020389705,-0.028842044302990855,-0.00015059861619070452,-0.8111384831180966,-1.2813852458581105,2.198438403573705,0.6830264105181195,-0.11436620031891355,-0.00020239890616896287,-0.02048224106866116,-0.7678140086122902,1.993982381272498,0.24422940626192435,-0.16832821964615158,0.03845823232624104,0.04551754088962376,-1.7246435705901644,-3.9264471362444735,-0.760711713175263,0.010831151031773333,5.9335164081019124e-05
0.47000000000000003,-0.2502685986754524,1.1828106298567362,-0.9562912107242528,0.20357803367470845,-0.029996110228791138,-0.0001521575611074196,-0.8114244788957632,-1.2889742471180836,2.2180392495929007,0.6860833470811386,-0.11540659258002817,-0.00015589449167150652,0.06508097656762123,-0.6949632385355946,1.808086921917495,0.17717825269096021,-0.14035687562323781,0.039808793763638245,0.04488833798176506,-1.6120207069667514,-3.9400209009283844,-0.7601908668491778,0.011519837969778748,6.786398490192081e-05
0.48,-0.2583772103283057,1.1698522191926746,-0.933933271121092,0.21046297281548906,-0.031158454907020787,-0.00015321624009708514,-0.8108611652853235,-1.295841066406177,2.235793960316081,0.6884939140780626,-0.11623446782296472,-0.00010586789896655339,0.14917736978183108,-0.6234354938542547,1.618882721495181,0.1099611081887435,-0.1099935427002493,0.04094468568056939,0.04368072706867207,-1.498693471071656,-3.954697735115915,-0.759814590901843,0.012138373626436933,7.479498890039805e-05
0.49,-0.2664718340134172,1.1568322316014052,-0.9114165752560283,0.21736552675924214,-0.03232680407857898,-0.00015374094262715981,-0.809462368511147,-1.3019987591269226,2.2516695865063743,0.6902553943753095,-0.11683491715581927,-5.2470253007467344e-05,0.2314785064670097,-0.5532433950997123,1.4266719858937855,0.042717892313653305,-0.07735364244402687,0.04183336084781207,0.041933232725417074,-1.3846577146294083,-3.9704032929503064,-0.759566800424225,0.012684443318253368,8.01203077177627e-05
0.5,-0.27454428593641594,1.143757626578851,-0.8887602131753055,0.22427919075532324,-0.033498741837479716,-0.00015369998196097166,-0.8072451922998787,-1.307460502255421,2.2656362080722703,0.6913663996081102,-0.11719377589007365,4.096066618815386e-06,0.31165153914944527,-0.48439727466226373,1.2317750991875906,-0.024410474087333878,-0.042607208665175866,0.042444642617826975,0.039687057082713,-1.2699188485880997,-3.987058939796547,-0.7594308199743118,0.01315607764321948,8.384156148654316e-05
0.51,-0.2825865868504328,1.1306352308582415,-0.8659835420360714,0.23119745963130875,-0.03467172140145482,-0.00015306422401455773,-0.8042300914016877,-1.3122395720609406,2.2776671139234064,0.6918268875985517,-0.11729795639751099,6.35757946413941e-05,0.3893640930400531,-0.4169052265684984,1.034528528103035,-0.09128328925155138,-0.005981320963730052,0.04275196366556779,0.03698577968785025,-1.1544926831387048,-4.004582423850479,-0.7593895535249374,0.013551687789288443,8.596993509203701e-05
0.52,-0.2905909958259063,1.1174717376345336,-0.8431061524301159,0.23811384131595828,-0.03584307943424779,-0.00015180762025125542,-0.8004408975473517,-1.3163493223707854,2.287738960595556,0.6916381684649523,-0.11713580327929698,0.00012566037633023205,0.46428967101084756,-0.35077317675935343,0.8352826408380514,-0.15776126886931152,0.03223929455710528,0.0427335981522079,0.03387502040023235,-1.0384060710687824,-4.022888577862543,-0.7594256596070157,0.013870097040037282,8.65261154285504e-05
0.53,-0.2985500437346951,1.1042737059988381,-0.8201478333420111,0.24502187031130812,-0.03701005404948991,-0.00014990773030892083,-0.7959047908788818,-1.319803163569546,2.29583190881047,0.690802899534985,-0.11669746152421193,0.00018998899423346044,0.5361134440066677,-0.28600497600130503,0.6343994645489197,-0.22370770090109682,0.07171381206087446,0.042373812687190836,0.03040206676186255,-0.9216973459298592,-4.041890043124731,-0.7595217296832408,0.014110567272590071,8.554008300793055e-05
0.54,-0.3064565658445313,1.0910475605733585,-0.7971285359680897,0.2519151210049323,-0.038169806507607165,-0.00014734621842186956,-0.7906522109836146,-1.3226145425479592,2.3019297373921415,0.6893250693624167,-0.11597524581172527,0.0002561511887051273,0.6045382601109155,-0.2226025170924993,0.43225040554859606,-0.2889895364092884,0.1120492235799142,0.04166385701819657,0.026615469007689227,-0.8044165512799213,-4.061498007374463,-0.7596604676515191,0.014272819320859064,8.305075589856919e-05
0.55,-0.3143037328772273,1.077799591335053,-0.774068336625947,0.2587872207181965,-0.039319446476149204,-0.00014410930665684658,-0.7847167032696003,-1.3247969238305444,2.306019934214279,0.6872099713264184,-0.1149639968542041,0.0003236911765022975,0.669290675614795,-0.1605658774023176,0.22921395561828495,-0.35347839788133784,0.15280672704468867,0.04060271785337691,0.022564607643890157,-0.686625461978251,-4.081622947896795,-0.7598248682683051,0.014357046218072985,7.910548917195091e-05
0.56,-0.32208507986247076,1.0645359536138466,-0.7509873989849515,0.2656318623927632,-0.04045606056538546,-0.0001401881677072832,-0.7781346985243469,-1.326363772120654,2.3080937640995463,0.6844641674566695,-0.11366140892362603,0.0003921138949563394,0.7301267897389996,-0.09989348702943375,0.025673406877594,-0.4170514891645004,0.19351053540029017,0.039197569397846216,0.01829924020675345,-0.5683974029974509,-4.102175370876709,-0.7599983922073975,0.014363918536054034,7.375943855048493e-05
0.5700000000000001,-0.3297945321227798,1.0512626682488015,-0.7279059358466987,0.27244281682547267,-0.04157674368268237,-0.0001355792406246644,-0.7709452260309081,-1.3273285365044925,2.3081463138252727,0.6810954432709484,-0.11206831172969065,0.0004608927082618775,0.7868376535050844,-0.04058232201530067,-0.17798540360016668,-0.4795923943583123,0.23365889449162092,0.03746387174970313,0.013869035295850436,-0.4498168753356436,-4.123066537991466,-0.7601651354392628,0.014294581299467776,6.707480245759205e-05
0.58,-0.3374264277573262,1.0379856218832897,-0.70484417070061,0.2792139443707702,-0.04267863258108419,-0.00013028445449457743,-0.7631895634546342,-1.327704636551183,2.306176514608871,0.6771127545297528,-0.11018888984018206,0.0005294786130086982,0.8392540244385749,0.01737187884176193,-0.38137629952780366,-0.5409917566015627,0.27273693439938373,0.03542509196915834,0.009323103131243488,-0.330979002237754,-4.144209171325365,-0.7603099906299938,0.014150642260698135,5.911996179694324e-05
0.59,-0.3449755360542555,1.0247105673779533,-0.6818222992741297,0.28593920603978795,-0.04375894082139891,-0.00012431134769553778,-0.754910829692933,-1.3275054505336465,2.3021871426480303,0.6725261669017742,-0.10803082403147211,0.000597310679903966,0.8872502533232434,0.07397437590325705,-0.5841149030242007,-0.6011478313613539,0.31023083120505013,0.0331120501719763,0.004709532610213681,-0.21198881199744607,-4.165518127968666,-0.760418798329184,0.013934151659292349,4.9968541144862725e-05
0.6,-0.35243707135220903,1.0114431243182043,-0.658860451289389,0.2926126739357287,-0.04481499423542752,-0.0001176730739288599,-0.7461535297953518,-1.3267443059749064,2.2961847984740755,0.6673467895940753,-0.1056053414028612,0.0006638273766677881,0.9307471172140319,0.12923117247075985,-0.7858206887609008,-0.6599669122904732,0.34564263855287325,0.030561921395578506,7.494505745510999e-05,-0.0929603761035159,-4.186911036351656,-0.760478485899052,0.013647573938687077,3.9698418252551176e-05
0.61,-0.3598067019891142,0.9981887795912342,-0.6359786526291392,0.29922854097605506,-0.04584426588280488,-0.00011038829050469939,-0.7369630636905132,-1.3254344726970113,2.288179866024979,0.6615867040326355,-0.10292716473773567,0.0007284783424160508,0.9697134534998328,0.18314874423094857,-0.9861189385599288,-0.717363630804011,0.3785050732719477,0.02781695018177574,-0.004535925463276493,0.02598417676191163,-4.2083088867110705,-0.760477192253248,0.013293752230391406,2.8390710599665096e-05
0.62,-0.3670805541149416,0.984952888006075,-0.6131967881041849,0.3057811298629302,-0.04684440944549208,-0.00010248092915692318,-0.7273852125827428,-1.3235891585159292,2.2781864524954396,0.6552588886875137,-0.1000143562687198,0.000790736134777621,1.0041665010336114,0.235733758676075,-1.1846425846754614,-0.7732611327178169,0.40839551519399886,0.02492295579647935,-0.009080616270758495,0.1447157490639853,-4.229636569280549,-0.7604043768108727,0.012875866716933047,1.6128767940883324e-05
0.63,-0.3742552102981146,0.9717406729292061,-0.5905345650029182,0.3122649012742038,-0.047813290009464535,-9.397985462147141e-05,-0.717465618317297,-1.321221507686884,2.266222310126659,0.6483771411273601,-0.09688805639724593,0.0008501074535451761,1.034170913368531,0.28699278912894144,-1.3810339309413684,-0.8275911368411046,0.4349485116498344,0.021927719642610477,-0.013519276959471131,0.26309944266990737,-4.250823354686146,-0.7602509113499903,0.01239738822929639,2.997198396879937e-06
0.64,-0.3813277030143488,0.9585572269075853,-0.5680114775909996,0.31867446125787713,-0.048749011245685106,-8.491842100200481e-05,-0.7072492716234202,-1.3183446021620822,2.25230874119187,0.6409559983673333,-0.09357212362205679,0.0009061433619466605,1.0598364722071614,0.3369320281542484,-1.5749462432089536,-0.8802938810402594,0.4578661600365832,0.018879351416653867,-0.01781496112868183,0.3809957844419065,-4.271803312208583,-0.7600091538061823,0.011862028603836823,-1.0919047282569077e-05
0.65,-0.38829550326298023,0.9454075122508059,-0.5456467727159608,0.3250045678233727,-0.04964993812046692,-7.53339402219838e-05,-0.6967800248631423,-1.314971465677944,2.236470487503872,0.6330106565495591,-0.09009268747818137,0.0009584480780021013,1.0813145919800407,0.38555700515627267,-1.7660452025059594,-0.9313179612252132,0.47692587028313893,0.015824726942816447,-0.02193386498843342,0.49826198689647516,-4.292515662805122,-0.7596730034430976,0.011273689406287396,-2.553551284742743e-05
0.66,-0.3951565047005122,0.9322963615443771,-0.523459416657748,0.3312501367330879,-0.05051471443250619,-6.526708032414845e-05,-0.6861001437531987,-1.3111150706428778,2.218735605821288,0.6245568909715169,-0.0864776312039277,0.001006685989783535,1.09879376449188,0.4328723129040989,-1.9540102162438877,-0.9806200681985615,0.4919851716657704,0.012808079277685291,-0.02584551095989599,0.6147532223483453,-4.312905065044975,-0.7592379372129916,0.010636410622109536,-4.076897973515732e-05
0.67,-0.40190900380628647,0.9192284780668789,-0.5014680633521161,0.3374062465076692,-0.0513422746796611,-5.4761213800897084e-05,-0.6752499105774261,-1.3067883477498217,2.199135330563179,0.6156109774581319,-0.08275602471549047,0.0010505866523251367,1.11249414150519,0.47888134766583385,-2.138535584531045,-1.0281646266521696,0.5029834109446081,0.009869807521655116,-0.029522876410509387,0.7303238899775948,-4.332921833355646,-0.7587010275083724,0.009954320816494177,-5.653810656753536e-05
0.68,-0.40855167669452536,0.9062084360849774,-0.4796910240995207,0.34346814266824893,-0.05213184998921955,-4.386173739069388e-05,-0.664267288823891,-1.302004198190151,2.177703925259545,0.6061896160579731,-0.07895753095584461,0.0010899476410203206,1.1226614893753353,0.5235860676361588,-2.319331520147735,-1.0739233402143915,0.5099403755287464,0.007045547048500578,-0.032942469494132494,0.8448288565595085,-4.352522089161078,-0.758060941864856,0.009231590094449332,-7.276396082065071e-05
0.6900000000000001,-0.41508355325621826,0.8932406810020133,-0.4581462388578113,0.34943124124854036,-0.05288296808536381,-3.2615384829013604e-05,-0.6531876561692915,-1.2967755082964092,2.154478524170936,0.5963098580291433,-0.07511180961442616,0.0011246352561680275,1.1295607709180646,0.5669867744711764,-2.4961250220034246,-1.1178746466816678,0.5129520509868142,0.004365523011179873,-0.03608435559109769,0.958124653140341,-4.371667846584127,-0.7573179254970915,0.008472386958142657,-8.937044375953034e-05
0.7000000000000001,-0.42150398935143807,0.8803295293381183,-0.4368512492027463,0.35529113161913534,-0.05359544750096673,-2.1069552970281653e-05,-0.6420436095219825,-1.2911151663895002,2.129498965506499,0.5859890370594955,-0.07124794156029203,0.0011545831858731951,1.133469614496139,0.6090819230253772,-2.668660603001496,-1.160003088704813,0.5121838732295576,0.0018541881837005336,-0.03893213898783146,1.0700706116957759,-4.390327035371358,-0.7564737678266202,0.007680839885406195,-0.00010628461422572036
0.71,-0.42781263777797224,0.8674791685226171,-0.4158231730261685,0.3610435786754309,-0.05426938645315992,-9.271659657965963e-06,-0.6308648426534177,-1.285036081550122,2.102807617657783,0.575244705629557,-0.06739389521931925,0.001179789331231569,1.134671919263173,0.6498679648148152,-2.8367008744539732,-1.200298607413444,0.5078619517992451,-0.00046987175701473927,-0.04147290516738275,1.1805299277472783,-4.408473464595497,-0.7555317543944177,0.00686100416200816,-0.0001234369203940442
0.72,-0.4340094187179979,0.8546936564828854,-0.3950786810277277,0.36668452444907607,-0.05490514698124861,2.73145106710347e-06,-0.6196780940025706,-1.2785512039731624,2.0744491998440786,0.5640945773645148,-0.0635760528088693,0.0012003110725069433,1.1334518204104238,0.6893392312546993,-3.0000269913110142,-1.238755769733718,0.5002628155698432,-0.0025937964210518416,-0.04369712940804024,1.2893706370159,-4.426086731590898,-0.7544966057626492,0.006016834212086221,-0.00014076135105796486
0.73,-0.4400944903149559,0.841976921017916,-0.3746339750424823,0.37221008921031223,-0.05550333508289593,1.4894044110911082e-05,-0.6085071596957998,-1.2716735464969449,2.044470598524542,0.5525564761236194,-0.059818810164731825,0.0012162593043807612,1.1300882020410947,0.7274878632381289,-3.158438967877108,-1.2753729443351265,0.4897022637564885,-0.004510112769627317,-0.04559855734931907,1.3964664964639555,-4.443152081790459,-0.7533744052744473,0.005152161404036392,-0.00015819551937472855
0.74,-0.4460682199629749,0.829332758949644,-0.3545047682340845,0.377616572134634,-0.05606477767533051,2.717196002790307e-05,-0.5973729648019015,-1.264416206827198,2.0129206808397813,0.5406482924321758,-0.056144259243458276,0.0012277915916991987,1.1248499015421654,0.7643037939672763,-3.3117558911746756,-1.3101514459000736,0.47652389547812046,-0.006216246454595509,-0.047174062851036036,1.5016977625966856,-4.459660227828753,-0.752172518137536,0.004270677075190803,-0.0001756806924753665
0.75,-0.4519311568069846,0.8167648350506372,-0.3347062671732708,0.3829004516112725,-0.05659049725179468,3.952300799017694e-05,-0.5862936844009669,-1.256792389900677,1.9798501060813707,0.5283879476638494,-0.05257195764641713,0.001235104796227387,1.1179917016809595,0.7997747917468856,-3.459816131715849,-1.343094672272347,0.46108784565968564,-0.007713928787171698,-0.04842348792640218,1.6049518632126631,-4.475607146214128,-0.750899506594666,0.0033759203148225232,-0.00019316178049669358
0.76,-0.4576840058589749,0.8042766807530232,-0.3152531558211811,0.388058385272359,-0.05708168510218293,5.190728302312054e-05,-0.5752849051990304,-1.2488154297614091,1.9453111352089687,0.5157933661086486,-0.04911878503882497,0.0012384275032943596,1.109751156961448,0.8338865669095603,-3.6024780964134915,-1.3742072623480386,0.4437601816891077,-0.009008543344759534,-0.04934946887022062,1.706123967145712,-4.490993929480773,-0.7495650599844897,0.002471269783610825,-0.00021058730164753828
0.77,-0.46332760404052975,0.7918716926502605,-0.2961595814903984,0.393087209818245,-0.05753967392630174,6.428740841348983e-05,-0.5643598181554838,-1.2404988102762649,1.90935743307827,0.5028824545886031,-0.04579888241188116,0.0012380125390369283,1.1003462263747201,0.8666229194385431,-3.7396273220044414,-1.4034942752529727,0.4249033237582366,-0.010108451550109643,-0.04995725208961904,1.8051175303461184,-4.505827473479036,-0.7481801243449708,0.001559937254997484,-0.00022790938780984277
0.78,-0.4688628983716754,0.7795531308079586,-0.2774391434802116,0.3979839406887467,-0.05796591059642522,7.662870652694728e-05,-0.5535294331145642,-1.2318561842301794,1.872043801018683,0.48967308705017004,-0.042623667012347335,0.0012341298113457463,1.0899739533036499,0.8979661715244053,-3.871140465910876,-1.4309611145004375,0.40486772751586964,-0.011024331470534054,-0.050254502570126654,1.901844202741905,-4.5201154180017795,-0.7467556771133254,0.0006449757088585857,-0.0002450833836047298
0.79,-0.47429092641510034,0.7673241169279565,-0.25910488084545963,0.40274577173106124,-0.05836192972558082,8.889930388603957e-05,-0.5428028043424937,-1.2229013880002095,1.833426263475196,0.47618310423145616,-0.03960191291555985,0.0012270597359092283,1.078782452817158,0.9278737643557682,-4.001696714878946,-1.4565671338857697,0.3839863388059372,-0.011768544372486756,-0.05025113015149333,1.9962963550852524,-4.534506779345607,-0.7454538515699105,-0.0002720908195072789,-0.00026211204264721107
0.8,-0.47961280170678017,0.7551876302949119,-0.24116973241850456,0.40737006069274295,-0.05872932914171964,0.00010107009716506619,-0.5321875291679804,-1.213648663304473,1.7935148426955059,0.46242889616817345,-0.036739941613882346,0.0012170793279026617,1.0589268696144243,0.9494101815259036,-5.544647457506018,-1.467426889316,0.3629364949633349,-0.012355705571402642,-0.049965442755963436,2.1114159563100268,-4.737121702978346,-0.7886229200459699,-0.0015954656707967312,-0.0002918693443921299
0.81,-0.4848304868381644,0.7431459200748953,-0.223785520873578,0.41185012966789136,-0.0590699115191546,0.00011309131225770294,-0.5217685131384212,-1.2041710220016515,1.7384211544926549,0.44800689751484046,-0.0340582377434956,0.0012021215092636749,1.038006615619405,0.9703201307639285,-6.7785617161005645,-1.5300329180895353,0.3392978796174223,-0.0131154303034553,-0.0495508487040107,2.222813048125462,-4.901540733444079,-0.8231303959752581,-0.0029126977408268197,-0.00032008214084589264
0.8200000000000001,-0.48994604505556905,0.7312012021743493,-0.20707386491625235,0.4161761521195516,-0.05938561569778797,0.00012491810253950785,-0.5115558217404698,-1.1944717900546082,1.671165595732566,0.43260224516602575,-0.03157041786333698,0.0011826790281804906,1.0167332269583327,0.9915178518939355,-7.649176577923675,-1.6246581405360914,0.31419003117073924,-0.0137669856903897,-0.0489800236947656,2.327373264460356,-5.020022615649261,-0.8471447906234647,-0.004185172362526057,-0.0003458799798892299
0.8300000000000001,-0.49496156977745936,0.7193557192991701,-0.19112076244320442,0.42033698013513465,-0.05967842996354996,0.00013651534559129013,-0.5015524721890292,-1.1845482875179167,1.5953102473047929,0.4160828015583014,-0.029281426576199133,0.001159724305178228,0.9952562115508933,1.0130339562593016,-8.225499330817021,-1.7323358400748248,0.288639992954893,-0.014244645611420914,-0.04823046379023657,2.424449969062483,-5.101182984858938,-0.8626650835272388,-0.005407122411070706,-0.0003694603782422732
0.84,-0.49987917008131444,0.7076117282827603,-0.17598330622463468,0.4243214609940897,-0.05995032914986925,0.0001478569839889596,-0.4917600303855063,-1.1743991016409723,1.5137456218569734,0.3984480858955047,-0.027189918631929287,0.001134163839766948,0.9737235432651637,1.03468776269708,-8.564773757136727,-1.8400361425589544,0.26338281283197573,-0.01454889188122821,-0.04729499400171357,2.5138233516739206,-5.152238972531824,-0.8713655625058956,-0.006573815900739261,-0.0003909969968642374
0.85,-0.5047009566969385,0.6959714731328117,-0.1616952667476594,0.428119309960987,-0.06020323067159298,0.000158924648279047,-0.4821786615624057,-1.1640255149948588,1.428803947697526,0.37978489668973114,-0.025290152172372665,0.0011067664290087386,0.952271609048346,1.056175843925421,-8.71449356842416,-1.9391015267337437,0.2389380596034814,-0.014695136779873108,-0.046178103376020116,2.5955956417432877,-5.1792259291585845,-0.8746501480723095,-0.007681424271334714,-0.00041064619682756995
0.86,-0.5094290293087174,0.6844371508616147,-0.1482717332744933,0.4317216588277783,-0.06043896443615459,0.00016970631217228023,-0.4728072611778824,-1.1534322271196975,1.342353347316611,0.36023488667912734,-0.0235733764561607,0.0010781663893233236,0.931019749440818,1.0771401603466848,-8.714047928239058,-2.0240767107356064,0.21566296002545343,-0.014703292342154617,-0.044892717948270884,2.6700945998609065,-5.187179618827686,-0.8736958102732169,-0.008726976914739181,-0.00042855152405141207
0.87,-0.5140654655801945,0.6730108754321408,-0.1357129698915767,0.4351213693399182,-0.060659253146400395,0.00018019509771956304,-0.46364362714771773,-1.1426275429473916,1.2558763382916616,0.33997105121398724,-0.022028871024580496,0.0010488785547282816,0.9100680231850222,1.0972178226812417,-8.596069137768398,-2.09183563042329,0.19379053700048848,-0.014594452458125629,-0.04345742874192601,2.7377922504572467,-5.1802896800413905,-0.8694877199261566,-0.009708341941683931,-0.0004448466057782817
0.88,-0.5186123120443724,0.6616946436036037,-0.12400761544983419,0.438313177821099,-0.06086570049598437,0.00019038824221871318,-0.4546846464177918,-1.1316231828537082,1.1705354441742506,0.3191808481180854,-0.020644734958397706,0.0010193144499150149,0.8894970994103325,1.1160750833749493,-8.387542868613833,-2.1409306136762964,0.173458132174864,-0.014389263147865705,-0.041894183692415335,2.7992407794973464,-5.1620295103390665,-0.8628481561179262,-0.010624204105984214,-0.00045965691793252244
0.89,-0.5230715768265669,0.6504903051426255,-0.11313533397958606,0.4412937202802989,-0.06105978538633549,0.0002002862180787733,-0.44592647821944953,-1.120433846097828,1.0872281470248124,0.2980542459199857,-0.019408489035111328,0.0009897975860060108,0.8693694624685993,1.1334283736574664,-8.110728123308657,-2.171107043934935,0.1547295665025753,-0.014106985581517462,-0.04022643382743032,2.8550247077375,-5.135266605973976,-0.8544606134726729,-0.011474027999218716,-0.0004731007906621973
0.9,-0.527445224059766,0.6393995387969253,-0.1030690041998548,0.44406147462136,-0.06124286070965262,0.00020989199188876782,-0.4373647233199158,-1.1090766345700154,1.0066329779731256,0.2767754341061076,-0.01830753233171272,0.0009605773809994535,0.8497313426518225,1.1490551638935886,-7.783923441750908,-2.182941089380826,0.1376128506622164,-0.013764977649177279,-0.03847770490414002,2.905727108810118,-5.102356516330863,-0.8448901399702966,-0.012258004065467752,-0.0004852899291847583
0.91,-0.5317351697958744,0.6284238346024216,-0.09377652215637797,0.4466166471696849,-0.06141615553452629,0.00021921040766715354,-0.42899457361084536,-1.0975704194503824,0.9292482043476834,0.2555172548324959,-0.017329482487367633,0.000931841577838574,0.8306149628495643,1.1627972096755634,-7.422108026678963,-2.177569056797246,0.12207456216409684,-0.013378459203662318,-0.03667055083652346,2.9519072020496044,-5.065222975679856,-0.8346006596733697,-0.012976979826430356,-0.0004963296526222643
0.92,-0.5359432791946792,0.6175644824910784,-0.08522227910191416,0.44896102373235525,-0.061580779751658675,0.00022824767930051677,-0.4208109398804805,-1.0859352111343175,0.8554243054463807,0.23443765626703478,-0.01646242171323858,0.0009037271633363229,0.8120408303800004,1.1745584274740515,-7.037479865670926,-2.156485236980334,0.1080515598644689,-0.01296046976941101,-0.03482583620724977,2.99408669647367,-5.025426248133649,-0.8239698239017241,-0.013632380562045727,-0.0005063189880464953
0.93,-0.540071364773649,0.606822566755959,-0.07736836687187147,0.45109780017887147,-0.0617377304152646,0.00023701097782758573,-0.41280855789698523,-1.0741915735119363,0.7853912230042679,0.21367764465162378,-0.015695066360592102,0.0008763298527068966,0.7940199129110382,1.1842992752574228,-6.639907031520783,-2.121391268712543,0.09546047202074615,-0.012521951800971043,-0.032962291622482216,3.032742537402801,-4.984221203182125,-0.8133017590556952,-0.01422612369682492,-0.0005153506984058
0.9400000000000001,-0.5441211855160765,0.5961989656776989,-0.07017555466079463,0.4530314036021015,-0.06188789916551093,0.0002455081002168741,-0.40498207424274624,-1.0623601078260132,0.7192812211076843,0.19336034232300142,-0.015016875024632738,0.0008497122389288356,0.7765555752843706,1.1920291042075417,-6.237312135165878,-2.074084419876632,0.08420528336259825,-0.012071910111017159,-0.03109628678101556,3.0683042894760693,-4.942607325686121,-0.8028382075781747,-0.014760532904462293,-0.0005235113488525437
0.9500000000000001,-0.548094446659739,0.5856943554876527,-0.0636040746670182,0.45476731213344757,-0.06203208024644825,0.0002537472073525372,-0.39732611436626164,-1.0504610190046273,0.6571479993776431,0.1735908531346086,-0.01441810809373186,0.0008239107135663063,0.7596452844768794,1.1977976559126462,-5.835990968084592,-2.0163758242524334,0.07418327710637684,-0.01161761314174281,-0.029241770245705654,3.1011544002744307,-4.9013705176814995,-0.7927679941509389,-0.015238252490393896,-0.0005308813568499805
0.96,-0.5519928000108995,0.5753092178079104,-0.057614247699457055,0.4563118792220711,-0.06217097874407654,0.0002617366202419532,-0.3898353351160388,-1.0385137679742207,0.5989826967561144,0.15445670886235674,-0.013889849762829127,0.0007989412889416059,0.7432820239116277,1.201686469306352,-5.440886049174528,-1.9500314270906678,0.0652895874053932,-0.011164809582339896,-0.027410330824662637,3.1316304908107946,-4.861119215605555,-0.7832353645036831,-0.015662167855371563,-0.0005375351307128712
0.97,-0.5558178446561882,0.5650438497357088,-0.05216697547679914,0.4576721664407856,-0.062305218763388986,0.00026948466460798324,-0.3825044645288821,-1.0265368072201722,0.5447272222657914,0.13602872187144827,-0.013424001931244555,0.0007748044366030019,0.727455479010077,1.2038007879806558,-5.055812176480686,-1.8767307390746346,0.05742057173437792,-0.010717945396679474,-0.025611342576367088,3.1600285873941605,-4.822314326536724,-0.7743470385166684,-0.01603533085747775,-0.0005435412122195644
0.98,-0.5595711279660608,0.5548983758099602,-0.04722412168311325,0.45885578754777767,-0.06243535134123505,0.00027699955530511916,-0.3753283309872535,-1.0145473925748563,0.4942853793685891,0.11836211069920517,-0.013013257784606094,0.0007514890697135916,0.7121528914102303,1.204262215513285,-4.683668734990156,-1.7980388892484367,0.050476228928146905,-0.010280368921087857,-0.023852162714263138,3.186607446790079,-4.785297463672897,-0.76617898141953,-0.01636089971606444,-0.0005489626550980282
0.99,-0.5632541468147603,0.544872761190628,-0.042748802580199786,0.459870765448136,-0.06256186195830239,0.000284289312777345,-0.3683018848699465,-1.0025614619332148,0.4475319102913458,0.1014977900358316,-0.012651061706734024,0.000728975747222584,0.6973597973001664,1.2032024677492603,-4.326601852338264,-1.715390129727254,0.04436179725241568,-0.009854522593178983,-0.02213835824222117,3.2115925147263082,-4.7503126250705145,-0.758781724805747,-0.01664208200212615,-0.0005538572899891285
