tonegas/nnodely-applications/joint_friction_estimation/dataset/train/mpc_mujoco_episode_22.csv
time,q1,q2,q3,q4,q5,q6,dq1,dq2,dq3,dq4,dq5,dq6,ddq1,ddq2,ddq3,ddq4,ddq5,ddq6,tau1,tau2,tau3,tau4,tau5,tau6
0.0,0.0,1.57,-1.57,0.0,0.0,0.0,0.0,0.0,0.0,0.0,0.0,0.0,-2.7634541507444257,-14.145260465882,8.09388894985629,4.1643289758590605,-0.42781303847562135,-2.2905981764687056e-06,-0.38502819045476344,-10.15152796397643,-5.772969031180557,-1.2029313924514748,-0.035128656065756776,-0.0010027005800403062
0.01,-0.00027498305486087004,1.568592963409215,-1.5691974916448634,0.0003841386828951999,-3.559263407876614e-05,-1.4221963322317288e-07,-0.027498305486087005,-0.14070365907850735,0.0802508355136517,0.03841386828951999,-0.003559263407876614,-1.4221963322317288e-05,-2.729507060849792,-14.094975759862518,7.978483417353459,3.8379516816846913,-0.362088600640849,-0.0014402802849415863,-0.3796238406667111,-10.154499900670064,-5.778179002766089,-1.2041417549129712,-0.034758939037190274,-0.0009990531368159051
0.02,-0.0008213533260828219,1.565784031699383,-1.5676056931126265,0.0011262812119546845,-0.00010269398973190621,-4.298030645891459e-07,-0.054637027122195175,-0.28089317098320343,0.15917985322368983,0.07421425290594846,-0.006710135565314008,-2.8758343136597307e-05,-2.689651928140529,-14.044953398235165,7.839136357153585,3.57372067893073,-0.32254713546208613,-0.001522401037004073,-0.36980281105994517,-10.139175904497698,-5.775734407134998,-1.203591081565044,-0.034114274999248566,-0.0009915140179233934
0.03,-0.0016350125960807639,1.5615782615321823,-1.5652397372184501,0.0022049765421321005,-0.00019880703371801564,-8.563094242421632e-07,-0.0813659269997942,-0.4205770167200632,0.23659558941763337,0.1078695330177416,-0.00961130439861094,-4.265063596530172e-05,-2.644187476011722,-13.99527589929122,7.680468884236554,3.35633333144796,-0.2995717179332047,-0.0015379523288250319,-0.3557167654162408,-10.10546334374003,-5.765660940392467,-1.2013013314810086,-0.033195911362906144,-0.0009801601946859376
0.04,-0.0027113567485200817,1.5559806296179024,-1.562116321085835,0.0036022955279402732,-0.00032243917750399956,-1.4210275804089625e-06,-0.1076344152439318,-0.5597631914279947,0.3123416132614942,0.1397318985808173,-0.012363214378598393,-5.6471815616679916e-05,-2.593043655264373,-13.945838462335928,7.505979408832783,3.1740987692200324,-0.2873459074994109,-0.0016398126870704743,-0.3375810053518088,-10.053236572151174,-5.747963844162581,-1.1972907590110755,-0.032005849603780584,-0.0009650659550146557
0.05,-0.0040452492348586585,1.548996053228535,-1.558253441967906,0.005302943347936553,-0.0004727479300989673,-2.128659257249727e-06,-0.13338924863385768,-0.6984576389367354,0.38628791179292604,0.17006478199962796,-0.015030875259496774,-7.076316768407642e-05,-2.5359230325965356,-13.896380628547787,7.318304348962823,3.0180938664465806,-0.2823448022749364,-0.001826517064487998,-0.3156753536144171,-9.982339000349324,-5.722629320298009,-1.1915745873748385,-0.030547028849900397,-0.0009463068399424557
0.06,-0.005630980172740069,1.540629423932802,-1.5536701991953987,0.00729358197350158,-0.0006493243446549254,-2.987769077863828e-06,-0.158573093788141,-0.836662929573285,0.45832427725072233,0.19906386255650266,-0.017657641455595813,-8.591098206141012e-05,-2.472385868241043,-13.84651135692233,7.119419888867814,2.8815140327459154,-0.2824314759093909,-0.00208587552034345,-0.2903450023602336,-9.892587241731803,-5.6896266739121595,-1.184165776122794,-0.028823576492285417,-0.0009239636709211473
0.07,-0.007462216351915368,1.530885652601656,-1.548386646744742,0.009562313327554313,-0.0008520598207625302,-4.009737411630077e-06,-0.18312361791752996,-0.9743771331145813,0.5283552450656738,0.22687313540527332,-0.020273547610760476,-0.00010219683337662488,-2.401902307504484,-13.795729412177726,6.9107982515606,2.7591749811049606,-0.28631112665931546,-0.0024122841836806685,-0.26200086013172774,-9.78377702715227,-5.648911067326506,-1.1750758711103038,-0.02684110424392276,-0.0008981265769841799
0.08,-0.009531945467154045,1.5197697240679613,-1.542423684395215,0.012098285295327482,-0.0010810632564667872,-5.2081930062060185e-06,-0.20697291152386774,-1.1115928533694914,0.5962962349526917,0.25359719677731685,-0.02290034357042571,-0.00011984555945759423,-2.3238854887808555,-13.743440446446677,6.693528958815815,2.647130947821257,-0.29319859346502497,-0.0028066224465490563,-0.23111896313444785,-9.655690646763716,-5.6004267810115085,-1.1643159220019825,-0.02460703479122807,-0.0008688989761141096
0.09,-0.011832416779030446,1.5072867600538498,-1.535802978115587,0.014891391619840525,-0.0013366083774992217,-6.598749890242672e-06,-0.2300471311876402,-1.2482964014111535,0.6620706279627876,0.27931063245130433,-0.02555451210324346,-0.00013905568840366533,-2.237713833443978,-13.688971780589139,6.468413167277909,2.542382542684255,-0.302612846931698,-0.003274737493354163,-0.1982385269556573,-9.508105714007609,-5.544110885697308,-1.1518974493410459,-0.022130947210118716,-0.000836401472134026
0.1,-0.01435507979068979,1.4934420891329618,-1.528546902372692,0.01793204353644892,-0.0016190987242950706,-8.198919565949564e-06,-0.25226630116593435,-1.3844670920887836,0.7256075742895078,0.30406519166083984,-0.028249034679584877,-0.00016001696757068917,-2.1427476336922133,-13.631585610179854,6.236037309431094,2.4426534821857793,-0.31424594372484016,-0.0038264711454347733,-0.16395822101630098,-9.34080506262308,-5.47989723347778,-1.1378334405854944,-0.01942493021362074,-0.0008007756168045099
0.11,-0.017090522234119672,1.4782413225943694,-1.5206784986304918,0.02121099624003323,-0.001929042278863165,-1.0028116753533861e-05,-0.2735442443429883,-1.5200766538592447,0.7868403742200363,0.32789527035843063,-0.030994355456809435,-0.00018291971875842973,-2.0383433649720937,-13.570490277283856,5.996830871564406,2.346220210218636,-0.3278738614361565,-0.0044752022960259374,-0.12893026322619044,-9.1535871557137,-5.407720523018806,-1.1221393213465358,-0.016503932096572787,-0.000762187454025451
0.12,-0.020028408585427798,1.461690435224052,-1.5122214455142238,0.024719217298294103,-0.0022670302675905788,-1.2107705691321074e-05,-0.29378863513081255,-1.6550887370317282,0.8457053116267917,0.35082210582608736,-0.03379879887274138,-0.00020795889377872137,-1.9238682664354356,-13.504853532078686,5.751111802448012,2.2517819938412096,-0.34328821999273096,-0.0052376672081839715,-0.09385195107151476,-8.946278599170965,-5.327520983490036,-1.104834005882079,-0.013386094299024374,-0.0007208308158629564
0.13,-0.02315742042359137,1.4437958497882228,-1.50320003706072,0.028447787200273567,-0.0026337159914287035,-1.4461047776213554e-05,-0.3129011838163572,-1.7894585435829298,0.9021408453503834,0.37285699019794655,-0.036668572383812485,-0.00023533420848924794,-1.7987178524440879,-13.433808517301866,5.499122815727539,2.1583621948270064,-0.36023444036045493,-0.00613381295052795,-0.05945432125103467,-8.718743829934938,-5.239247905752096,-1.0859406629510695,-0.010093055862184595,-0.0006769301045696664
0.14,-0.026465200236172978,1.4245645247026448,-1.4936391661583885,0.03238782459402764,-0.003029790024244914,-1.7113514112283578e-05,-0.330777981258161,-1.9231325085578008,0.9560870902331279,0.39400373937540756,-0.03960740328162106,-0.00026524663360700255,-1.662338358063865,-13.356490272614503,5.241058919130477,2.065232668106095,-0.3783454360820704,-0.007186403108718764,-0.02648761295155111,-8.470910267083491,-5.142868466438528,-1.0654884775249878,-0.00665020617655758,-0.0006307430292986193
0.15,-0.029938300690340786,1.4040040413114412,-1.48356431100293,0.0365304305316599,-0.0034559480161592965,-2.009242039229467e-05,-0.34731004541678084,-2.0560483391203555,1.0074855155458564,0.41426059376322566,-0.04261579919143824,-0.000297890628001109,-1.5142603987275685,-13.271978758119783,4.977093590577411,1.9718581650200626,-0.3970619050999309,-0.008419994934332875,0.004296375591628376,-8.202747900463764,-5.038360267131187,-1.0435110973542545,-0.0030868850787630388,-0.0005825611824700757
0.16,-0.033562142333816165,1.382122696499963,-1.4730015223449582,0.04086664752604819,-0.003912846800611154,-2.3426826988069237e-05,-0.36238416434753784,-2.18813448114781,1.056278865797179,0.43362169943882933,-0.04568987844518573,-0.00033344065957745695,-1.354144108746638,-13.179363328551911,4.707395498385647,1.8778519787655483,-0.41553207939840764,-0.009858725881848107,0.03216538776773173,-7.914308613408759,-4.925725010556334,-1.0200492394646465,0.000563519451041234,-0.0005327117827957342
0.17,-0.037320983551833546,1.3589295942531239,-1.46197741022248,0.045387430117082024,-0.004401043631237851,-2.714712386778491e-05,-0.37588412180173825,-2.319310224683929,1.1024112122478118,0.4520782591033833,-0.04881968306266974,-0.0003720296879715673,-1.1818715531965396,-13.076659249414458,4.432197439361136,1.7829641743319122,-0.43248712598075745,-0.01152211170476014,0.056428817329630065,-7.605218698365469,-4.804812010965451,-0.9951160546506154,0.004263421030431182,-0.0004815417141327788
0.18,-0.041197910856764546,1.334434844161652,-1.4505191229462286,0.05008362574222959,-0.004920912511224861,-3.128428834718969e-05,-0.3876927304930996,-2.4494750091471795,1.1458287276251433,0.46961956251475684,-0.051986887998701006,-0.0004137164479404784,-0.9999374834459881,-12.86922948517875,4.1563407377609,1.6888053286817666,-0.44611074728234135,-0.01341774038646415,0.07630213071463011,-7.2316074305445985,-4.660447835874438,-0.9658164860489471,0.007958106004559613,-0.00042813262874973236
0.19,-0.04517508249086332,1.3086589931105799,-1.4386538149941643,0.0549460671396998,-0.005472542462273267,-3.586874038057294e-05,-0.39771716340987723,-2.577585105107223,1.186530795206441,0.48624413974702135,-0.055162995104840594,-0.0004584452033383246,-0.8326487753970051,-11.623605643743154,3.92617967349282,1.6123726330145551,-0.4540780281829475,-0.015523886388939756,0.08968627896769528,-6.3607074619386035,-4.344609003630701,-0.9038118635977601,0.011476380207448608,-0.0003603246364101081
0.2,-0.04923610251097219,1.281726050801168,-1.4264035226808107,0.05996655549209503,-0.006055716503778006,-4.0929462040618446e-05,-0.40610200201088703,-2.6932942309411843,1.2250292313353728,0.5020488352395225,-0.058317404150473935,-0.0005060721660045508,-0.6628583126474453,-10.268490508352501,3.7107247930630702,1.531571917367934,-0.4536285248387961,-0.017709648576603843,0.09703582074593389,-5.438710566772775,-4.019034574297421,-0.8410945894579772,0.014773366326824857,-0.00029407511457237235
0.21,-0.05336432310884018,1.2537709512250483,-1.4137888363415705,0.06513656103399641,-0.006669675777401184,-4.649062765947113e-05,-0.4128220597867984,-2.7955099576119773,1.2614686339240144,0.5170005541901389,-0.06139592736231777,-0.0005561165618852681,-0.4917943986666393,-8.841285132508418,3.5081483618017266,1.446831177736847,-0.44043441858074095,-0.019808968021521767,0.09850779388677555,-4.487450261503319,-3.693173306309424,-0.7796742538206809,0.017800665494174483,-0.00023080420227529965
0.22,-0.057542938495046395,1.2249358245461917,-1.400829096925254,0.07044726789549363,-0.00731287451113455,-5.256699013292479e-05,-0.4178615386206216,-2.8835126678856673,1.2959739416316671,0.5310706861497224,-0.06431987337333656,-0.0006076362473453662,-0.3213862898383919,-7.391466214677414,3.3166274059637253,1.3586313165285455,-0.41025529572141783,-0.021585838855677886,0.094526565693752,-3.5334200958235056,-3.377552203444773,-0.7216893380380057,0.020514823423167884,-0.0001719776132630809
0.23,-0.06175514358900028,1.1953650656709989,-1.3875425976080151,0.07588963199864981,-0.007982740036507592,-5.915852104789078e-05,-0.42122050939538863,-2.9570758875192746,1.3286499317238731,0.5442364103156179,-0.06698655253730426,-0.0006591530914965986,-0.15455558539087302,-5.936427644782858,3.135032177548527,1.2678819371160275,-0.35976190359755233,-0.022756990597414706,0.08574554703990395,-2.587786864345887,-3.0769407602138106,-0.6681204341798217,0.022883066596341158,-0.00011841553503835211
0.24,-0.06598439295332588,1.1652035995911079,-1.3739466972742653,0.08145445549201906,-0.008675480734030575,-6.624498512976556e-05,-0.42292493643256057,-3.016146607989104,1.3595900333749797,0.5564823493369249,-0.06927406975229825,-0.0007086464081874787,0.005554917336283404,-4.503678987797711,2.962193818891638,1.1753016613618037,-0.2875751692920563,-0.023037302692343123,0.07300886991189241,-1.665653518038822,-2.797021663626108,-0.6200607819025541,0.02488101499681352,-7.093256412048935e-05
0.25,-0.0702146948972053,1.1345941388565812,-1.3600579439857525,0.0871324534707504,-0.009385994239241469,-7.378144047468875e-05,-0.42303019438794176,-3.0609460734526577,1.3888753288512807,0.5677997978731333,-0.0710513505210893,-0.0007536455344923191,0.15600689254188366,-3.144731823510752,2.7968736118696937,1.0815464110409292,-0.19517769553913994,-0.022212302145270188,0.057295827335519085,-0.7916525672740367,-2.546031630381855,-0.5789872918429493,0.02649207237004734,-3.047232521736898e-05
0.26,-0.0744309087296322,1.1036720494724954,-1.3458922176778008,0.09291433276548952,-0.010107929938741272,-8.16959623939389e-05,-0.42162138324269055,-3.092208938408571,1.4165726307951705,0.5781879294739126,-0.07219356994998034,-0.000791452191925015,0.29454245828977593,-1.9830792071137195,2.637654417447101,0.9874024892002029,-0.08726529939649996,-0.020215042146296436,0.0396494712301083,-0.019474442147297433,-2.3406592478301276,-0.5477534706515111,0.027701674386015313,1.355261182211712e-06
0.27,-0.07861900140593005,1.0725530444996316,-1.331464925807062,0.09879093147706888,-0.010833938674574942,-8.989080030117545e-05,-0.4188092676297847,-3.111900497286389,1.4427291870738583,0.5876598711579368,-0.07260087358336711,-0.0008194837907236554,0.41970102864821635,-0.9829982158154232,2.4830267800709813,0.8944492393935972,0.028809146745861103,-0.017174958693200293,0.02111906315749441,0.6673814143128398,-2.173549227521093,-0.5247695662458532,0.028539164685227967,2.555475849911263e-05
0.28,-0.08276624429771356,1.0413367413013506,-1.316791118940464,0.10475331037929095,-0.011556094780711814,-9.824755488916314e-05,-0.41472428917835175,-3.121630319828102,1.467380686659807,0.5962378902222064,-0.0722156106136872,-0.0008356754587987689,0.5314689114393217,-0.4696010196733399,2.3312585729503743,0.8033727663706358,0.1444092917621118,-0.013383603168886427,0.0026000641029631233,1.1357185498188027,-2.0847899943064157,-0.5166744192128719,0.028975506412418195,3.857480112921279e-05
0.29,-0.08686126961925277,1.0100742666386875,-1.301885817943799,0.11079302863878315,-0.012266431547866991,-0.00010663553521721782,-0.4095025321539198,-3.126247466266299,1.490530099666497,0.6039718259492205,-0.07103367671551772,-0.0008387980328054685,0.6305972062095897,-0.07324613945617767,2.179480521534536,0.717116922195939,0.2513484992827313,-0.009252714230344905,-0.01507349786339502,1.5448786304658573,-2.01889070183677,-0.5132542698197698,0.02914056327382889,4.6597466995492584e-05
0.3,-0.09089403757861968,0.9788050836203382,-1.286764082035169,0.11690210084851912,-0.012957477852674149,-0.00011492210348092069,-0.40327679593669136,-3.126918301834924,1.512173590863024,0.6109072209735968,-0.06910463048071583,-0.0008286568263702859,0.7184418465816029,-0.008237815286061826,2.0270769127606605,0.635286679202526,0.34318162893134807,-0.005160992138186549,-0.031382640267115305,1.8101566926549366,-2.0006051212372897,-0.5184494638509685,0.029020262245665385,4.7600657591536296e-05
0.31,-0.0948557194432252,0.9475356393842816,-1.2714411763629172,0.12307311821682813,-0.013622724463230831,-0.00012298230776764817,-0.39616818646055185,-3.1269444236056603,1.5322905672251619,0.6171017368309004,-0.0665246610556683,-0.0008060204286727476,0.7968364218737759,-0.007273825922901837,1.8721675962236846,0.5590299863569177,0.41587244126056877,-0.001429471573929475,-0.045889106115536184,2.0440470198240606,-1.9914760073169107,-0.5253704342138259,0.028716238362065834,4.586777032715338e-05
0.32,-0.09873851184637096,0.9162659966760558,-1.255932611783865,0.1292991403781794,-0.014256941949013807,-0.0001307068273723434,-0.38827924031457595,-3.126964270822584,1.5508564579052244,0.6226022161351267,-0.06342174857829762,-0.0007724519604695244,0.8675615479564689,-0.006870499667912122,1.7146178727961126,0.48738104522342596,0.46778118187181006,0.001744202341582901,-0.05830994151980917,2.2725169772733604,-1.9828354293238049,-0.5325040899340745,0.02826210214277126,4.2457623967491117e-05
0.33,-0.102535440794332,0.884996159705501,-1.2402541322644307,0.1355735746967847,-0.014856342916971873,-0.00013800702805655165,-0.3796928947961029,-3.126983697055476,1.5678479519434176,0.6274434318605274,-0.059940096795806676,-0.0007300200684208255,0.9322963818026646,-0.006358505089051936,1.5546302638134386,0.4191701678586117,0.49923492137541015,0.004268761070557958,-0.06843356321951655,2.495667153289953,-1.9746264488051095,-0.5398407571756552,0.02767097696900962,3.752141614540017e-05
0.34,-0.10624016967271074,0.8537261417587357,-1.2244217021538235,0.1418900859512454,-0.015418600852415346,-0.00014481722792376774,-0.3704728878378756,-3.1270017946765316,1.5832430110607096,0.631651125446069,-0.056225793544347334,-0.0006810199867216077,0.9925433142627197,-0.005782687110434352,1.392353190624283,0.35350821559368617,0.5120110961929845,0.0061348891104834324,-0.07610006914703048,2.7133215418467866,-1.9668771253123316,-0.5473844538211389,0.02695467644842267,3.1190176405453976e-05
0.35000000000000003,-0.10984682572271326,0.8224559614564779,-1.2084514973073461,0.14824252803462143,-0.01594275313432723,-0.00015109461537150224,-0.36066560500025113,-3.1270180302257797,1.5970204846477456,0.6352442083376046,-0.052415228191188365,-0.0006277387447734498,1.049566057703791,-0.005114866691567772,1.2278958960342068,0.289725416573829,0.5088004378764912,0.007390182628201347,-0.08119626697103773,2.9253450141960053,-1.959596380954651,-0.5551350811063092,0.02612412296667642,2.3585930921238335e-05
0.36,-0.11334985507685477,0.7911856461332187,-1.1923598986025674,0.15462489244138966,-0.01642902474704951,-0.00015681742057677272,-0.3503029354141507,-3.127031532325925,1.6091598704778733,0.6382364406768234,-0.04862716127222797,-0.0005722805205270497,1.1043651680823579,-0.004299928522978833,1.0613440181455507,0.22731938990171052,0.49272555724193534,0.008115475368496772,-0.08365175817424772,3.1316236846727263,-1.9527805603762762,-0.5630895719444173,0.025189563517520323,1.4822980862402593e-05
0.37,-0.11674391014562026,0.759915237781691,-1.1761634866814332,0.16103126962749534,-0.016878609223728743,-0.00016198199168946097,-0.33940550687654863,-3.1270408351527745,1.6196411921134213,0.6406377186105687,-0.04495844766792343,-0.0005164571112688249,1.1576817590038992,-0.003319843776207866,0.8927713052773305,0.16591590190487837,0.46696195165253707,0.008405709953357765,-0.08343595574923621,3.332040425918525,-1.9464206783055582,-0.5712430068147848,0.02416078650401633,5.009914584520875e-06
0.38,-0.12002376862438668,0.7286447952109031,-1.1598790370548009,0.16745582031268424,-0.01729343762947733,-0.0001665993586324001,-0.32798584787664237,-3.127044257078795,1.6284449626632398,0.642455068518891,-0.041482840574858675,-0.00046173669429391535,1.2100200351280137,-0.002139294957074004,0.7222482692383292,0.10523947488099417,0.4344736784224372,0.008356445813098357,-0.08055582454028326,3.5264951355375116,-1.940495962525017,-0.5795875745236791,0.02304733908993859,-5.747000767443696e-06
0.39,-0.12318428067500885,0.6973743978545793,-1.1435235148867764,0.17389275445524224,-0.01767595817075296,-0.00017069173576983403,-0.31605120506221657,-3.1270397356323776,1.6355522168024477,0.6436934142557994,-0.038252054127562905,-0.0004092377137433907,1.2616845745236562,-0.008776637058773481,0.5498419466619466,0.04508751263754207,0.397854308752281,0.00805555659839663,-0.07505549395660499,3.7120692650465736,-1.935768336865174,-0.5882244503860975,0.02185671173750844,-1.740842539718172e-05
0.4,-0.1262203391653176,0.6661033472164672,-1.1271140732744283,0.1803363219123587,-0.018028940833289212,-0.00017428926295556685,-0.30360584903087534,-3.127105063811205,1.6409441612348212,0.6443567457116467,-0.03529826625362532,-0.00035975271857328304,1.31280914885148,-0.001750226939170904,0.3755991076531983,-0.014619848257410695,0.35925357611327935,0.0075789160471263495,-0.06701080100564771,3.8962695803317637,-1.9300025303810155,-0.59682504765602,0.02060424431630119,-2.967417410114801e-05
0.41000000000000003,-0.1291268688099549,0.6348323070008969,-1.110668039499988,0.18678079064618947,-0.01835531353089991,-0.00017742718586595882,-0.2906529644637277,-3.1271040215570327,1.6446033774440412,0.6444468733830756,-0.03263726976106954,-0.00031379229103919835,1.3633938911530374,0.00052701717851772,0.19968930416280062,-0.07408735294326457,0.320364598189539,0.006989201554815416,-0.056529038215424224,4.072466464826427,-1.9251007029436795,-0.6056596672323794,0.019293779309920017,-4.260977285164295e-05
0.42,-0.131898829556083,0.6035614690803041,-1.0942029079263653,0.193220445418151,-0.01865803293796629,-0.00018014350384318488,-0.2771960746128119,-3.1270837920592838,1.6465131573622571,0.6439654771961535,-0.03027194070663805,-0.00027163179772260666,1.413351344646747,0.0035339753507480174,0.022193358189974016,-0.1333250441913224,0.28245173365302434,0.006336022593493751,-0.0437504732532283,4.242523328921016,-1.9204236208825591,-0.61462524012119,0.017936655682085124,-5.604733388868616e-05
0.43,-0.13453122895050568,0.5722910993691592,-1.0777363296879652,0.19964958358018764,-0.018939987297890724,-0.0001824771302899912,-0.26323993944226576,-3.1270369711144803,1.6466578238400083,0.6429138162036631,-0.02819543599244351,-0.00023336264468063177,1.4625259107697568,0.00784343481345888,-0.15675795174744117,-0.19236485950586707,0.24640548321587058,0.005657252696922521,-0.028842385806936613,4.406553722072962,-1.9158629132830722,-0.6236969737949275,0.016542572437318447,-6.98656452193686e-05
0.44,-0.13701914112924848,0.54102159497608,-1.0612860998230578,0.20606251303630907,-0.01920392780693377,-0.0001844665089443728,-0.24879121787427935,-3.1269504393079135,1.6450229864907453,0.6412929456121426,-0.026394050904304373,-0.0001989378654381586,1.5107206559650068,0.01328310605278061,-0.3370124183058944,-0.2512194871001723,0.21280320107162218,0.00498085396966913,-0.01199755190234647,4.56442394960736,-1.9113745320150324,-0.6328576850429839,0.015120991755047504,-8.394632110709501e-05
0.45,-0.13935772954004907,0.5097534671194311,-1.0448701425139253,0.21245355238650832,-0.019452423961664,-0.0001861486257239223,-0.23385884108005833,-3.126812785664887,1.6415957309132445,0.6391039350199231,-0.024849615473023057,-0.00016821167795494956,1.5577172478982948,0.01930872612693675,-0.518400050535829,-0.30988083184151516,0.18197202792672038,0.004326680909685854,0.006568498974294165,4.715895424801265,-1.9069309366139424,-0.6420901105033671,0.01368122017302376,-9.816970922622663e-05
0.46,-0.14154227132114958,0.4784872869769457,-1.028506494609297,0.21881703308170086,-0.019687838079768975,-0.00018755834704073222,-0.2184541781100502,-3.126618014248545,1.6363647904628207,0.6363480695192556,-0.02354141181049785,-0.00014097213168099294,1.6032913192644784,0.0249797259838096,-0.700734819295621,-0.3683216618028664,0.15404736218008147,0.003708186013305248,0.026620708788260478,4.860628832111981,-1.9025145298345103,-0.6513752212028271,0.012232340544350835,-0.0001124148633411366
0.47000000000000003,-0.14356818179694436,0.4472235920531404,-1.0122132876110566,0.22514730347276937,-0.01991231451915951,-0.00018872801631057113,-0.20259104757947968,-3.126369492380534,1.62932069982405,0.63302703910685,-0.022447643939053623,-0.00011696692698389145,1.6061481336652597,2.204500358425902,-0.8073542357656118,-0.38927281345471965,0.1286049683690076,0.00313377782227664,0.04429985140583152,5.670278921011811,-1.722593185054574,-0.6400845700222481,0.01136382413458015,-0.0001157693502086604
0.48,-0.14543510307222868,0.4161794292377674,-0.9960001754517931,0.231440456192704,-0.02012775924897177,-0.000189690722836732,-0.18669212752843195,-3.1044162815373,1.6213112159263416,0.6293152719934625,-0.021544472981225696,-9.627065261608807e-05,1.5878998965661413,6.073738028724956,-0.8659833291492678,-0.41036232161092434,0.1061806244736417,0.0025917989596506708,0.06138042361317922,6.950721807243104,-1.4464885859305943,-0.6217711035937059,0.010883592689023254,-0.0001147554480160513
0.49,-0.14714477103585483,0.38574013106404775,-0.9798714724043608,0.23769152933390758,-0.020335805522806137,-0.0001904793195168856,-0.1709667963626155,-3.0439298173719656,1.6128703047432333,0.6251073141203581,-0.020804627383436795,-7.885966801535997e-05,1.5669706599618434,9.045639884566517,-0.9045056065684189,-0.4580231470991587,0.08699651997851604,0.0020997803879123644,0.07892063666927562,7.899777155942655,-1.28881174069569,-0.6213525023761669,0.010102388059977211,-0.00012419615583238755
0.5,-0.14869919523420572,0.35620166490518895,-0.9638300611399961,0.2438942125510263,-0.020537850792359896,-0.0001911229601537762,-0.1554424198350895,-2.953846615885878,1.6041411264364596,0.6202683217118715,-0.020204526955375834,-6.436406368906076e-05,1.5435015146450366,11.267549082079181,-0.9290518157700998,-0.519361731197824,0.07059323263822898,0.0016804736213135163,0.09601604988780424,8.577866989056362,-1.2225088432272475,-0.6337976535380938,0.009146657813272414,-0.00014086165397721038
0.51,-0.15010064534012535,0.3277853025702322,-0.9478778496319484,0.2500417340542475,-0.020735089251382538,-0.0001916469644695194,-0.14014501059196366,-2.841636233495678,1.595221150804775,0.6147521503221187,-0.01972384590226407,-5.2400431574319406e-05,1.5176365335709099,12.866387005269038,-0.9441617483920481,-0.5854996614060051,0.05663984995846966,0.0013267191130584832,0.11194730752812129,9.036107567866573,-1.2248435237513697,-0.6549625313458824,0.008111446494032023,-0.00016216554133427922
0.52,-0.15135163682937358,0.30065025840586224,-0.9320161065507112,0.25612745253928393,-0.020928535639904444,-0.00019207312884104354,-0.12509914892482263,-2.7135044164369977,1.586174308123727,0.6085718485036443,-0.019344638852190423,-4.261643715241235e-05,1.4895330133359908,13.950998175999876,-0.953164292744912,-0.6504976267327187,0.04486111810388138,0.0010289827339214908,0.12618732787154793,9.317520739261859,-1.2771680389289077,-0.6815457850597585,0.0070661033724468605,-0.0001860989809539126
0.53,-0.1524549150228301,0.2749045286370224,-0.916245704458532,0.2621452351919748,-0.021119045291035334,-0.00019242008188267428,-0.11032781934565222,-2.574572976883984,1.5770402092179214,0.6017782652690876,-0.01905096511308908,-3.469530416307375e-05,1.459364271141521,14.614451703424285,-0.9584695888045633,-0.7105495425123385,0.035007477509080176,0.0007786330579006018,0.13839197557253435,9.458166666962994,-1.3645096806619494,-0.710999819506812,0.006059299529844586,-0.00021115073239975194
0.54,-0.15341343734272328,0.25061416057734537,-0.9005672932666662,0.2680896821898874,-0.021307332421550952,-0.00019270363759223377,-0.09585223198931932,-2.429036805967705,1.5678411191865884,0.5944446997912557,-0.018828713051561852,-2.8355570955947698e-05,1.427318238740959,14.936078466107407,-0.961793021224894,-0.7633823528228079,0.026845835607238272,0.0005679651887618431,0.14837921597875992,9.488135987124073,-1.4750878874763347,-0.7414238200334935,0.005123339704308724,-0.0002362248169414581
0.55,-0.15423035401229646,0.22781115419096654,-0.8849814211792554,0.27395624251816314,-0.0214939872444266,-0.00019293713976010538,-0.08169166695731776,-2.2803006386378826,1.558587208741077,0.5866560328275752,-0.01866548228756463,-2.335021678716089e-05,1.393593968755208,14.983267067829232,-0.9643269577517,-0.8078105857007476,0.02015898118492901,0.00039000400256578027,0.15610183480237283,9.432415250313435,-1.5998218252518848,-0.7714538214323773,0.00427781881845693,-0.0002605621503029024
0.56,-0.15490898760847158,0.20650017458798828,-0.869488616328401,0.279741254198145,-0.021679491904479778,-0.00019313179237433062,-0.06786335961751319,-2.131097960297825,1.5492804850854323,0.5785011679981873,-0.01855046600531799,-1.946526142252324e-05,1.3583973726436627,14.813044844827727,-0.9668724057021585,-0.843407064806139,0.01474755411243625,0.00023841358565401816,0.16161800778400776,9.311640056988715,-1.7318637539024708,-0.800158747656276,0.003532676051534061,-0.00028366972360742665
0.5700000000000001,-0.15545281193297417,0.18666423271993104,-0.8540894392181154,0.28544193324786504,-0.02186423508164914,-0.00019329697001976633,-0.05438243245025785,-1.9835941868057234,1.5399177110285591,0.5700679049720023,-0.018474317716936427,-1.651776454357024e-05,1.321936959405281,14.473468014476628,-0.9699398847846652,-0.8702606410038617,0.010431869999194612,0.00010748091404533255,0.16506285771369114,9.142749039975925,-1.8661772522196767,-0.8269472068136249,0.0028907045602041192,-0.0003052590221188845
0.58,-0.15586543065220493,0.16826947259949884,-0.8387845137206408,0.29105632913045554,-0.02204852513176556,-0.00019344050321480359,-0.04126187192307741,-1.8394760120432205,1.5304925497474633,0.5614395882590488,-0.018429005011641648,-1.4353319503725832e-05,1.284419983477636,14.004842504731698,-0.9738266219958867,-0.8887990004700863,0.007052676820176171,-7.874312348388202e-06,0.16662299092905317,8.939550468487264,-1.9991686952026244,-0.8514871035857785,0.0023495793917802056,-0.0003251941131120932
0.59,-0.156150556104583,0.15126918655333213,-0.8235745425397896,0.2965832595512293,-0.02223260171834047,-0.00019356893543451498,-0.02851254523780814,-1.7000286046166717,1.5209971180851263,0.5526930420773727,-0.018407658657491315,-1.28432219711403e-05,1.2460491849623556,13.44079464980149,-0.9786755062399504,-0.899660051478077,0.0044707649407371985,-0.00011209087352126446,0.1665150412001636,8.713211961863662,-2.128373593138331,-0.873638408674386,0.001903467902056357,-0.0003434490420351245
0.6,-0.15631198860759157,0.13560716509758852,-0.8084603116452082,0.30202223382150273,-0.022416645973381253,-0.00019368775044654944,-0.01614325030085766,-1.566202145574362,1.5114230894581417,0.5438974270273471,-0.018404425504078066,-1.188150120344517e-05,1.2070201714554645,12.809208840066667,-0.9845199721070443,-0.9035995017884835,0.0025656876093386044,-0.0002089694684115906,0.16496852891943425,8.472682643193526,-2.252195313663642,-0.8933983964161081,0.0015442857217374101,-0.0003600737187037553
0.61,-0.15635359652783898,0.12122047479897621,-0.7934426870919852,0.3073733713041704,-0.02260078928863591,-0.00019380157015039525,-0.004160792024740777,-1.4386690298612304,1.5017624553222941,0.5351137482667662,-0.018414331525465816,-1.1381970384580072e-05,1.1675194162969589,12.133047355351348,-0.9913180175774077,-0.9014253330956663,0.0012339283515874627,-0.00030169079152056466,0.16221286252740316,8.225056030858342,-2.369691454633077,-0.9108581051065024,0.0012626574884388006,-0.0003751672505446272
0.62,-0.15627929731284934,0.10804174576588885,-0.7785226067980822,0.31263731945698753,-0.02278512087669736,-0.00019391432424623132,0.007429921498963547,-1.317872903308737,1.4920080293903044,0.5263948152817118,-0.018433158806145124,-1.1275409583606328e-05,1.1277228107411146,11.431065961560419,-0.9989778255608304,-0.8939522051861268,0.00038681688309800955,-0.00039284659616348194,0.15846802834791496,7.975881047654148,-2.4804020993199964,-0.9261685300542141,0.0010486359797811278,-0.0003888576105353485
0.63,-0.15609303962620552,0.09600104004336939,-0.7637010692013968,0.3178151745174683,-0.022969694257411633,-0.00019402939378763238,0.018625768664382925,-1.2040705722519456,1.4821537596685401,0.5177855060480812,-0.018457338071427222,-1.1506954140106167e-05,1.087794692598862,10.718437384715354,-1.007376898106778,-0.8819705691951283,-5.157882275874659e-05,-0.00048448065219153236,0.15393838484240482,7.729427708460305,-2.584213929351194,-0.939515013574542,0.0008922267666346064,-0.00040128655642487573
0.64,-0.15579878667916838,0.08502736301728857,-0.7489791202158147,0.3229084067953887,-0.023154532824805098,-0.00019414973106841193,0.029425294703714668,-1.0973677026080824,1.4721948985582154,0.5093232277920345,-0.018483856739346435,-1.2033728077954835e-05,1.0478872717591867,10.007293476637413,-1.016376182373552,-0.8662265801244589,-0.000146433569448573,-0.0005781363656273131,0.148808950136543,7.488913316857701,-2.6812543900804533,-0.9510983699496316,0.0007837587365467739,-0.0004125988041780109
0.65,-0.1554005008119068,0.07504987183903412,-0.7343578395182798,0.32791879175543504,-0.023339634639002654,-0.00019427795844465602,0.03982858672616059,-0.9977491178254447,1.4621280697534862,0.5010384960046342,-0.018510181419755658,-1.2822737624408426e-05,1.0081403777851112,9.307195716061736,-1.025830337343745,-0.8474098823836105,4.606688577471485e-05,-0.0006749082223381567,0.14324360803055713,7.256694343376541,-2.771810590319156,-0.9611214228240542,0.0007141343036056957,-0.00042293457404507246
0.66,-0.15490212934530154,0.06599882774643118,-0.7198383269012333,0.33284834750882275,-0.023524976571065934,-0.00019441644867634382,0.049837146660524335,-0.9051044092602953,1.4519512617046548,0.4929555753387691,-0.018534193206328046,-1.3849023168779868e-05,0.9686814622875899,8.625542872687877,-1.0355950338096198,-0.8261470794948162,0.0004772079338217494,-0.0007754947774106964,0.1373847278398459,7.034428617193727,-2.856268226634825,-0.9697798018759315,0.0006749871856950467,-0.00043242475332266883
0.67,-0.15430759169903857,0.05780633289883897,-0.705421689196746,0.3376992789325666,-0.023710517909802803,-0.00019456738925138734,0.05945376462629527,-0.8192494847592207,1.441663770448735,0.48509314237439016,-0.018554133873686776,-1.5094057504351448e-05,0.9296257978763307,7.967922970210204,-1.04553198261496,-0.8029992546355396,0.0011044828017618136,-0.0008802514599340165,0.13135377669823822,6.823211761775095,-2.935066501520104,-0.9772560206261237,0.0006587701870486126,-0.0004411880437628408
0.68,-0.15362076775237574,0.05040688679644457,-0.6911090281051622,0.34247392835692964,-0.023896203520730405,-0.00019473283297307174,0.06868239466628247,-0.7399446102394401,1.4312661091583794,0.47746494243629906,-0.018568561092760078,-1.654437216843848e-05,0.8910768191480313,7.338420530231428,-1.0555122118763984,-0.7784623126673997,0.0018905673206462692,-0.0009892419075217176,0.125252586809423,6.6236923303450865,-3.0086655067454746,-0.9837160331728253,0.0006587919064957909,-0.00044932957848983047
0.6900000000000001,-0.15284548741011927,0.04373779289856425,-0.6769014291266986,0.3471747325715711,-0.024081966629841845,-0.0001949147368894723,0.0775280342256455,-0.6669093897880316,1.4207598978463607,0.47008042146415,-0.018576310911144023,-1.819039164005605e-05,0.8531265880885693,6.7398732760338085,-1.0654180866987195,-0.7529693007150442,0.0028025063116297044,-0.0011022870064047834,0.1191650173982802,6.4361662102444015,-3.0775236049309833,-0.9893075962627212,0.0006692140476080915,-0.00045694058975848773
0.7000000000000001,-0.15198552132428628,0.03773944102166113,-0.6627999517036662,0.35180418578058104,-0.024267731289649326,-0.00019511499141428615,0.08599660858330069,-0.5998351876903122,1.410147742303231,0.4629453209009943,-0.018576465980748164,-2.0025452481385275e-05,0.8158560712294733,6.174189146227141,-1.075143386931396,-0.7268935182098071,0.0038110749166068714,-0.001219010782121957,0.11315879773820028,6.260674736016714,-3.142079881408808,-0.9941601430057673,0.000685042647729622,-0.00046409889446253364
0.71,-0.15104457274081556,0.03235549709103983,-0.648805620486996,0.35636480803746085,-0.024453414570121224,-0.00019533544145386566,0.09409485834707064,-0.5383943930621297,1.3994331216670302,0.456062225687983,-0.018568328047189754,-2.2045003957951073e-05,0.7793055099342004,5.653540459747411,-1.0844760604654593,-0.7005022507005627,0.004890071210681274,-0.0013388857583959898,0.10728526677166514,6.0992686137428365,-3.2025026180807936,-0.9984137675486441,0.000704344408345913,-0.0004708829624970449
0.72,-0.15002627340004696,0.02753411371736636,-0.6349194032482994,0.3608591156947233,-0.024638928267484702,-0.00019557792147521105,0.10182993407686024,-0.48213833736734735,1.3886217238696505,0.4494307657262443,-0.018551369736347904,-2.4248002134539214e-05,0.7429828553806856,5.379555192134799,-1.0910665295484743,-0.6731722243045839,0.00601490815441455,-0.0014615570454440535,0.10154466851998659,5.991039558836599,-3.2551466737688153,-1.0027368928720077,0.0007642985482848906,-0.00047762974805083235
0.73,-0.1489342321247261,0.02324798346984593,-0.6211419304046073,0.36528954438864375,-0.024824176041970434,-0.00019584464787821316,0.10920412753208515,-0.42861302475204305,1.3777472843692085,0.44304286939204807,-0.018524777448573282,-2.6672640300211155e-05,0.7074441351841305,5.093827322591401,-1.0962364905447952,-0.6474523729558337,0.007221492523286022,-0.0015916302958165623,0.09596679154902704,5.88298719810713,-3.306394711372178,-1.0065073575340353,0.000810367076823889,-0.0004841059047806002
0.74,-0.14777197981042886,0.019468636115895218,-0.6074737006023235,0.3696584140166098,-0.025009056651406222,-0.00019613779716317616,0.11622523142972183,-0.3779347353950711,1.3668229802283802,0.4368869627966059,-0.018488060943578823,-2.9314928496299426e-05,0.6728237351122385,4.768676476986101,-1.1005151399816475,-0.6230316895888492,0.008472320533311678,-0.0017241960821384739,0.09058473939128954,5.770027473427854,-3.3567062645198953,-1.0096574331574308,0.0008352485928125996,-0.0004902694617943057
0.75,-0.14654295605883955,0.016163685934876302,-0.5939151368944525,0.3739679694801002,-0.02519346741389433,-0.00019645939678175563,0.12290237515893025,-0.33049501810189175,1.355856370787103,0.4309555463490371,-0.018441076248810778,-3.215996185794544e-05,0.6391541280257654,4.439197265622562,-1.1040888721204498,-0.5993517163180435,0.009729286954030636,-0.0018571343200958212,0.08542688448288796,5.65920429509271,-3.4054112653461854,-1.012332232151198,0.0008440837878450438,-0.0004961772877151325
0.76,-0.14525050588257232,0.013300321998084673,-0.580466593985175,0.37822040094505693,-0.02537730628499683,-0.0001968113814219116,0.12924501762672103,-0.28633639367916297,1.3448542909277539,0.42524314649567224,-0.018383887110250283,-3.519846401559637e-05,0.60651884438862,4.080451838323548,-1.1072710718299847,-0.5763213140419161,0.010969697048711258,-0.0019901295162164934,0.08051007589521751,5.545994554609637,-3.45286462014656,-1.0144631041188041,0.0008310947085999089,-0.000501781209585599
0.77,-0.1438978714071222,0.010842828673778837,-0.5671283933942454,0.38241786543760076,-0.025560474129607994,-0.00019719555095571505,0.13526344754501238,-0.24574933243058356,1.3338200590929552,0.4197464492543811,-0.01831678446111624,-3.841695338034569e-05,0.5749438664042801,3.70709417868333,-1.1101961016477255,-0.5536422254020668,0.012167937802321588,-0.0021215892415647197,0.07584919411794085,5.433374154234931,-3.498786707256078,-1.0161290603184667,0.00079820259389709,-0.0005071029733523727
0.78,-0.14248818925795018,0.008754043136113327,-0.5539008315946737,0.38656250000982023,-0.025742876306813055,-0.00019761358899753384,0.14096821491720257,-0.208878553766551,1.3227561799571648,0.4144634572219484,-0.018240217720506293,-4.180380418188e-05,0.5444505671617808,3.34021180274293,-1.1129497471439818,-0.5311940775299524,0.013305940343713851,-0.002250566032837728,0.07145442836876403,5.325238730849397,-3.542939581786817,-1.0174466788847245,0.0007487060074917681,-0.0005121885887448395
0.79,-0.1410244884091373,0.006997452168872054,-0.5407841834184622,0.3906564169506456,-0.025924423536951565,-0.00019806710289001653,0.14637008488128747,-0.17565909672412727,1.3116648176211454,0.40939169408253684,-0.01815472301385112,-4.5351389248267936e-05,0.5150645614328849,2.9598882951880716,-1.1156021610449436,-0.5090470383451917,0.014373459516602488,-0.0023764993264793755,0.06732473611452028,5.218013944756849,-3.5855343522439242,-1.0183511197252895,0.000679055458266613,-0.0005169872513712299
0.8,-0.13950968765343288,0.005535212348778154,-0.5277787127629513,0.3947017095245723,-0.026105033087926544,-0.00019855757989225238,0.15148007557044127,-0.14622398200938994,1.3005470655510927,0.4045292573926674,-0.0180609550974978,-4.9047700223585664e-05,0.48678096863854015,2.6067723136533067,-1.118139080052926,-0.48710227561439945,0.015356732890970115,-0.002497775474947589,0.0634646168666096,5.118808680399073,-3.6262551303446204,-1.0190549296205793,0.0005963187060750458,-0.0005216017519598698
0.81,-0.13794659605325982,0.004332190905198955,-0.514884663333593,0.3987004344545024,-0.026284628862227027,-0.00019908645861982342,0.15630916001730796,-0.12030214435791986,1.2894049429358305,0.3998724929930081,-0.01795957743004838,-5.288787275710285e-05,0.4596118357775721,2.2497202841181623,-1.1205659184298247,-0.465579832666732,0.016254307883492414,-0.0026144010629131492,0.059863028792077666,5.022036880849429,-3.665386224749957,-1.0194303332477317,0.0004957693793513659,-0.0005259487682478218
0.8200000000000001,-0.13633791177839394,0.0033528699263973066,-0.5021022655884374,0.4026546123787104,-0.02646314215616887,-0.00019965506490743996,0.16086842748658842,-0.09793209788016485,1.2782397745155507,0.39541779242080694,-0.017851329394184358,-5.6860628761655806e-05,0.4335414971233517,1.9306684997024335,-1.122827553096491,-0.44443190624129425,0.017057468417586652,-0.0027247245750491034,0.05651883973627029,4.9346967834667845,-3.7027493800245663,-1.0197051824289072,0.0003848344067211677,-0.0005301483661906073
0.8300000000000001,-0.13468622363622312,0.0025655143364831934,-0.48943172445499006,0.4065662068475116,-0.026640511328152008,-0.00020026468629425845,0.16516881421708282,-0.07873555899141133,1.2670541133447328,0.3911594468801164,-0.017736917198313454,-6.096213868184955e-05,0.40856574654734273,1.6226656982695866,-1.1248742870529982,-0.4239003123517291,0.017769756146695875,-0.0028290636521153684,0.05341613914438464,4.851959112080116,-3.7385567779510036,-1.0197589305963202,0.0002600631902905108,-0.0005341248138665679
0.84,-0.1329940115263134,0.0019394929288807667,-0.47687322007002797,0.41043712043383707,-0.02681668207754429,-0.00020091651835785768,0.16922121099097162,-0.06260214076024267,1.255850438496211,0.3870913586325453,-0.01761707493922819,-6.518320635992257e-05,0.38466662543722957,1.3521690443787715,-1.1266531435464873,-0.40400480697047403,0.01838822847227313,-0.002926218118902882,0.05054781379435857,4.777963549495768,-3.772811431357337,-1.0197450176073561,0.0001264630574263361,-0.0005379640023492858
0.85,-0.13126364821764286,0.0014479071769503099,-0.46442689922336367,0.4142691783987443,-0.026991607020941086,-0.00020161171135217994,0.17303633086705525,-0.049158575193045694,1.244632084666428,0.38320579649071884,-0.017492494339679747,-6.951929943222653e-05,0.3618284530087327,1.1030082559472298,-1.1281034371812375,-0.38491938376335577,0.018917877399630342,-0.0030164490002695526,0.04789750634318927,4.709756418032071,-3.805640154641756,-1.0195886294194754,-1.73831732605996e-05,-0.0005416200977418821
0.86,-0.12949740093691756,0.0010659838116725009,-0.452092872913413,0.4180641239945336,-0.02716524561865891,-0.0002023513384397248,0.1766247280725299,-0.03819233652778089,1.2334026309950663,0.3794945595789317,-0.017363859771782182,-7.396270875448465e-05,0.34002999352165875,0.8955848665202872,-1.129179198235724,-0.3666852547115611,0.019360057989687568,-0.0030991333483570555,0.04545528366340055,4.650319912016265,-3.8371396970572103,-1.019411627498303,-0.0001674368378276345,-0.000545169372545131
0.87,-0.12769743347958962,0.0007731012705582225,-0.4398712100620084,0.42182360476880876,-0.027337563566203822,-0.00020313643705852698,0.17999674573279398,-0.02928825411142784,1.2221662851404576,0.37594807742751984,-0.01723179475449133,-7.850986188021954e-05,0.31924951828919745,0.7123165379997083,-1.1298252127613417,-0.34944060890155004,0.019722159228481778,-0.0031747982153237098,0.04320375286674632,4.59654489259866,-3.867402039233264,-1.0191234199988644,-0.00032514465790470584,-0.000548560290729186
0.88,-0.125865808400994,0.0005510420813746675,-0.4277619354564548,0.4255491713871186,-0.0275085325742921,-0.00020396797601574494,0.1831625078595618,-0.022205918918355504,1.2109274605553595,0.3725566618309873,-0.017096900808827566,-8.31538957217959e-05,0.29946297964078983,0.5607908636646285,-1.1300147124550348,-0.33319584681509484,0.02000745312721959,-0.003243092253990665,0.04113117543217666,4.5493601142102005,-3.8965313638457038,-1.0187734147655314,-0.0004884083752141675,-0.0005518284174675113
0.89,-0.12400448941736363,0.0003847459701593083,-0.4157650269571219,0.4292422736451488,-0.027678129905869354,-0.00020484687056127886,0.1861318983630384,-0.016629611121535923,1.1996908499332875,0.36931022580301787,-0.01695973315772548,-8.788945455339202e-05,0.28064511431560407,0.4400287716380556,-1.1297204727580967,-0.3179897554663058,0.0202219442339171,-0.0033043697892077006,0.03922412787516483,4.5083383933306855,-3.9246253328273766,-1.018360599844349,-0.0006563610367540922,-0.0005549811177424013
0.9,-0.12211534393417856,0.00026221181936456723,-0.4038804138117233,0.43290425874838534,-0.02784633790127326,-0.00020577398661875726,0.1889145483185077,-0.012253415079474108,1.1884613145398626,0.36619851032365575,-0.0168207995403905,-9.271160574783873e-05,0.26277012873378114,0.33610532537305216,-1.128929799694389,-0.3038392195895985,0.02037182447421433,-0.003358970330470723,0.03746820983375282,4.471150629274859,-3.951698200981368,-1.0178084760658994,-0.0008298774169572273,-0.0005579748778627211
0.91,-0.12020014563632764,0.00017311388500426412,-0.392107977271004,0.4365363773363949,-0.02801314377534333,-0.00020675011286961243,0.19151982978509172,-0.008909793436030312,1.1772436540719273,0.363211858800955,-0.016680587407007,-9.761262508551769e-05,0.2458104751925324,0.26718476451091816,-1.1276386100862235,-0.2906806068359282,0.020460309058997372,-0.003406772492915988,0.035855062113214126,4.440309928878486,-3.9779339135503236,-1.017226440458572,-0.001005764592075202,-0.0005608911574972134
0.92,-0.1182605772268269,0.00011060516154422236,-0.3804475491360318,0.44013978122292463,-0.02817853894247242,-0.00020777600586939266,0.19395684095007454,-0.006250872346004176,1.1660428134972216,0.3603403886529737,-0.01653951671290911,-0.00010258929997802239,0.22974018538117147,0.1825903522917875,-1.1258586997392979,-0.2785419033868064,0.0204957524571832,-0.0034487707721904265,0.034366639766341016,4.408218243120464,-4.003031933499667,-1.0163208301807205,-0.0011894390047890765,-0.0005635345623808412
0.93,-0.11629823305998147,6.628426613136642e-05,-0.3688989167327764,0.4437155438573856,-0.02834251945249866,-0.00020885227886501242,0.19623441668454317,-0.004432089541285595,1.1548632403255379,0.35757626344609583,-0.016398051002624214,-0.00010762729956197504,0.21453010953344118,0.1622389867674619,-1.1236022679171829,-0.26721171397401466,0.02047431005373622,-0.00348357976926994,0.03300645197732532,4.386367966004348,-4.027680205971699,-1.015568037911582,-0.0013705857312451566,-0.000566241149925532
0.9400000000000001,-0.11431462199067816,3.813074047014705e-05,-0.3574618191867655,0.44726464451727516,-0.028505084521199514,-0.00020997958624456817,0.19836110693033143,-0.0028153525661219377,1.1437097546010904,0.35491006598895336,-0.016256506870085417,-0.00011273073795557592,0.200153322108288,0.09161940276767078,-1.1208671579726395,-0.25684781631005027,0.020412915935429418,-0.0035142303052626694,0.03174713721650027,4.358180233782947,-4.050919471675617,-1.0142896339411385,-0.0015617702921975323,-0.0005685432289352121
0.9500000000000001,-0.11231117014730384,1.9134455163777904e-05,-0.3461359535938109,0.4507880024189355,-0.028666237694571703,-0.00021115837581928073,0.20034518433743126,-0.0018996285306369142,1.1325865592954643,0.35233579016603694,-0.016115317337218917,-0.00011787895747125588,0.18658208872530213,0.07292810603593981,-1.1177007714958587,-0.24711941572432083,0.020299644077074852,-0.0035374256923978303,0.030599223183497636,4.338178078602015,-4.073740386316281,-1.01310461607155,-0.0017508443686890232,-0.0005708759297778687
0.96,-0.11028922362234468,7.4421585794904315e-06,-0.33492097440083,0.4542864638561685,-0.0288259855215197,-0.0002123891073407627,0.2021946524959156,-0.0011692296584287472,1.121497919298086,0.3498461437232956,-0.015974782694799648,-0.00012307315214819548,0.13713363731119443,6.55017384066542,-1.4814679876343644,-0.3090817480279897,0.028005348955617043,-0.003542208732803531,0.02598871910191048,5.21736340104526,-4.224624438395308,-1.0619345051479288,-0.0012695862653691412,-0.0006060368131143502
0.97,-0.10825368197043184,0.0006460396776469982,-0.3238528179316279,0.457751263807867,-0.02898364195790649,-0.00021368500515152374,0.203554165191285,0.06385975190675078,1.1068156469202113,0.34647999516985434,-0.01576564363867908,-0.00012958978107610434,0.161315761340617,-2.172156954666443,-1.094699796382916,-0.24850452212526064,0.019132472557149116,-0.003821362936682754,0.02769909216895372,3.995634364858999,-4.088676979333952,-0.9948562730076408,-0.002328754419703684,-0.0005658719775568711
0.98,-0.10620215281334935,0.0010691151078763184,-0.31289329637763935,0.46119187557396724,-0.029140017667845672,-0.00021503226273262717,0.20515291570824828,0.04230754302293202,1.0959521553988574,0.3440611766100208,-0.015637570993918153,-0.00013472575811034255,0.1501784951345368,-1.7461983219950399,-1.0939663113430746,-0.2299631222961458,0.018775673297310086,-0.003635132801478258,0.027114125430029327,4.041682192685666,-4.11393275901093,-0.9963558931768273,-0.002495405204922466,-0.000569316271967977
0.99,-0.10413574038059178,0.0013189633045821944,-0.3020422515350999,0.46460969920024836,-0.029295129639013328,-0.00021642930117196445,0.20664124327575742,0.024984819670587584,1.0851044842539483,0.34178236262811224,-0.015511197116765664,-0.00013970384393372946,0.13972971940981913,-1.3855430531208262,-1.0919316695525905,-0.21591850834981852,0.01846802956450952,-0.0035888184454584693,0.0265451074412141,4.078174411796124,-4.137792257974878,-0.99713389399921,-0.0026661991510265803,-0.0005723723693858284
