tonegas/nnodely-applications/joint_friction_estimation/dataset/train/mpc_mujoco_episode_27 copy.csv
time,q1,q2,q3,q4,q5,q6,dq1,dq2,dq3,dq4,dq5,dq6,ddq1,ddq2,ddq3,ddq4,ddq5,ddq6,tau1,tau2,tau3,tau4,tau5,tau6
0.0,0.0,1.57,-1.57,0.0,0.0,0.0,0.0,0.0,0.0,0.0,0.0,0.0,-1.0916746326389015,4.9013733078010215,11.871583444755222,4.56704458240462,-0.15624964784783568,-4.029947464179173e-06,-0.15193665552871102,0.17147627357131423,-1.8497154770928037,-0.37586730423822556,-0.013607797516678035,-0.00029829887685084097
0.01,-0.00010858562125936296,1.5704927153673858,-1.56881701202229,0.0004273497121322329,-1.328355742673768e-05,9.901628881413271e-08,-0.010858562125936295,0.04927153673857045,0.11829879777101455,0.04273497121322329,-0.001328355742673768,9.901628881413271e-06,-1.0884757640981149,4.858933797433513,11.77084007541561,4.249308267607638,-0.13218092184127705,0.0009985875413778267,-0.15283148580673608,0.11009009643328849,-1.8735003980694875,-0.38084170604415,-0.013669055223310607,-0.00030097190091268996
0.02,-0.00032535786267830853,1.5714740499259838,-1.566462831849469,0.0012567250250677285,-3.8376126182347204e-05,3.07055937318293e-07,-0.021677224141894557,0.09813345585980188,0.2354180172820835,0.08293753129354954,-0.0025092568755609524,2.0803964850416025e-05,-1.084214399644705,4.81205644537966,11.64596647789068,3.9923096342514484,-0.11718387213419579,0.0011290778250332423,-0.15448125584090122,0.024512636920778874,-1.9014989562902609,-0.38614477659020485,-0.013774631999266486,-0.00030323554477342484
0.03,-0.0006498459340823039,1.572939404930205,-1.562951196943929,0.0024673650652779263,-7.43460375540312e-05,6.196216930326709e-07,-0.032448807140399535,0.1465355004221263,0.3511634905540099,0.12106400402101976,-0.0035969911371683994,3.1256575571437794e-05,-1.0791507514029315,4.76005489959591,11.50149282551478,3.7805550272367157,-0.10749659896121155,0.001139641940921532,-0.15683999966469098,-0.08457177732725185,-1.9336088169843455,-0.3917542561510766,-0.013920346050306854,-0.00030504750798492276
0.04,-0.0010815198529233554,1.5748836238342425,-1.5582974464633166,0.004041895976888847,-0.00012057693728386493,1.0305713264889105e-06,-0.04316739188410514,0.19442189040374935,0.4653750480612246,0.15745309116109205,-0.004623089972983374,4.109496334562396e-05,-1.0734066346430227,4.702406715845383,11.340814144623964,3.6022595310639787,-0.10085150894365569,0.0011586231958163884,-0.15984965072243307,-0.21639311486238721,-1.9696828806300748,-0.39763400266957505,-0.014100818228594842,-0.00030635175305949124
0.05,-0.0016197944787523478,1.5773009503589728,-1.5525182681534453,0.00596543638486157,-0.000176630873142419,1.5346474979500867e-06,-0.053827462582899235,0.2417326524730367,0.5779178309871241,0.1923540407972723,-0.005605393585855407,5.040761714611764e-05,-1.0670180379453333,4.638725290832707,11.166455112794157,3.448470915263492,-0.09589232502893896,0.0012091726070146969,-0.16344003526968598,-0.3700902961257775,-2.0095291934606094,-0.40373448683571,-0.014309574756037582,-0.0003070781650667124
0.06,-0.0022640281899616406,1.580184997787878,-1.5456315118463062,0.008224917870385078,-0.00024216648020069598,2.1280224724720104e-06,-0.06442337112092926,0.28840474289052365,0.6886756307139156,0.22594814855235085,-0.006553560705827697,5.933749745219236e-05,-1.0599678163346486,4.5687390978000915,10.980274907104112,3.312399090629576,-0.0918170398332725,0.001293572376640184,-0.16752873382674122,-0.5447062596544399,-2.052911311235555,-0.40999339201692653,-0.014539149182460962,-0.0003071438449152318
0.07,-0.0030135182128950017,1.583528727974821,-1.5376560538529758,0.010808569466074527,-0.0003168906445225384,2.8083362459556005e-06,-0.07494900229333609,0.33437301869430963,0.7975457993330334,0.25836515956894474,-0.007472416432184241,6.803137734835902e-05,-1.0522062689112013,4.492276235935256,10.78362595575138,3.18890345417595,-0.08816058996124543,0.0014085770084221183,-0.17202093685951558,-0.7391836129794331,-2.099549074535578,-0.41633632765299533,-0.014781189243723401,-0.00030645532743109934
0.08,-0.0038674938900717824,1.5873244389435481,-1.528611700046006,0.013705527226324548,-0.0004005305169149012,3.5745610103094765e-06,-0.08539756771767808,0.37957109687273,0.904435380696977,0.2896957760250022,-0.00836398723923628,7.662247643538761e-05,-1.043664366920277,4.409252812891145,10.577477238032154,3.074101472278798,-0.08466265656017491,0.0015491160968936768,-0.17680941070034822,-0.9523610963397644,-2.149119785509995,-0.42267766267805595,-0.01502657283753748,-0.00030491134000662317
0.09,-0.004825108738657908,1.5915637602405208,-1.5185191181186384,0.01690553917186261,-0.0004928178992852181,4.426800863322638e-06,-0.09576148485861255,0.4239321296972643,1.0092581927367563,0.32000119455380627,-0.009228738237031686,8.52239853013162e-05,-1.0342625354890178,4.31966405534967,10.36251038484314,2.9650702311562753,-0.08118711261416589,0.0017096476289106821,-0.18177468187467757,-1.1829710952561103,-2.2012597824626416,-0.428921480568353,-0.015265536148064165,-0.00030240588465491123
0.1,-0.005885431888884955,1.5962376553984423,-1.5073997915714652,0.020398742989574743,-0.000593481146016506,5.366074617385688e-06,-0.1060323150227047,0.4673895157921456,1.1119326547173205,0.3493203817712132,-0.010066324673128796,9.392737540630497e-05,-1.023916738270623,4.223577298954053,10.139194721686396,2.859619168253495,-0.07767277349626944,0.0018848266942770309,-0.1867855389109893,-1.4296384842098622,-2.255566448954301,-0.43496266316197885,-0.015487815859163812,-0.0002988315145776597
0.11,-0.007047439334456712,1.6013364309971256,-1.495275989577229,0.024175499285297993,-0.0007022416118301298,6.39410529073941e-06,-0.11620074455717572,0.5098775598683432,1.2123801994236207,0.3776756295723249,-0.010876046581362375,0.00010280306733537221,-1.0125429095208054,4.121126244506573,9.907846236362868,2.7561172315351783,-0.07410313339844787,0.002069874278674666,-0.19169993966741813,-1.690881001518422,-2.311600646163684,-0.4406880955455772,-0.015682806434201484,-0.0002940827095248345
0.12,-0.008310005330297571,1.6068497518903686,-1.4821707480938022,0.02822626732623535,-0.0008188128223500932,7.513127844438753e-06,-0.12625659958408583,0.5513320893242908,1.3105241483426726,0.4050768040937357,-0.011657121051996342,0.00011190225536993435,-1.00006034131359,4.012505995671844,9.668674005490118,2.653361596636735,-0.07048764374861793,0.0022607774791261193,-0.19636639608276749,-1.9651113983775659,-2.3688896030161235,-0.4459779934586269,-0.015839732402059794,-0.0002880592757700119
0.13,-0.00967189421057401,1.6127666622115697,-1.468107858551195,0.03254151336618244,-0.0009429012388266734,8.725720300362884e-06,-0.1361888880276439,0.591691032120103,1.406288954260714,0.43152460399470915,-0.012408841647658011,0.00012125924559241317,-0.9863943735489564,3.897968532166617,9.421816910355762,2.5504780701077934,-0.06685004059366939,0.0024543830842738146,-0.20062588829374378,-2.250641530872929,-2.426930264728625,-0.450707344795912,-0.015947834617918835,-0.000280669697031698
0.14,-0.011131752856107568,1.6190756117883685,-1.4531118611808465,0.037111644051102,-0.001074207912579656,1.003465987858919e-05,-0.14598586455335588,0.6308949576798792,1.4995997370348613,0.4570130684919559,-0.013130667375298251,0.00013089395782263065,-0.9714785772076038,3.777818361672392,9.16737274120441,2.446845614721184,-0.06322100949873466,0.0026484193780056398,-0.20431433494350582,-2.545688532626738,-2.4851931005428685,-0.45474745569852726,-0.015996568464524102,-0.0002718343624966399
0.15,-0.012688104005672413,1.6257644875945896,-1.4372080406413845,0.041926959230562576,-0.0012124305852994482,1.144280389501676e-05,-0.15563511495648444,0.6688875806221156,1.590382053946184,0.4815315179460577,-0.01382226727197924,0.00014081440164275693,-0.9552565303399908,3.652408169476637,8.905421281188346,2.3420392061315596,-0.059633549535154984,0.0028414680923007918,-0.20726561721587952,-2.8483831526613703,-2.5431263594278493,-0.45796758797052295,-0.015975810994733546,-0.0002614885953997183
0.16,-0.014339340574952012,1.6328206498523534,-1.4204224220629182,0.04697761988747369,-0.0013572659531978209,1.2952994143946454e-05,-0.16512365692796002,0.705616225776391,1.6785618578466173,0.5050660656911112,-0.01448353678983726,0.0001510190248929694,-0.9376832354134025,3.522134344614694,8.636042570052584,2.235786591316014,-0.05612004242715507,0.0030329016925725316,-0.2093151214949462,-3.1567802855099485,-2.600160750360634,-0.46023667103177557,-0.0158760731146986,-0.0002495854039864876
0.17,-0.016083721117339196,1.6402309723732529,-1.4027817660113129,0.0522536279481541,-0.0015084119150452283,1.4567982962803155e-05,-0.1744380542387185,0.7410322520899499,1.7640656051605301,0.5276008060680413,-0.015114596184740734,0.00016149888188567014,-0.9187262002822597,3.387432309235804,8.359331252020882,2.1279355629895136,-0.05271041908138141,0.003222797394175525,-0.21030373101647973,-3.46887165863099,-2.655714510990277,-0.4614250681976842,-0.015688712113770435,-0.00023609787733173807
0.18,-0.017919366531062828,1.6479818866989415,-1.384313561187028,0.05774481552659049,-0.0016655696896836804,1.6290378923666134e-05,-0.1835645413723632,0.7750914325688617,1.8468204824284848,0.549118757843639,-0.015715777463845212,0.00017223959608629786,-0.89836619338626,3.2487716165501346,8.075407691115501,2.0184291639930905,-0.04943104671107168,0.0034118369373865587,-0.21008216228103177,-3.7826005775048657,-2.7091988155694455,-0.46140637389698885,-0.015406139207366464,-0.00022102115216339574
0.19,-0.019844258086995983,1.6560594295715616,-1.3650460139364369,0.06344084175171348,-0.0018284457316057093,1.812261000329041e-05,-0.1924891555933155,0.8077542872620062,1.926754725059113,0.5696026225122992,-0.016287604192202883,0.00018322310796242764,-0.8765976806914195,3.106650813792167,7.78442637248187,1.907286848312225,-0.04630409799056867,0.0036011993760999284,-0.2085155094732342,-4.095878563568114,-2.7600234606886582,-0.4600592156863772,-0.015022016315145395,-0.00020437388392983567
0.2,-0.021856236821158434,1.6644492932357802,-1.3450080338792403,0.0693311957713186,-0.001996753401977212,2.006690208661518e-05,-0.2011978734162452,0.8389863664218503,2.003798005719656,0.5890354019605123,-0.016830767037150262,0.000194429208332477,-0.8534289535514074,2.961592091456776,7.486581986243576,1.7945900946949287,-0.043347246751523905,0.003792452634038268,-0.20548783197053133,-4.406603656644071,-2.8076027562058963,-0.4572690327686183,-0.014531436084888757,-0.00018619916591991803
0.21,-0.02395300430586442,1.6731368780489078,-1.3242292151525197,0.07540520485666179,-0.0021702143720543857,2.2125270722727445e-05,-0.20967674847059872,0.8687584813127602,2.077881872672053,0.6074009085343183,-0.017346097007717363,0.0002058368636112264,-0.82888196071367,2.814135759569744,7.1821134993637346,1.6804713283448756,-0.040573585224192854,0.003987448192182885,-0.20090659850330744,-4.712680094160953,-2.8513615395109735,-0.4529298013501932,-0.013931079218542709,-0.00016656485411601903
0.22,-0.026132124784301245,1.682107346855317,-1.3027398129466945,0.0816520467751728,-0.0023485597493283494,2.4299524155005636e-05,-0.2179120478436825,0.8970468806409204,2.1489402205825106,0.6246841918511022,-0.01783453772739636,0.00021742534322781925,-0.8029918626804183,2.6648346066681707,6.871306450020973,1.5651052817128566,-0.0379916891782508,0.004188221981659135,-0.19470678871422867,-5.012039026734175,-2.8907412247360718,-0.4469456767952137,-0.013219343474600688,-0.0001455632722398838
0.23,-0.02839102862569478,1.69134568056742,-1.2805707151662857,0.08806076577615701,-0.002531530925790471,2.6591275773909246e-05,-0.2258903841393533,0.9238333712103141,2.216909778040873,0.640871900098421,-0.01829711764621215,0.00022917516189036095,-0.7758063316668765,2.514248207884334,6.554493649094466,1.4487021362946813,-0.035605777470276045,0.004396903374805361,-0.18685445041324883,-5.3026598846978406,-2.92520579410032,-0.43923252297977544,-0.012396439309507897,-0.0001233102903600005
0.24,-0.030727017032724988,1.7008367343887194,-1.2577534091924274,0.09462029166189845,-0.0027188801536329904,2.900196428027253e-05,-0.23359884070302078,0.949105382129936,2.2817305973858426,0.6559525885741437,-0.018734922784251935,0.0002410688506363282,-0.7473846250412332,2.362937255888248,6.23205441074521,1.3315019494702085,-0.033415926095974324,0.00461563312634683,-0.1773495198192607,-5.582591978237351,-2.954247640505434,-0.4297193015620921,-0.011464447965598198,-9.994379118506721e-05
0.25,-0.03313726791003154,1.7105652941154943,-1.2343199438595436,0.10131946150647993,-0.0029103708572726164,3.153287998984428e-05,-0.24102508773065512,0.9728559726774868,2.3433465332883747,0.6699169844581477,-0.0191490703639626,0.0002530915709571749,-0.7177964639925885,2.211457991992934,5.90441240564537,1.2137699929464283,-0.03141830654720801,0.00484649023948025,-0.16622773283992548,-5.849975889630704,-2.977393172025902,-0.4183492963409975,-0.01042733888243948,-7.562155892201506e-05
0.26,-0.03561884278293249,1.7205161319628,-1.2103028868874903,0.10814704364627578,-0.003105777692365344,3.418519584826898e-05,-0.2481574872900947,0.9950837847305557,2.4017056972053155,0.6827582139795855,-0.019540683509272738,0.0002652315858424698,-0.6871207523321285,2.060356816037525,5.572032148290795,1.0957927243306962,-0.029605425612543534,0.005091427025583295,-0.153561487517843,-6.103064211104922,-2.9942081017634443,-0.40508115334406614,-0.009290944562130515,-5.051864688049651e-05
0.27,-0.03816869463922008,1.730674061377648,-1.1857352781401174,0.11509176360638357,-0.003304886362885377,3.696000185330352e-05,-0.2549851856287595,1.0157929414848028,2.456760874737288,0.6944719960107787,-0.019910867052003286,0.00027748060050345445,-0.6554438064563464,1.9101635269554176,5.235535556201433,0.9778720311479638,-0.02796634864456804,0.005352211076112057,-0.1394594904539833,-6.340228705870277,-3.004285578025398,-0.3898855401436615,-0.00806288618110134,-2.482207704859968e-05
0.28,-0.0407836765178997,1.7410239902211435,-1.1606505673807985,0.12214233217775895,-0.0035074932058576504,3.985834116205607e-05,-0.26149818786796153,1.0349928843495593,2.5084710759318742,0.7050568571375385,-0.02026068429722731,0.000289833930875255,-0.6228589636852387,1.761392072373149,4.895297771005064,0.8603356680742795,-0.02648689418048278,0.005630370916219096,-0.12406544389437606,-6.560021401834298,-3.007305253310903,-0.3727593152177559,-0.006752479077715481,1.2654709821476056e-06
0.29,-0.04346055080568371,1.7515509722044023,-1.1350825758840817,0.12928747414293423,-0.003713404554885418,4.288124889168469e-05,-0.26768742877840096,1.0526981983258743,2.556799149671689,0.7145141965175268,-0.020591134902776774,0.00030229077296286253,-0.5894636749198185,1.6145285525385678,4.551966413062198,0.743507721035801,-0.02514980388211452,0.005927159565733642,-0.10755519966411528,-6.761132536988656,-3.0029653385272033,-0.3537081782237615,-0.005370564928148926,2.7538630139521705e-05
0.3,-0.04619599895125427,1.7622402556384271,-1.1090654314477382,0.13651595831119778,-0.003922435887365716,4.60297894804757e-05,-0.2735448145570565,1.068928343402485,2.6017144436343527,0.7228484168263535,-0.020903133248029778,0.00031485405887910075,-0.5553587016756867,1.4700319307825878,4.206144037599638,0.6277272754020871,-0.023934851496181242,0.00624348306565492,-0.09013303705672715,-6.942439833238913,-2.9910278270068105,-0.3327571454462145,-0.003929333549461143,5.3787847452281816e-05
0.31,-0.048986631516708616,1.7730773294123567,-1.0826335076648812,0.1438166285005661,-0.004134410760897229,4.930509355033919e-05,-0.2790632565454342,1.0837073773929682,2.643192378285698,0.7300670189368318,-0.02119748735315127,0.0003275304069863493,-0.5206464105725346,1.3283294285299272,3.8584539130269957,0.5133392097792484,-0.022818925187257033,0.006579869580383202,-0.07202683782566807,-7.103011435612579,-2.9713110703851866,-0.3099480024185771,-0.002442103232914274,7.980455207135254e-05
0.32,-0.051828998395526654,1.7840479657785264,-1.0558213611023488,0.15117843511801257,-0.004349159541071284,5.270839294919026e-05,-0.28423668788180345,1.0970636366169793,2.6812146562532395,0.736180661744647,-0.02147487801740552,0.00034032993988510665,-0.48542928733364493,1.1898135802543708,3.5095345812136247,0.40069149220346745,-0.02177606559695544,0.006936415515654326,-0.05348243096882372,-7.24211426797741,-2.94369116921575,-0.28533885395481584,-0.0009230772504341738,0.000105385049555887
0.33,-0.05471959904816505,1.795138259651807,-1.0286636669376377,0.15859046709009111,-0.0045665179204929,5.6241052930737e-05,-0.28906006526383926,1.1090293873280712,2.7157694164711224,0.7412031972078534,-0.021735837942161565,0.0003532659981546745,-0.4498085391726139,1.0548398603484899,3.160034456384344,0.29013253463335253,-0.020777468488164086,0.007312730533459211,-0.034757301714540875,-7.3592194085328675,-2.9081025943859653,-0.2590034353216257,0.0006129183914611895,0.00013033424484836306
0.34,-0.057654892615137385,1.8063346641880984,-1.001195153602517,0.16604198390055255,-0.004786325226704417,5.9904600432620345e-05,-0.29352935669723357,1.1196404536291447,2.746851333512069,0.7451516810461447,-0.021980730621151676,0.00036635475018833446,-0.41388281553717193,0.9237249039851986,2.8106066299887678,0.18200860175740274,-0.019791459470607897,0.007707877580428846,-0.016113902890809745,-7.454004401911584,-2.864538035377203,-0.2310301986093587,0.0021507087663181533,0.00015446909563325025
0.35000000000000003,-0.06063130777923795,1.8176240224665086,-0.9734505369608243,0.17352244749663165,-0.005008422514934695,6.370074735192079e-05,-0.2976415164100565,1.1289358278410202,2.7744616641692685,0.7480463596079093,-0.022209728823027818,0.0003796146919300448,-0.37774707537082663,0.7967453363275784,2.461903880294882,0.07666127877129547,-0.01878345147345284,0.00812030653630369,0.0021871754481964656,-7.52635251452516,-2.8130475088858518,-0.2015211982515808,0.003675048000333439,0.00017762170733478285
0.36,-0.06364525226322783,1.8289935951607987,-0.9454644545272481,0.18102155383109103,-0.0052326504404914135,6.763140762515954e-05,-0.30139444839898855,1.136957269429011,2.798608243357619,0.7499106334459393,-0.02242279255567189,0.00039306602732387463,-0.34149162731483695,0.6741372158405653,2.1145737189836806,-0.025575000324574937,-0.01771589908848825,0.008547780920464376,0.019893918067869082,-7.576349019654456,-2.7537367976923686,-0.17059080889515424,0.005170894045257215,0.00019964199336621857
0.37,-0.06669312186665546,1.8404310841472005,-0.9172714002294645,0.1885292638117155,-0.005458846905403012,7.169870680663194e-05,-0.30478696034276326,1.1437488986401692,2.8193054297783644,0.7507709980624477,-0.022619646491159863,0.00040672991814723976,-0.3052013674620502,0.5560960876993696,1.7692531858442444,-0.12437537460000758,-0.01654826778711782,0.008987297800477495,0.03676922747200305,-7.604274663882617,-2.686765318477147,-0.138364315873048,0.006623673212249044,0.00022039983930646133
0.38,-0.0697713089653513,1.851924652056723,-0.8889056602397873,0.196035833432212,-0.005686844474890095,7.590498270984336e-05,-0.30781870986958365,1.1493567909522548,2.836573998967722,0.7506569620496516,-0.02279975694870835,0.0004206275903211416,-0.2689552358753907,0.4427776298445045,1.4265634869846713,-0.2194269634874404,-0.015237040396060886,0.009435001879886329,0.05259666894525977,-7.610596491712626,-2.612343474689079,-0.10497640769619118,0.008019528010087495,0.0002397867346261401
0.39,-0.07287621041918309,1.8634629378393912,-0.8604012504171084,0.20353184285851228,-0.005916467561733477,8.025277553770841e-05,-0.31049014538317826,1.1538285782668276,2.850440982267895,0.749600942630026,-0.022962308684338264,0.0004347792827865047,-0.23282590859870245,0.3342988631927795,1.087105211791902,-0.3104312999278256,-0.013735788075920685,0.009886095762536407,0.06718542223633177,-7.5959562291085145,-2.530729469710207,-0.07056957923357658,0.009345542655429428,0.0002577168655648738
0.4,-0.07600423485744061,1.8750350684645953,-0.8317918558426892,0.21100822424503213,-0.006147529380976944,8.474480578775218e-05,-0.31280244382575173,1.1572130625204158,2.860939457441909,0.7476381386519841,-0.023106181924346637,0.0004492030250043776,-0.19687973860469565,0.23073989521680383,0.7514549859110924,-0.3971067960140673,-0.011995338282633883,0.010334749738673016,0.08037428636311625,-7.561156497498663,-2.44222554248893,-0.035292449476388404,0.010589941622568648,0.0002741276837586568
0.41000000000000003,-0.07915180933641253,1.886630666935602,-0.8031107727920136,0.21845628805942577,-0.0063798286840708535,8.938393809757901e-05,-0.31475744789719234,1.1595598471006856,2.868108305067564,0.7448063814393647,-0.023229930309390974,0.000463913230982682,-0.16117695817292543,0.13214616914016047,0.4201636753195829,-0.47919120424344974,-0.00996407764924001,0.010774016071428555,0.09203463147161192,-7.50714523238875,-2.3471736914585524,0.0007019788492353962,0.011742257682608354,0.0002889799700666729
0.42,-0.08231538539022575,1.898239856847228,-0.774390853331741,0.2258677477011612,-0.006613146290985919,9.417312911924589e-05,-0.3163576053813223,1.160918991162603,2.871991946027265,0.7411459641735414,-0.023331760691506557,0.00047891910216668767,-0.12577215409487374,0.03853118820538414,0.09375543924609676,-0.5564440395336636,-0.007588433113223991,0.0111957547355316,0.10207224137398152,-7.434998737478763,-2.2459510660054516,0.03725806475185535,0.012793466980964441,0.00030225741389401124
0.43,-0.0854914445237215,1.9098532637631505,-0.7456644526459736,0.23323474220464388,-0.006847241451481748,9.91153575085352e-05,-0.3176059133495745,1.1613406915922302,2.8726400685767333,0.7366994503482694,-0.023409516049582944,0.0004942228389289313,-0.0907150227468444,-0.050120327468832916,-0.22727308560114826,-0.628648978469943,-0.004813579338100393,0.011590579649535946,0.11042803952617963,-7.345903782908947,-2.138965207238124,0.0742192274902174,0.013736089792219968,0.00031396573952635273
0.44,-0.08867650322458938,1.921462013732211,-0.716963379181537,0.24054985681781288,-0.007081848083041061,0.0001042135342162118,-0.3185058700867882,1.1608749969060383,2.8701073464436613,0.7315114613168986,-0.023460663155931306,0.0005098176707676586,-0.05605140432813973,-0.13384890710024297,-0.5424536012539872,-0.6956162975043616,-0.0015844235360691905,0.011947836661150742,0.1170777374043768,-7.241139105406678,-2.0266492373666227,0.11142956780955353,0.014564256651748396,0.0003241314295241096
0.45,-0.09186711760036634,1.9330577293002624,-0.6883188477007597,0.24780614124163577,-0.00731667095330188,0.00010947039150865364,-0.3190614375776964,1.1595715568051597,2.8644531480777298,0.7256284423822899,-0.02348228702608189,0.0005256857292441848,-0.02182458602619979,-0.21271648214247812,-0.851346677991301,-0.7571854120852146,0.002153081104846105,0.012255626739751835,0.12203048536032268,-7.122056641457009,-1.9094570343969284,0.14873539868540314,0.015273740552903812,0.0003328001084795534
0.46,-0.09505988777322956,1.9446325234049129,-0.6597614353012763,0.2549971253067528,-0.0075513818992549685,0.00011488834956838727,-0.31927701728632163,1.1574794104650414,2.8557412399483426,0.7190984065117011,-0.023471094595308852,0.0005417958059733633,0.011923147154590426,-0.2868022940680796,-1.1535417327554787,-0.813227548387212,0.006450246580611153,0.012500889815973137,0.12532664021577378,-6.990062819806691,-1.7878584246701335,0.18598667544187414,0.015861956768031565,0.0003400346537293213
0.47000000000000003,-0.0982514621905954,1.956178991564385,-0.6313210404077158,0.2621168318528912,-0.0077856162038187305,0.00012046936018044842,-0.31915744173658345,1.1546468159472187,2.8440394893560534,0.7119706546138392,-0.023423430456376217,0.0005581010612061142,0.045148748799128495,-0.35619863087696424,-1.448656396457903,-0.863648549272078,0.01135354967412007,0.012669566084791112,0.12703478977394325,-6.8466002296623785,-1.662334445526561,0.223038312326425,0.016327932565818996,0.0003459130971446288
0.48,-0.10143854203091662,1.9676902027879506,-0.6030268446796929,0.26915978656604855,-0.008018969281982756,0.0001262147279458619,-0.3187079840321222,1.1511211223565683,2.8294195728022826,0.7042954713157343,-0.023335307816402584,0.0005745367765413497,0.07780648681032963,-0.4210064743971756,-1.736335346193888,-0.9083917962009407,0.016902102792467177,0.012746851797392128,0.12724819148444064,-6.693129954471978,-1.533372740296081,0.2597513720155798,0.016672249640593533,0.0003505263782684454
0.49,-0.10461788589990112,1.9791596896430848,-0.5749072777276103,0.27612102451894593,-0.008250993862200132,0.00013212491071593003,-0.3179343868984494,1.1469486855134088,2.8119566952082584,0.6961237952897403,-0.023202458021737614,0.000591018277006813,0.10984565242036626,-0.48133134032879676,-2.016365754954584,-0.9474395241975833,0.023124712707797257,0.012717565050614665,0.12608076763070225,-6.531116631423552,-1.4014791179218204,0.2959902461029754,0.016896956115881292,0.0003539740537841155
0.5,-0.10778631504797034,1.9905814378703939,-0.546989995969124,0.2829960927684294,-0.008481197884148077,0.00013819930268372106,-0.3168429148069223,1.1421748227309048,2.7917281758486294,0.6875068249483485,-0.023020402194794436,0.0006074391967791032,0.14120971685236935,-0.5372784839986855,-2.288159656350309,-0.9808283249939551,0.030036525716478468,0.012566626734831221,0.12366289797184335,-6.362003759135013,-1.267103288270389,0.3316404370870986,0.017005484071244022,0.0003563703574223757
0.51,-0.11094071919548665,2.0019498761283474,-0.5193018248690032,0.2897810500337928,-0.008709043353726662,0.00014443600429892847,-0.31544041475163,1.1368438257953712,2.7688171100120758,0.6784957265363402,-0.02278454695785847,0.0006236701615207415,0.1718326198504843,-0.5889492318675636,-2.551615991993837,-1.0086214284942692,0.03763558233109576,0.012279690041254121,0.12013716996450369,-6.187216703073796,-1.1307518965970107,0.36658134665633063,0.017002510218588143,0.0003578279560214756
0.52,-0.11407806333300102,2.0132598660424055,-0.4918687490591342,0.29647246183032516,-0.008933946436512925,0.00015083158861841676,-0.31373441375143685,1.1309989914058236,2.7433075809869023,0.6691411796532353,-0.02249030827862616,0.0006395584319488285,0.20163849206331644,-0.6364375461688433,-2.8064618480344103,-1.030943782532109,0.04589901882733538,0.011843865589857894,0.1156539250937538,-6.008134678966079,-0.9928964902304056,0.40070789111687705,0.016893826513818398,0.00035846592931596314
0.53,-0.11719539552164292,2.024506693042688,-0.4647158858206705,0.3030673911299373,-0.009155279066352265,0.000157380871637427,-0.31173321886419003,1.1246827000282422,2.7152863238463643,0.6594929299612132,-0.022133262983933904,0.0006549283019010239,0.23054012283439812,-0.6798265213354766,-3.0524448530906763,-1.047971412580333,0.05477962610967707,0.01124854597602204,0.11036724142273995,-5.826084578239638,-0.853996325875409,0.43392481446391235,0.016686198126925046,0.0003584045354837107
0.54,-0.12028985583794645,2.0356860582812355,-0.4378674607600259,0.3095633845235573,-0.009372372341218153,0.0001640766991219255,-0.30944603163035334,1.1179365238547878,2.6848425060644603,0.6495993393619993,-0.021709327486588933,0.0006695827484498515,0.25843840971850524,-0.7191857926711623,-3.289332260459082,-1.0599336302899918,0.06420280262290651,0.010486308092730212,0.1044311138344592,-5.6423310362497965,-0.7144956059161613,0.466146964832406,0.016387211323478413,0.00035776304521064565
0.55,-0.12335868650520818,2.0467940718735447,-0.4113467855956383,0.3159584536907402,-0.00958452194613309,0.00017090976382165763,-0.30688306672617266,1.110801359230901,2.65206751643876,0.6395069167182935,-0.021214960491493816,0.0006833064699732133,0.2852226380609319,-0.7545695402236178,-3.516883183823892,-1.067114774870923,0.07406433749344554,0.009553817550470856,0.09799600890835279,-5.4580680971991145,-0.5748173859673331,0.49730031779293543,0.016005117812285745,0.0003566581548933948
0.56,-0.12639924316562112,2.0578272476488246,-0.3851762353346048,0.32225105213748223,-0.009790995780220404,0.00017786846811866904,-0.30405566604129564,1.1033175775280077,2.6170550261033485,0.629259844674202,-0.02064738340873128,0.0006958704297011425,0.31077098603626924,-0.7860173597213066,-3.7352639593136012,-1.0698491152827536,0.08422945795613845,0.008452668709774569,0.0912058475881618,-5.274411275832093,-0.43541775234038577,0.5273084940136668,0.01554865472816276,0.00035519537488775375
0.5700000000000001,-0.12940900721882295,2.06878249927304,-0.35937726564432887,0.3284400459026757,-0.009991043879655244,0.00018493884768860895,-0.30097640532018166,1.0955251624215339,2.579896969027595,0.618899376519352,-0.020004809943483932,0.0007070379569939903,0.33187744963917337,-0.8235831522846648,-5.989233835054328,-1.0478622346958133,0.09462724081817275,0.007190568203143788,0.08413095567362792,-5.079980567960526,-0.5733287884083884,0.4897302468756473,0.014916747825477542,0.0003202753978387313
0.58,-0.13238590010294438,2.079656054333651,-0.3341713206933475,0.33451804429062876,-0.01018395737406437,0.00019210509559644144,-0.2976892884121433,1.0873555060611018,2.5205944950981363,0.6077998387953032,-0.019291349440912663,0.00071662479078325,0.3506660024895899,-0.8617443895956917,-8.244511316341217,-1.1033191337144928,0.10429728870477051,0.005665635069806774,0.0761333996988278,-4.869753938615789,-0.7181818604265463,0.44772395206525384,0.014102466270136615,0.00028295193412976777
0.59,-0.1353280761779277,2.090444201975609,-0.3097803205946401,0.3404713840168242,-0.010369083921417825,0.0001993434344539296,-0.2942176074983315,1.0788147641957995,2.4391000098707374,0.5953339726195426,-0.01851265473534545,0.0007238338857488164,0.3676910378354405,-0.8959912670404817,-9.891127165432648,-1.2276599488388307,0.11294411908014379,0.003863748949917367,0.06751391046236944,-4.65508951238422,-0.7883660753372261,0.42094277131754626,0.013156395146625477,0.0002533774358326163
0.6,-0.13823386838455487,2.1011437271640014,-0.28636664341858387,0.346283239637989,-0.010545833173540133,0.0002066224753592794,-0.2905792206627164,1.069952518839235,2.3413677176056265,0.5811855621164823,-0.0176749252122307,0.0007279040905349774,0.3827111116553767,-0.9247518565418315,-11.042578414189093,-1.3849828912173443,0.12042647671892681,0.0018816800620191643,0.05875392888525535,-4.445512680385242,-0.7987876794806273,0.4064826675520241,0.012127140108255335,0.00023057540733335903
0.61,-0.14110181135707336,2.1117520122929476,-0.2640441171373399,0.3519360610500473,-0.01071369061616128,0.00021390628510646145,-0.2867942972518494,1.0608285128946207,2.2322526281243977,0.5652821412058323,-0.016785744262114672,0.0007283809747182058,0.39555430317895807,-0.9472323732200632,-11.792707641925265,-1.551356785061575,0.12653931123459744,-0.00016390412075772964,0.05020092542600129,-4.2475534966787585,-0.7618794767542024,0.4019429086288615,0.011055064965446618,0.00021367957064006993
0.62,-0.14393065760363968,2.1222670774062795,-0.24288713943187018,0.3574131348221817,-0.010872235118182036,0.00022115715365452526,-0.2828846246566319,1.0515065113331994,2.11569777054697,0.5477073772134338,-0.01585445020207566,0.0007250868548063798,0.40612024909060496,-0.9632243299171752,-12.219319731887001,-1.711350575509492,0.1310854012417455,-0.0021702188756835827,0.04209138055374572,-4.065320720670339,-0.6879940850294729,0.40533031996256774,0.009972891892534986,0.0002019090899333604
0.63,-0.14671938651031893,2.132687574742426,-0.22293826233733052,0.3626995300823297,-0.011021155232192712,0.00022833776015162224,-0.2788728906679263,1.04204973361462,1.9948877094539663,0.5286395260148024,-0.014892011401067629,0.0007180606497096988,0.4143790040530904,-0.9729417762416263,-12.387045982682675,-1.8554921597137586,0.13392143265916062,-0.004054525307738421,0.0345731265733641,-3.9010495622019725,-0.5857299165076487,0.4149855565877221,0.008906402828233259,0.00019455417103153482
0.64,-0.14946720630956573,2.143012750926151,-0.2042145098417395,0.36778261900527315,-0.01116026102795198,0.0002354127917784355,-0.27478197992467984,1.0325176183725122,1.8723752495591024,0.5083088922943455,-0.01391057957592684,0.0007075031626813256,0.4203661574295621,-0.9768860437710021,-12.34962252163007,-1.9784298327588346,0.13498300970570554,-0.005755423061895026,0.02772575636162828,-3.7555853046528043,-0.46220336195941125,0.4295255161034237,0.007875217732433413,0.00019096817429774382
0.65,-0.15217354956191415,2.153242387907203,-0.1867126428693635,0.372652308685252,-0.011289489732027433,0.00024235009280507958,-0.2706343252348414,1.0229636981051753,1.7501866972375997,0.48696896799788436,-0.012922870407545235,0.0006937301026644089,0.4241745488535254,-0.975735675140205,-12.151718174223042,-2.0776178787096526,0.13429247459857785,-0.007232392486623995,0.021578361042755574,-3.6287877521623133,-0.32327789354909053,0.4477976224863882,0.006893612998008124,0.00019056343776686867
0.66,-0.15483806304708495,2.1633767316732326,-0.17041354468989042,0.37730108154878217,-0.011408904688424861,0.00024912141126292653,-0.26645134851707986,1.0134343766029916,1.6299098179473095,0.4648772863530171,-0.01194149563974274,0.0006771318457846963,0.4259435116924784,-0.9702593072849648,-11.830415512285427,-2.1523876884067157,0.13195359743373097,-0.008464037797792923,0.016124305870864955,-3.5198552717343525,-0.17375813784559258,0.46884295957785876,0.005971341628081174,0.0001928089115032162
0.67,-0.15746059319632802,2.173416415846346,-0.15528586781811102,0.38172391241156073,-0.011518688111549494,0.0002557028054974973,-0.2622530149243073,1.0039684173113355,1.5127676871779412,0.4422830862778571,-0.010978342312463323,0.0006581394234570737,0.42584684068843465,-0.9612491925359148,-11.416423636678141,-2.2032982766369393,0.12813736175081467,-0.00944532767394568,0.011333077882592388,-3.427574911195054,-0.017555026631455917,0.4918661037476581,0.00511442139380314,0.000197228397200788
0.68,-0.1600411683027776,2.183362385530709,-0.14128905861096996,0.38591810931025217,-0.011619128750464095,0.00026207477211339286,-0.2580575106449572,0.9945969684363266,1.3996809207141045,0.4194196898691432,-0.010044063891460007,0.0006371966615895569,0.4240806720716657,-0.9494728639955947,-10.93508168104804,-2.2316862936681012,0.12306289901787652,-0.010184232965112061,0.007159447772091621,-3.3505087407117413,0.14217326172712963,0.5162101130556289,0.0043258649170763025,0.00020339869885684631
0.6900000000000001,-0.16257997872935223,2.193215825239934,-0.12837585625345013,0.3898831103343687,-0.011710605929787827,0.00026822215636547594,-0.25388104265746475,0.9853439709225079,1.2913202357519826,0.3965001024116485,-0.009147717932373286,0.00061473842520831,0.4208522619755558,-0.935640290548315,-10.40719709542428,-2.239356480592992,0.11697707008156283,-0.010698189539430913,0.0035503017548207394,-3.2871276811089194,0.302900858651139,0.5413355570799925,0.003606334291884435,0.00021094735118070408
0.7000000000000001,-0.16507735622052477,2.202978093419727,-0.11649434730388682,0.39362025824829533,-0.011793571518064275,0.0002741339033998237,-0.24973774911725316,0.9762268179792931,1.188150894956332,0.3737147913926661,-0.008296558827644816,0.0005911747034347773,0.4163703457588875,-0.9203837996657126,-9.849751582705386,-2.2283697891967833,0.11013536305412787,-0.011010752956569725,0.0004495408844505467,-3.235903694732173,0.46263127095609513,0.5668027725783854,0.0029547110508347215,0.00021954983090423963
0.71,-0.16753375324906486,2.2126506650041313,-0.10558964443778263,0.39713256748507486,-0.011868531261839252,0.00027980270325321266,-0.2456397028540075,0.9672571584404478,1.0904702866104197,0.3512309236779529,-0.007495974377497737,0.0005668799853388948,0.4108374399962948,-0.9042481074498745,-9.276499330676149,-2.2008987976209617,0.10278584551130182,-0.011148699979452559,-0.002198561646973745,-3.195370035807119,0.6198094949968533,0.5922567424199865,0.0023685791871173663,0.0002289262994666332
0.72,-0.16994972312497808,2.222235082599203,-0.09560524775057926,0.4004244931656997,-0.011936026684011069,0.0002852245747432418,-0.24159698759132092,0.9584417595071545,0.9984396687203372,0.32919256806248814,-0.006749542217181798,0.0005421871490029146,0.40444416894942875,-0.8876879814632493,-8.698476209563687,-2.1591292836698166,0.09515703343732351,-0.011139710081957688,-0.004447190903420004,-3.164157750256979,0.7732471126814984,0.6174141451601404,0.0018446242043792813,0.00023883799903220846
0.73,-0.17232590138879303,2.2317329162599333,-0.08648413842134428,0.40350170844906214,-0.011996618444568015,0.00029039842441429546,-0.23761782638149462,0.9497833660730123,0.9121109329234972,0.30772152833624317,-0.006059176055694627,0.0005173849671053641,0.3973654888604965,-0.8710713440618647,-8.12443426836339,-2.1051935019232815,0.08744982845438519,-0.011010655597794239,-0.006345704662998189,-3.1410150647115063,0.9220586119176479,0.6420522301903548,0.001378954766087205,0.00024908345024482665
0.74,-0.17466298882434403,2.2411457313891225,-0.07816964731403653,0.40637089424292505,-0.012050871753861428,0.0002953256076618382,-0.23370874355509996,0.9412815129189306,0.8314491107307758,0.28691857938629217,-0.005425330929341288,0.0004927183247542766,0.38975855265749093,-0.8546859688188834,-7.561213303014781,-2.041125411625199,0.07983317635180705,-0.010786454835288062,-0.00793898312877746,-3.1248148564041087,1.065607347761027,0.6659992328760889,0.0009673555970325452,0.00025949458812841536
0.75,-0.17696173626838627,2.250475064009366,-0.07060613497687201,0.4090395437497118,-0.012099344149810686,0.00030000951089631083,-0.22987474440422237,0.9329332620243569,0.7563512337164516,0.26686495067867333,-0.004847239594925852,0.00046839032344726334,0.3817618986644756,-0.8387482659375866,-7.014057370775417,-1.9688313644349194,0.07244281058297258,-0.010489399844043734,-0.00926721769526883,-3.1145541889811508,1.2034599837477815,0.6891261509248924,0.0006054812887063362,0.0002699329783674974
0.76,-0.1792229312698498,2.2597224025100036,-0.0637395141288964,0.4115157832448411,-0.01214257572155095,0.00030445516663748335,-0.22611950014635535,0.9247338500637463,0.6866620847975616,0.24762394951292924,-0.004323157174026357,0.00044456557411725136,0.3734956359202664,-0.8234130275781059,-6.486885622568601,-1.8900718319436756,0.06538233075627026,-0.010138854250099194,-0.010365988776910327,-3.1093487996097755,1.3353480119808625,0.7113396463628712,0.0002890005423309157,0.0002802861815476226
0.77,-0.18144738655995923,2.2688891749166418,-0.05751764125525815,0.413808209724903,-0.012181081690611243,0.00030866890794067344,-0.22244552901094283,0.9166772406638319,0.6221872873638252,0.22924264800619043,-0.003850596906029381,0.00042137413031900913,0.36506232658148263,-0.8087833071446059,-5.982524546996167,-1.8064512441471265,0.058725876934128826,-0.009751218773393022,-0.011266522131546596,-3.108424621231537,1.4611352374566626,0.7325758990184612,1.3699804075567622e-05,0.0002904643210641523
0.78,-0.18363593023208927,2.2779767407446907,-0.051890600152804764,0.41592574551161005,-0.012215347145030862,0.0003126580645014861,-0.21885436721300333,0.9087565828049141,0.5627041102453383,0.21175357867070607,-0.0034265454419618226,0.0003989156560812619,0.356548320357103,-0.7949197716408603,-5.502897768599501,-1.7194140326849165,0.05252174901298399,-0.009340074993831493,-0.011996045040798932,-3.1111080316671345,1.5807915700977566,0.7527955725658172,-0.00022444504860318963,0.0003003970408062388
0.79,-0.18578939749117138,2.2869863865641404,-0.04681089610389327,0.4178775095175441,-0.012245823654314073,0.00031643069999076867,-0.21534672590821197,0.9009645819449792,0.5079704048911496,0.19517640059340746,-0.0030476509283211195,0.00037726354892826067,0.34802532006159975,-0.7818493946560123,-5.049200867706653,-1.6302448566131815,0.04679645291449295,-0.008916435513974141,-0.012578185449919833,-3.1168152801002504,1.694369348954923,0.7719790775796719,-0.0004292230931023398,0.0003100305250560891
0.8,-0.1879086238140347,2.2959193244797778,-0.04223357788795661,0.41967270456449035,-0.012272927464551633,0.0003199953883837082,-0.21192263228633249,0.8932937915637467,0.4577318215936656,0.17951950469462605,-0.002710381023755936,0.0003564688392939583,0.3395520546869045,-0.7695729737321051,-4.622032015998712,-1.5400728236401129,0.04155877639322909,-0.00848904660514882,-0.013033381389015117,-3.1250425180943235,1.8019859130104452,0.7901230618564185,-0.0006041613187919476,0.000319325095311068
0.81,-0.18999443935473645,2.3047766928439373,-0.03811630050300578,0.4213205199598931,-0.012297038972314015,0.0003233610260287783,-0.2085815540701751,0.8857368364159637,0.4117277384950834,0.1647815395402762,-0.0024111507762382034,0.00033656376450700925,0.33117592275476726,-0.7580717873957511,-4.22152125335963,-1.449877686467163,0.03680364030195856,-0.008064705762228841,-0.013379273316532611,-3.1353558892179016,1.9038066741168203,0.8072368340160299,-0.000752513116076499,0.00032825277888210596
0.8200000000000001,-0.1920476644340593,2.313559558607749,-0.03441934133652461,0.4228300483600983,-0.012318503194774255,0.00032653667572763297,-0.20532250793228474,0.8782865763811892,0.3696959166481172,0.1509528400205211,-0.0021464222460240187,0.00031756496988546534,0.3229345632159998,-0.7473130497666182,-3.8474267723090407,-1.3604985003127688,0.03251555323297223,-0.007648569451357057,-0.013631070587542963,-3.147382715734741,2.000032753756742,0.823339711659034,-0.0008772568855078646,0.0003367953635693914
0.8300000000000001,-0.19406910596090376,2.3222689208270224,-0.031105579286650413,0.42421021585584595,-0.012337630983387944,0.00032953143898658036,-0.20214415268444727,0.8709362219273395,0.33137620498742004,0.13801674957476706,-0.0019127788613689817,0.00029947632589474236,0.31485729643787963,-0.7372544454322013,-3.499220460360392,-1.2726433425341543,0.02867159732673203,-0.007244436733738813,-0.01380188250309349,-3.160803419029033,2.090890197925567,0.8384586317742843,-0.0009811024039296692,0.00034494262444151964
0.84,-0.1960595546468441,2.3309057149254118,-0.0281404452794753,0.42546972415732,-0.012354700763877312,0.00033235435272817684,-0.19904486859403367,0.8636794098389227,0.2965134007175113,0.12595083014740507,-0.0017069780489367234,0.0002822913741596489,0.30696632638229937,-0.7278490863452038,-3.176305184834182,-1.1868986682535798,0.025243927527453427,-0.006855001357092494,-0.013903005044474337,-3.1753406586349904,2.176601831258308,0.8526215978455152,-0.001066511878497659,0.0003526885296295427
0.85,-0.19801978289872496,2.3394708173137895,-0.025491865574955416,0.42661700327444163,-0.012369960626075161,0.0003350143068606121,-0.1960228251880845,0.8565102388377609,0.26485797045198856,0.11472791171216196,-0.001525986219784949,0.00026599541324352424,0.2992336258759925,-0.7196979365745744,-2.9500684658276497,-1.103138582778537,0.022204972912555174,-0.006482060457459415,-0.013940397894585609,-3.188937584705546,2.2478457550366353,0.8636154083266044,-0.0011404265923890375,0.0003589159837764311
0.86,-0.19995054753989935,2.3479650081830985,-0.023137278311622794,0.42765994835967713,-0.012383632680152802,0.00033751990530482746,-0.19307646411743817,0.8494190869308901,0.2354587263332622,0.10429450852355096,-0.0013672054077641827,0.0002505598444215365,0.2916024301997749,-0.7136329767584915,-2.918871950194873,-1.0236220932931666,0.019497217457704122,-0.0061262387043283795,-0.013925831719138592,-3.198846917183577,2.2915481964429865,0.8683292335500957,-0.001213539364659942,0.00036206339842526883
0.87,-0.20185259531053934,2.3563889192885106,-0.021073310541923317,0.4286053530629095,-0.012395920241663336,0.00033987920397154974,-0.19020477706399794,0.8423911105412114,0.20639677696994788,0.09454047032323341,-0.0012287561510534691,0.000235929866672227,0.2841700734974297,-0.7077876975027705,-2.886471448005392,-0.9562976367397544,0.017013637309660587,-0.005787181625258819,-0.013896478715367519,-3.209804706745292,2.333373913793387,0.8727351776069532,-0.0012797708465239624,0.00036508924333291
0.88,-0.20372665357832817,2.3647431548405433,-0.01929651813859612,0.429458993133729,-0.012407008951292514,0.00034209963560750397,-0.18740582677888198,0.8354235552032597,0.1776792403327199,0.08536400708195016,-0.0011088709629177027,0.00022204316359542483,0.27694246654927135,-0.702164365119744,-2.845544741336653,-0.899186187923326,0.01474601347511826,-0.005465435034244959,-0.013854666285742764,-3.2219553447145826,2.3744102957580506,0.8770939161528338,-0.0013391904817064105,0.0003681187323600709
0.89,-0.20557342977864432,2.373028289607759,-0.017802658413549333,0.43022582040438295,-0.012417067341943087,0.00034418807891257997,-0.18467762003161411,0.8285134767215276,0.14938597250467872,0.07668272706539671,-0.0010058390650572512,0.00020884433050759996,0.2699177919809402,-0.6968841071603864,-2.8025415617466694,-0.8502519795828869,0.012686862948231743,-0.00516021696062724,-0.013800890724411895,-3.2350963616306787,2.413926839392248,0.88124024230562,-0.0013925230531548177,0.00037106545923462213
0.9,-0.20739361159240724,2.3812448596853604,-0.016587316266539375,0.4309101088900567,-0.012426247783557347,0.0003461509316379255,-0.1820181813762928,0.8216570077601513,0.12153421470099579,0.06842884856737298,-0.0009180441614260285,0.0001962852725345535,0.2630964378721232,-0.6919881289711766,-2.7565659667326625,-0.8080795656910844,0.010823739235890723,-0.004870575275652433,-0.013736592247076846,-3.2492071051808664,2.4521396818866323,0.8852286120885016,-0.0014401657678012616,0.0003739523319241965
0.91,-0.20918786691276509,2.3893933586642957,-0.01564581065728146,0.4315155769548291,-0.012434687508794298,0.00034799417142261895,-0.1794255320357839,0.8148498978935517,0.09415056092579134,0.060546806477238584,-0.000843972523695052,0.0001843239784693471,0.2564775195321632,-0.6875194215117546,-2.7077148596129774,-0.7714411906066028,0.009143893535013166,-0.004595667136554515,-0.013662861956370313,-3.264242432099017,2.4891267932890058,0.8890806074033506,-0.0014825231702127503,0.0003767861081881216
0.92,-0.2109568439323144,2.397474233902237,-0.0149731993930579,0.4320454899461606,-0.012442509674177425,0.00034972340678140074,-0.17689770195493187,0.8080875237941227,0.06726112642235617,0.05299129913314776,-0.0007822165383126574,0.00017292353587817954,0.25005935571998744,-0.6835151130829428,-2.6562730767250122,-0.7393087400150691,0.00763434169450844,-0.004334724440913984,-0.013580622268823058,-3.2801525228881334,2.5249335586013846,0.8928094880683823,-0.0015199858944984171,0.00037956959868850747
0.93,-0.212701171305738,2.405487883381819,-0.014564303156171342,0.43250274536477123,-0.01244982442581806,0.0003513439195078753,-0.17443273734236014,0.8013649479582092,0.04088962368865573,0.045725541861066074,-0.0007314751640635072,0.00016205127264745534,0.2438396651452756,-0.6800052589419385,-2.6025277282942616,-0.710829871617114,0.006282173982571915,-0.004087041962114013,-0.013490675596334982,-3.2968877083921453,2.5595980119836477,0.8964261254152415,-0.0015529254342424763,0.0003823046289429865
0.9400000000000001,-0.21442145836933438,2.4134346532165414,-0.014413730429899943,0.4328899432783055,-0.012456729943257014,0.0003528606999641136,-0.17202870635963688,0.7946769834722265,0.015057272627139871,0.03871979135342802,-0.000690551743895503,0.00015167804562383116,0.23781564024734425,-0.6770141489636866,-2.546843870626076,-0.6852993181439802,0.0050748269595241036,-0.0038519664438251833,-0.013393715427889964,-3.3143967449222984,2.5931417318421786,0.8999369239212498,-0.0015817005443400842,0.00038499101466502305
0.9500000000000001,-0.21611829541056718,2.421314835703375,-0.014515910651354984,0.43320944409548473,-0.012463313446326015,0.00035427847648536383,-0.16968370412327907,0.7880182486833637,-0.01021802214550397,0.031950081717923566,-0.0006583503069000363,0.00014177765212501945,0.23198422455121095,-0.6745566357956938,-2.489184510597403,-0.662141814590961,0.004000206403267481,-0.0036288867713555883,-0.013290376184381203,-3.3326392768376056,2.6256338822919787,0.9033588903812897,-0.0016066284746904555,0.0003876340682630451
0.96,-0.21779225396137258,2.4291286681327806,-0.014865088344073699,0.4334634169662321,-0.012469652142436904,0.00035560174040052587,-0.16739585508053925,0.781383242940537,-0.03491776927187144,0.025397287074737897,-0.0006338696110889765,0.0001323263915162042,0.22634188791392487,-0.6726464314812867,-2.4299505010165166,-0.640870413068102,0.0030469838667042393,-0.0034172291866584326,-0.01318115620257705,-3.3515645987283187,2.6570817181847435,0.9066940666078176,-0.0016280315943446725,0.00039023187259266067
0.97,-0.2194438871365962,2.436876331818982,-0.015455360629585739,0.43365387909762426,-0.012475814122490395,0.0003568347671797724,-0.16516331752236332,0.7747663686201385,-0.059027228551204104,0.019046213139216783,-0.0006161980053490229,0.00012330267792465193,0.2208849098088996,-0.6712906381277557,-2.369339021959215,-0.6210930442925378,0.0022044313731343773,-0.00321644822315037,-0.013066511307862561,-3.3711280129602854,2.687514902496765,0.9099492648209728,-0.001646206851191075,0.0003927851067092484
0.98,-0.22107372999081953,2.4445579516785734,-0.01628069508420157,0.4337827278846699,-0.012481859196945434,0.00035798163441409705,-0.16298428542233193,0.7681619859591451,-0.08253344546158307,0.01288487870456773,-0.0006045074455038192,0.00011468672343246482,0.21560938798257873,-0.6704918454773394,-2.3075003347879823,-0.6024888481373578,0.0014625400210637532,-0.0030260258298048792,-0.012946835512043743,-3.391287022643862,2.7169656803357634,0.913131503044007,-0.0016614318595372865,0.0003952947706534767
0.99,-0.22268229989274826,2.4521735962089393,-0.017334943258730088,0.43385176724412355,-0.01248783967033978,0.0003590462373117058,-0.16085699019287283,0.7615644530366014,-0.1054248174528517,0.006903935945363623,-0.0005980473394347756,0.00010646028976087375,0.21051129464488577,-0.6702484417302629,-2.2445179438896186,-0.5847952738485134,0.0008120296473369329,-0.0028454678821618895,-0.01282246751245751,-3.4120019076484915,2.7454719716483362,0.916248774113769,-0.0016739633359072548,0.00039776256252711134
