tonegas/nnodely-applications/joint_friction_estimation/dataset/train/mpc_mujoco_episode_35 copy.csv
time,q1,q2,q3,q4,q5,q6,dq1,dq2,dq3,dq4,dq5,dq6,ddq1,ddq2,ddq3,ddq4,ddq5,ddq6,tau1,tau2,tau3,tau4,tau5,tau6
0.0,0.0,1.57,-1.57,0.0,0.0,0.0,0.0,0.0,0.0,0.0,0.0,0.0,0.8300211277291724,-1.7949640187257763,10.104791422624771,4.2456799914852965,0.12197820868791354,-3.8702823494940475e-06,0.11602962806446757,-3.5420561503334484,-3.297597668236137,-0.6845860160204623,0.010445124972586756,-0.0001665470424475019
0.01,8.257657687604794e-05,1.569824653848915,-1.5689944478557876,0.00039539121809716775,1.0239618512223148e-05,3.2520777116423206e-07,0.008257657687604794,-0.017534615108524877,0.1005552144212456,0.039539121809716776,0.0010239618512223147,3.252077711642321e-05,0.8259211653385623,-1.7404152174670349,10.078647671179272,3.965363693463015,0.10266969154916072,0.003248851773249184,0.11603481113091424,-3.533153940421462,-3.292159688535398,-0.6830356459884239,0.010446127323699166,-0.00016600234047956062
0.02,0.0002472577146478386,1.56947955193253,-1.566987611005968,0.0011641757547325065,2.9534222300279468e-05,9.964654373572745e-07,0.016468113777179064,-0.03451019163848923,0.20068368498195205,0.07687845366353387,0.0019294603788056319,6.712576661930424e-05,0.8211515857184035,-1.6835891900644673,10.036494186401288,3.7447420958016266,0.0908432061031097,0.0034462291913623933,0.11600631691737309,-3.527361206717414,-3.2870792596597824,-0.6812845737277748,0.01044377076653319,-0.00016587080437652723
0.03,0.0004935306784254936,1.5689704580123685,-1.5639849151449319,0.0022888896381172653,5.71497445502767e-05,1.99546386232125e-06,0.0246272963777655,-0.0509093920161551,0.3002695861036046,0.11247138833847586,0.0027615522249997237,9.98998424963976e-05,0.8159498138113356,-1.6251402724577293,9.982574694354792,3.56919043549939,0.0835355502428401,0.0032416722771093642,0.11594218812167037,-3.5247674050458015,-3.28241527803548,-0.6793459884987283,0.010437785147600397,-0.00016615707470234343
0.04,0.0008208554020264912,1.568303256205504,-1.559992626078188,0.003755492047712218,9.262514080733277e-05,3.3031828340947586e-06,0.03273247236009976,-0.06672018068644622,0.39922890667437616,0.14666024095949526,0.003547539625705607,0.00013077189717735082,0.8104472703327861,-1.5655929294457283,9.92004090403912,3.427545491309292,0.07896839396621669,0.003018648012589331,0.11583732696195838,-3.525467480589124,-3.278222907619753,-0.6772301671295045,0.010427638254155141,-0.00016686615567060406
0.05,0.0012286713851196937,1.567483908034892,-1.5550176157546785,0.0055525171065489145,0.00013566506529802326,4.904057089721952e-06,0.04078159830932024,-0.08193481706121232,0.4975010323509498,0.17970250588366965,0.00430399244906905,0.00016008742556271937,0.804710408320193,-1.5053704803018564,9.85119766494767,3.311284563500415,0.07606687789825584,0.0028185798056696854,0.115683571687956,-3.529557788897165,-3.274552700693115,-0.6749444227102848,0.010412545177474133,-0.00016800415685377587
0.06,0.0017164005723405758,1.5665184173724767,-1.549067193804555,0.007670425850192087,0.0001860748304803043,6.785428506520935e-06,0.048772918722088214,-0.09654906624153202,0.5950421950123506,0.21179087436431718,0.005040976518228106,0.00018813714167989826,0.7987654241199346,-1.4448168858522776,9.777691387930993,3.213897443339384,0.07417985607901656,0.002636064895193302,0.11546977017907673,-3.53713222844887,-3.271449924359967,-0.6724930720940755,0.010391477101247711,-0.00016957841908015776
0.07,0.0022834477046242826,1.56541280162281,-1.5421489902235457,0.010101110612819403,0.00024372092970092386,8.936654963000978e-06,0.05670471322837069,-0.1105615749666696,0.6918203581009447,0.24306847626273154,0.005764609922061954,0.00021512264564800432,0.7926131615377631,-1.384213363642607,9.700655051097408,3.130405948965766,0.07291247183595662,0.0024624017670848986,0.1151818572965362,-3.5482784190126235,-3.268954013787145,-0.6698774186806471,0.01036316989475858,-0.00017159731894860072
0.08,0.002929199041288907,1.5641730678862227,-1.534270878147037,0.012837515311929969,0.00030850703750370855,1.1348419935324932e-05,0.06457513366646245,-0.12397337365872597,0.7878112076508593,0.2736404699110566,0.006478610780278471,0.00024117649723239543,0.7862381078804749,-1.3237911300686913,9.620819972117868,3.05699675505085,0.07202517424681965,0.0022909433791842293,0.11480294325874998,-3.5630738245529683,-3.26709809776485,-0.6670957476918178,0.010326133058989278,-0.0001740699064609259
0.09,0.0036530199950070485,1.5628051931327769,-1.5254409281802221,0.015873343746069392,0.0003803593914115265,1.4012242063783286e-05,0.07238209537181411,-0.1367874753445763,0.8829949966815063,0.30358284341394215,0.007185235390781792,0.0002663822128458354,0.7796138320626191,-1.26374123668995,9.538602190691734,2.9907411866652254,0.07137268182408318,0.002117043541790542,0.11431342071737406,-3.5815817633356564,-3.265908559297593,-0.6641433319518,0.01027865959945826,-0.00017700545188502846
0.1,0.004454252007563938,1.5613151076366416,-1.5156673876735312,0.019202834643506826,0.00045921786805151374,1.6920129562921387e-05,0.08012320125568897,-0.14900854961352358,0.9773540506690936,0.3329490897437435,0.007885847663998725,0.00029078874991381014,0.7727062845979497,-1.2042222249404582,9.454169505383874,2.929381709097388,0.07086706808285781,0.0019374783873391532,0.11369109854308333,-3.6038472795200853,-3.2654046061619777,-0.6610124470098798,0.010218837391650476,-0.00018041293701999487
0.11,0.005332208866016997,1.5597086810838228,-1.5049586797931935,0.022820587277129732,0.0005450305229448508,2.006433487120434e-05,0.08779568584530585,-0.16064265528187505,1.0708707880337722,0.3617752633622906,0.008581265489333701,0.0003144205308282955,0.765475817933464,-1.145366142922873,9.367493815604256,2.871169526607961,0.0704554294676889,0.0017499806724501354,0.11291137059151254,-3.6298928749355692,-3.2655978353525583,-0.657692395247037,0.010144562587822271,-0.00018430050574304546
0.12,0.006286172582595057,1.557991710888183,-1.4933234183420943,0.02672142535008142,0.000637750244113531,2.3437178638829714e-05,0.09539637165780601,-0.17169701956399616,1.1635261451099344,0.3900838072951688,0.009271972116868022,0.0003372843767625372,0.7578784463605804,-1.0872833327445905,9.278392340130699,2.8147413193592463,0.07010637135907327,0.0015529132968956638,0.11194742786999672,-3.6597141199506047,-3.2664917821594,-0.6541695393691451,0.010053555593395665,-0.00018867487946682549
0.13,0.007315388916877594,1.5561699123417663,-1.4807704351189168,0.03090028983426803,0.0007373327024280906,2.7030922063684063e-05,0.10292163342825367,-0.1821798546416656,1.2552983223177336,0.41788644841866107,0.00995824583145595,0.00035937434248543485,0.7498666595397658,-1.0300662949781756,9.186560447855248,2.7590259362021854,0.06980182673729951,0.0013450415082392198,0.11077052250282415,-3.6932751801571753,-3.2680814499997695,-0.6504273463916747,0.00994338011632048,-0.0001935407397042638
0.14,0.008419062593047623,1.5542489102934074,-1.4673088172279547,0.03535215372267817,0.0008437351038813563,3.0837673211486716e-05,0.11036736761700298,-0.19210020483589674,1.3461617890962048,0.44518638884101397,0.01064024014532657,0.00038067511478026534,0.7413899793798985,-0.9737928597565305,9.091598189542411,2.7031740067590597,0.06953209951138994,0.0011253697023931863,0.10935029162556069,-3.730504312009642,-3.2703528215394186,-0.6464464438538424,0.009811465760492253,-0.00019890007954780905
0.15,0.00959635225077785,1.5522342321003266,-1.4529479522175597,0.04007195340009857,0.0009569154438964779,3.484931735447274e-05,0.11772896577302269,-0.2014678193080721,1.4360865010395099,0.4719799677420404,0.011318034001512161,0.0004011644142986029,0.732395374551364,-0.9185288355419171,8.99303211857644,2.6465050842496964,0.06929285741314972,0.0008930199737182676,0.10765514875385165,-3.7712893960615403,-3.2732823554031665,-0.6422046905562252,0.009655134590768272,-0.00020475152705865213
0.16,0.01084636516099861,1.5501313016353995,-1.437697579270411,0.04505453267078309,0.0010768320816615855,3.9057464307293204e-05,0.12500129102207608,-0.21029304649272154,1.5250372947148705,0.4982579270684516,0.011991663776510765,0.0004208146952820463,0.7228276009128162,-0.8643302621770191,8.890333600642453,2.58846819396949,0.06908330305590793,0.0006471376106222948,0.10565274919694659,-3.8154735911581907,-3.2768364760993567,-0.6376772645890674,0.009471632038701086,-0.00021108964556654062
0.17,0.01216815173459631,1.5479454341613996,-1.4215678449234677,0.05029459650205448,0.0012034435237486185,4.3453407732683024e-05,0.13217865735976989,-0.21858674739999334,1.6129734346943243,0.5240063831271388,0.012661144208703292,0.000439594342538982,0.7126295078961095,-0.8112453610510759,8.782934511068012,2.5286126292597757,0.06890505640014011,0.0003868138902838325,0.10331053465479219,-3.862851206745321,-3.280971067815263,-0.632836771807078,0.009258162441737446,-0.00021790421830293762
0.18,0.013560699851260547,1.5456818319053667,-1.4045693619828326,0.05578667232316216,0.0013367083493187244,4.802809275484266e-05,0.13925481166642367,-0.22636022560330119,1.6998482940635187,0.5492075821107679,0.013326482557010579,0.00045746850221596385,0.7017423333582639,-0.759316249566651,8.670240983661019,2.4665665756605115,0.06876146612927725,0.00011101977089889026,0.10059636019426794,-3.913163903066059,-3.285630985615792,-0.6276533782195068,0.009011929411995238,-0.00022517952741673062
0.19,0.015022929036138458,1.543345580183277,-1.3867132704370082,0.061525077315056916,0.0014765852351687112,5.2772089162162166e-05,0.14622291848779112,-0.23362517220897097,1.785609154582443,0.5738404991894759,0.013987688584998685,0.0004743996407319509,0.6901059983125668,-0.7085804676862711,8.551645689530083,2.4020217075154093,0.06865717888814693,-0.0001814538789124409,0.09747920430559982,-3.9660973401251405,-3.2907496005194634,-0.6220949700429999,0.008730181112447477,-0.00023289364014041677
0.2,0.01655368451295343,1.5409416439388983,-1.3680112992756344,0.0675038905817816,0.0016230330544616664,5.76755681370054e-05,0.15307554768149728,-0.2403936244378592,1.8701971161373778,0.5978813266724688,0.01464478192929552,0.0004903478974843229,0.6776594057323131,-0.6590723497660956,8.426538972656637,2.3347223305739178,0.06859786273534896,-0.0004920525937142095,0.09392995967782135,-4.021278405785399,-3.296248398498752,-0.6161273455436458,0.008410260378157916,-0.000241017717655436
0.21,0.018151731163321957,1.5384748645721849,-1.348475828201806,0.07371692944036147,0.001776011032278202,6.272828090672328e-05,0.1598046650368527,-0.24667793667134685,1.9535471073828459,0.621303885857987,0.015297797781653556,0.0005052712769717888,0.6643407427618409,-0.6108242641641176,8.294319029941283,2.264457970435391,0.06859002190061281,-0.0008225134534856071,0.08992229871730949,-4.078273161945113,-3.3020366593207244,-0.6097144436890536,0.00804965945934982,-0.0002495153651769602
0.22,0.01981574742281876,1.5359499569426183,-1.328119948295958,0.08015772932791926,0.0019354789465803616,6.79195380252626e-05,0.16640162594968025,-0.25249076295666306,2.0355879905847893,0.6440799887557788,0.015946791430215983,0.0005191257118539325,0.650087782338526,-0.5638677357538111,8.154401147525455,2.1910585540189587,0.06864086453171048,-0.0011749208644362685,0.08543360372470069,-4.136585659670471,-3.308011255308032,-0.6028186175436357,0.007646078985114218,-0.0002583420456534289
0.23,0.02154431914465438,1.5333715064420275,-1.3069575207636426,0.08681952702039761,0.0021013973662804175,7.323818820808602e-05,0.17285717218356217,-0.257845050059085,2.1162427532315524,0.6661797692478355,0.016591841970005586,0.0005318650182823407,0.6348381781324591,-0.5182344627211244,8.006225690114357,2.1143915165273484,0.06875819992333598,-0.001551764522638166,0.08044594716428233,-4.195657798673183,-3.314056646294035,-0.595400968707616,0.0071974905591741176,-0.0002674445860068464
0.24,0.023335933461488424,1.5307439660397353,-1.2850032330078376,0.09369524699928833,0.002273727919744336,7.867259578223887e-05,0.1791614316834041,-0.26275404022921217,2.1954287755804884,0.6875719978890719,0.017233055346391864,0.0005434407574152856,0.618529746612459,-0.4739572419438159,7.849263606255761,2.0343603023552106,0.0689503506050726,-0.0019560009820902557,0.07494710287214158,-4.254870495863671,-3.320045272448517,-0.5874217896728182,0.006702202224028089,-0.00027676082303511253
0.25,0.025188972674930424,1.5280716532095986,-1.2622726514989353,0.10077749089630762,0.002452433587776982,8.421061590148123e-05,0.18530392134420023,-0.26723128301367954,2.2730581508902383,0.7082243897019296,0.017870566803264615,0.0005538020119242363,0.6011005920878014,-0.43107038984964124,7.683094107577219,1.9509029097485495,0.06922606789436658,-0.0023911201830508766,0.06893155006302674,-4.313537006556498,-3.3258278631197795,-0.5788385048417579,0.0061589240478140544,-0.00028621798118197157
0.26,0.027101708187152674,1.5253587467332106,-1.238782263882397,0.10805853037103358,0.002637479014323315,8.983956615579425e-05,0.191273551222225,-0.2712906476387945,2.3490387616538286,0.7281039474725949,0.018504542654633298,0.0005628950254313015,0.5824896459236383,-0.3896112034693193,7.507205774724262,1.8639982684271779,0.06959444631573009,-0.002861225167230197,0.0624014969565678,-4.370932428006111,-3.3312625176147543,-0.5696132277971236,0.005566839699796719,-0.000295736473221399
0.27,0.029072294529972943,1.5226092831306821,-1.2145495296607725,0.11553030276690904,0.0028288308304995576,9.554619541830797e-05,0.197058634282027,-0.274946360252859,2.42327342216246,0.7471772395875459,0.01913518161762428,0.0005706629262513721,0.5626364402846843,-0.3496199914580115,7.321253207799205,1.7736552587088816,0.07006484170253469,-0.0033710951048109283,0.05536778450436798,-4.426266269112202,-3.336180498606418,-0.5597046428361074,0.004925669205307811,-0.00030522518330096664
0.28,0.031098763472107008,1.5198271528455178,-1.189592914512736,0.12318441020444656,0.0030264579829124994,0.00010131664686209329,0.20264689421340643,-0.27821302851643104,2.4956615148036434,0.7654107437537527,0.019762715241294197,0.0005770451443785319,0.5414814104779594,-0.3111406789139945,7.124912868006135,1.6799228436349232,0.07064675888579997,-0.003926300891652801,0.047850746360602936,-4.478707762276065,-3.3404075882874706,-0.5490736124540796,0.0042357356341375645,-0.00031458453289164224
0.29,0.03317901823738778,1.517016096044044,-1.1639319222303826,0.1310121220712572,0.003230332058765796,0.00010713641543496521,0.20802547652807724,-0.28110568014737713,2.56609922823533,0.7827711866810642,0.020387407585329625,0.0005819768572871921,0.5189659890183094,-0.27422155611226634,6.917861636287402,1.5828886920324052,0.07134973933602096,-0.004533297140982717,0.03988092765045538,-4.527395158500732,-3.343768820784648,-0.5376846693982392,0.003498026913966071,-0.00032370743619815264
0.3,0.035310827846908345,1.5141796979456712,-1.1375871263806503,0.13900438069985063,0.003440427598732807,0.0001129902989357158,0.21318096095205624,-0.2836398098372752,2.6344795849732234,0.7992258628593425,0.021009553996701135,0.000585388350075058,0.49503478342422724,-0.23892088341579826,6.69888224074644,1.4826893795805667,0.07218325345193222,-0.005199539413708765,0.03149984449370968,-4.571533257103174,-3.3462154450938297,-0.5255377258417102,0.0027142818699448686,-0.0003324971613168933
0.31,0.03749182180340389,1.5113213827315086,-1.1105802889576069,0.1471518060477863,0.003656722400622373,0.00011886234845218582,0.21809939564955394,-0.285831521416266,2.7006837423043435,0.8147425347935678,0.02162948018895659,0.0005872049516470028,0.4696261989376595,-0.20528999522567126,6.469870673301622,1.3794037560502623,0.07315653245666653,-0.005933536250713689,0.022759556164716373,-4.609990521677083,-3.3472692614476385,-0.5125313370266482,0.0018869273600798453,-0.00034079177583168455
0.32,0.039719484202158484,1.5084444095326097,-1.0829341755144954,0.15544471348252273,0.0038791977456123306,0.0001247357825063501,0.22276623987545946,-0.2876973198898931,2.7646113443111506,0.8292907434736437,0.0222475344989958,0.0005873434054164282,0.4431025371827155,-0.17423844673108896,6.078044620567189,1.2756213237263232,0.0742823355320974,-0.006745390862916589,0.0137618754418624,-4.6557930574210875,-3.3680233659224217,-0.5038908547786278,0.001024896976515353,-0.0003513821580565929
0.33,0.04199118952903925,1.5055517169996884,-1.054687464060823,0.16387247961441942,0.004107841257910234,0.00013059415615592748,0.22717053268807633,-0.2892692532921329,2.824671145367248,0.8427766131896681,0.022864351229790317,0.0005858373649577358,0.41590007854124744,-0.14728645086898726,5.398730605711353,1.1655207969255912,0.07559165133814627,-0.007630901147361313,0.00464733190333122,-4.715627967674488,-3.4260303486317,-0.5040289839462817,0.00014160180212114976,-0.00036654452185728775
0.34,0.04430424587401727,1.5026457303708318,-1.0259069756936132,0.17242243011902242,0.004342651137666891,0.00013642197640197778,0.23130563449780223,-0.290598662885647,2.878048836720981,0.8549950504603013,0.023480987975665748,0.0005827820246050296,0.3873740310182036,-0.12416933842157121,4.721136826626841,1.032457178315795,0.07711253792928341,-0.008589108321134131,-0.004497783041050585,-4.7590600527161895,-3.481500298370692,-0.5033127168530597,-0.0007599303130544259,-0.0003806450910035168
0.35000000000000003,0.04665583207730743,1.4997285223696242,-0.996659525756379,0.18108012280029648,0.004583633663791737,0.00014220152745308913,0.23515862032901644,-0.29172080012076984,2.9247449937234267,0.8657692681274068,0.02409825261248456,0.0005779551051111353,0.3574516338902855,-0.1044806868258289,4.061221573002142,0.8824495085031927,0.07882442989223959,-0.009662724655992827,-0.013562617608234101,-4.783963255009768,-3.531818053873863,-0.5011711625757314,-0.001671823024631213,-0.0003932139906203501
0.36,0.0490429908199076,1.4968018559439342,-0.9670103265023414,0.18982990571459651,0.004830801402960183,0.00014791255941049364,0.23871587426001684,-0.2926666425689863,2.9649199254037533,0.8749782914300022,0.024716773916844546,0.0005711031957404506,0.3260688574444771,-0.08782564310239505,3.4288578967620813,0.7211631867764936,0.08070689119733698,-0.01086707693862804,-0.02243432238700268,-4.789348823181282,-3.5752704553822015,-0.4972512484238357,-0.0025857700884487312,-0.000403915708091413
0.37,0.05146262264012823,1.4938672230738976,-0.9370219856503358,0.19865541321810362,0.005084171450880032,0.00015353243558054123,0.24196318202206263,-0.29346328700366336,2.998834085200566,0.8825507503507106,0.025337004791985005,0.0005619876170047593,0.29315713886629124,-0.07382453021592367,2.8349026516841818,0.5535605705389326,0.08273860595186111,-0.012214173075119072,-0.0310019080095887,-4.774700339450084,-3.610078199414016,-0.4911798158033126,-0.0034933784791697925,-0.0004124166699502406
0.38,0.05391147958799988,1.4909258824072342,-0.9067534121030079,0.2075400104918514,0.005343763517535413,0.0001590362894118502,0.24488569478716568,-0.29413406666633896,3.026857354732797,0.8884597273747779,0.025959206665538023,0.0005503853831308978,0.2586386122683283,-0.06210444756307302,2.2967372041302907,0.3840534834886329,0.08489572736383189,-0.01371745117952966,-0.039159953561734066,-4.739642118783535,-3.6336210106119013,-0.4823711645719537,-0.004386563422029697,-0.0004182796223603895
0.39,0.056386158066886086,1.4879788983305726,-0.8762580854880735,0.21646722649767772,0.005609597673759711,0.00016439708774548475,0.24746784788862028,-0.29469840766617045,3.049532661493441,0.8927216005826316,0.02658341562242984,0.0005360798333634532,0.22245548501082604,-0.05232987703453852,1.7995058978907505,0.21706960854784452,0.08715073786045979,-0.01539339241932311,-0.04681371742774104,-4.686272164724479,-3.6477765577985135,-0.4713314260254725,-0.005257197637730068,-0.00042170842734198344
0.4,0.05888309369528553,1.4850271645142687,-0.8455854808736305,0.2254210223725353,0.005881692129780347,0.00016958590706752996,0.24969356283994404,-0.2951733816303919,3.0672604614442935,0.8953795874857595,0.027209445602063544,0.0005188819322045203,0.18450264319304308,-0.04420985937965444,1.3764299716548087,0.055074217911666334,0.08947401854002857,-0.01725780734832555,-0.05387422970620834,-4.614006112255172,-3.647890937241028,-0.4569700930302514,-0.006098109624126759,-0.00042200803410417844
0.41000000000000003,0.06139855173321824,1.4820714407010036,-0.8147777975321501,0.23438614789387943,0.006160060162348285,0.00017457173979763178,0.2515458037932711,-0.2955723813265209,3.080768334148042,0.8965125521344113,0.027836803256793836,0.000498583273010183,0.14470204884588725,-0.037448028466199816,1.0062118480500015,-0.09824831946648738,0.09182820497312699,-0.019334809840638748,-0.06027266633179315,-4.52577101339493,-3.6368131953148737,-0.4400110869440359,-0.006902470668640608,-0.00041954817955373506
0.42,0.0639286201996642,1.4791123703799696,-0.7838720199546115,0.24334832006632634,0.006444707074335096,0.00017932169404249356,0.25300684664459605,-0.2959070321034052,3.090577757753857,0.8962172172446917,0.028464691198681124,0.0004749954244861788,0.10292928612533217,-0.03182553630343356,0.7235905481555688,-0.2413157503628085,0.09417315609995403,-0.021646892683116377,-0.06594571179616415,-4.421668527472031,-3.609776922488226,-0.4193228355304243,-0.00766465316865051,-0.00041364483201371656
0.43,0.06646919873879424,1.4761505100195664,-0.7528965008473727,0.252294511522116,0.006735626094916058,0.0001838006730316632,0.25405785391300517,-0.29618603604031474,3.097551910723888,0.8946191455789693,0.02909190205809622,0.00044789789891696224,0.05906692745936843,-0.027099189002616125,0.4992295627055669,-0.3712156692626125,0.09645878404972688,-0.024227235353120526,-0.07085585689869711,-4.305082755204669,-3.5707930950752873,-0.3958913382899807,-0.008379613854237182,-0.0004048572699990265
0.44,0.06901598823554597,1.4731863394907796,-0.7218738163964253,0.2612130317535959,0.007032794259258126,0.00018797150697044974,0.25467894967517335,-0.29641705287868836,3.1022684450947366,0.8918520231479856,0.029716816434206757,0.00041708339387865485,0.012977223364034788,-0.02317063281653791,0.3186502409972549,-0.48718443506818254,0.0986302919012137,-0.0271081125976564,-0.0749702858643707,-4.178157424884936,-3.5219216450143036,-0.37023473296703047,-0.009042276856608356,-0.0003934756478049602
0.45,0.07156447874203786,1.470220265064694,-0.6908221794010938,0.2700935142790457,0.007336167655011953,0.00019179486743082645,0.2548490506491897,-0.29660744260855226,3.1051636995331537,0.8880482525449842,0.03033733957538271,0.00038233604603767166,-0.03550640074932585,-0.02000428793268858,0.18916310261257518,-0.5894100008381574,0.10062134942903107,-0.030328603308547322,-0.0782628090760144,-4.04201865365426,-3.462275851097117,-0.34215720115906884,-0.009648116262674481,-0.0003793832962137955
0.46,0.07410993495413856,1.467252623156241,-0.6597547215328802,0.2789269322436617,0.007645675413598826,0.00019522888746960354,0.25454562121007007,-0.2967641908452934,3.106745786821364,0.8833417964615986,0.030950775858687368,0.0003434020038777076,-0.08657123074572913,-0.017574198764653458,0.09744677245618001,-0.6777504382467213,0.10234804555996235,-0.033937520004687464,-0.08072241446511746,-3.8984160177985534,-3.393783040127502,-0.3121379892425339,-0.010192931036991093,-0.00036286540928984906
0.47000000000000003,0.07664737999315528,1.4642836773710595,-0.6286807981781496,0.287705544894507,0.007961212638908545,0.00019822886816645425,0.25374450390167214,-0.2968945785181501,3.1073923354730617,0.8778612650845304,0.031553722530971794,0.00029999806968507026,-0.1404299442447728,-0.015915765361450934,0.029726887293394157,-0.7527432903618033,0.10370688997543082,-0.037989339418030774,-0.08234527433636915,-3.748735190003352,-3.3184551880235404,-0.28067940600362273,-0.010672393269609844,-0.0003442219123605023
0.48,0.07917157719245312,1.4613136105327877,-0.5976073426686054,0.29642279077154876,0.008282631868685103,0.0002007469171109975,0.25241971992978324,-0.29700668382716794,3.1073455509544203,0.8717245877041743,0.032141922977655876,0.00025180489445432333,-0.19732163079538778,-0.015111633735773818,-0.027471115766492776,-0.8154371315667762,0.10456742938116292,-0.04254618853807424,-0.0831337985878268,-3.5939918301190787,-3.23827914416317,-0.2482816393824886,-0.011081889276876202,-0.00032375155692446927
0.49,0.08167700991102024,1.4583425132416774,-0.5665401949024065,0.30507314424428467,0.008609732572410949,0.00020273150748229788,0.25054327185671205,-0.29710972911102607,3.1067147766198855,0.8650353472735889,0.03271007037258454,0.00019845903713003936,-0.25751479328413374,-0.015272444319101724,-0.08146105640601387,-0.8672409723917016,0.1047631095257352,-0.04767813464090077,-0.08309580561617107,-3.434788629402226,-3.1544135423074358,-0.21524981268257742,-0.011416585751394719,-0.00030163946197086535
0.5,0.08415785925606119,1.4553703719445148,-0.5354848277021813,0.3136519725722919,0.008942247973164457,0.00020412693863661668,0.24808493450409436,-0.2972141297162599,3.1055367200225166,0.8578828328007189,0.03325154007535093,0.0001395431154318813,-0.32131152458553536,-0.016506340712892913,-0.1285014786900133,-0.9095709886697354,0.10407968130523926,-0.053463788447606964,-0.08224562740360544,-3.271444686457389,-3.066513504497943,-0.18152917356102746,-0.011671819662089447,-0.00027786359342170174
0.51,0.08660797953374504,1.4523970596730094,-0.5044459875662697,0.3221554409271717,0.009279828304887919,0.0002048727063229206,0.24501202776838438,-0.29733122715055404,3.103884013591166,0.8503468354879811,0.03375803317234617,7.457676863039331e-05,-0.38904200339752465,-0.018899657702215474,-0.17034569597704574,-0.9433518660558131,0.10224149173781005,-0.059991216981753026,-0.08060878185222872,-3.1043685462591646,-2.9749640795119134,-0.14723749264995012,-0.0118430671983727,-0.0002525104252680104
0.52,0.08902087217210075,1.4494223275552618,-0.473427872509,0.33058043285536703,0.009622019942951787,0.00020490296073488704,0.2412892638355722,-0.29747321177476327,3.1018115057269697,0.8424991928195369,0.03421916380638676,3.025441196645128e-06,-0.46105265752405145,-0.022536297086424528,-0.22205813804871977,-0.9693235296267922,0.09889755576047499,-0.06735473253608465,-0.07822151286626988,-2.9339560244427054,-2.881949301800238,-0.11292429957279498,-0.011925373778829247,-0.0002259253385832563
0.53,0.09138965957078443,1.4464457949117013,-0.4424356171625377,0.3389244305614287,0.009968239793498129,0.00020414616918795563,0.23687873986836797,-0.2976532643560433,3.099225534646227,0.8343997706061624,0.03462198505463417,-7.567915469314204e-05,-0.5247974514842412,-0.03851759028963994,-4.178510657617386,-0.938700322822827,0.09352329125287095,-0.07564648286204151,-0.07524159151810267,-2.7617840678886894,-3.31327337805089,-0.20447638601909607,-0.011707863699244817,-0.0002733227437311036
0.54,0.09370828418338738,1.4434654107335558,-0.41185792666195675,0.34717360416239773,0.010317893698606098,0.00020254977655351992,0.23186246126029458,-0.29803841781454476,3.0577690500580976,0.824917360096903,0.034965390510797015,-0.00015963926344357226,-0.5908493693108309,-0.060371076427687284,-7.546028632828311,-1.0588381847476533,0.08664094828438806,-0.08387033540598737,-0.0708063889332122,-2.5479971043744274,-3.6700509597251565,-0.2812241592570392,-0.011242511589550183,-0.00030950204950769516
0.55,0.09597051402447294,1.4404788369780976,-0.382026350234251,0.35530446051414083,0.0106702591545498,0.00020005253565346073,0.22622298410855654,-0.2986573755458201,2.983157642770575,0.8130856351743107,0.035236545594370165,-0.0002497240900059181,-0.6599392861257223,-0.0825747989489078,-10.073555976511365,-1.2791305290231136,0.07686383869142954,-0.09203301054090396,-0.0652997937281944,-2.309050466672769,-3.9179936274245644,-0.3347318352133754,-0.010574633353994667,-0.0003298862620286034
0.56,0.09816987659500102,1.4374839402835802,-0.35319032171993664,0.3632888343822317,0.011024384184423435,0.00019658674128859724,0.21993625705280845,-0.29948966945175093,2.883602851431436,0.7984373868090864,0.0354125029873635,-0.000346579436486349,-0.7310758175695182,-0.10177703252908121,-11.915086709425081,-1.5457960399355528,0.06310859682847547,-0.09984550092772992,-0.05914921458574265,-2.060755575816454,-4.077237308135402,-0.36926509937376717,-0.009742878517778412,-0.00033764364161865626
0.5700000000000001,0.10029975795937437,1.4344790291382088,-0.325532026848773,0.3710975488294639,0.011379024548758996,0.00019208770882049792,0.21298813643733563,-0.30049111453714294,2.7658294871163585,0.7808714447232182,0.03546403643355618,-0.0004499032468099324,-0.8029836870542753,-0.11591752902248337,-13.197555079828009,-1.8234221507869037,0.044760092675926066,-0.10689879816240111,-0.0527151336531039,-1.8147053168459646,-4.164740539454634,-0.3883619305397518,-0.008784760096282677,-0.00033543281927506075
0.58,0.1023535299063457,1.4314629880179799,-0.2991787109119396,0.3787027350974369,0.011732613247973554,0.00018650365626399844,0.20537719469713256,-0.3016041120228905,2.635331593683345,0.7605186267972996,0.035358869921455746,-0.000558405255649947,-0.8740629763997252,-0.12394037020013006,-14.026051200489107,-2.089538499220531,0.021627408132657067,-0.11274966687711774,-0.046288839042461366,-1.578875260418815,-4.19477982482838,-0.39497642119435306,-0.0077360718084271505,-0.0003254845228392653
0.59,0.10432470767544506,1.4284353317764573,-0.2742129084268061,0.38607921828665615,0.01208326039782763,0.0001798048683636298,0.19711777690993584,-0.3027656241522642,2.4965802485133453,0.7376483189219232,0.03506471498540769,-0.0006698787900368641,-0.9423893455292737,-0.12554822467557936,-14.487891410876996,-2.330642532412128,-0.006058397250429004,-0.11695774255450797,-0.040094340803456294,-1.3583107396098406,-4.179354176178281,-0.39158656817393317,-0.006630330168336982,-0.00030966604151938727
0.6,0.10620713665579806,1.4253962004356187,-0.25068097216518304,0.39320526495242036,0.012428783888861868,0.00017199168554325587,0.1882428980352992,-0.30391313408386833,2.353193626162308,0.7126046665764231,0.03455234910342387,-0.0007813182820373921,-1.005764413599865,-0.12099310533947195,-14.655804103360703,-2.539332429732383,-0.0376357614617715,-0.11912406300711542,-0.03429347477632503,-1.155795854407757,-4.128520376920614,-0.38027649604186464,-0.005498288927057748,-0.0002895334533409022
0.61,0.1079952015725237,1.42234631169593,-0.22860019843137935,0.40006290496401187,0.012766771338822532,0.00016310076989987688,0.17880649167256368,-0.3049888739688616,2.2080773733803687,0.6857640011591503,0.03379874499606631,-0.0008890915643379003,-1.061821891500191,-0.11090018380759988,-14.59044187877048,-2.7122726282979883,-0.07202024146760211,-0.11893581988328517,-0.02899309346680933,-0.9724490465502442,-4.050674970699673,-0.36280046393256726,-0.004367534444013376,-0.00026637491805239305
0.62,0.1096840464398643,1.4192868858300376,-0.2079647841564465,0.4066379771772078,0.013094672043773861,0.00015320897186839067,0.1688844867340616,-0.3059425865892452,2.063541427493285,0.6575072213195933,0.03279007049513292,-0.0009891798031486205,-1.108187437410501,-0.09612233283728305,-14.342383111468124,-2.8487752623389326,-0.10774970709785425,-0.1162122273815901,-0.024253356211658344,-0.808221622851178,-3.952794366223458,-0.3406337444706278,-0.0032621563613178754,-0.00024124725173084273
0.63,0.11126978883517857,1.4162195550737446,-0.18875080482276224,0.41292000218744057,0.0134099143826472,0.00014243412141967088,0.1585742395314268,-0.3067330756293053,1.9213979333684255,0.6282025010232809,0.03152423388733395,-0.0010774850448719803,-1.1426793051660722,-0.07762351662903803,-13.953746729211481,-2.9498287009322013,-0.14308006833470632,-0.1109426849811207,-0.020096340883859195,-0.6622952847954715,-3.840641160775922,-0.31501390518471806,-0.0022024902031236296,-0.00021500736122565664
0.64,0.11274970893840924,1.413146267171936,-0.1709203668513614,0.41890195199590907,0.0137100401526995,0.00013093225854201118,0.14799201032306647,-0.3073287901808718,1.783043797140086,0.5981949808468487,0.030012577005229947,-0.001150186287765971,-1.1635251099121593,-0.056389017746525084,-13.459512800731135,-3.017443842541745,-0.17613239875802222,-0.1033074335704861,-0.016514422651068606,-0.5333859532762084,-3.7189425135392113,-0.28697494956404823,-0.001204939122876931,-0.00018833972374905698
0.65,0.11412239335425631,1.4100691904173857,-0.1544250610299023,0.4245799628101033,0.013992843607828749,0.00011889120333473755,0.13726844158470575,-0.30770767545503636,1.6495305821459094,0.5678010814194246,0.028280345512924767,-0.0012041055207273625,-1.1695611616029538,-0.033360026293580584,-12.888617250462017,-3.05422115713521,-0.20507804458511514,-0.09367292660927673,-0.013478054921524322,-0.4199666949937251,-3.59154485721007,-0.25737603242742907,-0.00028189324885283533,-0.00016178081293037648
0.66,0.11538781663941267,1.406990625401745,-0.13920882263393314,0.4299530209353048,0.01425650064505975,0.00010652088637023722,0.12654232851563638,-0.3078565015640672,1.5216238395969173,0.5373058125201507,0.026365703723100202,-0.0012370316964500328,-1.1603786273029202,-0.009389584437013857,-12.264870554094589,-3.063067549286952,-0.22833534645970693,-0.08255911930729287,-0.010942726709304493,-0.3204243974366963,-3.461548204912992,-0.2269259502075746,0.0005582294644292862,-0.00013574112222023484
0.67,0.11654734959828165,1.403912926843499,-0.12521028743718365,0.4350226407951603,0.014499673542058597,9.404139699228084e-05,0.11595329588689897,-0.3077698558245973,1.3998535196749498,0.5069619859855468,0.024317289699884632,-0.0012479489377956385,-1.1363875037327824,0.014783525146055765,-11.607736559993649,-3.0470126606168506,-0.24474427156318995,-0.07058260354894513,-0.008854963552592295,-0.23316447506086957,-3.331422628744206,-0.1962042523435431,0.0013108010259420167,-0.0001105251951280622
0.68,0.11760369182642082,1.4008384373114238,-0.11236471959374539,0.4397925469744134,0.014721579259063233,8.167011645585358e-05,0.10563422281391643,-0.30744895320753124,1.284556784343827,0.47699061792531033,0.02219057170046354,-0.0012371280536427256,-1.098784271702669,0.038546529229722064,-10.932997667412508,-3.009089917855544,-0.25368675199207874,-0.05838578345040202,-0.007157301371492441,-0.15667634533296418,-3.2031090385432823,-0.1656795776225582,0.001974653627275549,-8.63498513483099e-05
0.6900000000000001,0.11856073504011365,1.397769433441572,-0.10060557652751775,0.4442683676077941,0.014922014219602951,6.96094634674434e-05,0.09570432136928331,-0.30690038698517924,1.1759143066227635,0.44758206333806805,0.02004349605397187,-0.001206065298841019,-1.0494282875312806,0.06141355090302799,-10.253325640779828,-2.9522591860423653,-0.25513114334151343,-0.04656580774424296,-0.00579221139451359,-0.08957036842170674,-3.0781060935042435,-0.13572565613999069,0.0025516157590005327,-6.336062810046437e-05
0.7000000000000001,0.11942337159514052,1.3947080843421316,-0.08986576687085988,0.44845734356810274,0.015101334646959489,5.803664123298387e-05,0.0862636555026875,-0.3061349099440364,1.073980965665787,0.41889759603086274,0.017932042735653717,-0.0011572822234459526,-0.9906497952552502,0.08301883182545568,-9.578772469304456,-2.879356071692321,-0.24959583333559587,-0.03561646955701098,-0.004705001006370576,-0.03059482350939327,-2.957544858076867,-0.10663530512928748,0.003045947600902041,-4.1646359990892457e-05
0.71,0.12019726777595464,1.3916564212636249,-0.08007864972834386,0.4523680561161715,0.015260397584737163,4.709637722794721e-05,0.07738961808141225,-0.3051663078506777,0.9787117142516024,0.39107125480687294,0.01590629377776743,-0.0010940264005036662,-0.9250237901884376,0.1031050408591509,-8.917192611055395,-2.793058488455081,-0.23804430192752876,-0.025892100605801383,-0.0038457630087977935,0.02136047185967116,-2.8422526729874322,-0.07863267826100892,0.003463723413957841,-2.1251811842113518e-05
0.72,0.12088862319390545,1.3886163172383907,-0.07117881683714763,0.45601017454852943,0.015400472399094863,3.689710234676354e-05,0.06913554179507977,-0.30401040252340816,0.8899832891196219,0.36421184323579486,0.014007481435769933,-0.0010199274881183666,-0.8551462419935837,0.12150890107126573,-8.274605705484753,-2.6958647502871074,-0.22173658517675607,-0.01759636897634892,-0.003170489859156702,0.06726898028918316,-2.7328075640864995,-0.05188397582850071,0.0038122137336103605,-2.188332128785276e-06
0.73,0.12150393611212541,1.3855894752137727,-0.06310269335516129,0.45939422464558344,0.015523135054145796,2.7510466155200004e-05,0.0615312918219961,-0.30268420246180927,0.8076123481986347,0.3384050097054002,0.012266265505093216,-0.0009386636191563533,-0.7834430595361948,0.1381458424743855,-7.655507133656423,-2.5900797584310276,-0.20206702676178268,-0.010793061440527885,-0.0026415025770326803,0.1079771566203511,-2.6295843574377757,-0.026506782352848424,0.004099315436243958,1.5557419291420215e-05
0.74,0.12204979055304337,1.3825774231689696,-0.05578898787873224,0.4625313782177778,0.015630157619375182,1.8973649965781693e-05,0.0545854440917955,-0.301205204480325,0.7313705476429054,0.313715357219437,0.010702256522938516,-0.0008536816189418311,-0.7120307920110791,0.15299490120163223,-7.06313353151325,-2.4778072183315203,-0.180415361185161,-0.005432089026309178,-0.002227360497449037,0.1442166121793423,-2.532793652966384,-0.0025781977995158467,0.004333065641568829,3.201650831295103e-05
0.75,0.12253267581755511,1.3795815147717956,-0.04917901785602399,0.4654332636704529,0.01572340372224971,1.1293685961714522e-05,0.04828852645117489,-0.2995908397174112,0.6609970022708243,0.2901885452675085,0.009324610287452535,-0.0007679964004067171,-0.6426354205882391,0.16608467427395365,-6.499688539641968,-2.3609466526827383,-0.15802996693122962,-0.0013827118191979126,-0.0019024156802190885,0.17661708560570716,-2.442514562764835,0.019858120135677143,0.004521259621451954,4.723231842148266e-05
0.76,0.12295884369452967,1.3766029342614765,-0.04321693264493331,0.4681117972074889,0.015804737742062088,4.452924876722502e-06,0.04261678769745494,-0.29785805103190754,0.5962085211090686,0.2678533537035988,0.00813340198123815,-0.000684076108499202,-0.5765649941838219,0.1774808019719877,-5.966534356839726,-2.2411943707352897,-0.1359519759936139,0.0015330685211824568,-0.0016461580967547594,0.20571919996856494,-2.3587221350964125,0.04078587064751754,0.004671177533283965,6.125643500268398e-05
0.77,0.1233342040181548,1.3736427044076869,-0.03784985309641443,0.47057903404240986,0.015875952249303854,-1.5851222207670722e-06,0.03753603236251316,-0.29602298537896776,0.536707954851888,0.24672368349209473,0.007121450724176522,-0.0006038047097489574,-0.5147250898292016,0.1872752013831608,-5.464351925536399,-2.1200477941191167,-0.11497982813018415,0.00351180807176793,-0.0014424693426535623,0.2319863572644489,-2.2813099998435575,0.060210926686948496,0.004789412340606358,7.414560043255012e-05
0.78,0.12366425580157397,1.3707016965724301,-0.03302794345629887,0.4728470387777658,0.01593871517306073,-6.87017054399049e-06,0.03300517834191801,-0.2941007835256698,0.4821909640115559,0.2268004735355958,0.0062762923756875975,-0.0005285048323223418,-0.45766331220131523,0.1955770699441369,-4.993282292095494,-1.9988124673803522,-0.09566758190642402,0.004747022432844,-0.0012788731078024816,0.25581568362208107,-2.2101100159373637,0.07815669866752983,0.00488178407339184,8.595934685808523e-05
0.79,0.12395404904766735,1.3677806420757759,-0.028704429525993926,0.4749277739225898,0.01599453582125476,-1.1460176772561872e-05,0.028979324609338348,-0.2921054496654151,0.4323513930304947,0.20807351448239597,0.005582064819402802,-0.00045900062285713803,-0.40562956571696424,0.20250562667696612,-4.553035826388233,-1.8786116378594304,-0.07834726309113013,0.005415076980786193,-0.0011458352708699003,0.2775474661464405,-2.144907301801943,0.09466046724485297,0.0049533202307285905,9.67584319552426e-05
0.8,0.12420817136385505,1.3648801442284462,-0.024835573863053004,0.476833005391384,0.016044747328087562,-1.5417193998964698e-05,0.025412231618769914,-0.2900497847329632,0.386885566294092,0.1905231468794243,0.005021150683280281,-0.0003957017226402824,-0.35864114675918707,0.20818436783938732,-4.1429973027954885,-1.7603973106994957,-0.06316524211606231,0.005667635983081648,-0.0010361500372111927,0.2974737383093624,-2.0854543940394783,0.10976985367794473,0.00500828482716242,0.00010660345220559062
0.81,0.1244307534229165,1.3620006905394924,-0.021380618395789322,0.478574223698858,0.016090502314907267,-1.8804126699890717e-05,0.022258205906144253,-0.2879453688953868,0.345495546726368,0.17412183074740023,0.004575498681970272,-0.000338693270092602,-0.31654498202402065,0.21273673108075628,-3.7622764535381354,-1.6449630557925072,-0.05012408873487417,0.005629130404850968,-0.0009444127433799209,0.3158446687935833,-2.0314780275334208,0.12354096482462623,0.005050235241802741,0.00011555451434116043
0.8200000000000001,0.12462548780587285,1.3591426647243579,-0.018301699466755205,0.4801625796004742,0.016132778368990044,-2.168234150385316e-05,0.019473438295634325,-0.2858025815134448,0.3078918929034116,0.15883559016162102,0.004227605408277681,-0.00028782148039624433,-0.27907181713135865,0.2162824152668968,-3.4103179717262093,-1.5329546851444125,-0.03912366318964203,0.005397606009102884,-0.000866713579881897,0.3328894195810196,-1.982759054323252,0.13601957640001366,0.00508213766150276,0.0001236603560397356
0.8300000000000001,0.12479565661283289,1.3563063583780262,-0.015563795328688942,0.4816088310702927,0.0161723901974629,-2.4110026109494837e-05,0.017016880696004138,-0.28363063463316535,0.2737904138066263,0.14462514698184692,0.003961182847285378,-0.00024276846056416775,-0.24588265783739868,0.2189378637473589,-3.085259037608055,-1.4249079757153984,-0.029997255572529677,0.0050475809673878325,-0.0007999236560462431,0.34877539033500177,-1.9389180736493756,0.14729050946014216,0.005106327043732478,0.00013098970787908283
0.84,0.12494416401020778,1.3534919818510442,-0.013134544697611326,0.48292330438350617,0.016210005728636227,-2.614117023796793e-05,0.0148507397374893,-0.28143765269819926,0.2429250631077616,0.1314473313213519,0.0037615531173328227,-0.00020311441284730954,-0.2165474406921982,0.22076479137925623,-2.8352319375144313,-1.3210127665452749,-0.02254251957907598,0.004633709638227873,-0.0007526897981842851,0.3650086721897435,-1.9061361971078916,0.1559215166013644,0.005128375344979743,0.00013666401676561333
0.85,0.12507357520553342,1.3506996861396636,-0.01098898072305905,0.4841157032966313,0.016246165613148983,-2.7824870849737815e-05,0.012941119532563612,-0.2792295711380547,0.21455639745522756,0.11923989131251402,0.0036159884512754407,-0.00016837006117698827,-0.19068202123189143,0.22201650329794204,-2.6481790345493863,-1.2233349027254699,-0.0165226996241071,0.00419816592468622,-0.0007210275958940332,0.38144158388327204,-1.8828344103838017,0.16228012776279574,0.005149248950113316,0.00014091887967584204
0.86,0.12518615133327243,1.3479295833460945,-0.009108352562666166,0.4851949777555679,0.016281302366511388,-2.920529093213078e-05,0.011257612773901379,-0.27701027935691774,0.18806281603928848,0.10792744589366503,0.003513675336240653,-0.00013804200823929637,-0.1679719412839257,0.2229466215936902,-2.4561065179570556,-1.1334105721330934,-0.0117122916941622,0.0037663090894073936,-0.0006890336219622958,0.39634898136039987,-1.8601037659759603,0.16843112017859313,0.0051653143944438065,0.0001450442599976025
0.87,0.125283878390205,1.3451817486310744,-0.007473444219974246,0.4861694400438149,0.016315756337342984,-3.0322057684803923e-05,0.009772705693257071,-0.27478347150200644,0.16349083426919195,0.09744622882470057,0.003445397083159677,-0.00011167667526731444,-0.14806351227480655,0.22353451596441815,-2.2598459418511547,-1.0499148335830597,-0.007928960705926538,0.0033498422761993607,-0.0006562430095754243,0.4098472971746247,-1.837909672554266,0.17438391506441323,0.005177493998371919,0.00014905313552302567
0.88,0.12536849855482307,1.3424562189170286,-0.006064651431499271,0.4870468736847998,0.01634979052395852,-3.121043416937872e-05,0.0084620164618083,-0.27255297140457846,0.1408792788474975,0.08774336409849023,0.003403418661553477,-8.883764845747996e-05,-0.13062516507355237,0.2237611581370927,-2.0671445641829704,-0.9717435459899928,-0.005004699744253924,0.0029583179255546765,-0.0006239517300706468,0.4222446102897863,-1.817131240396324,0.1799364744164222,0.00518706775148016,0.0001528257006406721
0.89,0.1254415392419191,1.3397529940246549,-0.00486273946718003,0.48783459867853857,0.016383604179558347,-3.1901516534501354e-05,0.007304068709602688,-0.2703224892373791,0.12019119643192405,0.07877249937387443,0.0033813655599829744,-6.910823651226307e-05,-0.11535867324138989,0.22363797707760258,-1.8726730349030698,-0.8982535011466926,-0.0027863078305208483,0.002597877361691883,-0.000590660385635141,0.433490388930248,-1.7969582474603445,0.18527791901354976,0.0051942216903558425,0.00015648244954324307
0.9,0.12550433921829793,1.3370720362635176,-0.003848316644684464,0.48853954511734987,0.016417344572956377,-3.2422561901853445e-05,0.0062799976378834325,-0.26809577611372126,0.10144228224955666,0.07049464388113183,0.003374039339803028,-5.2104536735209136e-05,-0.1019954008217502,0.2231589288032337,-1.6797340492413284,-0.8287076235722184,-0.0011422923653506278,0.0022706618274436763,-0.0005569428177297531,0.44376922449488043,-1.7777042702443562,0.19033727026298655,0.005199654770402015,0.00015998221454034106
0.91,0.12555807194580157,1.3344132712635615,-0.0030021563969723024,0.48916830353079127,0.01645111722900789,-3.2797301434726665e-05,0.0053732727503633835,-0.26587649999560037,0.08461602477121614,0.06287584134414206,0.003377265605151389,-3.747395328732164e-05,-0.09029609737991684,0.2223301506369646,-1.4916900099138661,-0.7625991731059192,4.1256180013320154e-05,0.0019771645624159367,-0.0005234794423467342,0.45326757453468586,-1.7597028045146876,0.19503931012333128,0.005203988569014488,0.0001632800834940183
0.92,0.12560376629761738,1.3317765899444638,-0.0023055260569213166,0.4897271555497378,0.01648499469620493,-3.3046264657712956e-05,0.00456943518158098,-0.2636681319097651,0.06966303400509857,0.055885201894652264,0.0033877467197041254,-2.489632229862919e-05,-0.08004703580521495,0.22116729312912414,-1.3081413231851928,-0.6996091741766546,0.0008614132907781014,0.0017164746933504421,-0.0004901337223714489,0.4620661368519521,-1.742806784101357,0.1994204299745423,0.005207490359329009,0.00016639867532825954
0.93,0.12564232506393008,1.3291618500702431,-0.0017401463724233109,0.49022210230788427,0.01651902381487625,-3.31871277632107e-05,0.0038558766312702516,-0.2614739874220626,0.05653796844980058,0.04949467581465002,0.003402911867131941,-1.4086310549774364e-05,-0.07106285841483899,0.21968630060344338,-1.1292360977860143,-0.6394597032017639,0.0013984285393833923,0.0014864679517782586,-0.00045695103736913625,0.4702578657720793,-1.7269448576905357,0.2034997205924617,0.005210403815079821,0.00016934963675531867
0.9400000000000001,0.12567454097112488,1.3265688780033233,-0.0012882050387864284,0.4906588874022224,0.01655323168440544,-3.3235040458206714e-05,0.0032215907194802704,-0.2592972066919843,0.045194133363688244,0.043678509433816876,0.0034207869529190495,-4.791269499601436e-06,-0.06317946448224675,0.21790146256158724,-0.9656323656734227,-0.581910988458803,0.001717963281760486,0.001284592039437496,-0.0004264174479798194,0.4782238186380529,-1.7134263543207582,0.2069774705704382,0.005213726861190566,0.0001719468244462198
0.9500000000000001,0.12570111074421525,1.3239974738627218,-0.000933403935170867,0.4910429786439529,0.016587630847477188,-3.320287878363884e-05,0.0026569773090366457,-0.2571404140601634,0.03548011036155614,0.03840912417304833,0.0034399163071747066,3.2161674567873225e-06,-0.056242296028003964,0.21585201972140527,-0.8138678519197041,-0.5270957377159924,0.0018767088013340524,0.0011087731208729926,-0.00039770979643797085,0.4859497119756555,-1.7017408252753436,0.20997579943887495,0.005217360669009621,0.00017426192689422459
0.96,0.1257226485100502,1.3214474141427428,-0.0006606191124049301,0.49137956933100535,0.0166222232601096,-3.310157833376661e-05,0.0021537765834949768,-0.2550059719978928,0.02727848227659369,0.03365906870524157,0.003459241263240985,1.0130044987222504e-05,-0.0501707230758542,0.21360935917938115,-0.662508867451934,-0.4751963247991242,0.001918793759505686,0.0009557796497243684,-0.00036859846146099006,0.49319795395861055,-1.6903393726200482,0.21285582970562986,0.005220569315513059,0.0001765235680467712
0.97,0.1257396927647087,1.3189184547536434,-0.0004547770531246563,0.4916736041219722,0.016657003118517092,-3.294040698980707e-05,0.0017044254658513608,-0.25289593890993617,0.020584205928027375,0.029403479096682974,0.0034779858407494794,1.6117134395954474e-05,-0.044817136567669204,0.21113628042087967,-0.5361480022696049,-0.4256689866643568,0.0018743673863037859,0.0008226172724882935,-0.00034452437209817575,0.5007160898875651,-1.6823554164009635,0.21489740998642493,0.005225303259294085,0.00017827852637228238
0.98,0.1257527189916784,1.316410336036743,-0.0003032711544576955,0.49192973623406594,0.016691959812625994,-3.27271023822626e-05,0.0013026226969685818,-0.2508118716900493,0.01515058986669608,0.025613211209375823,0.0034956694108902457,2.1330460754446994e-05,-0.040102206666866744,0.20852224949401985,-0.41842561612128454,-0.37911038131936325,0.001776044549597594,0.0007079463862684904,-0.0003219190540199214,0.5081197151139981,-1.6756333607825982,0.21660356973943815,0.005230419528851402,0.00017983748629732293
0.99,0.12576214663107113,1.313922785676904,-0.0001943550721201825,0.49215233602246106,0.01672707965050537,-3.246817286874212e-05,0.0009427639392748639,-0.2487550359838853,0.010891608233751302,0.022259978839514052,0.0035119837879378124,2.5892951352047845e-05,-0.03594569701748002,0.20578653127289956,-0.32585457413690283,-0.3353947061552567,0.001642646432089341,0.0006085335661029576,-0.00030469845923084113,0.5159236745710415,-1.6722863205885765,0.21749008858109845,0.005237255407472112,0.0001808992343343128
