tonegas/nnodely-applications/joint_friction_estimation/dataset/train/mpc_mujoco_episode_21.csv
time,q1,q2,q3,q4,q5,q6,dq1,dq2,dq3,dq4,dq5,dq6,ddq1,ddq2,ddq3,ddq4,ddq5,ddq6,tau1,tau2,tau3,tau4,tau5,tau6
0.0,0.0,1.57,-1.57,0.0,0.0,0.0,0.0,0.0,0.0,0.0,0.0,0.0,2.6471887702440964,-1.4532539193247052,2.4840759843237215,1.084181657489537,0.3887520746011983,-3.5327195710976866e-06,0.36916437883810693,-4.832780365622831,-4.430749155745003,-0.9843604025566719,0.03331874252568412,-5.196663309319009e-05
0.01,0.0002633493397832566,1.5698560394613676,-1.5697531650249659,0.00010098343463789142,3.274347820214843e-05,3.909348098080745e-07,0.02633493397832566,-0.014396053863247348,0.024683497503417497,0.010098343463789142,0.0032743478202148426,3.909348098080745e-05,2.6106990720790275,-1.4273287594216375,2.461898446677203,1.0069086750971787,0.3248312673008069,0.00390861705590595,0.36577859699829524,-4.826833198197305,-4.429624548511735,-0.9841613326295929,0.0330224880091702,-5.569001982190936e-05
0.02,0.0007862147778103579,1.5695707362508073,-1.5692621187382547,0.00029678490760057274,9.422946944512899e-05,1.189456138033418e-06,0.052286543802710125,-0.028530321056035812,0.04910462867111834,0.019580147296268134,0.006148599124298056,7.985213282253434e-05,2.5707184703316077,-1.4003863449750178,2.4351103293991714,0.9449529452710288,0.284692713093607,0.00407263199818253,0.36185347371647875,-4.8197716929682475,-4.428474336509232,-0.9839282442215347,0.03268730572444332,-6.012597872131993e-05
0.03,0.001564499061193293,1.569146796758502,-1.568529833168276,0.0005823998108933522,0.00018188744682851293,2.3689592136893813e-06,0.07782842833829352,-0.04239394923053114,0.07322855699787051,0.028561490329277947,0.008765797738338393,0.00011795030756559633,2.5281288946890776,-1.3726283949880884,2.4048281864764594,0.8945956393346997,0.2589186186523289,0.0038001934406861615,0.35741298712839725,-4.8116441315878795,-4.427316975566076,-0.9836658437045113,0.03231476217519598,-6.524467094617031e-05
0.04,0.00259389577406304,1.5685869988424144,-1.5675595441755161,0.0009537024761278536,0.00029401076579116836,3.905177579431019e-06,0.1029396712869747,-0.055979791608772395,0.09702889927599463,0.03713026652345014,0.011212331896265547,0.00015362183657416373,2.4834817262007842,-1.3442228441522135,2.371897697370997,0.853015469732612,0.2418397095307938,0.0035464620265690527,0.35248216803789933,-4.802497633325425,-4.426170164485291,-0.9833786260931073,0.03190648794194533,-7.10148553096721e-05
0.05,0.0038699243578207026,1.5678941774112625,-1.5663546874895318,0.001407232249975284,0.00042941470087800405,5.779733786953451e-06,0.12760285837576626,-0.06928214311519955,0.12048566859843687,0.045352977384743046,0.013540393508683569,0.0001874556207522432,2.4371295238578785,-1.3153117991183665,2.3369583987411335,0.8180714127862836,0.23003288427446478,0.0033466636165129238,0.34708681016776777,-4.792378263829956,-4.425050935467271,-0.9830708964144372,0.03146415553443723,-7.740461298615223e-05
0.06,0.00538795321859999,1.5670712120293626,-1.5649188504207958,0.0019400311472259442,0.0005872298328714411,7.978541206868651e-06,0.1518028860779287,-0.08229653818997844,0.14358370687360222,0.053279889725066025,0.015781513199343705,0.00021988074199151997,2.389305329988954,-1.2860174129603221,2.300492814069384,0.788138949344102,0.22142875089564917,0.0031847518866490176,0.34125325021957215,-4.781331035251851,-4.423975688982797,-0.9827467785550281,0.030989464664380396,-8.438170050934472e-05
0.07,0.007143215689608841,1.5661210160900625,-1.5632557355187628,0.0025495206723184618,0.0007667771338738605,1.0490239342007686e-05,0.1755262471008851,-0.09501959393000178,0.16631149020330266,0.06094895250925178,0.017954730100241942,0.00025116981351390347,2.3401704501156857,-1.2564462416740863,2.262863868485778,0.76198576907005,0.21477506520235679,0.0030451089035281598,0.3350081899706985,-4.769399842628304,-4.422960194239273,-0.9824102165306002,0.030484131826204738,-9.191371268474835e-05
0.08,0.009130821720110599,1.5650465272239356,-1.561369133334017,0.0032334083791021252,0.0009674923909454871,1.330514097328901e-05,0.1987606030501758,-0.10744888661269549,0.1886602184745815,0.06838877067836635,0.020071525707162658,0.0002814901631281325,2.289843240759068,-1.2266924772699035,2.224343402080428,0.7386773249309782,0.20931310663994296,0.002917271998699178,0.3283785450578359,-4.756627364692844,-4.422019568743731,-0.9820649713047412,0.02994988244351658,-9.996815816509092e-05
0.09,0.011345767020141995,1.5638506986958913,-1.5592629021174689,0.003989617003146071,0.0011888804338157108,1.641456819148166e-05,0.22149453000313973,-0.11958285280442775,0.2106231216547987,0.07562086240439456,0.022138804287022376,0.0003109427218192651,2.23841644791144,-1.1968403448127398,2.185133905401259,0.7175050755687771,0.20458231116968584,0.002794678589115973,0.3213913119811073,-4.743054946885073,-4.421168245731101,-0.9817146151590085,0.029388444597514413,-0.00010851249986251928
0.1,0.013782940701120787,1.562536491610453,-1.5569409528037443,0.004816230723385916,0.0014304873708464669,1.9810438497563382e-05,0.24371736809787925,-0.1314207085438322,0.2321949313724646,0.08266137202398449,0.024160693703075598,0.0003395870306081722,2.185967640543627,-1.1669658758297923,2.1453850936551233,0.6979319820265308,0.20030229760402385,0.002673267035902649,0.3140734487209147,-4.728722477898508,-4.420419935247707,-0.981362524916016,0.028801543782501507,-0.00011751418488656725
0.11,0.01643713203699145,1.561106867792724,-1.5544072380174174,0.005711454419749244,0.001691883709587204,2.3485006520651013e-05,0.2654191335870664,-0.14296238177288734,0.2533714786327021,0.08952236963633288,0.026139633874073708,0.0003674568023087632,2.1325654785646684,-1.1371382163207622,2.105206551509563,0.679551123703809,0.19630162088531833,0.0025505282821602915,0.3064517665044684,-4.713668267106554,-4.419787582781622,-0.9810118748737771,0.0281908983764372,-0.0001269406746284656
0.12,0.019303036719906803,1.559564783248374,-1.5516657441387833,0.00667358278911708,0.001972654059640337,2.7430702181469735e-05,0.2865904682915353,-0.15420845443500023,0.2741493878634047,0.09621283693678356,0.02807703500531329,0.00039456956608187213,2.078273467225158,-1.1074205878292416,2.064677387035696,0.6620542859841358,0.19247474303336176,0.002424913657141037,0.29855283142828165,-4.697928927705784,-4.419283328101697,-0.9806656300246229,0.02755821565123565,-0.00013675947873710537
0.13,0.022375262833212204,1.5579131821324952,-1.548720485692712,0.007700976938632221,0.002272390819485495,3.1640028857321015e-05,0.30722261133053996,-0.16516011158788368,0.29452584460713416,0.10273941495151419,0.029973675984515828,0.00042093266758512775,2.0231521944995365,-1.077870990564781,2.0238536094581216,0.6452081245590793,0.1887560460490576,0.0022954714920275787,0.29040287525786884,-4.681539268829561,-4.4189184661544205,-0.9803265399454638,0.02690518822379192,-0.00014693819358125974
0.14,0.025648336673241217,1.556154991176758,-1.5455755014967847,0.008792046650167728,0.0025906902780367335,3.61054991385799e-05,0.32730738400290144,-0.17581909557371034,0.3144984195927291,0.10910697115355064,0.03182994585512383,0.0004465470281258888,1.9672606527524295,-1.0485427155933795,1.9827737746175091,0.6288360848569092,0.18510413780369994,0.0021616246927840255,0.28202771502800256,-4.6645321988573345,-4.418703411317616,-0.9799971336211573,0.026233490890520322,-0.00015744454451157105
0.15,0.029116708496360156,1.5542931145386538,-1.5422348521363511,0.009945236946292763,0.002927150183287343,4.0819594359184214e-05,0.3468371823118939,-0.18618766381041787,0.3340649360433438,0.11531902961250344,0.033645990525060974,0.00047140952206043145,1.9106570075971132,-1.019484716649227,1.941463311879059,0.6128046916253584,0.18149237477573443,0.0020230344164162695,0.27345268119446864,-4.646938641457144,-4.418647665926438,-0.979679715376637,0.02554477781041634,-0.0001682464308531033
0.16,0.03277475823446506,1.5523304290470517,-1.5387026184342243,0.011159017919487854,0.0032813682058207144,4.577473934447007e-05,0.3658049738104902,-0.19626854916021225,0.3532233702126782,0.1213780973195091,0.03542180225333715,0.0004955144985285859,1.8533990330152743,-0.9907418797389681,1.8999378470578618,0.597013156047566,0.17790313958033366,0.0018795163193110476,0.26470255412058774,-4.628787465421717,-4.41875979371197,-0.9793763620324238,0.02484068001282789,-0.00017931197257712396
0.17,0.03661680120208114,1.5502697798257845,-1.5349829006589835,0.012431877037904446,0.0036529409517014094,5.0963287048723976e-05,0.3842042967616081,-0.2060649221267098,0.37197177752408006,0.12728591184165924,0.0371572745880695,0.0005188547704253904,1.795544344998838,-0.9623552193648554,1.8582057604293052,0.5813855006014013,0.17432438607172784,0.001730988962266311,0.2558015086640803,-4.610105429009583,-4.419047398587873,-0.9790889213531739,0.024122803211115026,-0.0001906095577715212
0.18,0.04063709380611673,1.5481139762822371,-1.531079818274007,0.01376231333182895,0.004041463316178409,5.637750974366915e-05,0.402029260403559,-0.2155803543547292,0.390308238497643,0.13304362939245032,0.03885223644769998,0.0005414222694945175,1.7371505135741068,-0.934362023126162,1.816270161445068,0.5658645941383318,0.1707475536101315,0.001577441923704237,0.24677306658807652,-4.590917139235487,-4.4195171090635155,-0.9788190118248038,0.023392725904991064,-0.0002021078902355144
0.19,0.04482983926202783,1.5458657884514935,-1.5269975100737527,0.015148833009792396,0.004446528052292349,6.200959464910701e-05,0.41927454559111044,-0.22481878307436814,0.4082308200254386,0.13865196779634475,0.04050647361139401,0.0005632084905437861,1.678275101433884,-0.9067959610988275,1.7741304180824367,0.5504076358134076,0.1671663077586425,0.001418916024739314,0.23764005646895903,-4.571245026339076,-4.420174568437708,-0.9785680237688957,0.02265199775417386,-0.00021377603671525513
0.2,0.04918919331575227,1.5435279436889233,-1.522740134587763,0.016589946163054183,0.004867725478361132,6.785164266133818e-05,0.435935405372444,-0.23378447625700807,0.42573754859897023,0.1441113153261785,0.042119742606878244,0.0005842048012231175,1.618975658304036,-0.8796871723202214,1.7317833455420522,0.534982737579194,0.1635757795394257,0.0012554910024293875,0.2284245807217223,-4.5511093334788235,-4.421024430825823,-0.9783371217812903,0.0219021382049576,-0.00022558347345421378
0.21,0.05370926996812508,1.5411031237054704,-1.5183118706589098,0.018084164300409992,0.00530464327840042,7.389566931241335e-05,0.4520076652372804,-0.2424819983452903,0.44282639288531456,0.14942181373558092,0.043691780003928885,0.000604402665107517,1.5593096886417113,-0.8530623376059285,1.6892241337781095,0.5195663393364289,0.15997210518086113,0.0010872777678061496,0.2191479893154191,-4.530528121540515,-4.4220703629891425,-0.978127248463812,0.02114463534997849,-0.00023750013185311754
0.22,0.05838414719689628,1.538593961940576,-1.5137169181224124,0.019629998518331037,0.005756866367656698,8.013360739316799e-05,0.4674877228771207,-0.2509161764894474,0.4594952536497476,0.1545834217921046,0.04522230892562776,0.0006237938080754636,1.499334603304197,-0.8269447455580823,1.6464470741857122,0.5041412549391038,0.15635214671297337,0.0009144134845644469,0.20983085970967663,-4.509517288807389,-4.423315051863616,-0.9779391294027729,0.020380945000097142,-0.00024949644312201053
0.23,0.06320787267052068,1.5360030412678327,-1.5089594985276227,0.02122595815919638,0.006223976806327364,8.655731086252777e-05,0.4823725473624404,-0.25909206727431966,0.4757419594789742,0.1595959640865345,0.046711043867066676,0.0006423703469359783,1.4391076616314686,-0.8013543568148286,1.6034461312273172,0.48869519592222677,0.15271332115065572,0.0007370583713957046,0.2004929825096791,-4.48809060511081,-4.424760217624415,-0.9777732793349977,0.019612489946138834,-0.00026154338186724517
0.24,0.06817446944732458,1.5333328920282403,-1.504043855856569,0.022870549846523824,0.006705553751076481,9.31585597859869e-05,0.4966596776803902,-0.2670149239592463,0.49156426710537077,0.16445916873274416,0.048157694474911694,0.0006601248923459131,1.3786859078574198,-0.7763078702025205,1.5602153937549674,0.4732196567740661,0.14905349463684203,0.0005553935498441298,0.19115335231206126,-4.466259759961967,-4.426406632069588,-0.9776300094309499,0.01884065938731936,-0.00027361250859472044
0.25,0.07327794165332607,1.5305859903854397,-1.4989742572026132,0.02456227681343998,0.007201173437855446,9.992906612311387e-05,0.5103472206001496,-0.2746901642800495,0.5069598653955796,0.16917269669161558,0.049561968677896556,0.0006770506337126976,1.3181261042447983,-0.751818793384577,1.5167494324204613,0.4577090736361282,0.1453709152213527,0.00036961951631342416,0.18183016319809214,-4.4440344240568965,-4.428254142060747,-0.9775094356151431,0.018066808502597342,-0.000285676011132277
0.26,0.07851228013180214,1.5277647569966297,-1.493754993379948,0.02629963846128484,0.00771040919185027,0.00010686048023335334,0.5234338478476064,-0.28212333888099617,0.5219263822665043,0.1737361647844861,0.05092357539948238,0.0006931414110239465,1.2574846624278322,-0.7278975197786839,1.473043583238711,0.4421601895936629,0.14166416841019203,0.00017995496984268833,0.17254080832324553,-4.421422323447372,-4.430301697719171,-0.9774114878359816,0.017292258140960283,-0.0002977067449830245
0.27,0.08387146805760382,1.5248715559920614,-1.4883903794405111,0.028081130100833802,0.008232831461732815,0.00011394439800113581,0.5359187925801673,-0.2893201004568263,0.5364613939436965,0.17814916395489638,0.05224222698825448,0.0007083917767782462,1.1968175739026445,-0.7045514128767509,1.429094172569767,0.42657157589568007,0.13793214594502956,-1.336416006147978e-05,0.1633018830534402,-4.398429325579631,-4.432547385042211,-0.9773359201906499,0.0165182946067813,-0.0003096782726209806
0.28,0.0893494865091882,1.5219086942551403,-1.4828847550795827,0.02990524284036781,0.008768007876174513,0.00012117236850186705,0.5478018451584381,-0.29628617369209853,0.5505624360928398,0.18241127395340073,0.05351764144416974,0.0007227970500731236,1.1361803402836526,-0.6817848986094922,1.3848986951654312,0.4109432706892555,0.13417402209870577,-0.00021008559124469084,0.15412919110746165,-4.375059536321311,-4.4349884625766185,-0.977282321805382,0.015746169516872684,-0.0003215649017329744
0.29,0.09494031999134409,1.5188784209942567,-1.477242484915148,0.03177046359365827,0.0093155033210187,0.00012853590214354678,0.5590833482155888,-0.3030273260883552,0.5642270164434826,0.1865220753290457,0.0547495444844188,0.0007363533641679743,1.075627903755331,-0.6595995660139216,1.3404559541823138,0.3952765061732091,0.13038923408924052,-0.00040994153231754815,0.14503775318174097,-4.351315407024498,-4.437621401762212,-0.9772501283674516,0.014977099706698468,-0.0003333417223986793
0.3,0.10063796190162635,1.5157829275965589,-1.4714679586292285,0.03367527518756487,0.00987488003574187,0.00013602647922722385,0.5697641910282272,-0.3095493397697899,0.5774526285919528,0.19048115939066007,0.055937671472317006,0.0007490577083677059,1.015214578039706,-0.6379942761638911,1.295766170000618,0.379573502121493,0.12657746461947728,-0.0006126495200092785,0.13604181755710654,-4.327197850609952,-4.440441930540901,-0.9772386342024937,0.014212267164370341,-0.00034498464318527197
0.31,0.1064364199335766,1.5126243477530001,-1.4655655909620018,0.0356181565539056,0.010445697727949621,0.0001436355588749933,0.5798458031950237,-0.31585798435588086,0.5902367667226733,0.1942881366340727,0.05708176922077515,0.0007609079647769447,0.9549939801387487,-0.616965279092117,1.2508310631247304,0.3638373090937992,0.1227386254011611,-0.0008179132784252863,0.1271548722166039,-4.302706365604789,-4.443445079812505,-0.9772470047891834,0.013452818972513991,-0.0003564704261158189
0.32,0.11232972140989099,1.5094047578431466,-1.4595398215517252,0.037597582993956206,0.01102751370470146,0.00015135458827762868,0.58933014763144,-0.3219589909853601,0.6025769410276489,0.19794264400506056,0.05818159767518381,0.0007719029402635368,0.8950189630770133,-0.596506338252231,1.2056539152687697,0.3480716887142312,0.11887284104169593,-0.0010254235971574044,0.11838965803817245,-4.277839167023139,-4.446625232309587,-0.9772742896029204,0.012699867239825389,-0.00036777672045215626
0.33,0.11831191853879967,1.5061261775674435,-1.4533951146153685,0.039612026506679714,0.011619883019471153,0.00015917501221626167,0.5982197128908684,-0.32785802757032595,0.614470693635672,0.20144435127235097,0.059236931476969415,0.0007820423938632999,0.8353415498523767,-0.5766088619311855,1.1602396118476557,0.33228102147861627,0.11498043298693705,-0.0012348592356066224,0.10975818266505863,-4.252593322947231,-4.449976173458787,-0.9773194351808564,0.011954489006102707,-0.000378882095214546
0.34,0.12437709358704355,1.5027905708139173,-1.4471359584664887,0.04165995617380861,0.012222358633545198,0.00016708828281399322,0.6065175048243866,-0.3335606753526181,0.6259156148879768,0.20479296671288977,0.0602475614074045,0.0007913270597731557,0.7760128687935972,-0.5572620409172709,1.11459466843122,0.31647023489138415,0.11106190340664357,-0.001445887848945393,0.10127173469943473,-4.226964895644786,-4.453491143795557,-0.9773812983023775,0.01121772610670349,-0.0003897660703424135
0.35000000000000003,0.1305193639629756,1.499399846745647,-1.4407668648683154,0.043739838596381087,0.01283449159065267,0.0001750858694743896,0.6142270375932051,-0.33907240682702483,0.636909359817319,0.20798824225724732,0.061213295710747295,0.0007997586660396372,0.7170830905187506,-0.538452991650276,1.0687272432161008,0.3006447465193889,0.10711791902648926,-0.0016581669257529352,0.09294089790992695,-4.200949086047936,-4.457162892502674,-0.9774586591819131,0.010490584984696074,-0.00040040914638364827
0.36,0.13673288720347318,1.49595586109477,-1.4342923682212758,0.045850138378403626,0.013455831203612479,0.00018315926896475274,0.6213523240497584,-0.34439856508770067,0.6474496647039688,0.21102997820225422,0.062133961295980734,0.0008073399490363135,0.6586013666852659,-0.5201669040250798,1.0226471372033503,0.2848104178770754,0.10314929498211356,-0.0018713447365509284,0.08477556519071977,-4.1745403804188665,-4.460983731650197,-0.9775502345746357,0.00977403644140864,-0.00041079283258465995
0.37,0.1430118658585258,1.4924604176483147,-1.4277170245853168,0.04798931865407625,0.014085925251782908,0.00019130001560283797,0.6278978655052613,-0.3495443446455374,0.6575343635959073,0.2139180275672623,0.0630094048170429,0.0008140746638085228,0.6006157707191476,-0.5023871929814441,0.9763657834797757,0.26897351610532394,0.09915697881247709,-0.0020850612798652968,0.07678495205776485,-4.147732698037898,-4.46494559072546,-0.9776546907001611,0.009069015318585501,-0.00042089967324028044
0.38,0.14935055226755986,1.4889152699107617,-1.4210454105383952,0.05015584165555316,0.014724320188105978,0.00019949969150661196,0.6338686409034057,-0.35451477375529633,0.6671614046921731,0.21665230014769143,0.06383949363230708,0.0008199675903774004,0.5431732407065357,-0.48509565299207746,0.9298962267992995,0.2531406811564971,0.09514203473443539,-0.002298949221685387,0.06897760951551124,-4.120519538770644,-4.469040071055802,-0.9777706558946564,0.008376420107895303,-0.00043071327215163835
0.39,0.1557432532217769,1.4853221229279394,-1.4142821218734103,0.05234816931857805,0.015370561354556713,0.00020774993686761787,0.6392700954217047,-0.3593146982822276,0.6763288664984838,0.21923276630248936,0.06462411664507356,0.0008250245361005905,0.4863195246249911,-0.4682726145517903,0.8832530944912123,0.2373188968105826,0.09110562835193603,-0.0025126348189691283,0.06136143617471318,-4.092894129401937,-4.4732584997443245,-0.9778967329078014,0.007697112486059241,-0.0004402183150321021
0.4,0.1621843345070146,1.4816826352566517,-1.4074317721366785,0.05456476392357561,0.016024193204835696,0.00021604246020966964,0.6441081285237696,-0.3639487671287776,0.6850349736731834,0.2216594604997558,0.06536318502789824,0.0008292523342051752,0.4300991280840144,-0.45189710177395265,0.8364525596090886,0.2215154642730326,0.08704901195741144,-0.002725738826712898,0.053943689547487406,-4.0648495676641225,-4.477591982758715,-0.9780315107675637,0.007031916776335631,-0.0004494005896958979
0.41000000000000003,0.16866822532188977,1.4779984210643224,-1.4004989910117818,0.056804088769932023,0.01668475953318225,0.0002243690485958258,0.6483890814875163,-0.3684214192329292,0.6932781124896658,0.22393248463564164,0.06605663283465533,0.000832658838615617,0.3745552647345152,-0.4359469902141358,0.7895122971347823,0.2057379774595265,0.08297351058158942,-0.002937877376806175,0.04673099648922176,-4.036378962937034,-4.48203145683604,-0.9781735761428749,0.006381619339475776,-0.0004582470038619889
0.42,0.17518942256624895,1.4742710523429141,-1.393488422553294,0.059064608881283925,0.017351803708235074,0.00023272157774809115,0.6521197244359173,-0.37273687214082807,0.7010568458487827,0.22605201113519044,0.06670441750528233,0.0008352529152265355,0.3197298094951502,-0.42039916406207023,0.7424514339822719,0.18999429931827327,0.07888050894162224,-0.003148662831616744,0.039729362797531864,-4.007475572653865,-4.486567739890859,-0.9783215241416949,0.005746967899515334,-0.00046674560040635676
0.43,0.18174249499523323,1.4705020612214372,-1.3864047232754781,0.061344791739676045,0.01802486891092658,0.00024109202204584577,0.6553072428984272,-0.37689911214769,0.7083699277815884,0.2280182858392119,0.06730652026915054,0.0008370444297754622,0.2656632547296147,-0.4052296718736847,0.6952904934868482,0.17429253873776895,0.07477143942866227,-0.0033577046089026674,0.032944182015694656,-3.978132933512301,-4.491191579640614,-0.9784739684897172,0.005128670811855226,-0.00047488556990008
0.44,0.18832208723455907,1.4666929423615107,-1.3792525601015866,0.06364310804645801,0.018703498375465873,0.00024947246437071217,0.6579592239325828,-0.3809118859926479,0.7152163173891594,0.22983163067819568,0.06786294645392917,0.0008380442324866428,0.2123946694933093,-0.3904138800503391,0.6480513350166697,0.1586410277349144,0.07064777126447264,-0.003564609975193811,0.026380243521382768,-3.948344986661214,-4.495893700190036,-0.9786295510428542,0.00452739628298643,-0.0004826572602776065
0.45,0.19492292365292413,1.4628451554206585,-1.372036608179864,0.0659580325077811,0.019387235632542358,0.000257855105767435,0.6600836418365056,-0.38477869408522597,0.7215951921722423,0.23149244613230893,0.06837372570764863,0.0008382641396722832,0.15996166195050893,-0.37592662331577137,0.6007570893043442,0.14304829872659575,0.06651100094319606,-0.003768984817525356,0.020041740010706702,-3.918106196110495,-4.500664846345368,-0.9787869505946587,0.0039437715528992815,-0.0004900521834897257
0.46,0.20153981208776506,1.4589601275683226,-1.3647615485727722,0.06828804464253481,0.02007562475396641,0.0002662322748921661,0.6616888434840938,-0.38850278523360193,0.7275059607091805,0.23300121347537203,0.06883891214240526,0.0008377169124731088,0.10840034504440209,-0.36174235148684786,0.5534320900588329,0.1275230617714469,0.06236264405876907,-0.003970434382172913,0.013932274512251416,-3.8874116596926482,-4.505495825458741,-0.9789448909477764,0.0033783820526693048,-0.0004970630190089919
0.47000000000000003,0.20816764742092067,1.455039256039945,-1.3574320658263126,0.07063162961053669,0.020768210598054154,0.00027459643722164723,0.6627835333155622,-0.3920871528377529,0.7329482746459564,0.23435849680018866,0.06925858440877435,0.0008364162329481143,0.05774530548241573,-0.3478352718873071,0.506101802390227,0.11207418171853611,0.05820422860172325,-0.004168564004141437,0.008054867085768802,-3.856257211990413,-4.5103775466333,-0.9791021482264453,0.002831770550912302,-0.0005036836140709033
0.48,0.21480141500108735,1.4510839107149045,-1.3500528454266392,0.07298727905876128,0.021464539055159167,0.00028294020399860953,0.6633767580166691,-0.3955345325040522,0.7379220399673386,0.2355649448224589,0.0696328457105014,0.000834376677696233,0.008029576078206379,-0.33417948680618687,0.45879274854111407,0.09671065527080358,0.05403728979215684,-0.0043629798129280195,0.002411961375348215,-3.8246395187319484,-4.515301057149558,-0.9792575574146795,0.0023044363037405128,-0.0005099089805524689
0.49,0.2214361939102918,1.4470954367045856,-1.3426285711514099,0.07535349198337017,0.022164157292853426,0.0002912563408908535,0.6634778909204437,-0.39884740103188604,0.7424274275229366,0.23662129246088928,0.06996182376942585,0.000831613689224399,-0.04071538852970408,-0.3207491254615732,0.41153243140030343,0.08144158796785306,0.04986336649507703,-0.004553289440552544,-0.0029945688027938344,-3.79255616224464,-4.520257576003471,-0.9794100181122181,0.0017968342235206297,-0.0005157352884102184
0.5,0.22806716007194663,1.4430751569374112,-1.3351639223235439,0.0777287756052848,0.022866614000361742,0.0002995377763432935,0.6630966161654845,-0.40202797671745255,0.746464882786604,0.237528362191462,0.07024567075083149,0.0008281435452439976,-0.08845973278476872,-0.307518469988569,0.3643492562381276,0.06627617114301759,0.045683999246577345,-0.004739102721679104,-0.008163412652212876,-3.760005717648471,-4.525238524475905,-0.9795584995073762,0.0013093740821348721,-0.0005211598556219245
0.51,0.23468958919839608,1.4390243747282603,-1.3276635709752242,0.08011164625703024,0.023571459631957108,0.00030777760960430114,0.662242912644946,-0.405078220915084,0.750035134831951,0.23828706517454457,0.07048456315953643,0.0008239833261007658,-0.13517521776878916,-0.29446207503106586,0.31727245107876323,0.05122365891537323,0.04150072989834497,-0.004920032414187557,-0.013093815181232295,-3.7269878195590955,-4.530235553681588,-0.97970204457258,0.0008424197645759638,-0.000526181134600136
0.52,0.24129885957619762,1.434944376320338,-1.3201321789301161,0.08250063027857295,0.024278246649127196,0.00031596911840935284,0.6609270377801545,-0.407999840792222,0.7531392045108066,0.23889840215427155,0.07067870171700874,0.0008191508805051716,-0.18083523545361754,-0.2815548805780076,0.27033198609744324,0.03629334528346734,0.037315102867739425,-0.005095694924927674,-0.017785569397954407,-3.693503219159013,-4.535240569073007,-0.9798397734945999,0.00039628858857602804,-0.0005307986950705816
0.53,0.24789045468772167,1.4308364333882322,-1.312574394811863,0.08489426491987706,0.02498652976142354,0.0003241057663069404,0.6591595111524055,-0.4107942932105751,0.7557784118252975,0.23936346413041099,0.07082831122963426,0.0008136647897587606,-0.22541481971494853,-0.2687723177458632,0.22355849240301331,0.021494541398498268,0.03312866795955105,-0.005265711084384575,-0.022239007739855016,-3.659553831580826,-4.540245751900704,-0.979970886357177,-2.8749294412576572e-05,-0.0005350132034343628
0.54,0.25445996566798057,1.426701805491602,-1.3049948509869855,0.08729109924791484,0.02569586616600313,0.0003321812096130166,0.656951098025891,-0.4134627896630004,0.7579543824877684,0.23968343280377818,0.07093364045795886,0.0008075443306076154,-0.26889065419551983,-0.25609040726980836,0.17698318053982667,0.006836553095341619,0.028942984706790353,-0.005429706937483014,-0.026454992573990907,-3.625142773629311,-4.545243577655877,-0.9800946650989224,-0.00043247140218646667,-0.0005388263986587868
0.55,0.2610030935959196,1.4225417424696694,-1.2973981604503249,0.08968969505588584,0.026405815785966177,0.000340189303982089,0.6543127927939036,-0.41600630219327156,0.7596690536660744,0.23985958079709996,0.07099496199630476,0.0008008094369072382,-0.3112410771236094,-0.2434858505256275,0.13063775901536542,-0.007671341239244303,0.02475962815527777,-0.005587314599719756,-0.030434905618700513,-3.59027439194791,-4.550226831544155,-0.9802104747739916,-0.000814703314851499,-0.0005422410647682158
0.56,0.2675156516197143,1.4183574867674282,-1.2897889136611769,0.09208862777242645,0.027115941507682047,0.0003481241105841655,0.6512558023794677,-0.4184255702241128,0.7609246789148072,0.23989327165406157,0.0710125721715871,0.0007934806602076539,-0.35244608321040805,-0.2309361129619095,0.08455435313621151,-0.02201991238874107,0.02058019599844174,-0.005738173162185278,-0.03418063615552014,-3.554954281809323,-4.555188621060295,-0.9803177641470588,-0.00117531894515468,-0.0005452610000318949
0.5700000000000001,0.2739935669159181,1.4141502756852515,-1.2821716753382186,0.09448648736862676,0.02782580941737676,0.0003559799018780901,0.6477915296203776,-0.42072110821766995,0.7617238322958166,0.23978595962003124,0.07098679096947164,0.0007855791293924587,-0.39248732276528864,-0.21841949987917128,0.03876542440659009,-0.03620000154155428,0.01640631694790784,-0.005881929668662189,-0.03769456792037648,-3.5191892967794662,-4.560122385752819,-0.980416065657602,-0.0015142406744847719,-0.0005478909829710591
0.58,0.280432882482591,1.409921343544332,-1.2745509812212794,0.09688187926071419,0.02853498903732872,0.00036375116697276596,0.6439315566672908,-0.42289321409195535,0.7620694116939146,0.2395391892087427,0.0709179619951958,0.0007771265094675882,-0.4313480981816203,-0.20591522454512806,-0.006696309277084811,-0.050202540978186605,0.01223966020832723,-0.006018240156692389,-0.040979564585487085,-3.4829875495671896,-4.565021904284607,-0.9805049947913703,-0.001831439344309751,-0.0005501367353317048
0.59,0.28682975876681155,1.4056719237611652,-1.2669313348079199,0.09927342520631269,0.02924305356208328,0.00037143261656881157,0.6396876284220535,-0.4249419783166915,0.7619646413359565,0.2391545945598503,0.07080645247545596,0.0007681449596045622,-0.46901335795667837,-0.19340346868669073,-0.051797952432177885,-0.06401857413787387,0.008081945904499399,-0.0061467707839208685,-0.044038953767290806,-3.446358404430208,-4.56988129891079,-0.9805842488992631,-0.0021269340943179523,-0.0005520048821922253
0.6,0.29318047512723006,1.4014032508250414,-1.2593172040726845,0.10165976419224257,0.029949580095150474,0.0003790191874738606,0.6350716360418484,-0.4268672936123839,0.7614130735235225,0.23863389859298803,0.07065265330671927,0.0007586570905049069,-0.5054696884179719,-0.18086543544759773,-0.09650650960843848,-0.07763927501823054,0.003934956294167069,-0.006267199041333937,-0.04687650952064354,-3.4093124615586614,-4.574695037508151,-0.980653605505558,-0.0024007920401313758,-0.0005535029093962617
0.61,0.2994814311325608,1.397116562173268,-1.2517130181767717,0.10403955331188719,0.030654149886692402,0.0003865060466852923,0.6300956005330753,-0.42866886517733915,0.7604185895912787,0.23797891196446178,0.07045697915419279,0.0007486859211431685,-0.5407053033338789,-0.16828339494452962,-0.14078896165918653,-0.09105596685239437,-0.00019945241786567536,-0.006379215040234365,-0.04949643330495285,-3.371861533902783,-4.579457933301519,-0.9807129201487352,-0.0026531277851370694,-0.0005546391185204946
0.62,0.3057291476971321,1.3928130999595811,-1.2441231641757249,0.10641146863021975,0.031356348572736975,0.0003938885950348729,0.6247716564571275,-0.4303462213686721,0.7589854001046902,0.23719153183325567,0.07021986860445747,0.0007382548349580585,-0.5747100315894094,-0.15564072259590217,-0.18461234052374317,-0.10426014001700934,-0.004319337862469297,-0.006482522902921728,-0.05190333343341425,-3.3340186169490815,-4.584165142441562,-0.9807621237988173,-0.0028841027627104646,-0.0005554225796042964
0.63,0.31192026805481654,1.3884941127119304,-1.2365519837326033,0.10877420603465476,0.03205576641647172,0.0004011624703899212,0.6191120357684413,-0.4318987247650855,0.7571180443121601,0.23627374044350202,0.06994178437347436,0.0007273875355048264,-0.6074753031077083,-0.14292193043533866,-0.22794380239797415,-0.11724346913987205,-0.00842265909695028,-0.00657684222244298,-0.0541022030415778,-3.2957978519812334,-4.5888121595956335,-0.9808012198954671,-0.003093924406855822,-0.0005558630818831442
0.64,0.3180515585728506,1.3841608568765171,-1.2290037698439245,0.11112648206996377,0.0327519985521748,0.0004083235504061601,0.6131290518034067,-0.43332558354132333,0.7548213888678885,0.23522760353089994,0.0696232135703089,0.0007161080016238913,-0.6389941331946478,-0.13011269165530998,-0.27075069918906053,-0.1299978293708416,-0.012507264226190529,-0.006661909612383221,-0.056098396635708335,-3.257214483386535,-4.593394811718495,-0.9808302810508889,-0.0032828451510412662,-0.0005559710827804302
0.65,0.3241199094072201,1.3798145982456507,-1.2214827635854968,0.11346703475557307,0.03344464523232984,0.0004153679548275092,0.6068350834369471,-0.4346258630866525,0.7521006258427733,0.23405526856093023,0.0692646680155035,0.0007044404421349091,-0.6692611054772549,-0.11719985865617659,-0.31300064816660833,-0.14251531179668775,-0.016570878287497592,-0.006737480333540935,-0.057897605304394854,-3.218284810587302,-4.597909250173273,-0.9808494454610432,-0.003451161256733492,-0.0005557576554222513
0.66,0.33012233500143867,1.3754566132676258,-1.2139931508850814,0.11579462438364238,0.03413331207844551,0.00042229204732821427,0.6002425594218599,-0.43579849780247626,0.7489612700415452,0.2327589628069311,0.06886668461156735,0.000692409250070505,-0.6982723535976512,-0.10417147490191511,-0.35466159974003675,-0.15478823797122288,-0.02061109163627295,-0.00680332997844979,-0.059505830698271554,-3.1790261351887588,-4.602351941374827,-0.9808589130677687,-0.003599211474819897,-0.0005552344349475254
0.67,0.33605597443068225,1.3710881902374539,-1.2065390593286311,0.11810803429640615,0.03481761033606142,0.0004290924368929828,0.5933639429243593,-0.4368423030171947,0.7454091556450252,0.23134099127637725,0.06842982576159101,0.0006800389564768539,-0.726025541811302,-0.09101678090662232,-0.3957019032995323,-0.16680917356138725,-0.024625349078274184,-0.0068592562124062395,-0.060929357902226255,-3.1394567039409824,-4.606719656127869,-0.9808589415131902,-0.0037273755447229345,-0.0005544135638908676
0.68,0.34191809159335956,1.3667106303678573,-1.1991245550066612,0.12040607164134359,0.03549715713436644,0.00043576597873089707,0.5862117162677343,-0.4377559869596644,0.7414504321970018,0.22980373449374478,0.06795467983050221,0.0006673541837914259,-0.752519844623336,-0.07772621469310917,-0.43609037107717047,-0.1785709410930394,-0.02861093999392672,-0.006905080560723809,-0.0621747273418268,-3.0995956481128624,-4.611009457831072,-0.9808498419263048,-0.0038360725375451966,-0.000553307636918067
0.6900000000000001,0.34770607525230585,1.362325248740497,-1.1917536394071047,0.12268756810282863,0.03617157575078661,0.00044230977471893814,0.57879836589463,-0.4385381627360207,0.7370915599556579,0.22814964614850347,0.06744186164201646,0.0006543795988041068,-0.7777559255788896,-0.0642914070806497,-0.475796339990832,-0.19006663179717043,-0.03256498969959232,-0.006940650203840548,-0.06324870588068976,-3.059462919871173,-4.615218689715733,-0.9808319745799098,-0.0039257590510178115,-0.0005519296451942617
0.7000000000000001,0.35341743892787814,1.3579333751379152,-1.1844302463608063,0.12495138060899662,0.03684049588081568,0.0004487211733713939,0.5711363675572269,-0.43918736025819244,0.7323393046298396,0.2263812506167988,0.06689201300290663,0.0006411398652455772,-0.8017359153030991,-0.05070517216911682,-0.5147897314449911,-0.20128961656082645,-0.03648445228740815,-0.006965839781983563,-0.06415825727798133,-3.019079226247791,-4.619344961283999,-0.9808057444541574,-0.003996927265346091,-0.0005502929206624183
0.71,0.3590498206453135,1.3535363547571542,-1.1771582390455992,0.1271963920126503,0.037503553913263994,0.000454997769331603,0.5632381717435344,-0.43970203807610947,0.7272007315207087,0.2245011403653667,0.0663058032448318,0.0006276595960209087,-0.8244633888642193,-0.036961493394903726,-0.5530411090676376,-0.21223355599374516,-0.04036610517790962,-0.006980553183961957,-0.06491051218507397,-2.9784659612637028,-4.623386134106711,-0.9807715967409462,-0.004050102870243249,-0.0005484110805053031
0.72,0.3646009825387852,1.3491355488064607,-1.169941407054704,0.12942151174511177,0.03816039321099057,0.000461137402382814,0.5551161893471699,-0.4400805950693522,0.7216831990895168,0.22251197324614827,0.06568392977265806,0.0006139633051211017,-0.8459433425097684,-0.02305550553786924,-0.5905217343733782,-0.22289240961667223,-0.04420654560777493,-0.006984725277338344,-0.0655127378675226,-2.937645136759972,-4.627340307135316,-0.9807300123212058,-0.004085842874506232,-0.0005462979720572126
0.73,0.37006881031465877,1.344732334986883,-1.1627834635349807,0.13162567644201204,0.03881066439706057,0.00046713815597567484,0.5467827775873582,-0.44032138195778303,0.7157943519723339,0.22041646969002582,0.06502711860699947,0.0006000753592860817,-0.8661821698003392,-0.008983473059513466,-0.6272036203429882,-0.23326044419561298,-0.048002189261981076,-0.006978323572449985,-0.06597230784295643,-2.8966393124635634,-4.631205801675738,-0.9806815032449023,-0.004104733310410703,-0.0005439676184231303
0.74,0.3754513125765137,1.340328107860938,-1.1556880424003544,0.13380785054009112,0.03945402564613665,0.00047299835527045056,0.538250226185495,-0.4404227125944963,0.7095421134626445,0.21821740980790763,0.06433612490760784,0.0005860199294775719,-0.885187637140472,0.005257234848753038,-0.6630595829176501,-0.24333224123704023,-0.051749271239723615,-0.006961349792986293,-0.06629667162724309,-2.8554715257908434,-4.634981146164924,-0.9806266082412994,-0.004107386845979787,-0.0005414341650522791
0.75,0.3807466200145583,1.3359242791108559,-1.148658695625527,0.13596702684416373,0.040090142980769565,0.00047871656469280593,0.5295307438044558,-0.4403828750082101,0.7029346774827382,0.21591763040726186,0.06361173346329188,0.0005718209422355387,-0.9029688586801223,0.019668172133724727,-0.6980632904063908,-0.2531027036695632,-0.0554438495217231,-0.006933841302049215,-0.06649332478044374,-2.8141652218634245,-4.6386650608829685,-0.9805658882847174,-0.004094440318811437,-0.0005387118275009042
0.76,0.38595298446212745,1.3315222776891964,-1.1416988906248786,0.1381022270634836,0.04071869057210213,0.0004842915850032421,0.5206364447569175,-0.44020014216595377,0.6959805000648194,0.21352002193198638,0.06285475913325637,0.0005575020310436189,-0.9195362705349668,0.03424984629810715,-0.7321893108080436,-0.26256706173769184,-0.05908181108032329,-0.006895872382467416,-0.06656977944075128,-2.7727441841810125,-4.642256442725581,-0.9804999222387474,-0.004066552205630523,-0.000535814840605359
0.77,0.3910687778220203,1.3271235498648908,-1.1348120077212511,0.14021250231681642,0.04133935104434357,0.0004897224498812767,0.5115793359892885,-0.43987278243057004,0.6886882903627414,0.21102752533328306,0.062066047224143314,0.000543086487803457,-0.9349016042496623,0.04900175101037846,-0.7654131570497651,-0.2717208781361893,-0.0626588807433004,-0.006847555310203146,-0.06653353552893322,-2.731232466364094,-4.645754350153122,-0.9804293025996421,-0.004024400042065252,-0.0005327574092716519
0.78,0.3960924908655043,1.3227295591679795,-1.1280013377090987,0.14229693360560602,0.04195181578221013,0.0004950084220271353,0.5023713043483958,-0.43939906969112236,0.681067001215235,0.20844312887896124,0.061246473786656735,0.0005285972145858561,-0.949077859405543,0.06392240056150707,-0.7977113301436225,-0.28056005241524007,-0.06617063288794744,-0.006789041230936543,-0.06639205279797007,-2.6896543253459106,-4.649157988423571,-0.9803546313573892,-0.00396867780733713,-0.0005295536610715522
0.79,0.4010227319068929,1.3183417862365021,-1.121270079516284,0.1443546322546894,0.04255578524036487,0.0005001489887849864,0.4930241041388602,-0.43877729314774727,0.6731258192814752,0.2057698649083358,0.06039694581547423,0.0005140566757851056,-0.9620792752537521,0.0790093658359924,-0.8290613602636963,-0.28908082468536866,-0.06961250600673674,-0.0067205207583723725,-0.06615272389277234,-2.6480341563593557,-4.652466695207985,-0.9802765159908791,-0.003900093288601417,-0.0005262176008184656
0.8,0.4058582253566935,1.313961728569144,-1.114621337968586,0.14638474032008572,0.04315096925372691,0.0005051438572940319,0.48354934498006336,-0.43800576673581576,0.6648741547697937,0.2030108065396333,0.05951840133620363,0.0004994868509045532,-0.9739213012375191,0.09425931147989051,-0.859441845741208,-0.2972797786589494,-0.07297982014188209,-0.006642224325327517,-0.06582284857330784,-2.6063964300296845,-4.6556799266779,-0.9801955656115258,-0.0038193654395883648,-0.0005227630672786835
0.81,0.41059781015642116,1.3095909001873698,-1.1080581216607825,0.1483864309634508,0.04373708734736156,0.0005099929491753398,0.4739584799727658,-0.43708283817743765,0.6563216307803561,0.20016906433650705,0.058611809363464516,0.00048490918813078965,-0.9846205662525964,0.1096680339651079,-0.8888324899767862,-0.30515384405801793,-0.07626779714823106,-0.006554422212367739,-0.06540960924140077,-2.564765631849346,-4.658797244145195,-0.9801123872677823,-0.003727221747979571,-0.0005192036921555843
0.8200000000000001,0.4152404380982885,1.3052308312108563,-1.1015833409379563,0.15035890879285083,0.044313869044508944,0.0005146963947648401,0.46426279418673333,-0.4360068976513498,0.6474780722826169,0.19724778294000253,0.057678169714738714,0.00047034455895002703,-0.9941948464851356,0.12523050026653906,-0.9172141362656872,-0.3127002984191347,-0.07947158369336815,-0.006457424267400369,-0.06492004789712078,-2.5231662042767997,-4.66181830132607,-0.9800275824211565,-0.0036243956256171036,-0.0005155528614659013
0.8300000000000001,0.41978517203310983,1.3008830673501057,-1.0951998059904724,0.1523014101695713,0.0448810541711639,0.000519254526905064,0.45447339348213817,-0.43477638607506225,0.6383534947483985,0.19425013767204807,0.05671851266549561,0.00045581321402238977,-1.0026630316595755,0.14094088688721795,-0.9445688005263713,-0.3199167683334059,-0.08258627686288555,-0.006351579275832131,-0.06436104463531098,-2.481622491667086,-4.664742832291849,-0.9799417436026129,-0.0035116238351931913,-0.0005118236794086901
0.84,0.4242311839698997,1.2965491693201479,-1.0889102250658573,0.15421320348073353,0.04543839315548596,0.0005236678743108453,0.44460119367898554,-0.43338980299578417,0.6289580924615179,0.19117933111622315,0.055733898432205865,0.00044133474057813515,-1.010045089528075,0.15679261898585298,-0.9708797019238669,-0.32680123014837115,-0.0856069521888232,-0.006237273987700298,-0.06373929777666483,-2.440158688209019,-4.667570640160957,-0.9798554512566734,-0.00338964396651434,-0.0005080289348091558
0.85,0.428577753070803,1.2922307121792567,-1.0827172028006078,0.15609358937754675,0.04598564732019847,0.0005279371545266438,0.4346569100903302,-0.43184571408910877,0.6193022265249571,0.18803858968132287,0.054725416471251113,0.00042692802157985273,-1.0163620284363515,0.17277840938127356,-0.9961312913733887,-0.33335201016261173,-0.088528693874109,-0.0061149317710114115,-0.06306130571109132,-2.3987987890114715,-4.670301586577812,-0.9797692707790169,-0.003259191974786204,-0.0005041810702010943
0.86,0.43282426354516845,1.2879292845965897,-1.0766232386747407,0.15794190097907648,0.046522589166032385,0.000532063266496007,0.424651047436545,-0.4301427582666927,0.6093964125867092,0.184831160152974,0.053694184583391584,0.00041261119693631286,-1.0216358578094689,0.18889029722771797,-1.020309277907326,-0.3395677843448266,-0.09134662694046813,-0.005985010904792865,-0.06233335051415543,-2.3575665444505387,-4.6729355820164304,-0.9796837497520451,-0.003120999792632248,-0.0005002921535937823
0.87,0.4369702024467619,1.2836464880526275,-1.070630725591685,0.15975750404145936,0.04704900264418594,0.0005360472827663188,0.41459389015934256,-0.4282796543962274,0.5992513083055795,0.18156030623828798,0.052641347815355455,0.0003984016270311856,-1.0258895464145643,0.20511968617625437,-1.043400652886002,-0.34544757759959266,-0.09405595098518349,-0.005848002515124295,-0.06156148338037437,-2.3164854178597567,-4.675472576938596,-0.9795994153816148,-0.002975793026752521,-0.000496373852951548
0.88,0.44101515737831765,1.279383935976239,-1.0647419485859009,0.16153979709254282,0.04756468341570839,0.0005398904413545991,0.4044954931555774,-0.4262552076388521,0.5888777005784104,0.17822930510834556,0.05156807715224457,0.0003843158588280375,-1.0291469782763314,0.22145738185700656,-1.0653937120283459,-0.35099076260950524,-0.09665197519303081,-0.0057044281384281414,-0.06075151190031023,-2.2755785466177394,-4.677912553829019,-0.9795167721370187,-0.002824288749257404,-0.0004924374133972544
0.89,0.44495881410783794,1.2751432528221307,-1.0589590836603968,0.1632882115319734,0.04806943909567628,0.0005435941373030535,0.39436567295203023,-0.4240683154108125,0.5782864925504156,0.17484144394305795,0.05047556799678869,0.00037036959484543534,-1.0314329061448166,0.2378936285378626,-1.0862780752374042,-0.35619705827221804,-0.0991301542124936,-0.00555483696719189,-0.05990898919192934,-2.234868706661212,-4.680255520122679,-0.9794362995952547,-0.00266719339278609,-0.0004884936371346303
0.9,0.44880095410127135,1.2709260730923544,-1.0532841967560913,0.16500221169680132,0.048563089480016294,0.0005471599139552907,0.38421399934334,-0.4217179729776202,0.5674886904305523,0.17140001648279138,0.049365038434001626,0.00035657766522372204,-1.0327729024429322,0.254418144834853,-1.106044704192301,-0.3610665277524685,-0.10148612447822725,-0.005399802755485517,-0.05903920488078969,-2.1943782804270016,-4.682501502032666,-0.9793584504897019,-0.002505200757550946,-0.0004845528660688173
0.91,0.4525414519764311,1.2667340403054521,-1.0477192428547502,0.16668129489271105,0.04904546675284076,0.0005505894539868712,0.3740497875159744,-0.419203278690219,0.5564953901341249,0.1679083195909744,0.04823772728244602,0.0003429540031580578,-1.0331933076533144,0.2710201583690129,-1.1246859176747952,-0.36559957616887306,-0.10371574053653809,-0.00523992044124566,-0.05814717790843434,-2.1541292282037756,-4.684650539280427,-0.9792836489624975,-0.0023389901374469163,-0.00048062496708975666
0.92,0.4561802728832467,1.2625688059167148,-1.0422660652169988,0.16832499139102847,0.04951641567220149,0.0005538845702259379,0.36388209068156235,-0.41652343887372445,0.5453177637751232,0.16436964983174263,0.0470948919360731,0.00032951162390666743,-1.0327211761398543,0.2876884392838792,-1.1421954046005558,-0.36979694792335716,-0.10581511091487572,-0.005075802510006777,-0.05723765113406533,-2.114143062853458,-4.686702680724117,-0.9792122890191435,-0.0021692245713400976,-0.00047671931996926453
0.93,0.45971746981567696,1.258432028192913,-1.036926394756688,0.16993286439169455,0.049975793732235665,0.0005570471963016597,0.35371969324302605,-0.4136777723801668,0.5339670460310796,0.16078730006660877,0.04593780600341773,0.00031626260757217523,-1.031384219437802,0.30441133255541203,-1.1585682347182071,-0.3736597236922301,-0.10778063306610752,-0.004908075124718525,-0.05631508768127348,-2.0744408278431496,-4.688657980874964,-0.9791447331832267,-0.0019965492246109278,-0.0004728448078098195
0.9400000000000001,0.46315318086084406,1.2543253710447395,-1.0317018495526522,0.1715045099524345,0.050423471299773294,0.0005600793771601267,0.34357110451671247,-0.410665714817358,0.5224545204035875,0.15716455607399388,0.044767756753762995,0.0003032180858467024,-1.0292107470866099,0.321176789044889,-1.1738008669454558,-0.3771893170773466,-0.10960902691967167,-0.00473737408621111,-0.05538366896941781,-2.035043078511241,-4.690516497286187,-0.9790813113485267,-0.0018215899049852293,-0.0004690098099712246
0.9500000000000001,0.4664876263911752,1.2502505028200745,-1.026593934498673,0.17303955688438913,0.05085933172359997,0.0005629832594885856,0.33344455303311415,-0.407486822466506,0.5107915053979211,0.15350469319546378,0.043586042382667764,0.0002903882328458946,-1.026229605121899,0.3379723952611283,-1.1878911553041314,-0.380387470931951,-0.11129736657641986,-0.004564340649865717,-0.054447294358265286,-1.9959698664758228,-4.692278288793871,-0.9790223198252617,-0.0016449517156493189,-0.00046522219739063113
0.96,0.4697211062055529,1.2462090950610591,-1.0216040410922174,0.17453766661451317,0.0512832714147196,0.0005657610820901322,0.32334798143777005,-0.40414077590154357,0.49898934064556033,0.14981097301240298,0.04239396911196283,0.00027778226015465814,-1.0224701123846518,0.3547854018150604,-1.2008383524237034,-0.38325625335270486,-0.1128431097033542,-0.004389617265132817,-0.053509582324785726,-1.9572407270799723,-4.6939434145845675,-0.9789680205767533,-0.0014672178476226746,-0.00046148933020166125
0.97,0.47285399662567834,1.242202821227826,-1.01673344736228,0.17599853301508242,0.051695199896138314,0.0005684151662515672,0.3132890420125443,-0.4006273833233171,0.48705937299372737,0.14608664005692376,0.04119284814187155,0.0002654084161434921,-1.0179619948475618,0.37160275056444697,-1.2126431105763962,-0.3857980533483363,-0.11424412420684638,-0.0042138432749422305,-0.05257387308259426,-1.918874669756235,-4.695511934059863,-0.97891864064235,-0.001288948512361702,-0.0004578180575498954
0.98,0.4758867475540353,1.2382333553916078,-1.0119833179364162,0.17742188220068972,0.05209503982089122,0.0005709479061475404,0.30327509283569487,-0.3969465836218133,0.47501294258639054,0.14233491856072975,0.03998399247529081,0.0002532739895973192,-1.0127353181983467,0.38841110046065974,-1.223307480216092,-0.3880155761706554,-0.11549871179803262,-0.004037650636420809,-0.05164323254746418,-1.8808901711824215,-4.69698390746433,-0.9788743717420901,-0.0011106800145985608,-0.00045421471949444545
0.99,0.47881987950000504,1.2343023708998129,-1.0073547042468014,0.1788074722931474,0.0524827269572552,0.0005733617593239862,0.2933131945969751,-0.3930984491794878,0.4628613689614703,0.13855900924576736,0.038768713636398194,0.0002413853176445783,-1.006820418957806,0.40519685212219914,-1.2328349059884505,-0.38991183831461473,-0.11660562810163277,-0.0038616597142738796,-0.050720457546607325,-1.8433051710917392,-4.6983593972393995,-0.9788353700582182,-0.0009329239644874652,-0.0004506851508791006
