tonegas/nnodely-applications/joint_friction_estimation/dataset/train/mpc_mujoco_episode_19.csv
time,q1,q2,q3,q4,q5,q6,dq1,dq2,dq3,dq4,dq5,dq6,ddq1,ddq2,ddq3,ddq4,ddq5,ddq6,tau1,tau2,tau3,tau4,tau5,tau6
0.0,0.0,1.57,-1.57,0.0,0.0,0.0,0.0,0.0,0.0,0.0,0.0,0.0,5.273539696055648,8.924584816468233,9.949866429790784,3.5371008915157276,0.743619299824168,-5.319418229454698e-06,0.7349289776901873,1.8300268631947896,-1.4463788285434784,-0.31239561078822153,0.06654763212152451,0.0007198099901998545
0.01,0.0005245166369336079,1.5708930410730624,-1.569007401586358,0.0003325092604823467,6.337725038141712e-05,8.285051421617506e-07,0.05245166369336079,0.08930410730623034,0.09925984136420024,0.03325092604823467,0.006337725038141713,8.285051421617506e-05,5.2427290590423485,8.739729424524928,9.738817249717439,3.253543855215277,0.6250774839046969,0.008233325896135568,0.738603322504911,1.677815020300784,-1.5115650631011928,-0.3268485328301306,0.0666995828927773,0.0007101325709829748
0.02,0.001570103002146608,1.572660750776153,-1.567044571273251,0.0009742515858367966,0.0001828074792248131,2.523588838937252e-06,0.10455863652130001,0.17677097030906738,0.19628303131068747,0.06417423253544499,0.011943022884339599,0.00016950836967755012,5.203951661080949,8.541679951812313,9.500838232976196,3.0151115489646685,0.5497407749016361,0.008444814813499235,0.7476279029913148,1.491268471173739,-1.5825296396511224,-0.34186226542471476,0.06713397999959222,0.0006981189878565862
0.03,0.0031326857465369872,1.575283392911906,-1.5641362005064343,0.0019052894799175938,0.0003535266631768366,5.02551908073915e-06,0.1562582744390379,0.26226421357530394,0.2908370766816665,0.09310378940807973,0.01707191839520235,0.00025019302418018976,5.158405521641609,8.330342812596772,9.240150989016197,2.8100881261207533,0.49913397351862443,0.007554442536641837,0.7616041712602434,1.2722720365854094,-1.6589542345718402,-0.35738229882863204,0.06781691063336384,0.0006835820360402468
0.04,0.005207619211033054,1.57873986874761,-1.5603089714400389,0.003108140549549417,0.0005722199840390903,8.272566326995258e-06,0.20749334644960668,0.34564758357039277,0.3827229066395426,0.1202851069631823,0.02186933208622538,0.00032470472462561075,5.106644563650479,8.105800191729955,8.960155057205816,2.6296692503640315,0.4622491934659365,0.006532585360934817,0.7800783479173045,1.022868144234356,-1.7404474872062905,-0.3733357652363154,0.06870787769934124,0.0006663203581822688
0.05,0.007789700862590832,1.5830077334306984,-1.5555912841293926,0.004567115050674521,0.0008363590514121793,1.2209127060926042e-05,0.25820816515577777,0.4267864683088542,0.4717687310646227,0.1458974501125104,0.026413906737308895,0.00039365607339307833,5.048835155350119,7.8682869205957955,8.6636347147628,2.4672685791782953,0.4325901315619376,0.005482486246394913,0.8025408987339981,0.7452462453764133,-1.8265496921794746,-0.3896331118939238,0.0697609076843214,0.0006461191502152737
0.06,0.010873163741812908,1.588063225855816,-1.5500130293854344,0.00626782210276566,0.0011438114468793068,1.6783226459508886e-05,0.30834628792220753,0.5055492425117589,0.5578254743958204,0.17007070520911385,0.03074523954671275,0.0004574099398582843,4.984918232656295,7.6181729361633295,8.352916803723998,2.3179905344604634,0.40640068629656056,0.004405609758548756,0.828425588284782,0.44173116750968244,-1.9167380547702009,-0.4061699022143642,0.07092565731558079,0.0006227586813292125
0.07,0.014451655998172247,1.5938813106546823,-1.543605395250287,0.00819680451337179,0.0014926159234761702,2.1944170184720983e-05,0.3578492256359338,0.5818084798866218,0.6407634135147241,0.19289824106061298,0.03488044765968635,0.0005160943725212098,4.914713333310581,7.355949336504321,8.029990946938364,2.178227758909159,0.3815887770998394,0.003305869337010492,0.857109126145928,0.11476997508218378,-2.0104325848424516,-0.42282876318799345,0.07214854188968035,0.0005960265779814409
0.08,0.01851821413382214,1.6004357312359896,-1.5364006979350413,0.01034127161558139,0.0018808583012356263,2.7641296561553335e-05,0.406655813564989,0.6554420581307313,0.7204697315245677,0.21444671022095999,0.03882423777594561,0.0005697126376832352,4.837986774056392,7.082216659645694,7.696600602664068,2.0453535485275154,0.3570689089087331,0.002196767696316826,0.887912251500141,-0.23308295760486875,-2.107002674879127,-0.43948148293588285,0.07337389519080449,0.0005657315237908839
0.09,0.02306523444579247,1.6076990729471055,-1.5284322303051288,0.012688906743706574,0.0023066083631197013,3.38235336735607e-05,0.45470203119703323,0.7263341711115797,0.7968467629912461,0.23476351281251825,0.04257500618840752,0.0006182237112007361,4.754497463298623,6.797674421274318,7.354311431075068,1.9174867810868648,0.33235876449502655,0.0010968468502792206,0.9201029315009965,-0.5991828309352591,-2.2057743779567445,-0.45599125086719017,0.07454515990436027,0.0005317169531477547
0.1,0.028084445818106884,1.6156428354963637,-1.5197341227520527,0.01522773148216767,0.002767893389530067,4.043944001111769e-05,0.5019211372314414,0.7943762549258184,0.8698107553076108,0.25388247384610957,0.046128502641036566,0.0006615906337556987,4.664028444056788,6.503111261217397,7.004561994034287,1.7933121548918436,0.3073304515570783,2.5487749713448693e-05,0.9529021658363842,-0.980813294889689,-2.3060383632640864,-0.4722150215890585,0.07560609840328726,0.0004938738222260751
0.11,0.03356688614313671,1.624237513790971,-1.510341212661611,0.017946013021437827,0.0032626932980505527,4.743750652069064e-05,0.5482440325029826,0.8594678294607327,0.93929100904417,0.27182815392701565,0.049479990852048565,0.0006998066509572953,4.566408939889744,6.199395216420597,6.648700619017015,1.6719425897625442,0.2820563321511891,-0.000999798365299398,0.9854926852964898,-1.3752072656724543,-2.407058512027131,-0.4880059791348755,0.0765020061011077,0.0004521518186940969
0.12,0.03950288404498973,1.6334526863243457,-1.5002889197693607,0.020832204151466256,0.0037889480541791424,5.4766578082009294e-05,0.5935997901853022,0.9215172533374747,1.0052292892250094,0.2886191130028429,0.052625475612859,0.0007329071561318657,4.461529726649378,5.88746389275409,6.288011508451877,1.552813753448305,0.256713110782421,-0.0019648684485620294,1.017030620053468,-1.7795694604231738,-2.5080810525057653,-0.5032160632938014,0.07718090412918416,0.00040656855203593937
0.13,0.04588204712315331,1.6432571102109648,-1.48961312553779,0.023874907855998002,0.004344571525773764,6.237630632151405e-05,0.6379163078163578,0.9804423886619138,1.0675794231570759,0.3042703704531745,0.0555623471594622,0.0007609728239504765,4.349353464926386,5.568314351022578,5.9237324148405435,1.4356030576982732,0.23152218108115363,-0.0028595876138535203,1.0466599850946725,-2.1911003831600215,-2.6083441290474894,-0.5176985195952513,0.07759468355202433,0.0003572163804737941
0.14,0.05269325756301658,1.6536188219188424,-1.4783500553558533,0.02706286032211601,0.0049274681350416375,7.021758099266454e-05,0.6811210439863271,1.0361711707877577,1.1263070181936796,0.3187952466118007,0.058289660926787334,0.0007841274671150489,4.229920996089354,5.242992672042027,5.557065766330638,1.3201673002629981,0.20671284698743975,-0.00367788429556537,1.07352961396158,-2.6070213666604642,-2.7070876514256312,-0.5313104247655756,0.07770017119128926,0.00030426663874204643
0.15,0.0599246756385363,1.6645052427030718,-1.4665361628811813,0.030384927588495213,0.005535550037970537,7.824291037358769e-05,0.723141807551972,1.088642078422944,1.181389247467203,0.33220672663792034,0.060808190292889946,0.0008025329380923152,4.103354252722237,4.912583224356751,5.189184726836373,1.206494528655572,0.18250020162609104,-0.004417425769687178,1.0968119704513106,-3.024600209817832,-2.8035632491222198,-0.5439151365448204,0.07746008656418703,0.0002479711288789552
0.16,0.06756375134461802,1.6758832877031633,-1.454208016248588,0.03383011212999746,0.006166753444137813,8.640673642011749e-05,0.7639075706081718,1.1378045000091537,1.2328146632593342,0.34451845415022453,0.06312034061672762,0.0008163826046529799,3.969856265272271,4.578197716431312,4.82123538678204,1.0946667711474447,0.15907254423116868,-0.0050790687430537496,1.115723099615827,-3.4411768899080295,-2.897044132947613,-0.555384614256149,0.07684386086052944,0.0001886608373195583
0.17,0.07559724413733013,1.6877194776371476,-1.4414021861767523,0.037387566496945794,0.006819053266598581,9.466568037965102e-05,0.8033492792712101,1.1836189933984294,1.2805830071835647,0.35574543669483355,0.06522998224607682,0.0008258943959533538,3.829708673200498,4.240964154700212,4.454336056112633,0.9848310956464275,0.1365850771817101,-0.005666201023748485,1.1295428556653513,-3.8541887921239666,-2.986834652463621,-0.5656015564414414,0.07582829210815346,0.00012674194380888737
0.18,0.08401125052865083,1.6999800520098824,-1.4281551362347948,0.04104661175679987,0.007490475674036233,0.00010297872088939271,0.8414006391320706,1.2260574372734812,1.324704994195741,0.36590452598540774,0.06714224074376514,0.0008313040509741699,3.683267123007473,3.9020158543464567,4.089574455855995,0.8771770769255838,0.11515775445185028,-0.006184058915894575,1.1376344751573106,-4.261194884965326,-3.072279332651804,-0.5744613042478948,0.0743980155249224,6.268928816936337e-05
0.19,0.09279123908101802,1.712631082753726,-1.4145031156949963,0.04479675897116626,0.008179108373215182,0.00011130731036282865,0.8779988552367203,1.2651030743843674,1.3652020539798548,0.3750147214366385,0.06886326991789495,0.0008328589473435939,3.5309549285555177,3.562480663033355,3.7280034650751928,0.771919222666881,0.09487585004272958,-0.0066390790281296574,1.1394625550445063,-4.659898280494593,-3.152771178002573,-0.5818734641405399,0.07254577422791109,-2.9624447376160002e-06
0.2,0.10192209217776774,1.7256385872376714,-1.4004820555076647,0.048627732317808356,0.008883108620537386,0.00011961543747993208,0.913085309674972,1.300750448394522,1.4021060187331604,0.38309733466420953,0.07040002473222033,0.0008308127117103421,3.3732553652913677,3.22347056077757,3.370635966700145,0.6692832640358333,0.07579225785717725,-0.007038321808346293,1.134608548076914,-5.048166652758842,-3.227759046937239,-0.5877632108194835,0.07027248258262844,-6.962947829117975e-05
0.21,0.11138815381019349,1.7389686396161608,-1.3861274679978832,0.052529492762477946,0.009600709073347485,0.00012786964439183917,0.9466061632425748,1.3330052378489357,1.4354587509781471,0.3901760444669588,0.07176004528100986,0.0008254206911907087,3.2107029614618994,2.886071793451668,3.0184392413995385,0.5694954841219833,0.05793082669264038,-0.0073889871823134,1.1227829991667884,-5.4240500441920325,-3.2967539237606243,-0.5920722406476818,0.06758708208818603,-0.00013669122442158807
0.22,0.12117328252091586,1.7525874795403327,-1.3714743509090055,0.05649226141917314,0.010330221661684885,0.0001360390072323526,0.9785128710722379,1.3618839924171877,1.4653117088877718,0.3962768656695198,0.07295125883373993,0.0008169362840513418,3.043874133118572,2.5513356844305264,2.672329277995118,0.47277445827852915,0.04129023530569853,-0.007698029733411271,1.1038339075005623,-5.785795665901453,-3.3593339481542315,-0.5947593570091012,0.06450619734693008,-0.00020350363129940257
0.23,0.1312609085757964,1.7664616173208998,-1.3565570964108624,0.06050654192491019,0.011070039701162989,0.00014409508799424563,1.008762605488054,1.3874137780567228,1.491725449814307,0.4014280505737045,0.07398180394781052,0.0008056080761893048,2.8733774854914813,2.2202702507855325,2.3331652990524754,0.37932473033689007,0.025848056949277165,-0.007971871665775954,1.0777507984645405,-6.131859389209299,-3.4151481016928655,-0.5958006811910964,0.06105360691440282,-0.0002694131118323485
0.24,0.14163409440095198,1.7805579347113016,-1.3414094056575319,0.06456314130747132,0.011818638485951495,0.00015201186499452733,1.037318582515558,1.4096317390401742,1.5147690753330527,0.4056599382561128,0.07485987847885064,0.00079167770002817,2.6998440721615826,1.8938327279596479,2.0017447379961193,0.2893320600984506,0.011564769741635672,-0.00821620572132975,1.0446643120964723,-6.460913728496497,-3.4639184950792536,-0.5951894949931402,0.05725955026402314,-0.0003337705619978024
0.25,0.15227559731481183,1.7948437805698447,-1.3260642094255486,0.06865318895010353,0.012574574603670445,0.00015976564817500564,1.064150291385984,1.4285845858543122,1.5345196231983307,0.40900476426322047,0.07559361177189501,0.0007753783180478303,2.523917867383479,1.5729230822644036,1.6787988488694165,0.20295995995131744,-0.001612450105257679,-0.008435876742945325,1.0048413447350946,-6.771852223633331,-3.5054412460326576,-0.5929357335383278,0.05315989740424157,-0.00039594499557825386
0.26,0.16316793360424864,1.8092870607577316,-1.310553595293448,0.07276815336183089,0.01333648420610674,0.00016733498446980705,1.089233628943682,1.4443280187886784,1.5510614132100675,0.4114964411727359,0.07619096024362951,0.0007569336294801416,2.346246667749008,1.2583785646383905,1.3649890802277385,0.12034729916171027,-0.013746254115400092,-0.008634828975250253,0.9586760017804803,-7.063790239112552,-3.53958598363897,-0.5890651580509029,0.048795211614011236,-0.00045533635951246584
0.27,0.1742934430348313,1.8238563217335118,-1.2949087417420004,0.07689985655029156,0.01410308045466488,0.0001747005574917172,1.112550943058265,1.4569260975780065,1.5644853551447557,0.4131703188460684,0.07665962485581392,0.0007365573021910142,2.1674735990452314,0.9509693333083173,1.0609043003942276,0.041606799007762874,-0.024906022549915363,-0.008816106115175693,0.9066768174460414,-7.3360623011718475,-3.5662940579350755,-0.583618248036856,0.044209738178189364,-0.0005113871488026738
0.28,0.18563435294421557,1.8385208274109783,-1.2791598594654392,0.08104048586899171,0.014873150340138207,0.0001818450848866117,1.1340909909384271,1.4664505677466673,1.5748882276561276,0.4140629318700142,0.0770069885473328,0.0007144527394894502,1.9882293642705628,0.651395148290725,0.7670589222419221,-0.03317572541354208,-0.03516516307480799,-0.008981891812206655,0.8494508601179493,-7.588216189112707,-3.58557557137689,-0.5766488598816287,0.03945035287234289,-0.0005635925078658127
0.29,0.19717284114063283,1.8532506289543555,-1.2633361400910295,0.08518260327486085,0.015645551054821044,0.00018875321590441425,1.1538488196417243,1.4729801543377115,1.5823719374409804,0.4142117405869142,0.07724007146828374,0.0006908131017802559,1.8091253306331305,0.36028311785313616,0.48389194160143834,-0.10394149679184217,-0.04459880571301156,-0.00913357968433004,0.787685460903704,-7.820004078888935,-3.597505379889056,-0.5682227040368213,0.0345655033261339,-0.000611508582019213
0.3,0.2088910969115143,1.868016627289489,-1.2474657124106576,0.0893191519866455,0.016419206072704633,0.0001954114310441943,1.171825577088148,1.4765998335133377,1.587042768037174,0.4136548711784645,0.07736550178835902,0.0006658215139780047,1.6307475179853086,0.07818645675510247,0.21176687431686728,-0.17065838287508062,-0.05328187659240058,-0.00927186340024505,0.7221283734871742,-8.031371102978575,-3.602218234195481,-0.5584156955564854,0.029604174428559615,-0.0006547589639006562
0.31,0.22077137953692283,1.8827906282106253,-1.2315756061364747,0.0934434605811853,0.01719310107158732,0.00020180794505097308,1.1880282625408536,1.4774000921136374,1.589010627418289,0.4124308594539794,0.07738949988826879,0.0006396514006778779,1.4536515192683135,-0.19441580126269317,-0.049027447222289466,-0.23332006819568296,-0.06128752293100437,-0.009396839030777648,0.653567194765512,-8.222441738781589,-3.5999032464603764,-0.5473122327910356,0.024614905834159425,-0.0006930391606580896
0.32,0.23279607379541248,1.8975453900574877,-1.2156917231052997,0.09754924460387293,0.017966279810099465,0.00020793261406550735,1.2024694258489643,1.4754761846862359,1.5883883031174937,0.41057840226876285,0.07731787385121436,0.0006124669014534256,1.2783583556117573,-0.4571182084275779,-0.2982752767160841,-0.29194486858728497,-0.06868585622162193,-0.009508113340045393,0.5828088507764934,-8.393504467605153,-3.5907978728922685,-0.5350034567421335,0.019644885638677716,-0.0007261190847402156
0.33,0.24494774204335595,1.9122546640253202,-1.1998388157753404,0.10163060580229528,0.018737840053334207,0.00021377684734695735,1.2151668247943481,1.4709273967832537,1.5852907329959476,0.4081361198422352,0.07715602432347421,0.0005844233281450003,1.105351244994091,-0.7095875078871414,-0.5358316293364656,-0.34657425847105605,-0.07554297846781477,-0.009604913056856096,0.5106598869810212,-8.544995158044571,-3.575181600376551,-0.5215855392473843,0.014739139690730058,-0.0007538436407608836
0.34,0.2572091725402441,1.9268932272502892,-1.1840404727852252,0.10568202911875006,0.019506929623212987,0.0002193335236906491,1.2261430496888133,1.4638563224968955,1.579834299011525,0.40514233164547814,0.07690895698787797,0.0005556676343691761,0.9350732438669983,-0.9515605288766831,-0.761619314173611,-0.39727117381848753,-0.08192025655405377,-0.009686191344334924,0.4379082040873309,-8.677479622476742,-3.5533695153486753,-0.5071580422182486,0.009939831071148045,-0.0007761315406556061
0.35000000000000003,0.26956342377997666,1.941436908883323,-1.1683191112804046,0.10969837759851844,0.020272742633973655,0.00022459691243758152,1.235425123973253,1.4543681633033836,1.5721361504820546,0.4016348479768376,0.0765813010760667,0.0005263388746932412,0.7679257057779464,-1.1828414669052727,-0.9756254149144727,-0.4441181475442386,-0.0878738116151343,-0.009750728626551172,0.3653067596380427,-8.79163577542242,-3.52570591727323,-0.49182238307333415,0.005285679267873012,-0.0007929725274975932
0.36,0.2819938646701554,1.9558626094266987,-1.1526959756562931,0.11367488538689519,0.021034515959217317,0.00022956259880846288,1.2430440890178773,1.4425700543375697,1.5623135624111386,0.3976507788376745,0.07617733252436605,0.0004965686370881367,0.6042674895655342,-1.4032986455475083,-1.1778973133226143,-0.48721532843562354,-0.09345419295909174,-0.009797225736523002,0.29355962129519825,-8.888235790188746,-3.4925581187275574,-0.4756804337823525,0.0008115037369590128,-0.0008044232240252996
0.37,0.2944842104766816,1.9701483136592537,-1.1371911423214183,0.11760714899946204,0.02179152596468828,0.0002342274131826027,1.249034580652618,1.4285704232555037,1.5504833334874941,0.3932263612566844,0.0757010005470964,0.00046648143741398257,0.4444148418405327,-1.6128608557237054,-1.3685383504703434,-0.5266784294294853,-0.09870620922331064,-0.009824387971953452,0.22331061954393072,-8.968128608272943,-3.4543105507517526,-0.4588332730328389,-0.0034521079339139994,-0.0008106018450697662
0.38,0.30701855451873894,1.9842730975180978,-1.1218235300473174,0.12149111705735893,0.02254308553025242,0.00023858936387209444,1.2534344042057326,1.4124783858844119,1.5367612274100857,0.3883968057896897,0.07515595655641397,0.0004361950689491746,0.2886418738300854,-1.811513365511547,-1.5477032185087376,-0.5626366459385652,-0.10366889266835422,-0.009830999114145866,0.15513471376480298,-9.032223107391383,-3.4113592673283604,-0.4413801033700975,-0.0074790110022033805,-0.0008116820242214189
0.39,0.3195813956590332,1.9982171293374007,-1.1066109154447565,0.1253230786827855,0.023288541375229264,0.00024264757290698875,1.2562841140294256,1.3944031819302978,1.5212614602560892,0.38319616254265565,0.07454558449768448,0.0004058209034894306,0.13718155084366257,-1.9992936889352857,-1.7155931714827726,-0.5952305800568958,-0.10837557559995015,-0.009815984880698236,0.08953206319129758,-9.081472181519224,-3.3641069179692824,-0.42341733808617277,-0.011247600769726734,-0.0008078860053591691
0.4,0.3321576616857598,2.011961665868703,-1.0915699530875804,0.1290996507500693,0.024027271693168234,0.0002464022143404007,1.2576266026726546,1.3744536531302654,1.50409623571761,0.37765720672838093,0.07387303179389693,0.0003754641433411912,-0.009772886806296512,-2.1762871961897106,-1.8724511378074316,-0.6246102016457638,-0.11285406071040398,-0.009778465544486803,0.02692468832151068,-9.116857932583919,-3.3129582335851593,-0.40503785640616075,-0.014740805747135993,-0.0007994774405678867
0.41000000000000003,0.34473272872623517,2.025489043522839,-1.0767161997955603,0.13281776418479443,0.024758684095195736,0.0002498544545986202,1.2575067040475418,1.3527377654135784,1.4853753292020044,0.371811343472514,0.07314124020275026,0.0003452240258219498,-0.15206615005196672,-2.342622640743173,-2.0185568098816282,-0.6509328727405777,-0.11712686956819263,-0.009717797720837251,-0.03234447778379465,-9.139378120716083,-3.258316049017814,-0.3863304203109367,-0.017945988491105555,-0.0007867540192204404
0.42,0.35729243686770557,2.038782665281665,-1.062064142585242,0.13647464949810323,0.025482213855070015,0.00025300639443495465,1.2559708141470391,1.3293621758826095,1.4652057210318306,0.3656885313308782,0.07235297598742801,0.0003151939836334461,-0.2895788490023276,-2.4984676710564404,-2.1542217783636968,-0.6743614572850873,-0.12121155552907137,-0.009633605484404728,-0.0880104136343333,-9.150033970086529,-3.200577866490121,-0.3673792422299128,-0.020854767109327352,-0.000770040130433316
0.43,0.36982310218894116,2.051826983729156,-1.0476272298022231,0.14006782173577303,0.026197322443956842,0.00025586101209359476,1.2530665321235586,1.3044318447491072,1.4436912783018938,0.35931722376698033,0.0715108588886828,0.00028546176586400935,-0.4222252317893673,-2.644024386554637,-2.2797847701965863,-0.6950625340048138,-0.1251210689989437,-0.009525801178174975,-0.13988301752815444,-9.149819381777746,-3.1401329481724467,-0.3482636898448599,-0.023462771086835015,-0.0007496797345327437
0.44,0.38231152542737334,2.064607480646821,-1.0334179049586503,0.14359506501241662,0.026903496338594086,0.0002584221073470759,1.2488423238432171,1.2780496917665074,1.4209324843572846,0.3527243276643574,0.07061738946372449,0.0002561095253481166,-0.5499507774393094,-2.7795249892655183,-2.39560704084294,-0.7132047263229051,-0.128864164285178,-0.009394596386125775,-0.18784263167546242,-9.139711564847525,-3.0773599132470704,-0.3290581123120751,-0.025769345185712004,-0.0007260295902910228
0.45,0.3947449975213392,2.0771106436086866,-1.019447642815155,0.14705441679052508,0.027600246082878702,0.0002606942461352542,1.243347209396585,1.2503162961865466,1.3970262143495251,0.3459351778108456,0.06967497442846159,0.00022721387881783196,-0.672729699240588,-2.905227574408327,-2.5020679626546993,-0.7289571595618636,-0.13244583827031908,-0.00924050368066126,-0.23183441924774728,-9.120663062332332,-3.0126248052375724,-0.3098317712332058,-0.027777214792212866,-0.0006994529550329805
0.46,0.40711130227613596,2.0893239399970587,-1.0057269872660852,0.15044415205241318,0.028287105579934815,0.00026268270560213453,1.2366304754796789,1.2213296388372157,1.3720655549069936,0.3389735261888099,0.06868594970561125,0.00019884594668803226,-0.7905624081895974,-3.0214120953710517,-2.599560843034833,-0.7424880523648607,-0.13586779190784037,-0.009064329883551325,-0.2718619214267684,-9.093595120640003,-2.9462795887650675,-0.29064885955039,-0.029492125321322015,-0.0006703138455609577
0.47000000000000003,0.4193987164067457,2.1012357888427213,-0.992265590609906,0.15376276750075143,0.028963631589368436,0.0002643934193966553,1.228741413060976,1.191184884566284,1.3461396656179125,0.33186154483382563,0.06765260094336205,0.00017107137945207766,-0.9034729791831251,-3.1283765310950233,-2.68848899823481,-0.7539634462814107,-0.1391289061017016,-0.0088671616457619,-0.3079800995910542,-9.059392328524936,-2.8786610309885683,-0.2715685920570824,-0.030922467230676418,-0.0006389719202430497
0.48,0.4315960072099623,2.1128355308728803,-0.979072253812258,0.1570089659105647,0.02962940340265655,0.000265832923172959,1.21972908032166,1.1599742030159192,1.3193336797648025,0.32461984098132757,0.06657718132881126,0.00014395037763037047,-1.0115066558774617,-3.2264332769979513,-2.769262101389157,-0.763546074798672,-0.14222572400424127,-0.00865034429143241,-0.3402881370607474,-9.018898435315919,-2.8100899214001354,-0.2526453522450833,-0.03207889693197191,-0.0006057780173399367
0.49,0.4436924281149175,2.1241133971277204,-0.9661549673966316,0.16018164074259816,0.030284022668433944,0.0002670083002919388,1.209642090495522,1.1277866254840117,1.291728641562641,0.31726748320334525,0.0654619265777394,0.00011753771189797949,-1.1147274237014506,-3.315905774291868,-2.8422928167898074,-0.7713943708160897,-0.1451529321419356,-0.008415454894343588,-0.3689222383872758,-8.972913246794588,-2.740870583959415,-0.23392888159970304,-0.032973962499695614,-0.0005710703622488541
0.5,0.4556777123543048,2.1350604764825256,-0.953520952626306,0.16327986111501938,0.030927113338813504,0.0002679271277879623,1.198528423938733,1.0947079354805347,1.2634014770325679,0.309822037242122,0.06430906703795594,9.188274960234996e-05,-1.21321567450195,-3.39712538692859,-2.907993726521179,-0.7776616095660085,-0.14790383317792255,-0.008164270652702255,-0.3940486247806413,-8.92219049050274,-2.671290637345945,-0.21546449907081594,-0.03362174163583119,-0.000535171437140626
0.51,0.46754206498954287,2.145668682387487,-0.9411767026704898,0.16630285721773336,0.03155832170778509,0.00026859742272042353,1.1864352635238045,1.060820590496126,1.2344249955816193,0.3022996102713978,0.06312083689715854,6.702949324612257e-05,-1.3070659808000746,-3.4704285304585927,-2.9667745504123713,-0.7824951823550172,-0.15047080351672193,-0.00789873364566146,-0.41585688426857903,-8.867436539627912,-2.6016209619808914,-0.19729334016832928,-0.03403749791549163,-0.0004983854905795371
0.52,0.4792761535122562,2.15593071911207,-0.9291280234769952,0.1692500062412934,0.03217731651316402,0.000269027589078154,1.173408852271336,1.0262036724582833,1.204867919349458,0.29471490235600534,0.0618994805378938,4.301663577304921e-05,-1.3963849926924086,-3.536154052815759,-3.0190396558310413,-0.7860359951589828,-0.1528457294400507,-0.007620913061756329,-0.4345537964788728,-8.809309885299154,-2.5321158360619154,-0.17945260685811545,-0.03423735996094848,-0.00046099665211370573
0.53,0.4908710972322762,2.165840047755584,-0.917380074102815,0.17212081888062775,0.03278378907447478,0.00026922636544479174,1.159494372001996,0.990932864351397,1.1747949374180255,0.2870812639334335,0.06064725613107608,1.9877636663772944e-05,-1.4812894660713753,-3.594640863421517,-3.065185850123658,-0.7884179850430364,-0.15502041601052508,-0.007332966006699693,-0.45035771596566687,-8.748421250453541,-2.4630132068535633,-0.16197582109236877,-0.0342380269073822,-0.0004232676073493204
0.54,0.5023184556493134,2.1753908522607217,-0.9059374062822916,0.17491492646267234,0.03337745344052518,0.00026920277366378914,1.1447358417037203,0.9550804505137614,1.1442667820523416,0.27941075820445976,0.059366436605039576,-2.359178100260094e-06,-1.5619044270667697,-3.646225804010721,-3.105600445451867,-0.7897677466107069,-0.15698696363290932,-0.00703709792828261,-0.4634935657589916,-8.685334243786562,-2.3945350676241652,-0.1448930763413492,-0.0340565023591788,-0.0003854387824203715
0.55,0.5136102159919076,2.184578005642636,-0.8948040030398555,0.17763206873658316,0.03395804652220936,0.00026896606876291966,1.1291760342594155,0.9187153381914203,1.113340324243611,0.27171422739108253,0.058059308168417666,-2.367049008694849e-05,-1.6383614744143677,-3.6912417521714245,-3.1406595833654967,-0.7902042601106292,-0.1587381078941963,-0.006735523661968723,-0.4741884649038233,-8.620566459112013,-2.32688791471667,-0.12823128286538782,-0.033709858007285806,-0.00034772798273054927
0.56,0.5247387800935348,2.19339703662283,-0.8839833161803262,0.18027208235555178,0.034525328188225096,0.00026852569040939896,1.1128564101627163,0.8819030980194436,1.0820686859529278,0.2640013618968633,0.05672816660157415,-4.403783535207293e-05,-1.7107972188102674,-3.7300159467205978,-3.170726804606243,-0.789838712521103,-0.16026751913396442,-0.006430430013340899,-0.482667990433018,-8.55459093323543,-2.2602632631358532,-0.11201440365713126,-0.03321502719414755,-0.0003103304290257835
0.5700000000000001,0.5356969507621157,2.201844096834936,-0.8734783025143313,0.18283489007040138,0.03507908130384546,0.00026789121616831456,1.0958170668580813,0.844706021210571,1.0505013665994847,0.25628077148495826,0.05537531156203639,-6.344742410843963e-05,-1.7793518561761048,-3.7628685226503396,-3.1961518483289195,-0.788774402753619,-0.16157005907501976,-0.006123940684057055,-0.4891530554762096,-8.487837883769688,-2.1948382026252418,-0.09626367898802535,-0.03258862797423246,-0.0002734191338970077
0.58,0.5464779177858309,2.209915928748479,-0.8632914586993717,0.18532049064711348,0.035619111695584654,0.00026707231682955134,1.0780967023715242,0.8071831913543054,1.0186843814959605,0.24856005767121042,0.05400303917391942,-8.188993387632386e-05,-1.8441678700950803,-3.790111242426741,-3.2172696640726297,-0.7871067221471097,-0.16264199278372082,-0.005818084244327143,-0.4938573708244727,-8.42069665684567,-2.130775979431905,-0.0809978383142386,-0.031846814620773545,-0.0002371455633595864
0.59,0.5570752437052799,2.2176098344371002,-0.8534248545983613,0.18772894951323119,0.03614524802747598,0.0002660787140522981,1.059732591944907,0.7693905688621364,0.9866604101010527,0.24084588661177025,0.052613633189132064,-9.936027772532493e-05,-1.905388857435009,-3.8120464098479276,-3.23439961937498,-0.7849232015564898,-0.1634811551699631,-0.0055147657161462305,-0.49698544688087354,-8.353517823119008,-2.068226591786609,-0.06623329894733425,-0.031005156064556755,-0.0002016405308727442
0.6,0.5674828494697374,2.224923645299429,-0.8438801650770529,0.19006039013168877,0.03665734157766682,0.0002649201405526267,1.0407605764457437,0.731381086232877,0.9544689521308398,0.23314406184575814,0.05120935501908444,-0.00011585734996713834,-1.9631584703004044,-3.8289659524209734,-3.2478448858286404,-0.7823036166074449,-0.16408707217738971,-0.005215742205571541,-0.49873108606881944,-8.286615368634424,-2.007327389557821,-0.05198435139095345,-0.030078539406989367,-0.00016701527474297253
0.61,0.5776950000836591,2.2318556928239572,-0.83465870017962,0.19231498609501077,0.03715526590706248,0.00026360630302950215,1.0212150613921795,0.6932047524528062,0.9221464897432952,0.2254595963322011,0.049792432939566034,-0.0001313837523124556,-2.017619466901526,-3.841150658248288,-3.257891986586923,-0.7793201430327095,-0.164461037703437,-0.0049226028771525016,-0.49927631193425964,-8.22026893482732,-1.9482036705861776,-0.03826333160616739,-0.02908109641402861,-0.00013336267402387682
0.62,0.5877062903387197,2.238404780473814,-0.8257614336378117,0.19449295392797186,0.03763891641474955,0.00026214684798927824,1.001129025506049,0.6549087649856826,0.8897266541808232,0.21779678329610783,0.04836505076870678,-0.00014594550402238999,-2.0689128636434173,-3.848869553675533,-3.264810488775421,-0.7760375544320866,-0.16460614812191565,-0.004636753438200034,-0.49879067984350683,-8.154726069112156,-1.8909692679004022,-0.025080780715875092,-0.02802615075571907,-0.00010075856254774593
0.63,0.5975116307165497,2.244570156753268,-0.8171890296835945,0.19659454658267483,0.03810820977783747,0.00026055133058942306,0.9805340377829945,0.6165376279454083,0.8572403954217164,0.21015926547029634,0.04692933630879237,-0.00015955173998551694,-2.117177180677049,-3.8523794084060974,-3.268852824918386,-0.7725134552783857,-0.1645272970106353,-0.004359405163941489,-0.4974309148413645,-8.090204454064901,-1.8357271233934633,-0.012445592813212475,-0.026926183693781344,-6.926310539873141e-05
0.64,0.607106233538003,2.250351489505041,-0.8089418681480854,0.19862004760654417,0.038563083276116114,0.0002588291865803802,0.9594602821453292,0.5781332751772861,0.8247161535509032,0.20255010238693386,0.045487349827864204,-0.00017221440090428933,-2.1625477732734697,-3.85192435538884,-3.270254228299889,-0.7687985425055235,-0.16423113331594585,-0.004091568384504675,-0.49534082442593796,-8.026894089120367,-1.7825698446398337,-0.00036515161976286015,-0.025792815923038892,-3.892220680425805e-05
0.65,0.6164855994261917,2.2557488414760507,-0.8010200678409686,0.20056976596089765,0.03900349400448783,0.00025698970738131124,0.9379365888188814,0.5397351971009376,0.7921800307116892,0.19497183543534724,0.04404107283717186,-0.00018394791990689445,-2.2051562416420833,-3.8477356135050527,-3.2692327681101934,-0.7649368895619979,-0.1637259866848506,-0.003834050250792545,-0.492651437297243,-7.964959403969984,-1.7315802424030844,0.011154543236034,-0.02463680332841481,-9.768922949664517e-06
0.66,0.6256455041426724,2.2607626471789293,-0.7934235082145468,0.20244403146549955,0.0394294179784537,0.0002550420182822351,0.9159904716480683,0.5013805702878669,0.7596559626421793,0.18742655046019,0.04259239739658662,-0.0001947689099076173,-2.2451299121814676,-3.8400313018869405,-3.2659894712466757,-0.7609662473732541,-0.16302176406423463,-0.0035874565026157434,-0.4894813231824421,-7.904541287476769,-1.6828318470582129,0.02210875956617263,-0.0234680445158495,1.81751424846295e-05
0.67,0.634581985849001,2.2653936910675143,-0.7861518493252285,0.20424319084276338,0.039840849139983286,0.00025299505972301034,0.8936481706328668,0.4631043888584941,0.7271658889318274,0.17991593772638337,0.04114311615295843,-0.00020469585592247126,-2.282591383595877,-3.8290163355647118,-3.260708518719981,-0.7569183572108749,-0.1621298219007894,-0.003352196897650095,-0.4859370533249714,-7.845759019950858,-1.636389402672453,0.03249392488613996,-0.02229559810214436,4.489847827383864e-05
0.68,0.6432913328393652,2.269643087036381,-0.7792045501126839,0.2059676043340075,0.04023779827285425,0.00025085757155962076,0.8709346990364214,0.42493959688667654,0.6947299212544636,0.17244134912441011,0.03969491328709653,-0.0002137488163389568,-2.3176581318077756,-3.814882393042797,-3.253557505726456,-0.7528192710364028,-0.16106281837676306,-0.0031284939021355707,-0.48211376589840316,-7.7887121000914,-1.592309337885315,0.04230752694522795,-0.02112770789616008,7.039835565759547e-05
0.6900000000000001,0.6517700717840876,2.27351225924732,-0.7725808850232447,0.2076176428593214,0.0406202918379998,0.00024863808019123535,0.8478738944722429,0.3869172210938746,0.6623665089439075,0.16500385253139252,0.038249356514554925,-0.00022194913683854127,-2.3504421681262606,-3.797807947327102,-3.2446877555800797,-0.7486896754245045,-0.15983455009441894,-0.0029163942079731553,-0.47809580527214546,-7.733481960844304,-1.550640213032373,0.05154802194572802,-0.0199718342641049,9.467957971221548e-05
0.7000000000000001,0.6600149565184376,2.27700292427932,-0.766279959009478,0.20919368569212377,0.04098837074054626,0.00024634488838822606,0.824488473434992,0.34906650320005556,0.6300926013766717,0.15760428328023446,0.03680789025464652,-0.00022931918030092896,-2.381049745676177,-3.777958352848663,-3.2342346788200547,-0.7445452157035533,-0.15845977748879925,-0.002715782621915158,-0.47395740856636503,-7.680133570900043,-1.5114231431922973,0.06021474994502242,-0.018834690138285214,0.00011775331051234057
0.71,0.6680229574063232,2.2801170745930612,-0.7603007209423441,0.21069611861933335,0.04134208904106562,0.00024398606763224043,0.8008000887885613,0.3114150313741191,0.5979238067133869,0.1502432927209577,0.035371830051936504,-0.00023588207559856279,-2.4095811096405826,-3.755485981641004,-3.222318169919242,-0.7403968174598958,-0.1569540430163574,-0.002526397860771995,-0.46976341718107995,-7.628716920611652,-1.4746921970229976,0.06830785700441595,-0.01772228029635925,0.0001396359600096894
0.72,0.6757912513040186,2.2828569632959934,-0.7546419754760784,0.21212533255818813,0.04168151262412207,0.00024156945275501137,0.7768293897695415,0.27398887029320007,0.5658745466265769,0.14292139388547856,0.03394235830564459,-0.00024166148772290612,-2.4361302874098865,-3.7305304030186286,-3.2090430350970207,-0.7362510030337326,-0.1553334858601758,-0.002347849799608337,-0.4655699948979153,-7.579268392799659,-1.4404747714064912,0.07582822371252254,-0.016639942702668796,0.00016034816842704845
0.73,0.683317212145051,2.285225090189772,-0.7493023934090025,0.21348172260108486,0.04200671783747713,0.00023910263864296443,0.7525960841032392,0.23681268937787292,0.533958206707588,0.1356390042896722,0.03252052133550573,-0.00024668141120469346,-2.4607849152576815,-3.7032186018623636,-3.194499445779476,-0.7321102010896503,-0.15361465652016104,-0.002179637733340123,-0.46142533769065236,-7.531812020276629,-1.4087919420558075,0.08277739976702031,-0.015592390861485428,0.00017991386218300153
0.74,0.6905984021636846,2.287224189077966,-0.7442805205860002,0.214765687460334,0.04231779011535938,0.00023659297876000397,0.7281190018633568,0.19990988881936245,0.502187282300225,0.12839648592491495,0.031107227788225618,-0.0002509659882960448,-2.483626098670426,-3.673665231436754,-3.1787634132448974,-0.7279730477658788,-0.15181433424554935,-0.0020211692359362043,-0.45737036352381466,-7.486360633012866,-1.3796587903600972,0.08915754434543428,-0.014583756281733376,0.00019835939390184796
0.75,0.6976325637710388,2.2888572163085232,-0.7395747853904662,0.21597762928539088,0.042614822599029836,0.00023404758523112355,0.703416160735412,0.16330272305574994,0.47057351955341287,0.12119418250568788,0.029703248367045684,-0.0002545393528880423,-2.5047283039424078,-3.641972897440415,-3.1618972809302615,-0.7238346783059608,-0.14994934983325958,-0.001871779241437388,-0.4534393731668833,-7.442916898719713,-1.3530847068629202,0.09497137203289566,-0.013617630292446175,0.00021571276389386132
0.76,0.7044176120947208,2.290127340522396,-0.7351835048752606,0.21711795382589572,0.042897914767512924,0.0002314733302244376,0.6785048323681984,0.12701242138728192,0.43912805152055756,0.11403245405048354,0.028309216848309057,-0.00025742550066859375,-2.5241592791060676,-3.6082324707142144,-3.143950231759089,-0.7196870084316931,-0.14803641587622351,-0.0017307489955043498,-0.44966067541843935,-7.40147426128438,-1.3290736718877616,0.10022210410268159,-0.012697104577008069,0.00023200292158307272
0.77,0.7109516281898938,2.2910379335768636,-0.731104889583663,0.2181870709147014,0.04316717109084663,0.00022887684836884288,0.6534016095173012,0.09105930544676014,0.4078615291597633,0.10691170888056932,0.02692563233337062,-0.00025964818555947335,-2.541980002699591,-3.572523426704417,-3.1249588086701223,-0.715519005047522,-0.14609196611212916,-0.001597324575656145,-0.4460571721424601,-7.362017781985746,-1.3076245139470368,0.10491342496426646,-0.011824809911777801,0.00024725914468091964
0.78,0.7172328529268952,2.291592562609465,-0.7273370471125897,0.2191853952459551,0.0434226997175637,0.00022626453994834995,0.6281224737001423,0.055462903260129995,0.37678424710732783,0.09983243312536962,0.025552862671706388,-0.0002612308420492918,-2.5582446592763826,-3.534914210391052,-3.1049474472800482,-0.7113169461619258,-0.14413200511771507,-0.0014707347147212557,-0.44264690019728015,-7.324524888783636,-1.288731146697322,0.10904944360438171,-0.011002952701051998,0.0002615104934231116
0.79,0.7232596815578303,2.291794983205919,-0.7238779844715133,0.22011334742420163,0.0436646112073784,0.00022364257462190802,0.602682863093501,0.020242059645377744,0.3459062641076425,0.09279521782465412,0.0241911489814698,-0.00026219653264419266,-2.573000640934096,-3.495462625944506,-3.083929020298887,-0.7070646701762247,-0.1421719692189365,-0.0013502076932431772,-0.4394435287192452,-7.288966039231777,-1.2723827853346776,0.11263465985009846,-0.01023334899587791,0.0002747853368740029
0.8,0.7290306589619526,2.291649133632972,-0.7207256092916487,0.22097135526136819,0.0438930173192465,0.00022101689542904727,0.5770977404122396,-0.014584957294703126,0.31523751798645083,0.08580078371665578,0.022840611186809887,-0.00026256791928607365,-2.5862885744824937,-3.4542162508626753,-3.061905393928415,-0.7027438149194882,-0.1402265991541034,-0.0012349871204322405,-0.4364568113423797,-7.255305302740611,-1.2585641434587784,0.11567393528025627,-0.009517455769583825,0.0002871109481279299
0.81,0.7345444755670759,2.291159130094694,-0.7178777299411276,0.22175985529934833,0.04410802986411367,0.00021839322285626642,0.5513816605123302,-0.04900035382777841,0.2847879350521124,0.07885000379801434,0.021501254486717122,-0.0002623672572780853,-2.598142374177899,-3.4112128747618464,-3.0388679970098718,-0.6983340470108583,-0.13830982474170384,-0.0011243464359391164,-0.43369299382703996,-7.223500868029648,-1.2472556115721534,0.11817246860360536,-0.008856399298832215,0.00029851316517396997
0.8200000000000001,0.7397999639417017,2.290329262968305,-0.7153320546031093,0.22247929453671145,0.04430975963079028,0.00021577705875676516,0.5255488374625754,-0.08298671263886812,0.25456753380183095,0.0719439237363115,0.020172976667660974,-0.0002616164099501252,-2.608589320225101,-3.3664809633476698,-3.014798404145793,-0.6938132822955634,-0.13643466157410167,-0.0010176020176171363,-0.43115517826803007,-7.193505481677768,-1.2384334185190817,0.1201357753099035,-0.008251000566388316,0.00030901611421341727
0.8300000000000001,0.7447960960499812,2.289163993973128,-0.7130861893751341,0.22313013233880397,0.044498315392504595,0.00021317368993616797,0.49961321082795396,-0.11652689951771622,0.22458652279752,0.06508378020925283,0.018855576171431982,-0.0002603368820597201,-2.6176501634834826,-3.3200401483709943,-2.9896689343950995,-0.6891578982379638,-0.1346131195713749,-0.0009141247927301754,-0.4288436455877045,-7.165266823717419,-1.23206977730568,0.12156967138478252,-0.007701797661553801,0.00031864199230536693
0.84,0.749531981159018,2.287667954223693,-0.7111376354495348,0.2237128425111695,0.044673803000805465,0.00021058819123919578,0.47358851090368187,-0.14960397494354488,0.1948553925599302,0.05827101723655209,0.01754876083008666,-0.0002585498696972196,-2.6253392570087746,-3.2719017445764047,-2.963443267428965,-0.684342939264809,-0.13285612310396733,-0.0008133502804136272,-0.4267561384212581,-7.13872782623645,-1.2281330168757858,0.12248026086144605,-0.007209065207259249,0.0003274109063434579
0.85,0.7540068643853505,2.2858459431153504,-0.7094837854364276,0.22422791551678467,0.04483632457261821,0.00020802542799638,0.44748832263325217,-0.18220111083422938,0.16538500131071704,0.05150730056151701,0.016252157181273947,-0.000256276324281576,-2.6316647152134474,-3.222069294775935,-2.9360770792379682,-0.6793423161183973,-0.13117344230768246,-0.0007147870190651884,-0.42488810679623373,-7.113826940958589,-1.2265877015439601,0.12287392696298476,-0.0067728308900256926,0.00033534076551714224
0.86,0.7582201258647137,2.283702927987967,-0.7081219188927163,0.224675860818081,0.044985977775410205,0.00020549005771547564,0.4213261479363217,-0.21430151273833747,0.13618665437113875,0.04479453012963197,0.014965320279200042,-0.0002535370280904379,-2.636628601532631,-3.1705391442235027,-2.907518699585001,-0.6741290003339024,-0.12957363517803788,-0.0006180233405069235,-0.4232329192196865,-7.09049836177668,-1.2273947399042866,0.12275732656910315,-0.006392889211210407,0.000342447224566566
0.87,0.7621712805263519,2.2812440445103634,-0.707049197122676,0.22505720932509307,0.045122855214597385,0.00020298653092904758,0.39511546616382326,-0.24588834776035215,0.10727217700402848,0.038134850701208756,0.013687743918718347,-0.000250352678642805,-2.640227145536042,-3.117301045423521,-2.877709793412617,-0.6686752149618993,-0.1280640000337927,-0.0005227324792388965,-0.4217820419349929,-7.068672208216117,-1.2305114851388557,0.12213738772104983,-0.006068812615874136,0.00034874367528602945
0.88,0.7658599784502377,2.2784745977251544,-0.7062626573180412,0.22537251593134167,0.04524704392651966,0.00020051909113729261,0.36886979238858686,-0.27694467852089244,0.07865398046348504,0.031530660624860485,0.012418871192227243,-0.0002467439791754975,-2.6424509904256825,-3.062338794380082,-2.846586068323797,-0.6629526226495948,-0.1266505379706624,-0.00042867601281559864,-0.42052518921347437,-7.048274675812465,-1.2358918287397327,0.12102130985925083,-0.005799960189857621,0.0003542412838536999
0.89,0.7692860057825436,2.275400063690514,-0.7057592061080871,0.22562236211922468,0.04535862497952988,0.00019809177381329175,0.3426027332305945,-0.3074534034640123,0.050345120995407416,0.02498461878830174,0.011158105301021824,-0.00024273173240008778,-2.643285471801463,-3.0056308990786733,-2.8140780100672744,-0.6569325121480611,-0.1253379249878721,-0.0003357056454872387,-0.4194504476185595,-7.029228159397026,-1.2434862897298389,0.11941656647016183,-0.005585484146729469,0.0003589490716534567
0.9,0.7724492861816168,2.272026091652196,-0.7055356125929616,0.22580735861675613,0.045457673184972534,0.000195708404466187,0.3163280399073263,-0.3373972038318222,0.022359351512541335,0.018499649753144526,0.009904820544265424,-0.00023833693471047543,-2.642710928459167,-2.947151280689276,-2.780111647667964,-0.6505859842371402,-0.12412949354907088,-0.0002437633570050446,-0.4185443772338576,-7.011451355296291,-1.2532421015184925,0.11733090980278947,-0.0054243343545098376,0.00036287403729886556
0.91,0.7753498827635377,2.2683585066758774,-0.7055885009364502,0.22592814808746836,0.04554425691906964,0.0001933725957859346,0.2900596581920853,-0.36675849763185736,-0.005288834348857636,0.012078947071221776,0.008658373409710087,-0.0002335808680252411,-2.6407030458061698,-2.886870007590175,-2.744609349446657,-0.6438841379701223,-0.12302722342497852,-0.0001528799549663784,-0.41779209289050734,-6.99485934846294,-1.2651032985532626,0.11477237730176537,-0.0053152611776980056,0.00036602131756195445
0.92,0.7779880005131108,2.264403312666638,-0.7059143425974128,0.22598540783518517,0.0456184380559763,0.00019108774392088268,0.2638117749573172,-0.3955194009239399,-0.032584166096262177,0.005725974771681471,0.007418113690665784,-0.0002284851865051899,-2.6372332322385557,-2.824754061837589,-2.707490650679465,-0.6367982580034992,-0.12203174175612386,-6.317207657158264e-05,-0.4171773284699277,-6.979363690562916,-1.2790108049285247,0.11174929939328761,-0.005256816933190307,0.0003683943848452157
0.93,0.7803639891228747,2.260166695699139,-0.7065094482822651,0.22597985250519598,0.04568027201151109,0.00018885702396616029,0.23759886097639704,-0.42366169674991033,-0.05951056848522925,-0.0005555329989189294,0.006183395553479549,-0.0002230719954722405,-2.6322690285193255,-2.7607681371512744,-2.668673113051337,-0.6293000036371117,-0.12114233236045813,2.516229696702954e-05,-0.4166824873997111,-6.964872475039543,-1.2949025270801342,0.10827030825316672,-0.005247356279083168,0.0003699952787108671
0.9400000000000001,0.7824783462194423,2.255655027578932,-0.7073699597040236,0.22591223676312627,0.04572980789630103,0.00018668338476628723,0.21143570965676095,-0.45116681202071945,-0.08605114217585096,-0.006761574206969409,0.004953588478994115,-0.00021736391998730502,-2.6257745498328298,-2.694875466855675,-2.6280732153722077,-0.6213616000059314,-0.12035695438146732,0.00011184973630851136,-0.41628868250438417,-6.95129041515444,-1.312713452632446,0.1043443471830737,-0.0052850358728817395,0.00037082486879596823
0.9500000000000001,0.7843317209332445,2.2508748695523297,-0.7084918412365355,0.22578335793252616,0.045767088776303484,0.00018456954315912934,0.18533747138022136,-0.47801580266021926,-0.11218815325119587,-0.01288788306001227,0.003728088000245258,-0.00021138416071578867,-2.617710959768691,-2.6270386795197687,-2.5856072742481744,-0.6129560316812483,-0.11967227042620276,0.00019654858084705573,-0.4159757684184387,-6.938518930958601,-1.33237575736687,0.09998068022226028,-0.00536781364991893,0.00037088314619698103
0.96,0.7859249177645785,2.245832976079501,-0.7098708715554837,0.22559405857190237,0.0457921520378753,0.00018251797780995506,0.1593196831333956,-0.5041893472829075,-0.13790303189481903,-0.018929936062377625,0.002506326157181658,-0.0002051565349174287,-2.6080369750143455,-2.5572206792852206,-2.541192392553767,-0.6040572387174485,-0.11908368437032912,0.0002788573613087264,-0.4157223698134397,-6.926456251066006,-1.3538189221488772,0.09518890162780816,-0.0054934480833540925,0.00037016954010684716
0.97,0.7872589006958078,2.2405362985829678,-0.7115026353605153,0.22534522897162323,0.04580502985375195,0.0001805309228033375,0.1333982931229309,-0.5296677496532857,-0.16317638050315503,-0.02488296002791326,0.0012877815876646808,-0.00019870550066175793,-2.596709399015706,-2.4853855470750874,-2.49474743263748,-0.5946403149590678,-0.11858538900298754,0.00035832430653159886,-0.4155059087291202,-6.914997534977625,-1.3769698614821684,0.08997894486712468,-0.005659497793394506,0.00036868325613830373
0.98,0.7883347974966787,2.2349919890815984,-0.7133825152752976,0.22503780955084898,0.04580574974547879,0.0001786103611767461,0.10758968008708289,-0.5544309501369421,-0.18798799147822984,-0.03074194207742467,7.19891726838201e-05,-0.0001920561626591397,-2.583683682308852,-2.4114994580497275,-2.446194010234789,-0.5846817081855393,-0.11817042365163921,0.000434457782769071,-0.41530263432332,-6.904035021525667,-1.4017530651548942,0.08436109078202719,-0.00586332187472507,0.00036642363237835503
0.99,0.7891539041670544,2.2292074036185214,-0.7155056840243595,0.22467279313440788,0.04579433523700721,0.0001767580185922969,0.0819106670375811,-0.5784585463076795,-0.21231687490619128,-0.03650164164410917,-0.0011414508471580826,-0.00018523425844491878,-2.568914506643408,-2.335531609839946,-2.3954575040748933,-0.574159421425767,-0.1178307418475466,0.0005067375029057519,-0.4150876583588166,-6.893458208766662,-1.42809075420428,0.07834597460440078,-0.0061020813068655335,0.0003633905088025703
