tonegas/nnodely-applications/joint_friction_estimation/dataset/train/mpc_mujoco_episode_17.csv
time,q1,q2,q3,q4,q5,q6,dq1,dq2,dq3,dq4,dq5,dq6,ddq1,ddq2,ddq3,ddq4,ddq5,ddq6,tau1,tau2,tau3,tau4,tau5,tau6
0.0,0.0,1.57,-1.57,0.0,0.0,0.0,0.0,0.0,0.0,0.0,0.0,0.0,-13.650809375910768,13.576304194064212,9.665766338039994,3.14436280114343,-1.8922877045739455,-1.8504081289449914e-06,-1.9018326522853755,4.120133208251293,-0.6774373404274541,-0.1596523775554639,-0.17133736275503583,-0.0021299727347544113
0.01,-0.001357623510975283,1.5713565867688375,-1.5690346021907913,0.00029724965522734127,-0.00016208125989069516,-1.5013198062689304e-06,-0.1357623510975283,0.1356586768837519,0.09653978092088909,0.029724965522734126,-0.016208125989069514,-0.00015013198062689305,-13.55164766154005,13.3616742211749,9.313399887954041,2.8366698200289875,-1.5858064128841463,-0.01483607455115532,-1.913400110944373,3.9215530115683412,-0.768967956028058,-0.1805983327802705,-0.1717416468182006,-0.002134918942398105
0.02,-0.00406204110819197,1.5740483520784916,-1.5671400504345383,0.0008657177440016192,-0.000467204088111724,-4.563221004857376e-06,-0.27044175972166873,0.2691765309654073,0.18945517562530356,0.056846808877427796,-0.030512282822102887,-0.0003061901198588446,-13.421830071525134,13.1211063500032,8.919940776131035,2.5648247483099595,-1.3871469224968394,-0.014863588079748524,-1.9442708310227943,3.665613799960572,-0.8695527098554967,-0.20243355223913428,-0.173151985136531,-0.002135961027140691
0.03,-0.008099810207327519,1.5780512520145005,-1.5643563560264093,0.001681909183800196,-0.0009026457903418084,-9.070164187524087e-06,-0.40377690991355475,0.40028999360088946,0.2783694408128979,0.08161914397985769,-0.04354417022300844,-0.0004506943182666712,-13.263434973018269,12.852669136814171,8.489461409425836,2.318609070741303,-1.248358131740794,-0.012760490951713166,-1.9929874651820956,3.354320510787608,-0.9790423451991912,-0.22515018894364647,-0.17543233478084497,-0.0021322432285086953
0.04,-0.013454911593496512,1.583338424525589,-1.5607269704105244,0.0027240978524539004,-0.001459114247517566,-1.49011239329641e-05,-0.5355101386168994,0.528717251108867,0.3629385615884929,0.10421886686537044,-0.05564684571757575,-0.0005830959745440012,-13.076981219557444,12.554837722482889,8.0255830090295,2.0905137045278295,-1.1410549613861178,-0.010285716241616782,-2.0578918379485995,2.9901477292499434,-1.0970662680461092,-0.24868793421285051,-0.1784200195813944,-0.0021228144599878306
0.05,-0.020108696577885936,1.5898800454370192,-1.5562984843940508,0.003971767997846711,-0.0021290408108483876,-2.1941223857176318e-05,-0.6653784984389425,0.6541620911430277,0.4428486016473554,0.12476701453928109,-0.06699265633308216,-0.0007040099924212218,-12.862115165855382,12.226506008047819,7.531680222807381,1.8751231180779655,-1.0487667267948382,-0.007652461354915374,-2.137103551386239,2.576053260416133,-1.2230368751924838,-0.2729371568815179,-0.18193054955273777,-0.0021066548208317944
0.06,-0.02803978799129611,1.5976432246810828,-1.5511203377761644,0.00540521687265549,-0.002905594288620578,-3.007637904517329e-05,-0.7931091413410177,0.7763179244063667,0.5178146617886502,0.143344887480878,-0.07765534777721904,-0.0008135155187996968,-12.618061321318818,11.867002056453332,7.011032246187099,1.6686349336268904,-0.9623006715666662,-0.004915390400274333,-2.2284993456288626,2.115482567537393,-1.3561575352567266,-0.2977429304395339,-0.18576280422152855,-0.0020827277301991446
0.07,-0.0372239641634388,1.6065919446727808,-1.545244527686535,0.007005282003970796,-0.003782136264920796,-3.918969144708862e-05,-0.918417617214269,0.8948719991697942,0.5875810089629383,0.16000651313153058,-0.08765419763002179,-0.000911331240191533,-12.343923968697636,11.476101260162382,6.466928658639944,1.468487598501099,-0.8768978155588982,-0.0021441613248533997,-2.3296990865414955,1.6123605338930638,-1.4954355996992414,-0.32291020894610134,-0.18970462121280957,-0.002050043779617804
0.08,-0.04763404613158279,1.6166870424275284,-1.5387253076541616,0.008753164735291955,-0.004751945901128328,-4.9160621697455164e-05,-1.0410081968143992,1.0095097754747615,0.6519220032373467,0.17478827313211598,-0.09698096362075319,-0.000997093025036655,-12.038892767683972,11.054033612006814,5.9027372599858055,1.2730707582000917,-0.7904746876151165,0.0005759673782721464,-2.4380633876526803,1.0710681826506363,-1.639701350785994,-0.34821028206574367,-0.1935387531435406,-0.002007727435228309
0.09,-0.05923980247944329,1.627886236350439,-1.5316188726047775,0.01063032789897524,-0.00580810792613045,-5.986592922390799e-05,-1.1605756347860499,1.1199193922910535,0.7106435049384172,0.18771631636832853,-0.10561620250021221,-0.0010705307526452823,-11.702383969369764,10.60148277493481,5.321940137610447,1.0814984260644067,-0.7025278049967127,0.0031602334709672775,-2.5507067555674117,0.49640313003769254,-1.7876333062203957,-0.3733885115224014,-0.19704908439620478,-0.0019550804853468167
0.1,-0.07200788212548631,1.6401441977505629,-1.5239830276844621,0.012618450172865024,-0.0069434974905394084,-7.118149974869346e-05,-1.2768079646043022,1.2257961400123922,0.7635844920315341,0.19881222738897836,-0.11353895644089583,-0.0011315570524785467,-11.33413576678463,10.119575678709479,4.728143434317836,0.8934298800053426,-0.6134457347030562,0.005536085015910075,-2.6645287433763447,-0.10647635782443832,-1.9377898003739866,-0.39817322659647536,-0.2000269382621196,-0.0018916377378248848
0.11,-0.08590178227510484,1.6534126661457393,-1.515876841071832,0.014699423228995045,-0.008150820094266388,-8.298447873875272e-05,-1.3893900149618528,1.3268468395176536,0.8106186612630083,0.20809730561300202,-0.12073226037269791,-0.0011802978990059264,-10.934269040625296,9.609862428124,4.125065760268743,0.7089270220313963,-0.5240747619124448,0.007649319420220735,-2.776264028210808,-0.7321226743117126,-2.0886462214210266,-0.4222855307522218,-0.20227726412508273,-0.0018172116138733619
0.12,-0.10088185622435895,1.6676406064259446,-1.5073602827977644,0.016855380490492504,-0.009422680036686866,-9.515535689103431e-05,-1.4980073949254114,1.4227940280205293,0.8516558274067647,0.21559572614974587,-0.1271859942420479,-0.0012170878152281594,-10.503319529915885,9.07428644320199,3.5165098491279743,0.5283398745138896,-0.435445047057911,0.009465970331101303,-2.8825504041422736,-1.3748838060451787,-2.2386368873963365,-0.44544968343063646,-0.2036244536030069,-0.0017319230588362076
0.13,-0.11690536343499919,1.682774404946061,-1.4984938530546357,0.019068748402931997,-0.010751660473593544,-0.00010757980816881749,-1.6023507210640238,1.5133798520116266,0.8866429743128633,0.22133679124394934,-0.13289804369066774,-0.0012424451277783177,-10.042246973857376,8.515146223615842,2.9063217297580675,0.3522140685545061,-0.3486004336000761,0.010971314675351174,-2.9800121967809963,-2.028998838584487,-2.38619996384838,-0.46740360782680673,-0.20391754802925466,-0.001636217279611649
0.14,-0.13392656236662442,1.6987581007674963,-1.4893382045635915,0.02132231276575146,-0.012130404398542769,-0.00012015018343572992,-1.7021198931625228,1.5983695821435497,0.9155648491044306,0.22535643628194615,-0.13787439249492248,-0.0012570375266912426,-9.552424334498028,7.9350496937646815,2.2983414241803874,0.18121584892145393,-0.2644966603774819,0.012167134595574502,-3.0653548043340115,-2.688700710505338,-2.529823624209188,-0.48790904886340863,-0.20303459443967625,-0.0015308635283386033
0.15,-0.15189684478756454,1.7155336475171112,-1.4799537642931158,0.023599293986690924,-0.01355168999847599,-0.00013276662956588115,-1.7970282420940131,1.6775546749614834,0.9384440270475677,0.22769812209394635,-0.14212855999332208,-0.0012616446130151227,-9.035610783285657,7.336862892228228,1.6963488514467358,0.01607131528079009,-0.18394544678461955,0.013068122261342907,-3.1354649887628465,-3.3483221574130737,-2.668091353075831,-0.5067608718472649,-0.2008859524331692,-0.001416939190417481
0.16,-0.17076490879701522,1.7330412007606892,-1.4704003602089224,0.02588342620789456,-0.015008496632187621,-0.00014533784582676347,-1.886806400945069,1.7507553243577942,0.9553404084193419,0.22841322212036372,-0.1456806633711631,-0.0012571216260882324,-8.493911798739228,6.723654786532021,1.1040082529509778,-0.14248250755627367,-0.10758953599201249,0.013698085065922072,-3.187510756602248,-4.002400626261023,-2.7997242488016507,-0.523795020189803,-0.19741640229556034,-0.0012957993001229664
0.17,-0.1904769665756984,1.751219425397502,-1.4607368588134184,0.028159036171700104,-0.016494059598970847,-0.00015778151369598474,-1.9712057778683165,1.8178224636812677,0.9663501395504008,0.22756099638055421,-0.14855629667832257,-0.0012443667869221288,-7.929729719980592,6.0986400739807225,0.5248140328146089,-0.29373656732359166,-0.035898422615623815,0.014086399723332477,-3.2190344881924946,-4.645777951493762,-2.9236182694740047,-0.5388947128104998,-0.19260596908198013,-0.001169033426524291
0.18,-0.2109769819620242,1.7700058173795226,-1.4510208190394838,0.030411118491636812,-0.01800191317718152,-0.00017002444836203056,-2.0500015386325794,1.878639198202064,0.9716039773934578,0.2252082319936707,-0.15078535782106725,-0.0012242934666045824,-7.3457080005874875,5.465121785669242,-0.03795956062435479,-0.4370400302057238,0.030822546414150054,0.014264983462986436,-3.22803336535263,-5.273690863915189,-3.0388746149711174,-0.5519945603840315,-0.1864694481007721,-0.0010384125439886832
0.19,-0.23220693233012774,1.7893370340385883,-1.4413081676406192,0.03262540469883488,-0.019525922290421993,-0.00018200252391148343,-2.1229950368103547,1.9331216659065815,0.9712651398864666,0.22142862071980707,-0.15240091132404712,-0.0011978075549452882,-6.7446722034580135,4.826435376038822,-0.5813029828999277,-0.571822980393005,0.09241500186518437,0.01426590598249522,-3.2130220681355937,-5.8818489195274894,-3.1448218256266927,-0.563082405542154,-0.17905468853482226,-0.0009058289792756021
0.2,-0.254107088915166,1.8091492274533503,-1.4316529006140808,0.03478842406381243,-0.021060303717442004,-0.00019366042258694201,-2.190015658503825,1.9812193414762018,0.9655267026538401,0.21630193649775495,-0.15343814270200093,-0.001165789867545859,-6.129570393299758,4.185895772558434,-1.1025087456712832,-0.6976125036994292,0.14884616771290382,0.014119659154900877,-3.173074035986652,-6.466497147154687,-3.241028671839544,-0.5721988341010213,-0.17043975654617302,-0.0007732327703951751
0.21,-0.2766163096586366,1.8293783755840733,-1.4221068144533346,0.036887554758608276,-0.022599638082921043,-0.00020495125372385636,-2.250922074347059,2.0229148130723162,0.9546086160746224,0.20991306947958446,-0.15393343654790398,-0.0011290831136914338,-5.503415266831113,3.5467486229957825,-1.5992006416528808,-0.8140429794762198,0.20018602144439868,0.013854030937275219,-3.10783921426329,-7.024461552983025,-3.327307462326283,-0.5794344488580553,-0.16072915514794117,-0.0006425677969060735
0.22,-0.299672338805262,1.8499606063233036,-1.4127192701984705,0.03891106442940832,-0.024138874012741292,-0.00021583608163336788,-2.305602914662543,2.058223073923022,0.9387544254864008,0.20235096708000433,-0.15392359298202477,-0.0010884827909511524,-4.86922985782341,2.9121266961646453,-2.0693543692159735,-0.9208613402836132,0.24658490174055103,0.01349349004501077,-3.0175379029776273,-7.5531765379603275,-3.4037079671477053,-0.5849251321453074,-0.15004931760718693,-0.0005157108255625785
0.23,-0.3232121078258992,1.8708325101257894,-1.403536992382509,0.040848139697214,-0.025673325858626143,-0.00022628339489106513,-2.353976902063719,2.087190380248574,0.9182277815961521,0.19370752678056824,-0.15344518458848516,-0.001044731325769725,-4.229998230131363,2.285012116391768,-2.511309495470524,-1.0179280185962587,0.2882527995935469,0.013058971865687052,-2.9029319676665146,-8.05069419680273,-3.4705026826114738,-0.5888456358518512,-0.13854361528391504,-0.0003944162181586911
0.24,-0.3471720327272438,1.8919314374641725,-1.3946039040978464,0.042688904494231295,-0.027198666332615102,-0.00023626854292247017,-2.39599249013446,2.109892733838307,0.8933088284662444,0.18407647970172922,-0.1525340473988959,-0.0009985148031405027,-3.588622149821612,1.668204841433595,-2.92377304798424,-1.1052142698556118,0.32544105462882555,0.01256795670322619,-2.7652760941094887,-8.515676319302395,-3.5281646182403534,-0.5914019195955943,-0.1263671277620143,-0.0002802685034204945
0.25,-0.37148830339734445,1.9131957779807498,-1.385960998564723,0.044424427476698565,-0.028710915273087848,-0.0002457731598527071,-2.4316270670100684,2.126434051657739,0.8642905533123314,0.17355229824672733,-0.15122489404727452,-0.0009504616930236935,-2.9478843518002593,1.064297544941388,-3.305815309921973,-1.1827965327029464,0.35842679340042594,0.012034742224243278,-2.606252863809119,-8.947370649837119,-3.577339128294667,-0.5928227038693431,-0.11368141432518743,-0.00017464437914205608
0.26,-0.39609716128868383,1.9345652188451852,-1.377646246800366,0.04604671903138001,-0.030206425615193926,-0.00025478459050715476,-2.4608857891339397,2.1369440864435276,0.8314751764357006,0.16222915546814415,-0.14955103421060784,-0.0009011430654447666,-2.31041868319337,0.47565684583126583,-3.6568586088920405,-1.2508484545493719,0.38750016943275156,0.011470828396874744,-2.427896127857008,-9.345573540406338,-3.618811522645783,-0.5933507141130484,-0.10064950336136125,-7.868503948437491e-05
0.27,-0.4209351624242679,1.9559809804615598,-1.3696945402844605,0.0475487186143076,-0.03168186747773693,-0.0002632953292596777,-2.4838001135584036,2.141576161637457,0.7951706515905607,0.15019995829275945,-0.14754418625430063,-0.0008510738752522955,-1.6786871092344593,-0.09558935671802742,-3.976660037931683,-1.3096311710548054,0.41295427630779,0.010885351017647205,-2.232507443176808,-9.710581533287714,-3.6534722688248227,-0.5932340663216863,-0.087431283115434,6.720932036937744e-06
0.28,-0.44593942339672304,1.977386028277277,-1.3621376669082814,0.04892427332894351,-0.033134211118753996,-0.00027130247908733476,-2.5004260972455157,2.140504781571718,0.7556873376179086,0.13755547146359062,-0.14523436410170687,-0.0008007149827657052,-1.0549633123469948,-0.6475588302383471,-4.265289133058065,-1.359482380947373,0.43507748723253226,0.010285517253363685,-2.022570234267497,-10.043134625369294,-3.6822815466824976,-0.5927181906285682,-0.07417943699025589,8.09444547734037e-05
0.29,-0.47104784868983784,1.9987252600164829,-1.3550043179895395,0.05016810877014607,-0.03456070936188784,-0.00027880723561345437,-2.5108425293114807,2.133923173920586,0.7133348918741893,0.12438354412025622,-0.1426498243133848,-0.0007504756526119617,-0.44132241764430896,-1.1786167349309682,-4.523101563180589,-1.4008047036928026,0.45414791100075735,0.00967701188937109,-1.8006659211183533,-10.34435400651051,-3.7062347579099995,-0.5920386140464909,-0.06103602323899049,0.00014361347208668773
0.3,-0.4961993382660718,2.0199456681809616,-1.3483201237356954,0.05127579323442925,-0.0359588799604454,-0.00028581439898996266,-2.515148957623398,2.122040816447884,0.6684194253843944,0.11076844642831796,-0.13981705985575632,-0.0007007163376508276,0.16036375049517038,-1.6873727005252306,-4.7507098735890345,-1.434053748417785,0.4704296305727299,0.009064355501918642,-1.5693955977639296,-10.615676950480225,-3.726330350598678,-0.5914148358952137,-0.04812975600005125,0.0001946023174305049
0.31,-0.5213339749189971,2.0409964781244674,-1.3421077142435944,0.05224369643096841,-0.03732648824849156,-0.00029233191506629347,-2.5134636652925275,2.1050809943505784,0.6212409492100978,0.09679031965391674,-0.13676082880461535,-0.0006517516076330788,0.7484265388428533,-2.172673870225998,-4.9489522727423765,-1.4597262601570051,0.4841703942349249,0.008451205644786769,-1.3313100495877597,-10.85879129929828,-3.7435410235277553,-0.5910454379667821,-0.03557400505531269,0.00023401438557708984
0.32,-0.5463931913797906,2.061829262407793,-1.336386802927507,0.05306894382705445,-0.038661530329312216,-0.00029837044630194766,-2.50592164607935,2.083278428332595,0.5720911316087322,0.08252473960860433,-0.1335042080820658,-0.0006038531235654218,1.321396159269455,-2.6335945451473717,-5.118860372783249,-1.4783486460648234,0.49560045024670796,0.007840599331294981,-1.088850040108641,-11.07557165430658,-3.758789055375315,-0.5911044837554387,-0.023465496999868798,0.0002621596914128547
0.33,-0.5713199175876271,2.0823980324798894,-1.331174289163039,0.05374936773189633,-0.0399622169706757,-0.0003039429722038051,-2.4926726207836514,2.0568770072096227,0.5212513764468083,0.06804239048418742,-0.1300686641363484,-0.0005572525901857447,1.8779938778502658,-3.0694230589793396,-5.261626695683916,-1.4904661219164232,0.5049322479551286,0.00723514005298001,-0.8442979700257307,-11.268019005542579,-3.772926187635851,-0.5917391832127409,-0.011883672754889593,0.00027952890760662465
0.34,-0.5960587088874044,2.1026593090054235,-1.3264843769109684,0.054283456169484885,-0.041226958312272105,-0.0003090644186227911,-2.4738791299777336,2.0261276525534027,0.4689912252070533,0.05340884375885546,-0.12647413415964032,-0.0005121446418985979,2.417120757568583,-3.4796464573079238,-5.37857264427587,-1.4966326583824454,0.5123607724784787,0.006637135606866823,-0.5997414424853227,-11.438205112508868,-3.786718193219097,-0.5930687345226858,-0.0008906445141560818,0.0002867653564240376
0.35000000000000003,-0.6205558562655846,2.122572172376902,-1.3223287061315745,0.05467030052023927,-0.042454349442297444,-0.0003137513149396958,-2.449714737818017,1.9912863371478366,0.4155670779393938,0.038684435075438825,-0.12273911300253407,-0.0004686896316904719,2.937847535916349,-3.8639337636550146,-5.471117544434673,-1.497401863101075,0.5180642482460094,0.006048694843202473,-0.3570471943243688,-11.58822265976054,-3.800834045470454,-0.595184213179704,0.009468390365257331,0.0002846365469352569
0.36,-0.6447594796256384,2.1420982950891676,-1.3187164939072111,0.05490954282659369,-0.04364315686190369,-0.00031802147812621476,-2.4203623360053714,1.9526122712265426,0.3612212224363279,0.023924230635441815,-0.11888074196062437,-0.0004270163186518924,3.4393957801029442,-4.222117820977217,-5.540749189552992,-1.493318851274669,0.5222052485110957,0.005471790080140371,-0.11784786993874041,-11.720141490735877,-3.8158393119017653,-0.5981493316682858,0.019164203249084393,0.0002740057862170684
0.37,-0.6686196059761763,2.161201957794903,-1.3156546823408395,0.055001323566755904,-0.044792305834175865,-0.0003218937222888644,-2.386012635053787,1.9103662705735684,0.30618115663716033,0.009178074016221336,-0.11491489722721783,-0.000387224416264964,3.92112570492149,-4.554176942780996,-5.588996315215973,-1.4849131757892735,0.5249317355925172,0.004908297403471429,0.11646413611650208,-11.835971525061305,-3.832193387352108,-0.6020018990199285,0.028182378016039247,0.00025580569836717204
0.38,-0.6920882337442613,2.1798500508775467,-1.313148090491298,0.054946230603008614,-0.04590086859734813,-0.0003253875925724107,-2.3468627768085004,1.8648093082643389,0.2506591849541489,-0.005509296374729163,-0.11085627631722608,-0.0003493870283546286,4.382519242119418,-4.860216216080817,-5.61740323098255,-1.472692789719133,0.5263782700598583,0.004360015871704093,0.34473344559046104,-11.937632011687269,-3.8502499733518345,-0.606755793595102,0.03652184642895214,0.00023101360433091356
0.39,-0.7151193849012183,2.198012063411578,-1.3111995678214305,0.05474524991422265,-0.04696805341117352,-0.0003285231221141731,-2.3031151156956984,1.8162012534031482,0.194852266986746,-0.020098068878596366,-0.10671848138253959,-0.0003135529541762418,4.823163906831022,-5.140449081731567,-5.627506810666198,-1.4571390263662671,0.5266671426170078,0.003828676541919651,0.5660321005882317,-12.026926995959624,-3.870260226406699,-0.6124032765599936,0.04419327562810532,0.00020062955024129103
0.4,-0.7376691465106403,2.2156600613514046,-1.3098101468707084,0.05439971862640545,-0.047993194402063726,-0.0003313206107752054,-2.2549761609421974,1.764799793982639,0.13894209507222033,-0.03455312878172067,-0.1025140990890207,-0.00027974886610323077,5.242736911558536,-5.3951794788168215,-5.620815947576977,-1.438702546938739,0.5259094218175129,0.0033159440945558227,0.7796447720884451,-12.105526558309204,-3.892377982793267,-0.6189174916953661,0.05121736540401105,0.00016565718004062416
0.41000000000000003,-0.7596957032849242,2.232768656732812,-1.3089791931100192,0.05391128076322293,-0.048975742172040204,-0.0003338004243986397,-2.2026556774283925,1.7108595381407832,0.0830953760689245,-0.04884378631825194,-0.09825477699764819,-0.0002479813623434306,5.640989845496618,-5.624784835495807,-5.598793521930121,-1.4178001936427798,0.5242058902777629,0.0028234147998136283,0.9850501394705871,-12.174953300174844,-3.916666501254756,-0.6262550201354953,0.05762311688130177,0.00012708752733481683
0.42,-0.7811593626812942,2.2493149695856562,-1.3087045501869587,0.053281846051806366,-0.04991525513833836,-0.0003359828133787674,-2.146365939636999,1.654631285284423,0.027464292306038966,-0.06294347114165622,-0.09395129662981586,-0.00021823889801277335,6.017734187294633,-5.829700144832818,-5.562840877845243,-1.3948126771373488,0.5216478575740453,0.0023526132127525967,1.1818996757284963,-12.236573492151754,-3.943106221251279,-0.6343583846158992,0.06344612337061112,8.588565316810304e-05
0.43,-0.8020225739858852,2.2652785841474556,-1.308982679020277,0.05251355203871384,-0.05081139157362525,-0.00033788774936928455,-2.0863211304590963,1.5963614561799564,-0.027812883331816002,-0.07682940130925207,-0.08961364352868853,-0.00019049359905171619,6.372827874284734,-6.010403323874772,-5.514284769059119,-1.3700830233718087,0.5183178500130836,0.0019049889899110939,1.3699949117778207,-12.29159227784928,-3.9716031059141095,-0.6431584243219786,0.06872692344134199,4.297994178344117e-05
0.44,-0.8222499427295985,2.280641500838903,-1.3098087894482795,0.05160872969712342,-0.05166390232038888,-0.0003395347790156852,-2.022736874371329,1.5362916691447368,-0.08261104280024889,-0.09048223415904208,-0.08525107467636305,-0.0001647029646400641,6.706163110822139,-6.16740201754967,-5.4543667044560475,-1.3439157049056654,0.5142901863516229,0.0014819143458403294,1.5492640802836417,-12.341052336657777,-4.001997217956836,-0.6525764867681669,0.07350944627444907,-7.462154454084577e-07
0.45,-0.8418082416561669,2.2953880853176156,-1.311176963375188,0.050569872639274614,-0.05247262415648995,-0.0003409428936662208,-1.9558298926568318,1.474658447871263,-0.13681739269085555,-0.10388570578488068,-0.08087218361010685,-0.00014081146505355802,7.017655562401186,-6.301221975498694,-5.384234605304162,-1.3165763849535175,0.5096314547084688,0.0010846821453481814,1.7197388684926196,-12.385835441819644,-4.034071257156722,-0.6625264060706957,0.07783957044281464,-4.4460669426670934e-05
0.46,-0.8606664193247988,2.309505015769093,-1.3130802685897958,0.04939960998763458,-0.05323747379166872,-0.00034213041409643765,-1.885817766863192,1.4116930451477288,-0.19033052146076967,-0.11702626516400312,-0.07648496351787668,-0.00011875204302168443,7.30723505008163,-6.412397099201079,-5.304936674014916,-1.2882922077712777,0.5044009097836977,0.0007145041097564864,1.8815318505228986,-12.426666399707212,-4.0675588646721526,-0.6729162567200256,0.08176380965962933,-8.738704277627704e-05
0.47000000000000003,-0.8787956072801465,2.3229812294268504,-1.315510862651039,0.04810068290381653,-0.05395844247665953,-0.0003431148893744624,-1.8129187955347688,1.347621365775763,-0.2430594061243229,-0.1298927083818054,-0.07209686849908113,-9.844752780247504e-05,7.574837830751669,-6.501461228035487,-5.217417367612262,-1.259252575660799,0.49865081148443835,0.0003725084915001675,2.034815028802663,-12.464118915699467,-4.1021525687943114,-0.6836498881008588,0.08532813282769194,-0.0001288078886977616
0.48,-0.8961691265640697,2.3358078691399373,-1.3184600864446865,0.04667592472536015,-0.054635591207301465,-0.0003439130090940599,-1.737351928392322,1.282663971308695,-0.29492237936475685,-0.14247581784563812,-0.06771487306419377,-7.981197195975273e-05,7.820400522028714,-6.568941705527593,-5.122515366156856,-1.229610360153881,0.4924267264769284,5.973639033185485e-05,2.1797997952424035,-12.498622996149637,-4.137511306355728,-0.694628257436291,0.08857692090814931,-0.00016806681344296983
0.49,-0.9127624941794402,2.347978230628219,-1.3219185472139403,0.04512824461647073,-0.05526904650557687,-0.0003445405283085864,-1.659336761537056,1.2170361488281878,-0.3458460769253773,-0.15476801088894201,-0.06334552982754008,-6.275192145264771e-05,8.043855705282375,-6.615354740237217,-5.0209634255088265,-1.1994835020193229,0.485767813393565,-0.000222863981930721,2.316718526306318,-12.530473560261415,-4.1732675025902415,-0.7057505876561339,0.09155205962222666,-0.00020456986721029114
0.5,-0.9285534299485846,2.3594877108865946,-1.325876191054274,0.043460614599086025,-0.055858996757880024,-0.0003450122046062036,-1.5790935769144334,1.150948025837557,-0.39576438403337927,-0.16676300173847025,-0.058995025230315676,-4.716762976172614e-05,8.245129215518501,-6.641202548890373,-4.913390003495033,-1.1689569611334285,0.47870711070090977,-0.00047444569273225046,2.445807951677982,-12.55983999679652,-4.209033729255652,-0.7169153821647933,0.09429216466534879,-0.00023778646887102296
0.51,-0.9435218640403791,2.3703337580213657,-1.3303223650392846,0.04167605979463551,-0.056405689088109195,-0.00034534174687168335,-1.4968434091794518,1.0846047134770955,-0.4446173985010526,-0.17845548044505125,-0.054669233022917,-3.295422654797195e-05,8.424139101965693,-6.646972241950615,-4.800322547481839,-1.138084982437725,0.47127184377863784,-0.0006942744552447255,2.5672943817254357,-12.586776455838574,-4.244408986439835,-0.728021330958683,0.09683193477555982,-0.0002672500835673647
0.52,-0.9576499452729872,2.380515822628025,-1.3352458693095897,0.0397776516741178,-0.05690942673953759,-0.00034554177537716584,-1.412808123260811,1.0182064606659424,-0.4923504270305025,-0.18984081205177075,-0.050373765142839304,-2.000285054824677e-05,8.580796217594646,-6.633136383515659,-4.682192328481621,-1.1068936478192484,0.46348376482394116,-0.0008817430858669706,2.681380841698309,-12.611232713512582,-4.278984668297833,-0.7389681424086785,0.09920162746321948,-0.00029255882181835995
0.53,-0.9709220501363217,2.3900353106525807,-1.3406349996106004,0.037768504084331314,-0.05737056693504755,-0.0003456237929296027,-1.3272104863334542,0.9519488024555477,-0.5389130301010724,-0.2009147589786487,-0.04611401955099633,-8.201755243687352e-06,8.715006369151935,-6.600155128136447,-4.559340701462316,-1.0753836856449652,0.4553595358759637,-0.0010363888130668908,2.7882361373285853,-12.633065486449386,-4.312350277979264,-0.7496573326854419,0.1014266522751239,-0.00031337607668479564
0.54,-0.9833247923221978,2.398895537521096,-1.3464775809067735,0.03565177179108897,-0.05778951918043538,-0.0003455981668707916,-1.2402742185876097,0.8860226868515468,-0.5842581296173179,-0.2116732293242346,-0.04189522453878292,2.562605881111097e-06,8.826673931541128,-6.548479807061105,-4.432026663079599,-1.043533509667526,0.4469111617470318,-0.001157912973808184,2.88798586386552,-12.652050102304035,-4.344098953402995,-0.7599930006648166,0.10352727693416286,-0.00032943126376994055
0.55,-0.994847032403584,2.4071016831774172,-1.352760992828869,0.033430651256042124,-0.05816674397036202,-0.00034547412177388516,-1.152224008138619,0.820614565632122,-0.628341192209558,-0.22211205350468471,-0.03772247899266399,1.240450969064791e-05,8.915706801779956,-6.478557805990787,-4.300435566505705,-1.0113024572794203,0.43814647601603696,-0.0012462023208517081,2.9807053651674424,-12.667892452704848,-4.373832854685565,-0.7698826105941257,0.1055184423756983,-0.00034052067906215283
0.56,-1.0054798871702246,2.4146607475400685,-1.359472187825646,0.031108383342503765,-0.05850275185140187,-0.0003452597427040965,-1.063285476664071,0.7559064362651257,-0.6711194996776808,-0.23222679135383578,-0.033600788103985216,2.1437906978861862e-05,8.982022538853192,-6.39083854645914,-4.1646888387067875,-0.9786341937258882,0.42906967962785103,-0.0013013509776140797,3.066414648049167,-12.680241165978122,-4.40116844740744,-0.7792377982001493,0.1074096834196845,-0.0003465084433273315
0.5700000000000001,-1.0152167380090864,2.421581505779061,-1.366597702990888,0.028688257627719392,-0.0587981027917959,-0.00034496198890944665,-0.9736850838861697,0.6920758238992455,-0.712551516524211,-0.24201257147843733,-0.029535094039402826,2.977537946498646e-05,9.025555507415746,-6.2857803544576605,-4.024854529056901,-0.945460244272379,0.41968192812402094,-0.0013236819100492792,3.1450752566317823,-12.688699939607567,-4.425741695066801,-0.7879752086368197,0.10920515241898926,-0.0003473274602549984
0.58,-1.0240532376174118,2.4278744627246787,-1.3741236666190204,0.02617361798482593,-0.059053405803210245,-0.00034458671777890746,-0.88364996083254,0.6292956945617391,-0.7525963628132492,-0.2514639642893463,-0.025530301141434696,3.7527113053921065e-05,9.046264816583838,-6.1638579741800825,-3.8809585005688643,-0.9117036108427534,0.40998196023650735,-0.0013137666630007594,3.216589109264805,-12.69283996773079,-4.4472131506384365,-0.7960173670593451,0.11090374357949812,-0.00034298028007135624
0.59,-1.0319873142563265,2.4335518056557754,-1.3820358006060849,0.023567869087787442,-0.05926931875628636,-0.00034413871885031577,-0.793407663891466,0.5677342931096824,-0.791213398706439,-0.2605748897038485,-0.021591295307611932,4.479989285916849e-05,9.044142821285973,-6.025570463160676,-3.7329960575004844,-0.8772824238618036,0.3999667575713559,-0.0012724421118386342,3.28079929438199,-12.692212388431209,-4.465272912772659,-0.8032935750231616,0.1124993156546984,-0.0003335397319952225
0.6,-1.0390191726963123,2.4386273546768966,-1.390319419855751,0.020874483487454593,-0.059446548329269565,-0.00034362175757132984,-0.703185843998588,0.5075549021120971,-0.8283619249666072,-0.2693385600332849,-0.017722957298320397,5.169612789859404e-05,9.019223934227561,-5.871449189084528,-3.5809437871290175,-0.8421135744641077,0.3896322225723168,-0.0012008230211784099,3.3374928095630416,-12.686360660778897,-4.479645388484949,-0.809740818690937,0.11398101030641127,-0.0003191491687772999
0.61,-1.0451512909743925,2.4431165098832075,-1.3989594298707502,0.018097008907099556,-0.0595858500277096,-0.00034303862841658693,-0.6132118278080344,0.44891552063107504,-0.8640010014999292,-0.2777474580355037,-0.013930169844003915,5.831291547429021e-05,8.97159348286012,-5.702065639548545,-3.4247713805828095,-0.8061162675084823,0.3789738599033612,-0.0011003093164443367,3.3864052087930974,-12.674832764312582,-4.490093782806477,-0.8153046683338374,0.11533366255879088,-0.0003000221555461582
0.62,-1.0503884120779379,2.4470361945307224,-1.4079403237073427,0.015239075411789756,-0.05968802821328822,-0.0003423912168474901,-0.5237121103545254,0.39196846475146946,-0.8980893836592524,-0.2857933495309799,-0.01021781855786189,6.474115690968522e-05,8.901396339109933,-5.518038755252618,-3.264453189312965,-0.7692154324709151,0.3679874450304723,-0.0009725871908452532,3.4272270957400925,-12.65719309584817,-4.496424218300423,-0.8199401431671943,0.11653829845622854,-0.000276441434006541
0.63,-1.0547375296922783,2.4504047934767144,-1.4172461794433504,0.012304402118117506,-0.05975393608133705,-0.00034168056947362865,-0.4349117614340444,0.3368598945991776,-0.9305855736007704,-0.29346732936722497,-0.0065907868048830105,7.106473738614408e-05,8.808845051051257,-5.320041505400639,-3.0999792714187127,-0.7313449278019171,0.3566696630963264,-0.0008196234124231427,3.459612365786832,-12.633033922062332,-4.498489374943372,-0.8236125114721472,0.11757271330694635,-0.0002487570021366314
0.64,-1.0582078671986654,2.453242086230682,-1.4268606592586826,0.009296803129259814,-0.05978447552960078,-0.000340906971642938,-0.34703375063871544,0.28372927539677834,-0.9614479815332144,-0.30075989888576915,-0.0030539448263729135,7.735978306906436e-05,8.69422721588507,-5.10880644198028,-2.931365686705462,-0.6924504751001663,0.3450187013395407,-0.0006436524840196522,3.483188057272552,-12.601986233059963,-4.496191534731843,-0.8262979934882938,0.11841212182979552,-0.0002173831689804435
0.65,-1.0608108491845571,2.4555691740580485,-1.4367670111516189,0.006220192405053355,-0.05978059686524169,-0.00034007003155794505,-0.26029819858917197,0.23270878273662923,-0.9906351892936426,-0.3076610724206459,0.00038786643590859107,8.36940084992978e-05,8.557911852746221,-4.885129997060998,-2.7586638117671445,-0.6524922627140093,0.3330347792395756,-0.00044715665591565923,3.497565624382496,-12.56372983371472,-4.489484916290228,-0.8279843339205328,0.11902986923351291,-0.0001827944735472018
0.66,-1.0625600648278082,2.4574084007041463,-1.4469480742156628,0.0030785873074488375,-0.05974329830287575,-0.00033916876989497155,-0.1749215643251068,0.18392266460980042,-1.0181063064044025,-0.31416050976045173,0.003729856236593732,9.012616629735253e-05,8.400354561751525,-4.649875323760705,-2.581968466802457,-0.6114471641936277,0.32072060233373634,-0.00023283909505833478,3.502353392572215,-12.518002507290502,-4.478377193130273,-0.8286712122077142,0.11939818988626258,-0.0001455203953075945
0.67,-1.0634712226373533,2.458783266451387,-1.4573862882825832,-0.00012388940217080346,-0.05967362521341243,-0.0003382017137979334,-0.09111578095450805,0.1374865747240905,-1.0438214066920248,-0.3202476709619641,0.006967308946332252,9.670560970381618e-05,8.222101291537978,-4.4039735259956085,-2.4014246740543523,-0.5693105253042461,0.30808172813785006,-3.5908735598333408e-06,3.4971699051771497,-12.464608090624202,-4.462930105004176,-0.8283704619746182,0.11948899794088744,-0.00010613882986881102
0.68,-1.0635620961718004,2.45971833538335,-1.468063708600166,-0.0033830092965284344,-0.05957266909141826,-0.000337166994034599,-0.009087353444708554,0.09350689319627167,-1.0677420317582775,-0.3259119894357631,0.010095612199417146,0.00010347197633344089,8.023790579265945,-4.1484231731437875,-2.2172328982149905,-0.5260974834630794,0.29512683571919496,0.00023754733495229274,3.4816578199659896,-12.403423311736727,-4.443259093837522,-0.8271060760769142,0.1192746922283499,-6.526835512980669e-05
0.6900000000000001,-1.0628524605098473,2.4602391359008227,-1.4789620260612675,-0.006694439885019233,-0.05944156621736694,-0.00033606244404425675,0.07096356619532454,0.052080051747274016,-1.0898317461101534,-0.33114305884907985,0.013110287405131572,0.0001104549990342281,7.806154180026517,-3.8842880497052126,-2.0296526932552883,-0.48184379766270524,0.2818678942223585,0.00048742767891418737,3.4554979736108407,-12.334403265200791,-4.419531928916886,-0.8249139816490347,0.11872895621012386,-2.3559368049433144e-05
0.7000000000000001,-1.061364019407302,2.46037205471115,-1.4900625933413285,-0.010053748176688868,-0.05928149600014916,-0.00033488569957631326,0.14884411025454092,0.013291881032711714,-1.1100567280061062,-0.33593082916696343,0.016007021721777818,0.00011767444679434761,7.570016036903519,-3.6126931509422686,-1.8390046259134838,-0.4366061750898318,0.26832022908796915,0.0007428403518217053,3.4184231920107693,-12.257585412894597,-4.391966305466966,-0.8218415742581366,0.11782753248143127,1.831577258130598e-05
0.71,-1.0591203232413027,2.4601442246875718,-1.501346457129431,-0.013456406246223119,-0.059093678994321025,-0.000333634297618018,0.22436961659993437,-0.022783002357820048,-1.128386378810253,-0.340265806953425,0.01878170058281333,0.00012514019582952578,7.316289620699471,-3.334818986459358,-1.6456705590553105,-0.3904621022080459,0.2545024894016237,0.0010005602279545833,3.370231416532532,-12.173092053685124,-4.360826459345637,-0.8179470152120561,0.11654895145122146,5.967340961403328e-05
0.72,-1.056146678005318,2.4595834071644127,-1.5127943964741115,-0.01689779879772527,-0.058879374595348255,-0.00033230577333998403,0.297364523598477,-0.056081752315897716,-1.144793934468044,-0.34413925515021504,0.021430439897277,0.00013285242780339339,7.04597369192954,-3.051894313490928,-1.4500922603157598,-0.3435091956653462,0.2404365228848846,0.001257393457799072,3.310797702244032,-12.081131218647375,-4.326418854498521,-0.8132982998400975,0.11487519389263531,9.98298228208914e-05
0.73,-1.0524700457763032,2.4587178693910867,-1.5243869670981531,-0.020373232674018745,-0.05863987842433052,-0.0003308977538450972,0.3676632229014716,-0.08655377733257753,-1.159257062404161,-0.3475433876293474,0.02394961710177354,0.00014080194948868266,6.760146599236772,-2.765187467212199,-1.252768446432417,-0.29586410441081235,0.22614716887927955,0.0015102226806695818,3.24008466697885,-11.981996001520846,-4.289087048525635,-0.8079721175014898,0.11279226867837296,0.00013811276359228334
0.74,-1.0481189372218336,2.4575762580083396,-1.5361045513806884,-0.023877948215077216,-0.05837651942103369,-0.00032940804758865323,0.4351108554469607,-0.11416113827471039,-1.1717584282535314,-0.3504715541058472,0.026335900329682985,0.00014897062564439526,6.459959263863852,-2.4759964983243696,-1.054250382642576,-0.24766100548440662,0.21166198237343536,0.0017560496493995714,3.158151003825578,-11.876062369032503,-4.249205868838101,-0.8020525317283913,0.11029068914599822,0.00017387298986622782
0.75,-1.0431232968465673,2.4561874695296586,-1.5479274135611296,-0.02740713232885493,-0.05809065667030394,-0.0003278347284399329,0.4995640375266141,-0.13887884786809448,-1.18228621804412,-0.3529184113777713,0.02858627507297504,0.00015733191487203385,6.14662703399378,-2.1856383611697483,-0.8551361977556078,-0.1990497458767866,0.19701090424106127,0.001992034181906188,3.065157725477718,-11.763785534498874,-4.207175058722125,-0.7956295166907047,0.10736583455240055,0.00020649548832157969
0.76,-1.0375143817905967,2.454580518906047,-1.5598357595918049,-0.030955933102289782,-0.057783675991915244,-0.00032617621347420084,0.5608915055970526,-0.16069506236115244,-1.1908346030675268,-0.35488007734348526,0.030698067838869768,0.00016585149657320569,5.821420618024655,-1.89543741904314,-0.6560641051958935,-0.1501936905070984,0.18222589412219037,0.002215528685370227,2.9613718823851025,-11.645695012910814,-4.163412571820043,-0.7887973921382044,0.1040181867476207,0.00023541007122438216
0.77,-1.0313246350845693,2.4527844073210203,-1.5718098009576624,-0.03451947575036615,-0.0574569863275095,-0.0003244313337124656,0.6189746706027541,-0.17961115850265427,-1.197404136585753,-0.35635426480763677,0.032668966440574626,0.00017448797617352257,5.485656322255329,-1.606713546486337,-0.457704742219629,-0.10126734156660078,0.1673405427334842,0.0024241076569877507,2.8471675851595895,-11.522388505550042,-4.118347704605501,-0.7816532029403681,0.10025343637222882,0.0002601010500637437
0.78,-1.0245875543362677,2.450827990403429,-1.5838298216941795,-0.03809287967740942,-0.05711201596049847,-0.00032259939716050573,0.6737080748301671,-0.19564169175915375,-1.2020020736517047,-0.3573403927043271,0.034497036701103115,0.00018319365519598856,5.140685825878518,-1.320770111161682,-0.26075285314853724,-0.05245379714098952,0.15238967989221663,0.0026155918578729676,2.7230242610505595,-11.394524785824723,-4.072414258784326,-0.774295091080783,0.09608245735737207,0.00028011571661719305
0.79,-1.0173375568698626,2.448739848058236,-1.5958762477700215,-0.04167127640755594,-0.05675020860564879,-0.0003206802436332505,0.724999746640503,-0.20881423451932307,-1.2046426075841943,-0.35783967301465164,0.0361807354849679,0.00019191535272552313,4.787885724923666,-1.0388821108820554,-0.06591854778576578,-0.003942117183191041,0.13740899319248,0.002788067116081816,2.589522179442781,-11.262815774614385,-4.0260439191796245,-0.7668207073935928,0.09152115305818516,0.00029507140285560895
0.8,-1.0096098423624118,2.446548157100385,-1.607929717959542,-0.04524982813067682,-0.0563730194046715,-0.00031867429098121077,0.7727714507450698,-0.21916909578509194,-1.2053470189520559,-0.35785517231208813,0.037718920097729175,0.00020059526520397404,4.428647067577429,-0.7622847254344628,0.12608163647159376,0.04407533720365331,0.12243467026335608,0.0029398978547083843,2.4473353865993723,-11.128018002614766,-3.9796600181056894,-0.7593257075282476,0.08659018174859393,0.0003046609419000452
0.81,-1.0014402540232896,2.4442805678359427,-1.6199711553116098,-0.048823746605787074,-0.05598191086264341,-0.0003165825724601658,0.8169588339122255,-0.22675892644424456,-1.2041437352067867,-0.3573918475110255,0.03911085420280917,0.00020917185210449793,4.064365087179093,-0.4921625192223649,0.31453365020825785,0.09140552938323965,0.10750307496558875,0.003069735694229525,2.2972222894902288,-10.990923659059847,-3.9336718355525426,-0.7519023718129615,0.08131457322743126,0.0003086564102626378
0.8200000000000001,-0.9928651393426922,2.441964085670151,-1.6319818383244744,-0.05238831216579533,-0.055578348757699896,-0.0003144067651002549,0.8575114680597452,-0.23164821657916757,-1.201068301286446,-0.35645655600082526,0.04035621049435187,0.00021758073599108827,3.6964293174458027,-0.22963950095707494,0.4987346228176563,0.13785728172841072,0.09265046497457519,0.0031765235167156014,2.1400142170347656,-10.852351421272465,-3.8884695571551515,-0.744638382197498,0.07572325173645388,0.00030691109365037385
0.8300000000000001,-0.9839212113973491,2.4396249587368524,-1.6439434709598022,-0.05593889257483115,-0.05516379805338316,-0.00031214920903613054,0.8943927945343094,-0.23391269332987025,-1.1961632635327841,-0.3550580409035827,0.041455070431673645,0.00022575560641243682,3.326214248474663,0.024229787711379118,0.6780011474131015,0.18324367024605137,0.07791275510790285,0.0032594955302758244,1.976602359631321,-10.713137248598123,-3.8444199806567414,-0.7376157817257734,0.06984848311035843,0.0002993596813489008
0.84,-0.9746454116476683,2.437288572441346,-1.6558382506704827,-0.05947096150167803,-0.054739718839546266,-0.0003098129178544867,0.9275799749680873,-0.23363862955064893,-1.1894779710680563,-0.35320689268468775,0.04240792138368904,0.000233629118164382,2.955070653325511,0.2684680199458347,0.8516770037281365,0.22738423842602762,0.063325327715134,0.0033181738302456854,1.8079235407544092,-10.574125308501076,-3.801863028293343,-0.7309101335110987,0.06372526595708644,0.00028601675439407785
0.85,-0.9650747750936336,2.434979351692846,-1.6676489336737825,-0.06298011638929937,-0.054307562324036114,-0.00030740158010070196,0.9570636554034657,-0.23092207484996502,-1.1810683003299818,-0.3509154887621347,0.04321565155101534,0.00024113377537847774,2.584317685001327,0.5021815716562579,1.0191401904581605,0.2701069979180941,0.04892288857515226,0.0033523619783559777,1.6349453053008245,-10.436159183170314,-3.7611090891192864,-0.7245898874711324,0.05739068764612642,0.00026697368745937935
0.86,-0.9552462985798511,2.432720671477152,-1.6793588967711668,-0.06646209552027567,-0.053868766893730054,-0.00030491955216308805,0.982847651378244,-0.2258680215694193,-1.1709963097384333,-0.34819791309762915,0.0438795430306062,0.0002482027937613897,2.2152358134926624,0.7245656916235483,1.1798091672872029,0.311250192221439,0.03473936425956481,0.0033621360753621765,1.458650817186173,-10.300073483181723,-3.722437183525761,-0.7187159546169177,0.05088326595382393,0.0002423941311580423
0.87,-0.9451968129562182,2.430534776288725,-1.6909521950957027,-0.06991279410035288,-0.053424754260073926,-0.00030237184282279236,1.0049485623632974,-0.21858951884266392,-1.15932983245359,-0.3450698580077207,0.04440126336561254,0.0002547709340295675,1.8490606436736903,0.9349083324596017,1.3331482356471003,0.3506638079180675,0.020807834868278974,0.003347833701868419,1.2800240440733557,-10.166685971814662,-3.686093913600038,-0.7133414809201932,0.04424229642924599,0.0002125082784794776
0.88,-0.9349628597126642,2.428442708807783,-1.7024136152545297,-0.07332827920642991,-0.05297692570122372,-0.0002997640898218855,1.0233953243553884,-0.20920674809418002,-1.1461420158826998,-0.3415485106077025,0.04478285588502044,0.0002607753000906875,1.486977628018102,1.1325926549955037,1.478672015093089,0.388210825835559,0.00716049454126555,0.003310041026777677,1.1000356718311788,-10.036790280634442,-3.6522931387193265,-0.7085118060631151,0.03750722398952456,0.00017760614519232287
0.89,-0.9245805726169645,2.4264642480756047,-1.7137287234246426,-0.07670480347041725,-0.05252665841034811,-0.00029710252886302644,1.038228709569977,-0.1978460732178261,-1.1315108170112942,-0.33765242639873316,0.045026729087560995,0.0002661560958859032,1.1301176641406925,1.3170982490784688,1.6159489981827506,0.42376821164984335,-0.006171368759414264,0.0032495783542951795,0.9196301384002032,-9.911149274856998,-3.6212162966858754,-0.7042645869661861,0.030717055057214514,0.00013803010882367997
0.9,-0.9140855647961539,2.4246178572930916,-1.724883908052576,-0.0800388173957751,-0.05207530195768012,-0.000294393955511739,1.0495007820810576,-0.18463907825132275,-1.115518462793337,-0.33340139253578605,0.04513564526679841,0.0002708573351287454,0.7795535465752866,1.4880011399528366,1.7446041902428244,0.45722765172722646,-0.019157383045937948,0.0031674841908493345,0.7397141100307991,-9.79048910654182,-3.5930132772120453,-0.7006300620490334,0.023909823864919064,9.416695451180265e-05
0.91,-0.9035128216166454,2.42292064124632,-1.7358664169001632,-0.08332698022855657,-0.05162417487254658,-0.00029164568052937465,1.0572743179508513,-0.16972160467716832,-1.0982508847587151,-0.3288162832781463,0.04511270851335408,0.0002748274982364384,0.4362972252810732,1.6449726710178694,1.864320860953764,0.48849604528172996,-0.031768100303610325,0.0030649979610540834,0.5611466467314361,-9.675493975324251,-3.5678037467002888,-0.6976314297544228,0.017122123538701458,4.6439669467206505e-05
0.92,-0.8928965996374616,2.4213883132505347,-1.7466643882673178,-0.08656616932890139,-0.05117456135084585,-0.00028886547921993047,1.061622197918374,-0.1532327995785082,-1.0797971367154762,-0.3239189100344815,0.04496135217007288,0.0002780201309444164,0.10129781023474393,1.7877773706164362,1.9748414519563013,0.5174957682243857,-0.04397501059900666,0.00294354140466746,0.3847312227764824,-9.566801600516872,-3.545678820749452,-0.6952853139125996,0.010388709397929706,-4.700787724346288e-06
0.93,-0.8822703318363582,2.4200351714024584,-1.7572668763070298,-0.08975348801170348,-0.05072770809324422,-0.0002860615354277045,1.062626780110339,-0.1353141848076553,-1.060248803971204,-0.3187318682802081,0.04468532576016347,0.00028039437922259457,-0.224559747940132,1.9162699226372215,2.075967698596379,0.5441647273326762,-0.05575056906895104,0.002804698657516702,0.21120968669071583,-9.464999395110771,-3.526702983098123,-0.6936022889128654,0.0037421787336545313,-5.878353948814004e-05
0.9400000000000001,-0.8716665392409799,2.4188740838411333,-1.767663870426097,-0.09288627184626216,-0.05028482127964437,-0.0002832423808747477,1.0603792595378287,-0.11610875613250178,-1.0396994119067153,-0.3132783834558681,0.04428868135998486,0.00028191545529567804,-0.5404553772329402,2.0303913682931367,2.1675600344699815,0.5684562256622012,-0.0670682411052268,0.0026501950720315276,0.04125816725536355,-9.370621321480517,-3.5109161560372586,-0.692587439192826,-0.002787271707631553,-0.00011532548804084194
0.9500000000000001,-0.8611167490371495,2.4179164826405595,-1.7778463088364935,-0.09596209342387016,-0.04984706368614893,-0.0002804168305752894,1.0549790203830398,-0.09576012005738313,-1.0182438410396617,-0.3075821577607989,0.04377575934954346,0.00028255502994583073,-0.845634081975037,2.1301646697885213,2.2495363547653584,0.5903386615097688,-0.0779025693743094,0.0024818748037237492,-0.1245151388493756,-9.284145400310788,-3.4983358368143826,-0.6922409300220247,-0.009172012083465145,-0.00017383851690791653
0.96,-0.8506514191742051,2.4171723658934368,-1.7878060863859717,-0.09897876561932384,-0.049415551951684,-0.0002775939151080882,1.0465329862944468,-0.07441167471229206,-0.9959777549478128,-0.30166721954536857,0.0431511734464939,0.0002822915467201239,-1.1394056974314246,2.215689766122572,2.3218702187594324,0.6097950837874926,-0.0882292645256193,0.002301677293577109,-0.2855704235174996,-9.205991838216763,-3.488959226293626,-0.6925585696953748,-0.01538707362950116,-0.00023383608475854671
0.97,-0.8402998694429611,2.416650307494379,-1.7975360568520884,-0.10193434338718081,-0.04899135400254071,-0.0002747828105642996,1.0351549731243936,-0.05220583990579315,-0.9729970466116572,-0.2955577767856977,0.0424197949143286,0.00028111045437885875,-1.4211442770513611,2.2871382474878432,2.384588573508956,0.62682262651796,-0.09802531964550631,0.002111612767069726,-0.4414351435656316,-9.136521735470318,-3.4827652892282375,-0.6935323468109214,-0.021410176624988887,-0.00029483913425210826
0.98,-0.830090218965115,2.4163574740926212,-1.8070300299311908,-0.10482712414622232,-0.04857548664421473,-0.00027199276701712146,1.0209650477846017,-0.029283340175768273,-0.9493973079102418,-0.28927807590415044,0.04158673583259813,0.00027900435471781346,-1.690287183618385,2.344747768133909,2.4377690801295717,0.6414318444230638,-0.10726914680699906,0.0019137370119759467,-0.5917015303891491,-9.076036332901813,-3.4797166991171187,-0.6951509300498784,-0.02722169967766603,-0.00035638127011243374
0.99,-0.820049330003295,2.4162996486578594,-1.8162827631930532,-0.10765564681605191,-0.048168913330956284,-0.00026923303637717895,1.0040888961819951,-0.005782543476206516,-0.9252733261862293,-0.2828522669829593,0.040657331325844946,0.0002759730639942513,-1.9463339494778475,2.3888163087272853,2.4815371214565873,0.6536459703468509,-0.11594073252427428,0.0017101256959484168,-0.7360229714833577,-9.024776756146613,-3.4797616340321675,-0.6974001215949978,-0.032804598942538184,-0.0004180131893784959
