tonegas/nnodely-applications/joint_friction_estimation/dataset/train/mpc_mujoco_episode_32 copy.csv
time,q1,q2,q3,q4,q5,q6,dq1,dq2,dq3,dq4,dq5,dq6,ddq1,ddq2,ddq3,ddq4,ddq5,ddq6,tau1,tau2,tau3,tau4,tau5,tau6
0.0,0.0,1.57,-1.57,0.0,0.0,0.0,0.0,0.0,0.0,0.0,0.0,0.0,-12.027361829970886,10.027574424756024,11.286527918259964,4.018000306822557,-1.6888925434524467,-2.1202030087152934e-06,-1.6758028968287069,2.6426332740281904,-1.0447861654461121,-0.21875149581412912,-0.1510492344170154,-0.0019091262183690537
0.01,-0.0011962390379001836,1.5710034502444317,-1.5688740886478578,0.0003777129405964658,-0.00014413291554612684,-1.270394805786257e-06,-0.11962390379001836,0.10034502444315463,0.11259113521422766,0.037771294059646576,-0.014413291554612684,-0.00012703948057862568,-11.975843507137377,9.966526262606719,11.056910910767954,3.6901025906414446,-1.4213684356724343,-0.012569276701590582,-1.6879736654189248,2.5430065051301938,-1.0916355560208273,-0.22951784952154952,-0.15170611294391514,-0.001913424929914212
0.02,-0.0035827232586938696,1.5730043301462149,-1.5666466377376254,0.0011062172997483152,-0.0004159218658354632,-3.863091965821597e-06,-0.2386484220793686,0.20008799017831058,0.2227450910232538,0.07285043591518495,-0.027178895028933638,-0.000259269716003534,-11.904627038460374,9.891410485253331,10.78899636498332,3.410752418855523,-1.2510273085855061,-0.012642946086520723,-1.7140620051560835,2.3968007677558534,-1.1465697186512678,-0.24113155521345242,-0.15310717206313815,-0.0019129501537106853
0.03,-0.0071518790788612455,1.5759951575623463,-1.563345422206951,0.0021621230543867314,-0.0008046339724250842,-7.685412750053145e-06,-0.3569155820167376,0.29908274161313986,0.33012155306743124,0.1055905754638416,-0.038871210658962096,-0.0003822320784231547,-11.815632230616766,9.799789804120495,10.486332044550693,3.1663123495806573,-1.1357582178298458,-0.010943556761488615,-1.7532350076219532,2.2045473085954628,-1.20969906794527,-0.2536211719208219,-0.15516984098191,-0.0019070919852601006
0.04,-0.011894596169893273,1.5799667577569327,-1.5590013656141115,0.0035245349998532126,-0.0013027419238235203,-1.264252920581639e-05,-0.4742717091032027,0.3971600194586398,0.43440565928394126,0.13624119454664813,-0.049810795139843614,-0.0004957116455763244,-11.709298680538057,9.689494459750419,10.15165970914887,2.9465143832602294,-1.0504179976650363,-0.008929142490384123,-1.8044793699270432,1.9671156630108921,-1.280966669203528,-0.26697208152697305,-0.15779031353239792,-0.0018951329543311557
0.05,-0.01780018075022611,1.5849080563771458,-1.5536483426135859,0.005174273931363699,-0.0019044071068952447,-1.8646260622865985e-05,-0.5905584580332838,0.49412986202129794,0.5353023000525536,0.1649738931510486,-0.06016651830717243,-0.0006003731417049596,-11.585188691875848,9.558627480025626,9.787185738046151,2.7436933449287295,-0.9801729396567467,-0.006749065400767584,-1.8665888039818885,1.6857530208130758,-1.3601413687907078,-0.2811267261294972,-0.16084594761801743,-0.0018762589026054125
0.06,-0.024856256977563378,1.5908058976482997,-1.5473230168777763,0.0070932970588885175,-0.0026045859047065674,-2.560955677595882e-05,-0.7056076227337268,0.5897841271153861,0.6325325735809563,0.19190231275248187,-0.07001787978113228,-0.0006963296153092835,-11.442379428492544,9.405579579509201,9.394794604136948,2.552195220662128,-0.9164829060118151,-0.0044230905653313,-1.9381505413713938,1.3621198207368828,-1.4468126444524034,-0.2959853803860869,-0.1641979531694337,-0.00184959292245471
0.07,-0.03304864172553345,1.5976448897814413,-1.540064697400804,0.009264272792497582,-0.0033985170800625887,-3.344257177917145e-05,-0.8192384747970071,0.6838992133141636,0.7258319476972087,0.21709757336090646,-0.07939311753560212,-0.000783301500321263,-11.27972499636684,9.229048455919445,8.97621523320338,2.3679233561250896,-0.8546532216124234,-0.0019904647066866232,-2.0175346096123596,0.9983178377850264,-1.5403885393105798,-0.31140776749270316,-0.1676944623831906,-0.0018142420267685596
0.08,-0.04236121033337677,1.6054072798951127,-1.5319151998379348,0.0116702755712346,-0.00428144250149065,-4.205121759659656e-05,-0.9312568607843317,0.776239011367143,0.8149497562869257,0.2406002778737018,-0.0882925421428061,-0.000860864581742511,-11.096037369204142,9.028058537742654,8.533148281705024,2.187990044820353,-0.7923330150437025,0.0004884295529183902,-2.1028893032357416,0.5969075696447073,-1.6400978405521318,-0.32721575526039526,-0.1711740278425518,-0.0017693501723024503
0.09,-0.0527757660953867,1.6140728607008306,-1.5229187026709958,0.01429457439265607,-0.005248470595508903,-5.133736550659382e-05,-1.041455576200993,0.8665580805717836,0.8996497166938974,0.26242988214214696,-0.0967028094018253,-0.0009286147909997267,-10.890215264829994,8.801978191114149,8.067360515929492,2.0104479585426276,-0.7285876869123342,0.002945532258188166,-2.1921458901471507,0.16091233487556256,-1.7449974235222787,-0.3431972910918861,-0.1744695450116749,-0.0017141532657331446
0.1,-0.06427192309446655,1.623618910875321,-1.5131215906864353,0.017120494716485975,-0.006294526541477667,-6.119996375371824e-05,-1.1496156999079856,0.9546050174490379,0.9797111984560618,0.28259203238299035,-0.10460559459687638,-0.000986259824712441,-10.661337853636327,8.550532144562979,7.580751117749724,1.8340818035295996,-0.663320908406213,0.005315757544806843,-2.2830350165034723,-0.306192807695993,-1.8539853924336422,-0.3591116483319141,-0.17741254728528905,-0.0016480327713754722
0.11,-0.07682700973658299,1.6340201705101547,-1.5025722806040893,0.020131337929477255,-0.007414354272704861,-7.153658114829557e-05,-1.2555086642116438,1.0401259634833755,1.0549310082345857,0.30108432129912804,-0.11198277312271934,-0.001033661739457733,-10.408732816770248,8.273807530790064,7.075393822563646,1.6582452892111235,-0.5969107697969775,0.007543617028693106,-2.3731164765445816,-0.8005084162386886,-1.9658203086581936,-0.3746959616502924,-0.17983777619167152,-0.0015705650442405174
0.12,-0.09041599856974242,1.6452488523506477,-1.4913210257615932,0.023310345933618554,-0.008602548213926867,-8.224506676469904e-05,-1.358898883315943,1.1228681840493013,1.1251254842496192,0.31790080041413005,-0.11881939412220056,-0.0010708485616403474,-10.132023955831038,7.972252509955744,6.5535582062574385,1.4827321643608968,-0.5299786084352291,0.00958663860484954,-2.459823000846745,-1.3177545332062355,-2.079146418997976,-0.3896729298074568,-0.1815878882408819,-0.0014815638272875188
0.13,-0.10501146642294491,1.6572746887639886,-1.4794196985760657,0.026640700939828753,-0.009853600637670061,-9.322513679549345e-05,-1.45954678532025,1.2025836413340985,1.1901327185527535,0.33303550062102005,-0.12510524237431944,-0.0010980070030794397,-9.831161689823144,7.646667069338003,6.017713140645739,1.3076729123172726,-0.4632414586165865,0.011416435954349602,-2.540517631323617,-1.8533303278736994,-2.1925243708422477,-0.40375946036976407,-0.18251813341244916,-0.001381113715371367
0.14,-0.12058358750172661,1.6700650135721449,-1.466921551082255,0.03010555243407699,-0.01116195552526648,-0.00010437978023428438,-1.5572121078781702,1.2790324808156313,1.2498147493810605,0.3464851494248239,-0.1308354887596419,-0.0011154643438790934,-9.506437524817954,7.298185813829227,5.470515123695169,1.1334508988547185,-0.39741844379395985,0.01301813077108438,-2.6125628352013233,-2.402388025188025,-2.3044665634536696,-0.4166759530444526,-0.18250080420208797,-0.001269592626332636
0.15,-0.13710016067124495,1.6835848770683128,-1.4538809552012666,0.03368806470257093,-0.012522063042264763,-0.00011561642925749816,-1.651657316951834,1.3519863496167979,1.3040595880988441,0.35825122684939364,-0.13601075169982813,-0.0011236649023213775,-9.15848506383077,6.928253440176003,4.914784316466831,0.96063341801446,-0.3331728681883064,0.014388701675308369,-2.6733986322509717,-2.9599185370782584,-2.413475817932083,-0.4281558222413069,-0.1814292706068017,-0.0011476820480666402
0.16,-0.1545266709334761,1.697797191792924,-1.4403531255031603,0.03737147938657053,-0.01392843087984361,-0.00012684787653586914,-1.7426510262231145,1.4212314724611148,1.3527829698106248,0.3683414683999605,-0.14063678375788477,-0.0011231447278370976,-8.788268375830274,6.538593533593955,4.353470841592268,0.7899143700723457,-0.2710785777652944,0.015534728953497279,-2.720625708000568,-3.52084574170352,-2.5180858491669715,-0.43795482978847877,-0.17922140121464197,-0.001016364209210463
0.17,-0.1728263839145443,1.7126629059699516,-1.4263938281087178,0.04113918838441273,-0.015375670179131384,-0.0001379929455421079,-1.829971298106818,1.4865714177027631,1.3959297394442498,0.3767708997842202,-0.14472392992877744,-0.0011145069006238773,-8.39705970637695,6.1311718645179685,3.7896139623447276,0.6220662360587745,-0.21160311023280087,0.01646990731280873,-2.752088904088481,-4.080125673069848,-2.6169017619372426,-0.4458597662948736,-0.17582220521042524,-0.0008769061258079613
0.18,-0.19196047115336584,1.7281412009494967,-1.412059080017851,0.04497481310103209,-0.01685853478371083,-0.00014897693470108838,-1.9134087238821542,1.547829497954507,1.4334748090866964,0.3835624716619355,-0.1482864604579447,-0.0010983989158980466,-7.986408377929295,5.708155487009133,3.226296617252437,0.4578997085365266,-0.15510254164576764,0.017212606350995863,-2.765956052201339,-4.632846614148765,-2.708638726361491,-0.4516960374242433,-0.17120556117512303,-0.0007308311462991524
0.19,-0.21188816312142822,1.7441897085800229,-1.3974048435636848,0.048862286616722546,-0.018371953297514555,-0.00015973186440139,-1.9927691968062373,1.6048507630526228,1.4654236454166283,0.38874735156904566,-0.15134185138037248,-0.0010754929700301618,-7.558102903033943,5.271869064982663,2.666597641154885,0.2982298293966572,-0.10182439082198158,0.01778367164086614,-2.7607871747930566,-5.174326009661275,-2.792157028476527,-0.45533375913277246,-0.16537494476540715,-0.0005798793121538574
0.2,-0.23256692623059266,1.760764744155046,-1.382486720882792,0.052785935844180044,-0.019911053945447465,-0.00017019655929274955,-2.067876310916445,1.6575035575023196,1.4918122680892678,0.3923649227457501,-0.1539100647932909,-0.001046469489135956,-7.114128378265603,4.824749879308388,2.1135438000352735,0.14384782365157278,-0.051915884286536595,0.018204582416417203,-2.7355895602978224,-5.700200295600165,-2.8664918641775134,-0.45669204588036616,-0.15836311993505975,-0.000425958465673708
0.21,-0.253952659611057,1.7778215504467876,-1.3673596532807095,0.05673056119077545,-0.02147118259591672,-0.00018031659837354676,-2.1385733380464345,1.7056806291741533,1.5127067602082378,0.3944625346595405,-0.1560128650469256,-0.0010120039080797217,-6.656621173542185,4.3693029177408,1.5700635145034862,-0.004501960018677309,-0.0054355382748241254,0.018496018272102788,-2.689855100999469,-6.206504159038868,-2.9308765343151735,-0.4557412811961725,-0.1502308135538567,-0.0002710885264386477
0.22,-0.27599990716348877,1.795314548347803,-1.3520776301806265,0.06068151165693142,-0.023047914544384658,-0.0001900441632622596,-2.204724755243176,1.7492997901015546,1.528202310008301,0.3950950466155972,-0.1576731948467936,-0.0009727564888712865,-6.18782281004038,3.908057334016072,1.0389438555789718,-0.14614045575824441,0.03763349733507937,0.018676838478177693,-2.623577479840293,-6.689736358652053,-2.9847580819704365,-0.4525032818813566,-0.14106444698715917,-0.00011734168807402872
0.23,-0.2986620802983427,1.813197589779051,-1.336693411999309,0.06462475368985818,-0.024637060801999996,-0.00019933781163282568,-2.266217313485389,1.7883041431248183,1.538421818131758,0.39432420329267637,-0.15891462576153392,-0.0009293648370566072,-5.710034668647949,3.4435253956920935,0.522792081635612,-0.28046801337804794,0.07736950121575958,0.01876344344079639,-2.5372481743984774,-7.146910003960587,-3.027804857638647,-0.447049394981719,-0.13097304520250902,3.321857247221569e-05
0.24,-0.32189168684821523,1.8314242087723855,-1.3212582708279823,0.06854693247831196,-0.026234669704571306,-0.00020816219874592083,-2.322960654987258,1.8226618993334334,1.5435141171326787,0.39221787884537895,-0.1597608902571308,-0.0008824387113095157,-5.225574954646679,2.9781648429296945,0.02400266010093155,-0.40697460466289037,0.11389850344757946,0.01876946682711189,-2.4318317053296026,-7.575586046867625,-3.0599059666365584,-0.43949668942347,-0.12008448288520765,0.0001785968210597318
0.25,-0.34564056185525516,1.8499478669771472,-1.3058217522384803,0.07243542471872016,-0.02783702467229613,-0.00021648776580838463,-2.374887500703995,1.852365820476169,1.5436518589502044,0.38884922404081934,-0.16023549677248242,-0.0008325567062463802,-4.7367390368525895,2.5143453631001846,-0.4552696012701376,-0.5252464436263318,0.14738146480664227,0.018705736532946826,-2.308721924719882,-7.973889620174381,-3.081163007210529,-0.4300025115797214,-0.10854125342475422,0.0003169207002127867
0.26,-0.36986009626505634,1.8687221902525735,-1.2904314609175365,0.07627838220430541,-0.029440638924553494,-0.00022429040987162832,-2.421953440980116,1.8774323275426361,1.5390291320943839,0.38429574855852405,-0.16036142522573651,-0.0007802644063243686,-4.245763971337256,2.0543196666502324,-0.9131299888603217,-0.6349693688439593,0.17800269934145518,0.018580440381483765,-2.1696823073107714,-8.340509699813989,-3.091874911793285,-0.4187577576121592,-0.09649596020892143,0.0004464894173912487
0.27,-0.3945014599705902,1.887701193468111,-1.2751328721840165,0.08006476588412502,-0.03104224789902803,-0.00023155114634295574,-2.4641363705533896,1.8979003215537513,1.5298588733519995,0.37863836798196104,-0.16016089744745365,-0.0007260736471327432,-3.7547977364300733,1.6001994390931327,-1.3479578299719561,-0.7359293491592636,0.2059597622150271,0.01839943564850466,-2.0167740827371627,-8.674683316122156,-3.092517028990307,-0.4059792695900397,-0.08410673052221829,0.0005658139211874629
0.28,-0.41951581611626737,1.906839491121349,-1.25996917079183,0.08378437030541061,-0.03263880005055424,-0.00023825577204266213,-2.501435614567715,1.913829765323819,1.5163701392186653,0.3719604421285588,-0.15965521515262043,-0.0006704625699706383,-3.2658734512678,1.153936251355415,-1.7584141331806575,-0.828010486559533,0.23145489828716848,0.018166648010984554,-1.852276571801243,-8.976166152126986,-3.08371581052516,-0.39190178462699526,-0.07153274139368282,0.0006736475558679167
0.29,-0.44485452406757076,1.9260924918789044,-1.2449811177883205,0.08742783858776512,-0.03422744662041476,-0.00024439453413806943,-2.5338707951303374,1.925300075755522,1.4988053003509385,0.364346828235451,-0.15886465698605268,-0.0006138762095407287,-2.7808886519566234,0.7173073426421067,-2.1434432971850343,-0.9111908978653087,0.254688053618656,0.017884513936623714,-1.678604253120389,-9.245191815923588,-3.066220586338713,-0.3767698572913709,-0.05893002610810116,0.0007690065657279992
0.3,-0.470469328955822,1.9454165756323893,-1.23020694560323,0.09098666827983684,-0.03580553087767857,-0.00024996180821500007,-2.5614804888251266,1.9324083753485022,1.477417218509052,0.35588296920717194,-0.15780842572638043,-0.0005567274076930613,-2.301589553683064,0.2919060502702468,-2.502269413580149,-0.9855368576445578,0.275851385950471,0.01755442915602512,-1.4982249088716892,-9.482422348028507,-3.0408739233943898,-0.36083013882093146,-0.04644770209738445,0.0008511803849689755
0.31,-0.49631253620567,1.9647692521256608,-1.2156822810017127,0.09445320861709243,-0.037370577245274546,-0.00025495578717278606,-2.584320724984802,1.9352676493271441,1.4524664601517416,0.34665403372555853,-0.1565046367595977,-0.0004993978957785986,-1.8295601072516683,-0.12086344880920963,-2.8343877964231377,-1.0511955772707129,0.2951251654657874,0.017177174550810692,-1.313582725956923,-9.688892626297898,-3.008581979665363,-0.34432433785063343,-0.03422472786988528,0.0009197321616827043
0.32,-0.522337169932578,1.9841093006399027,-1.2014400950569635,0.09782064983325353,-0.0389202806383099,-0.000259378181493385,-2.602463372690795,1.9340048514241912,1.4242185944749266,0.3367441216161108,-0.15497033930353568,-0.0004422394320598952,-1.3662155411502312,-0.5197874999589063,-3.1395524382323776,-1.1083869792934706,0.3126749291516955,0.016753298610658773,-1.1270295296615207,-9.865951276126951,-2.9702861016633855,-0.32748311347586134,-0.022387260925873387,0.0009744903979334466
0.33,-0.5484971145469658,2.00339689061183,-1.187510678890378,0.10108300527876984,-0.04045249626299639,-0.0002632339306760874,-2.615994461438783,1.9287589971927181,1.3929416166585518,0.32623554455163156,-0.15322156246864904,-0.0003855749182702399,-0.912800005688448,-0.90384090312357,-3.4177601226850887,-1.1573948032294368,0.32864973757777793,0.016283442436376583,-0.9407664957185775,-10.01520050730487,-2.926936693846694,-0.31052107008648383,-0.011046653408024711,0.0010155329201742076
0.34,-0.5747472393130825,2.022593683402246,-1.1739216435927824,0.10423508716911707,-0.04196523005293018,-0.0002665309251818494,-2.6250124766116607,1.919679279041591,1.3589035297595606,0.3152081890347228,-0.15127337899337884,-0.00032969945057619986,-0.47038765276898387,-1.272181908821854,-3.6692319230896615,-1.1985573494791186,0.34318137529250237,0.015768599261124783,-0.7567977451692063,-10.138437012334906,-2.8794701349679928,-0.29363294167247755,-0.00029808619877023934,0.0010431646238124124
0.35000000000000003,-0.6010435059557967,2.041662915724746,-1.1606979424789825,0.10727247682617798,-0.04345662985593827,-0.00026927973804100877,-2.6296266642714277,1.9069232322499883,1.3223701113799864,0.30373896570609005,-0.14913998030080897,-0.0002748812859159376,-0.03988672956738116,-1.6241447759224055,-3.8943927922248,-1.2322581353257416,0.3563843446844508,0.015210305247872924,-0.576896439091436,-10.237595706741255,-2.82878925464763,-0.27699097784906235,0.009780182412819537,0.0010578905353329608
0.36,-0.6273430597115014,2.060569465487081,-1.147861913637289,0.11019149029033978,-0.04492497742972912,-0.0002714933652716904,-2.6299553755704648,1.89065497623349,1.2836028841693634,0.2919013464161797,-0.1468347573790848,-0.00022136272306816127,0.3779539767060775,-1.9592303768422394,-4.093849903069895,-1.2589167000450079,0.3683565033025513,0.01461076241026077,-0.4025831655444306,-10.314697705474178,-2.7757476300202284,-0.2607434784085165,0.019127003901676137,0.0010603857576668289
0.37,-0.6536043044561471,2.0792799009918603,-1.135433340611138,0.11298914017253811,-0.046368681258103735,-0.00027318697439140716,-2.6261244744645786,1.8710435504779188,1.2428573026150938,0.27976498821983264,-0.14437038283746134,-0.0001693609119716763,0.782536839448903,-2.2770953094058,-4.268370341409987,-1.2789797584669973,0.37918020746346004,0.013972897664375483,-0.2351158168887157,-10.371803537038147,-2.7211377360521327,-0.24501437168959433,0.027698027992202317,0.0010514637860486683
0.38,-0.6797869627305527,2.0977625145915297,-1.1234295289855645,0.11566309458774147,-0.047786270161336165,-0.00027437766052402406,-2.618265827440563,1.8482613599669322,1.2003811625573673,0.26739544152033573,-0.14175889032324293,-0.00011906861326169125,1.1734056886143927,-2.577539938334366,-4.418858681915989,-1.2929128639625382,0.3889238338296108,0.013300364459117309,-0.07548968484294187,-10.410972224720307,-2.665682792558026,-0.22990369510683556,0.03546496904000376,0.001032044544962593
0.39,-0.70585212162518,2.115987341998565,-1.1118653966401164,0.11821163396785452,-0.04917638764427389,-0.0002750842098665373,-2.606515889462722,1.8224827407035538,1.1564132345448082,0.2548539380113047,-0.13901174829377264,-7.065493425132741e-05,1.550235094568265,-2.8604957463148173,-4.54633490435179,-1.3011927043756497,0.39764356085464314,0.012597495174970275,0.07555380847293411,-10.434226529211061,-2.610032002732444,-0.2154888139421539,0.04241453245863391,0.0010031233134673281
0.4,-0.7317622655892246,2.1339261685198796,-1.1007535754643298,0.12063360649622373,-0.05053778690335281,-0.0002753268705500751,-2.5910143964044687,1.7938826521314655,1.111182117578654,0.2421972528369218,-0.13613992590789142,-2.4266068353778557e-05,1.9128189871407415,-3.126012327762792,-4.651913029820079,-1.3043001189695786,0.4053853029729737,0.011869213627862862,0.21751148641134846,-10.443524360708185,-2.5547587737803688,-0.20182620575509372,0.04854708428218579,0.0009657414950267975
0.41000000000000003,-0.7574812972966736,2.151552523519247,-1.0901045224043833,0.12292838284119238,-0.05186932639854865,-0.0002751271311795511,-2.5719031707448923,1.7626354999367697,1.0649053059946474,0.22947763449686534,-0.13315394951958454,1.9973937052401575e-05,2.2610589175000535,-3.3742443102386996,-4.736780781632388,-1.3027138918673096,0.41218670231072174,0.011120917511783679,0.35009767343655696,-10.44073613722268,-2.500361448141038,-0.18895364054016955,0.05387514395718087,0.0009209599652308017
0.42,-0.7829745477388801,2.168841664417927,-1.0799266378124974,0.12509581079555843,-0.05316996588765836,-0.00027450750754726215,-2.549325044220649,1.7289140898679678,1.0177884591885868,0.21674279543660482,-0.13006394891097126,6.19623632288966e-05,2.594952230421023,-3.605438441010701,-4.802180503892453,-1.2969053483583295,0.4180790954446447,0.010358340616887174,0.47322002528856033,-10.427627690411743,-2.4472660492888743,-0.1768925985983141,0.05842177431329826,0.0008698355107568193
0.43,-0.8082087767232289,2.185770551526366,-1.0702263891968467,0.12713617035510946,-0.05443876281748707,-0.00027349133817429396,-2.5234228984348803,1.692888710843935,0.9700248615650755,0.2040359559551047,-0.1268796929828709,0.00010161693729681849,2.9145803722942314,-3.819921031017384,-4.849391504938368,-1.287333755154389,0.42308938602204016,0.00958740428206617,0.586953469398893,-10.405848198224342,-2.3958305528408963,-0.16565078637647346,0.0622189342469138,0.0008134006671947859
0.44,-0.8331521649448187,2.202317814963409,-1.0610084386126102,0.12905012969506147,-0.055674868968710156,-0.00027210258943157834,-2.494338822158985,1.6547263437042907,0.921795058423644,0.19139593399519966,-0.12361061512230813,0.0001388748742715596,3.220097517342644,-4.0180859065720895,-4.879713933505064,-1.2744425044096985,0.42724176750914467,0.008814066666177012,0.6915135790962652,-10.376922549629118,-2.3463502245476584,-0.15522463274230594,0.06530584983826483,0.0007526470803682628
0.45,-0.8577742987670827,2.218463714868012,-1.0522757720883584,0.13083870243025847,-0.056877527257546225,-0.00027036567102873546,-2.4622133822264005,1.6145899904603147,0.8732666524251672,0.17885727351969946,-0.12026582888360687,0.00017369184028428607,3.5117196534744304,-4.200382981282411,-4.894454243498973,-1.258656044070154,0.430559253629184,0.008044177398214503,0.7872304653799089,-10.342247513690383,-2.2990636144994494,-0.14560167206375518,0.0677274492026647,0.000688512360813514
0.46,-0.8820461488019998,2.2341900960458814,-1.0440298296410495,0.1325032064750699,-0.05804606860706076,-0.00026830526263474526,-2.4271850034917177,1.5726381177869269,0.8245942447308845,0.16645040448114362,-0.11685413495145351,0.00020604083939902126,3.7897142319460206,-4.367307527238685,-4.894912258881034,-1.240377503726581,0.4330649868529477,0.007283343871674397,0.8745240242222394,-10.303091085490758,-2.254158854890145,-0.13676274422053974,0.06953289600424534,0.0006218702765275564
0.47000000000000003,-0.9059400433247565,2.249480338123008,-1.0362706345930466,0.13404522475335837,-0.059179908813072585,-0.0002659461523161585,-2.3893894522756667,1.5290242077126674,0.7759195048002885,0.15420182782884645,-0.1133840206011824,0.00023591103185867466,4.054390452525813,-4.5193901957048075,-4.882369813251681,-1.2199869554517626,0.43478330736132165,0.006536814032826022,0.9538811421015698,-10.260594407053645,-2.211779971217079,-0.1286839638975005,0.07077424674080407,0.0005535240350422749
0.48,-0.9294296374946478,2.2643193022026984,-1.0289969210620726,0.13546656794864645,-0.060278545343435214,-0.0002633130873549814,-2.3489594169891217,1.4838964079690407,0.7273713530973879,0.14213431952880853,-0.10986365303626296,0.0002633064961177111,4.306090228372302,-4.657187813266316,-4.858080909035399,-1.1978402427243715,0.4357405759103372,0.0058093790947229,1.0258352494219476,-10.215775705185669,-2.1720329792421813,-0.12133843125018856,0.0715052479963296,0.00048420234061229345
0.49,-0.9524898792864207,2.278693274944774,-1.0222062586469227,0.13676923943033578,-0.06134155402414232,-0.00026043063784992525,-2.30602417917729,1.4373972742075676,0.6790662415149977,0.13026714816893298,-0.10630086807071061,0.0002882449505056194,4.545179852170204,-4.781274959458541,-4.823263318170508,-1.174268307146619,0.4359657537981292,0.005105298236617983,1.0909484277998278,-10.169535743578066,-2.1349915989460317,-0.11469767274125067,0.07178028207722911,0.0004145578728794879
0.5,-0.9750969729664276,2.2925899109071635,-1.0158951734757584,0.13795540244389262,-0.062368585580561284,-0.00025732307332260027,-2.260709368000694,1.3896635962389254,0.631108517116429,0.11861630135568452,-0.1027031556418965,0.0003107564527324957,4.772042366807402,-4.892236316004401,-4.779091529320523,-1.149576941827977,0.4354907514312103,0.004428246037253558,1.1497961262228407,-10.122664348155505,-2.1007024697264853,-0.10873281440715396,0.07165346291057101,0.00034516781611161563
0.51,-0.9972283408777117,2.305998173912696,-1.0100592649182387,0.1390273496114389,-0.06335936201652109,-0.000254014252356393,-2.2131367911284094,1.3408263005532395,0.5835908557519659,0.107194716754628,-0.09907764359598045,0.0003308820966207276,4.987070629558678,-4.990659765566469,-4.726690935152063,-1.1240469016441423,0.4343505637087688,0.0037812822926146517,1.202954423147144,-10.075847628212552,-2.069189796854612,-0.10341550007505962,0.07117787880864938,0.00027653606898034885
0.52,-1.018862584228931,2.318908278128768,-1.0046933173864445,0.13998747475409526,-0.0643136728274621,-0.0002505275251005539,-2.1634243351219182,1.2910104216072162,0.5365947531794214,0.09601251426563767,-0.09543108109410019,0.0003486727255839097,5.190661047897421,-5.077130208955103,-4.667133146484551,-1.0979343036042586,0.43258321552534795,0.003166842925641733,1.2509896848393696,-10.029675578061257,-2.0404593971351597,-0.09871857434360529,0.07040497464572508,0.00020909677980166774
0.53,-1.0399794435149332,2.3313116294755654,-0.9997914067618804,0.14083824701847347,-0.06523137105599683,-0.00024688564828510243,-2.111685928600232,1.2403351346797347,0.4901910624564114,0.0850772264378215,-0.09176982285347333,0.0003641876815451494,5.3832079572290255,-5.152224063621337,-4.601432317382452,-1.0714712549928436,0.43022954414418635,0.002586749973009006,1.2944504113868576,-9.984649802412438,-2.0145021418805276,-0.09461655482406695,0.06938406305273676,0.00014321887739879598
0.54,-1.060559759132618,2.3432007679103077,-0.9953470010865147,0.14158218726653313,-0.06611236920874596,-0.00024311071222135838,-2.058031561768473,1.1889138434742317,0.4444405675365691,0.07439402480596627,-0.08809981527491315,0.00037749360637440605,5.5650986056020875,-5.216504402584582,-4.530542365901409,-1.044866652286256,0.427332847108854,0.002042238086823245,1.3338610266926705,-9.941191162031954,-1.9912968181950963,-0.09108592062822787,0.06816195228572913,7.921129983391818e-05
0.55,-1.0805854326949884,2.354569311070901,-0.991353055244925,0.14222184667014018,-0.06695663506202346,-0.00023922407911480158,-2.002567356237042,1.136854316059354,0.3993945841589716,0.06396594036070496,-0.08442658532775019,0.0003886633106556794,5.736708707413161,-5.270516691323794,-4.455354978554654,-1.0183070999080677,0.42393842489468625,0.0015339947196957304,1.3697173530443725,-9.899647183526884,-1.970812445966461,-0.08810524482264961,0.06678267731916723,1.7328659245874003e-05
0.56,-1.1000393894893368,2.3654118997025844,-0.9878020994425014,0.1427597874385559,-0.06776418739077054,-0.00023524633189502204,-1.9453956794348317,1.084258863168337,0.35509558024236043,0.053794076841572294,-0.08075523287470945,0.0003977747219779542,5.89839852692197,-5.314785080229316,-4.376698292114341,-0.9919579042419073,0.4200930468303561,0.0010622109834315108,1.4024835101890059,-9.860299118120846,-1.953010098812436,-0.08565519796683524,0.06528732030738375,-4.222288149510905e-05
0.5700000000000001,-1.118905542472429,2.375724145235639,-0.984686321351887,0.1431985655981803,-0.06853509166008828,-0.00023119723267483897,-1.886615298309222,1.0312245533054825,0.31157780906143673,0.043877815962439545,-0.07709042693177376,0.0004049099220183074,6.050509452715858,-5.349809211653953,-4.295336153566046,-0.9659641048747929,0.4158443671823697,0.0006266401945338451,1.4325899892967842,-9.82336856905611,-1.9378442835294252,-0.08371844829804576,0.06371390670214033,-9.927970755636216e-05
0.58,-1.137168758146355,2.385502579830851,-0.9819976418571363,0.143540715738584,-0.06926945572187529,-0.0002270956898879701,-1.8263215673925903,0.9778434595212233,0.2688679494750734,0.034215014040371444,-0.07343640617870142,0.00041015427868688604,6.193361025825701,-5.376061503120631,-4.211967867493502,-0.9404515114642571,0.4112403159089695,0.0002266612841888005,1.4604326702877746,-9.7890236361617,-1.9252639352949221,-0.0822794819501414,0.06209736387876931,-0.00015371497836605232
0.59,-1.1548148246132273,2.394744609161899,-0.9797277843733035,0.14378873763660877,-0.06996742556057961,-0.00022295973312102106,-1.7646066466872279,0.9242029331047917,0.22698574838327384,0.024802189802474502,-0.06979698387043234,0.00041359567669490465,6.32724838674968,-5.3939848715909955,-4.127228349479467,-0.9155277208844499,0.40632848571103963,-0.00013865554461989227,1.4863725738337457,-9.757384549672446,-1.91521308588425,-0.0813243640730903,0.06046952998969518,-0.00020543310094240063
0.6,-1.1718304220649065,2.403448468159871,-0.9778683377592765,0.1439450846705287,-0.07062918113210029,-0.00021880649464983074,-1.7015597451679247,0.8703858997971935,0.1859446614027035,0.015634703391993608,-0.06617555715206758,0.00041532384711903306,6.452440109972282,-5.403990867641602,-4.041688613982196,-0.8912830951840149,0.40115553381701474,-0.00047048320575648894,1.5107361646165962,-9.728528784183936,-1.9076312602499388,-0.08084045907182108,0.05885920183150186,-0.00025436454103868687
0.61,-1.1882030959250682,2.4116131799042817,-0.9764108128746352,0.1440121539384076,-0.07125493233863132,-0.0002146521967094747,-1.6372673860161624,0.816471174441059,0.1457524884641315,0.006706926787892779,-0.06257512065310336,0.00041542979403560293,6.569176398479929,-5.4064581927453,-3.9558565352974266,-0.8677916863792916,0.3957666136739064,-0.0007701741345669255,1.5338160483569059,-9.702495658328537,-1.9024536536395698,-0.08081612557270126,0.057292211696826065,-0.00030046103762214034
0.62,-1.2039212328248272,2.419238517806821,-0.9753466928581702,0.14399227799835462,-0.07184491517994208,-0.00021051214356863215,-1.571813689975894,0.7625337902539453,0.1064120016464915,-0.0019875940052989805,-0.058998284131076016,0.0004140053140842555,6.677667615104965,-5.401731577432811,-3.8701778304330476,-0.8451120991486363,0.39020484849162074,-0.0010392003140633488,1.5558719304417825,-9.679290436991925,-1.8996111375267644,-0.08124039927015383,0.0557915244189738,-0.0003436912648254798
0.63,-1.2189740395593676,2.4263249711981763,-0.9746674772274605,0.14388771815290843,-0.07239938811845009,-0.00020640071753896117,-1.5052806734540298,0.7086453391355346,0.06792156307097494,-0.010455984544618123,-0.05544729385080052,0.00041114260296709853,6.77809313211984,-5.390121002763377,-3.7850372228396827,-0.8232882869843383,0.3845108555787533,-0.0012790981898949116,1.5771317278159112,-9.658887961255765,-1.8990301384122745,-0.08210267458115371,0.054377347054638606,-0.0003840369678237568
0.64,-1.23335152514113,2.432873714394138,-0.9743647199166027,0.14370065920484967,-0.0729186286916674,-0.00020233137812520466,-1.437748558176249,0.6548743195961684,0.0302757310857817,-0.018705894805875492,-0.05192405732173063,0.00040693394137565137,6.870600485213726,-5.371901252120421,-3.700759755764521,-0.8023502814428429,0.3787223276614391,-0.001491419406907779,1.597792747629596,-9.64123583729005,-1.9006324293202308,-0.08339239408440555,0.0530672448517342,-0.0004214895848460399
0.65,-1.2470444860346235,2.4388865792843877,-0.974430061383794,0.14343320561696862,-0.07340293040137744,-0.00019831666360838952,-1.3692960893493469,0.6012864890249657,-0.0065341467191239455,-0.026745358788105307,-0.048430170971002814,0.00040147145168151395,6.95530482267703,-5.34731178473899,-3.617612233438744,-0.7823148576400811,0.37287367500182356,-0.0016776880041766695,1.6180228657042106,-9.6262572196046,-1.9043348697751326,-0.08509875306008428,0.05187625829023576,-0.0004560473563876026
0.66,-1.2600444946283738,2.444366031455411,-0.9748552549329309,0.14308737901337204,-0.07385259990438751,-0.00019436819444941693,-1.3000008593750354,0.5479452171023689,-0.04251935491369406,-0.03458266035965776,-0.04496695030100744,0.00039484691589725747,7.032288645163093,-5.316556926435042,-3.5358047772188153,-0.7631861422148507,0.36699573011490116,-0.0018393644317704627,1.6379616551191731,-9.613853226807274,-1.9100491263230346,-0.08721042507092096,0.05081701704890987,-0.00048771291425108213
0.67,-1.2723438909704576,2.4493151498274877,-0.9756321874046033,0.142665116964503,-0.07426795452504208,-0.00019049667800037558,-1.2299396342083904,0.49491183720763354,-0.07769324716724363,-0.04222620488690213,-0.041535462065456254,0.0003871516449041353,7.101601835658992,-5.279806376628244,-3.4554924920778687,-0.7449561725885641,0.36111551526636276,-0.0019778165378434576,1.657721430227198,-9.603905029646086,-1.9176814023134139,-0.08971531341677334,0.049899847732489656,-0.0005164913368907067
0.68,-1.2839357777650544,2.4537376097542976,-0.9767528944026488,0.14216827300192125,-0.07464932010498358,-0.00018671191411346016,-1.1591886794596835,0.44224599268096787,-0.11207069980454473,-0.04968439625817645,-0.03813655799415029,0.00037847638869154286,7.163261983142309,-5.2371960337964465,-3.3767772463821153,-0.7276054184815077,0.3552560716794524,-0.002094297472045703,1.6773881843388074,-9.596275651903058,-1.927132202690097,-0.09260033242269464,0.04913287309058856,-0.0005423886532376211
0.6900000000000001,-1.2948140185981072,2.4576376695020823,-0.9782095702335507,0.14159861781183963,-0.07499702920099874,-0.00018302280133979785,-1.0878240833052755,0.3900059747784785,-0.14566758309019648,-0.05696551900816271,-0.03477090960151576,0.0003689112773662325,7.217255006691707,-5.188829143859637,-3.299709574559075,-0.7111032783819091,0.34943634846818483,-0.0021899303070802567,1.6970224104088425,-9.590811524873901,-1.9382961569125567,-0.09585122184788361,0.04852210127391226,-0.0005654107743303261
0.7000000000000001,-1.3049732393301778,2.461020159993209,-0.979994572748072,0.14095784155826335,-0.07531141963724967,-0.00017943734351078526,-1.0159220732070597,0.3382490491126821,-0.17850025145213289,-0.06407762535762702,-0.03143904362509294,0.00035854578290125803,7.263536089415171,-5.134777777536891,-3.224290717969825,-0.6954085649318511,0.34367114870325466,-0.002265699053033865,1.716659803553392,-9.587343835864772,-1.951061920773018,-0.09945239718846491,0.04807150441013261,-0.000585562830269497
0.71,-1.3144088325636532,2.463890477666311,-0.9821004232881831,0.14024755728720145,-0.07559283341380466,-0.00017596265659078307,-0.9435593233475242,0.2870317673102281,-0.21058505401111527,-0.07102842710619117,-0.028141377655497606,0.0003474686920002192,7.302030933320786,-5.075084643334369,-3.150474823900595,-0.6804699940587078,0.33797112965111964,-0.0023224456462138665,1.7363118523693761,-9.585689710477283,-1.9653121756988619,-0.10338683824751838,0.04778308644736942,-0.0006028488888981477
0.72,-1.3231169650594248,2.4662545802718205,-0.9845198019580306,0.13946930536272414,-0.07584161596917714,-0.00017260497578062801,-0.8708132495771667,0.23641026055095898,-0.2419378669847464,-0.07782519244773214,-0.024878255537249223,0.00033576808101550633,7.332637347044455,-5.009765242399595,-3.078171325966454,-0.6662266931108523,0.33234285405710295,-0.0023608724272863313,1.7559663330441262,-9.585653267503178,-1.9809237420281787,-0.10763601801754974,0.04765694081392041,-0.0006172720318495036
0.73,-1.331094587944949,2.4681189853877092,-0.9872455384557272,0.1386245588835734,-0.07605811579056698,-0.0001693696629350869,-0.7977622885524237,0.18644051158888517,-0.2725736497696627,-0.08447464791507416,-0.021649982138984652,0.00032353128455411237,7.3552271780374685,-4.938810369913651,-3.007247531253026,-0.6526087432170815,0.32678888932267824,-0.0023815495629175842,1.7755877263191426,-9.58702658404508,-1.997767820607124,-0.11217987362117415,0.047691298984205654,-0.0006288347629199694
0.74,-1.3383394495212135,2.469490771405784,-0.9902705987233336,0.13771473002558873,-0.07624268436167708,-0.00016626121443276154,-0.7244861576264491,0.13717860180746483,-0.302506026760643,-0.09098288579846477,-0.01845685711101038,0.0003108448502325358,7.369648599295285,-4.862188964915691,-2.9375314400745163,-0.6395377706169203,0.32130795147938684,-0.002384926846932478,1.7951175826588084,-9.589590607024459,-2.0157103747694394,-0.1169968207449885,0.04788257152680652,-0.0006375397228709146
0.75,-1.3448501104407544,2.470377580704193,-0.9935880676955898,0.136741177250421,-0.07639567643435198,-0.0001632832697033276,-0.6510660919540847,0.08868092984089154,-0.33174689722562495,-0.09735527751677116,-0.015299207267490128,0.0002977944729433931,7.375728757884626,-4.779851306411764,-2.868814823205158,-0.6269276007375026,0.31589509097199553,-0.002371349253398547,1.8144748655712466,-9.59311604551645,-2.034612662217171,-0.12206381264287959,0.04822538364279863,-0.0006433906835465199
0.76,-1.3506259609927467,2.470787624687319,-0.9971911284536429,0.13570521331495414,-0.07651745060684774,-0.00016043862067286128,-0.5775850551992256,0.04100439831254683,-0.36030607580530805,-0.10359639354668604,-0.012177417249576133,0.00028446490304663417,7.373276788350489,-4.691732548298989,-2.800856578754135,-0.614684987336144,0.31054191735205805,-0.002341075643147672,1.8335563069849203,-9.597364276329971,-2.0543319234362434,-0.1273564443462274,0.048712607580679114,-0.000646393792471895
0.77,-1.3556672401947567,2.4707296903404603,-1.001073038117928,0.13460811400866585,-0.07660837018829549,-0.00015772922243333285,-0.5041279202010047,-0.005793434685844,-0.38819096642851025,-0.1097099306288299,-0.009091958144775073,0.00027093982395284285,7.362087188541728,-4.597756579075285,-2.733386386455848,-0.6027104270691552,0.3052368600454223,-0.002294299961054236,1.8522368118985142,-9.602088292890524,-2.074722229981497,-0.13284910217360069,0.04933539463472321,-0.0006465590367778365
0.78,-1.3599750563545416,2.4702131479143294,-1.0052271008440545,0.1334511275380088,-0.07666880432586724,-0.0001551562054756459,-0.430781615978496,-0.05165424261310467,-0.41540627261264235,-0.11569864706570376,-0.0060434137571757154,0.00025730169576869486,7.341943548531254,-4.497840184588302,-2.6661086710390327,-0.5908990673840648,0.2999654623347112,-0.002231174285135973,1.8703699521422152,-9.607033724736748,-2.0956354922092135,-0.1385151579625312,0.05008320969065763,-0.0006439018923557662
0.79,-1.3635514087299936,2.4692479593241323,-1.0096466383164096,0.13223548446800776,-0.07669912936830343,-0.00015271988984682844,-0.3576352375451864,-0.09651885901969381,-0.44195374723550224,-0.12156430700010609,-0.0030325042436184636,0.00024363156288174614,7.312622615227099,-4.391897483364761,-2.598706878568314,-0.5791417127187799,0.29471070559197443,-0.002151833064819586,1.8877885909175074,-9.611939951770625,-2.1169226218106334,-0.1443272066402352,0.050943871467729974,-0.0006384451206101913
0.8,-1.3663992098817586,2.4678446868207957,-1.0143249581654445,0.1309624081219126,-0.07669973043683588,-0.00015041980160042707,-0.28478011517649454,-0.14032725033363982,-0.4678319849035003,-0.12730763460951533,-6.010685324405948e-05,0.00023000882464013626,7.2738986661490665,-4.27984459456849,-2.530848060368829,-0.5673259305928671,0.2894533605844387,-0.00205641787961941,1.9043056806826233,-9.616541333775256,-2.138434839835245,-0.15025734480789774,0.051903601709305656,-0.0006302206711423826
0.81,-1.3685223082821245,2.466014501468618,-1.0192553207653174,0.12963312533023855,-0.07667100317216596,-0.0001482546919044968,-0.21230984003659953,-0.18301853521777553,-0.4930362599872971,-0.13292827916740405,0.002872726466992033,0.00021651096959302528,7.225548155930774,-4.161604488657421,-2.462187748525227,-0.5553372554728409,0.28417236235388543,-0.0019451020563057142,1.9197152767529966,-9.620568571619184,-2.1600251158577697,-0.15627748694421542,0.052947086583489664,-0.0006192716443283595
0.8200000000000001,-1.3699255107164523,2.463769190945329,-1.0244309048976712,0.12824887741120455,-0.07661335562407211,-0.00014622255915382177,-0.14032024343277605,-0.22453105232889692,-0.517558413235385,-0.13842479190339843,0.005764754809385933,0.00020321327506750552,7.167354588716442,-4.0371119607036015,-2.3923750953161083,-0.5430604842370528,0.2788452047571539,-0.0018181144928841597,1.9337938075016337,-9.62375021201132,-2.181549718653284,-0.16235971465997864,0.054057553459020816,-0.0006056542632707177
0.8300000000000001,-1.3706146039907638,2.461121166168202,-1.029844772793664,0.12681093125583232,-0.07652721024846827,-0.00014432067440235316,-0.06890932743115186,-0.2648024777126821,-0.5413867895992788,-0.1437946155372246,0.008614537560383715,0.00019018847514686154,7.099113559145005,-3.9063186565232764,-2.321058236640255,-0.5303810529110287,0.273448350255741,-0.0016757620339364898,1.9463016390797683,-9.625814302689822,-2.202869853361491,-0.16847665319013716,0.05521686600867505,-0.000589439800288923
0.84,-1.3705963754421464,2.4580834662444695,-1.0354898350887045,0.12532059038317933,-0.07641300597536627,-0.00014254561038845706,0.0018228548617348905,-0.3037699923732646,-0.5645062295040504,-0.14903408726529851,0.011420427310200756,0.0001775064013896107,7.020637894491989,-3.7691980727011827,-2.247889826992883,-0.5171864801126915,0.26795764999817706,-0.0015184497982743128,1.9569849679511777,-9.62649019958488,-2.2238533548471793,-0.1746018680385652,0.056405640253432754,-0.0005707163992981468
0.85,-1.369878631738392,2.4546697612467625,-1.041358816241435,0.12377920582475148,-0.07627120031026297,-0.00014089327437065858,0.07177437037544972,-0.3413704997707144,-0.5868981152730424,-0.15413845584278477,0.014180566510329617,0.00016523360177984718,6.931762821257272,-3.6257504437759196,-2.17253268134489,-0.5033678585934886,0.26234876867014023,-0.0013466988711161587,1.9655780680940376,-9.625510521883955,-2.2443764020396464,-0.1807102734499422,0.05760338368988099,-0.0005495907324792263
0.86,-1.3684702154506985,2.4508943523254056,-1.0474442209791224,0.1221881866924576,-0.07610227143103306,-0.0001393589449258511,0.14084162876936146,-0.3775408921356882,-0.6085404737687446,-0.15910191322938771,0.016892887922990374,0.0001534329444807477,6.832351071541794,-3.4760074237753766,-2.0946654479407023,-0.4888213724941881,0.25659760806151155,-0.0011611608534327633,1.9718059113745376,-9.622613245171376,-2.264325213726779,-0.18677854323825663,0.0587886590395461,-0.0005261894279475737
0.87,-1.366381018889117,2.4467721686897512,-1.0537383023346398,0.12054901028189183,-0.07590672024250772,-0.0001379373127872968,0.20891965615815403,-0.41221836356545144,-0.6294081355517437,-0.1639176410565772,0.019555118852533075,0.00014216321385542843,6.722297838443856,-3.320036465424503,-2.0139882261282613,-0.47344981467498926,0.2506807228292516,-0.0009626288152428941,1.975387169314379,-9.617543917061736,-2.283597682870824,-0.19278551352412193,0.059939273426876355,-0.0005006602050670736
0.88,-1.3636219947053392,2.4423187610207377,-1.0602330318346478,0.11886323156257217,-0.07568507235160264,-0.00013662252571779542,0.27590241837777724,-0.44534076690134716,-0.6494729500007906,-0.168577871931966,0.022164789090507737,0.0001314787069501385,6.601535485875404,-3.1579447991075758,-1.930228035430206,-0.45716407589063657,0.2445757216093476,-0.0007520443001154398,1.9760375923334033,-9.610057974168207,-2.302104904281648,-0.198712566197753,0.06103249294416083,-0.0004731726559767975
0.89,-1.3602051627917824,2.4375502909166302,-1.0669200723836418,0.11713249190927942,-0.0754378799271535,-0.00013540823732653204,0.34168319135568487,-0.47684701041074035,-0.6687040548994072,-0.17307396532927524,0.02471924244491297,0.00012142883912633869,6.4700379170387015,-2.989882915386226,-1.8431440366841745,-0.4398845758207717,0.2382616464681213,-0.0005305001250572872,1.9734737487375953,-9.599923134025154,-2.3197725496865997,-0.20454398150357714,0.06204528161624609,-0.0004439186160945902
0.9,-1.3561436130398596,2.4324835160232703,-1.0737907543636755,0.11535852693400553,-0.0751657234105379,-0.0001342876596487134,0.4061549751922807,-0.5066774893359881,-0.6870681980033686,-0.1773964975273893,0.027215651661561174,0.00011205776778186534,6.327824507598681,-2.816047459769758,-1.7525324036584755,-0.4215426051632871,0.23171932373231385,-0.0002992388519166278,1.967417090558672,-9.586921830905103,-2.336542045089325,-0.21026724810165354,0.06295456276289114,-0.0004131120730361266
0.91,-1.3514515035636505,2.427135770558663,-1.0808360554345604,0.11354317328632217,-0.07486921304570307,-0.00013325361921807892,0.4692109476209073,-0.53477454646075,-0.7045301070884898,-0.18153536476833534,0.02965103648348346,0.0001034040430634466,6.174963514499637,-2.6366834565910127,-1.6582307444113327,-0.40208154826969533,0.22493167954712234,-5.964691393300914e-05,1.957598297286922,-9.57085366051114,-2.3523715079656458,-0.21587331935360446,0.06373749970703106,-0.00038098857262824416
0.92,-1.346144054047424,2.421524941008538,-1.0880465844742833,0.11168837430120584,-0.0745489902003519,-0.00013229861627618618,0.5307449516226342,-0.5610829550124984,-0.7210529039722963,-0.18547989851163227,0.032022284535117004,9.550029418927287e-05,6.0115748794285055,-2.4520857901873963,-1.5601219760057878,-0.3814579571607428,0.2178840140756968,0.00018675545921831294,1.9437618321596095,-9.551537795446563,-2.367236406374201,-0.22135680544226022,0.06437179173485554,-0.0003478040924525758
0.93,-1.3402375339358148,2.415669436843525,-1.0954125700446953,0.10979618438738979,-0.07420572845371273,-0.0001314148866821911,0.5906520111609311,-0.585550416501273,-0.7365985570411969,-0.18921899138160558,0.03432617466391672,8.837295939950851e-05,5.837832356985879,-2.2625998858938274,-1.4581375640379424,-0.35964245022867747,0.21056422909966344,0.00043832826392764535,1.9256706296786463,-9.528815331294096,-2.381129908437923,-0.2267160922780243,0.06483598022533267,-0.0003138333674241053
0.9400000000000001,-1.3337492452528135,2.409588156188344,-1.1029238537040125,0.10786877206593533,-0.07384013443045874,-0.00013059446601491702,0.6488288683001358,-0.608128065518136,-0.75112836593173,-0.19274123214544653,0.036559402325399684,8.204206672740927e-05,5.653964911402495,-2.068621550236028,-1.352260049644745,-0.3366204124508325,0.20296300488979213,0.0006933292862301155,1.9031108182339351,-9.502551522168183,-2.3940628987478556,-0.23195337995825754,0.06510975898243551,-0.00027936766792611956
0.9500000000000001,-1.3266974999087366,2.403300446457262,-1.1105698884164517,0.10590842158760529,-0.07345294836485208,-0.00012982925529803004,0.7051745344076931,-0.628770973108194,-0.7646034712439277,-0.1960350478330038,0.03871860656066555,7.65210716886983e-05,5.460257341701941,-1.870595948638562,-1.2425248009275491,-0.3123924783447487,0.19507392354226383,0.0009499347097272626,1.8758963689620198,-9.472637864782573,-2.4060636478125565,-0.23707463578774576,0.06517428207289765,-0.0002447120484649109
0.96,-1.3191015914313726,2.3968260600561324,-1.1183397422318255,0.10391753307837362,-0.07304494438395243,-0.00012911108773065413,0.7595908477363928,-0.6474386401129577,-0.776985381537391,-0.19908885092316636,0.04080039808996609,7.181675673759245e-05,5.257050112993342,-1.6690157192836723,-1.1290209425675206,-0.2869747841129673,0.18689353750275117,0.0012062621492351933,1.843873552141024,-9.438993991397908,-2.417177131378777,-0.24208945946876964,0.06501246194294756,-0.00021018210301477962
0.97,-1.3109817611368066,2.39018510533754,-1.126222107325845,0.10189862118453308,-0.0726169305036176,-0.00012843179577154824,0.8119830294565997,-0.6640954718592534,-0.7882365094019502,-0.20189118938405426,0.042801388033482296,6.79291959105881e-05,5.0447383904311245,-1.4644182427345644,-1.011891436241096,-0.2603989811374259,0.17842138362940574,0.001460395440868345,1.8069250763362696,-9.401569334427947,-2.427464007845412,-0.2470108609316801,0.06460925030024228,-0.00017610028142334329
0.98,-1.302359158835101,2.383397993079904,-1.1342053144070907,0.09985431221183123,-0.07216974833589829,-0.0001277832779055229,0.8622602301705676,-0.6787112257635572,-0.7983207081245867,-0.20443089727018435,0.044718216771931406,6.485178660253481e-05,4.823770291574203,-1.2573821077909781,-0.8913323045311408,-0.23271200906185996,0.16965994482404056,0.0017104104537628007,1.764973783878812,-9.360344528890828,-2.436999273576674,-0.2518549542816234,0.06395189423383034,-0.00014279183859600006
0.99,-1.2932557982441517,2.3764853788417,-1.1422773524111416,0.09778733977630051,-0.0717042725111456,-0.00012715756441661178,0.9103360590949285,-0.6912614238204181,-0.8072038004050948,-0.20669724355307267,0.04654758247526935,6.257134889111132e-05,4.594644391677444,-1.0485228339786306,-0.7675910116170774,-0.20397563281497666,0.1606145628977771,0.001954401196780642,1.717985779627069,-9.315332523155048,-2.4458706271432096,-0.2566405743472885,0.06303016032519695,-0.0001105805038129162
