tonegas/nnodely-applications/joint_friction_estimation/dataset/train/mpc_mujoco_episode_23.csv
time,q1,q2,q3,q4,q5,q6,dq1,dq2,dq3,dq4,dq5,dq6,ddq1,ddq2,ddq3,ddq4,ddq5,ddq6,tau1,tau2,tau3,tau4,tau5,tau6
0.0,0.0,1.57,-1.57,0.0,0.0,0.0,0.0,0.0,0.0,0.0,0.0,0.0,14.066342036219494,6.202811182506388,7.115465116868114,2.5371970502621437,2.0031501751546585,-6.6260660354089396e-06,1.960402697626256,-0.08565095958605351,-2.36584142851435,-0.5244570343078938,0.17714774357289167,0.0019668818442820845
0.01,0.0013991333718552429,1.5706207583184757,-1.569290216742705,0.00023848459844175165,0.00017025149812092976,1.8705358205356237e-06,0.1399133371855243,0.062075831847568215,0.07097832572951694,0.023848459844175166,0.017025149812092976,0.00018705358205356237,13.951600096305963,6.250716223629161,6.972821157428248,2.3278569331629058,1.6790331906988882,0.018608131967097208,1.9622943323045747,-0.1034836766570999,-2.3800536743037464,-0.5280991312617423,0.17699197651150808,0.0019558758353348145
0.02,0.004184944966667209,1.5718670897933014,-1.5678857739379017,0.0006982378610643806,0.0004906484075550637,5.689505183821009e-06,0.27858115948119666,0.12463314748257248,0.14044428048032492,0.045975326262262896,0.03203969094341339,0.0003818969363285385,13.815789747472012,6.292520849456764,6.805031998464591,2.148801038001352,1.472937789272379,0.01906465112110567,1.9739154143575308,-0.14910266773240544,-2.3998942638626892,-0.5323986256095803,0.17733844450130917,0.001940249510046638
0.03,0.008343326803143343,1.5737431650933544,-1.565804041409629,0.0013642386280809326,0.0009481065526957814,1.132111787061536e-05,0.41583818364761344,0.18760753000531516,0.20817325282727145,0.0666000767016552,0.04574581451407177,0.0005631612686794352,13.66189631467471,6.325774579062432,6.613988024187396,1.9914023430109609,1.3352207316272597,0.01713620177106101,1.9947786810628432,-0.22308471139688457,-2.425643755929176,-0.5374176731166143,0.17814108183659652,0.0019196861466101232
0.04,0.01385864149331122,1.5762522734244937,-1.563064508483003,0.002223004019506828,0.001533573024647415,1.8630806455186488e-05,0.5515314690167876,0.2509108331139255,0.27395329266258867,0.08587653914258951,0.05854664719516336,0.0007309688584571128,13.49110955168209,6.348169696320719,6.401072931293086,1.8491518898403783,1.2360768347624003,0.014983502340649935,2.0242913563824905,-0.32584088881860396,-2.4574845206983746,-0.5431928164582747,0.17934228809179759,0.0018938558341874852
0.05,0.020713735047400955,1.5793965978590438,-1.559688693166053,0.0032620938486916822,0.0022402267135207925,2.750097459809113e-05,0.6855093554089737,0.3144324434550091,0.3375815316950144,0.10390898291848544,0.07066536888733772,0.0008870168142904645,13.303526396737814,6.35754186478083,6.167339368549392,1.7171652976525849,1.1576730086560758,0.012795107312634002,2.0617503710416507,-0.4575876081568042,-2.4954955553265985,-0.5497347360028306,0.1808738060012113,0.0018624086205616419
0.06,0.028889882430898704,1.5831770037782669,-1.5557000731975756,0.0044697392753051,0.0030624012325345764,3.782335685483511e-05,0.8176147383497749,0.3780405919223001,0.3988619968477228,0.12076454266134179,0.08221745190137839,0.001032238225674398,13.098595101609398,6.351882496348252,5.913648274082437,1.591813720589336,1.0894458595288796,0.010536903424952726,2.106337016468586,-0.6183156730436652,-2.539646911976305,-0.5570280150234341,0.18265773069805644,0.0018249834269547115
0.07,0.03836669383097155,1.5875928419681966,-1.5511240277239169,0.005834567901825004,0.003994947194345757,4.9492294356968846e-05,0.9476811400072844,0.44158381899297794,0.45760454736587236,0.13648286265199042,0.09325459618111807,0.0011668937502133739,12.875401880950028,6.3293580495630675,5.640779736622644,1.470443533324918,1.0252598282552796,0.00818986088208895,2.157112293841202,-0.8077602638886487,-2.589794863965791,-0.565031173463187,0.1846077081467623,0.0017812255684087818
0.08,0.049122000231419403,1.5926417685216707,-1.5459877805701692,0.007345404172663696,0.005032862458339472,6.240091633306655e-05,1.0755306400447853,0.5048926553474118,0.5136247153747627,0.15108362708386913,0.10379152639937153,0.0012908621976097704,12.632861542467733,6.288332875753094,5.349520424921,1.3511624151187576,0.9616831940124158,0.0057661286299346415,2.213014121628216,-1.025374237268692,-2.6456787382625757,-0.5736771686477884,0.18663035941143236,0.0017308086691623424
0.09,0.06113173120437095,1.5983195839964273,-1.5403203379305648,0.00899112895308661,0.006171086392639432,7.643945329285376e-05,1.2009730972951551,0.5677815474756465,0.566744263960447,0.16457247804229155,0.11382239342999596,0.001403853695978721,12.369849118207041,6.227393057685781,5.040731182101538,1.2326754144387024,0.8969388334856916,0.0032983469746774574,2.2728574683147045,-1.2703067856970387,-2.7069201799106546,-0.5828745142841564,0.18862694572938174,0.001673458323131716
0.1,0.07436979431863738,1.6046200943352344,-1.534152414916319,0.010760585933512085,0.0074043949145361975,9.149489475479992e-05,1.3238063114266436,0.6300510338807206,0.6167923014245682,0.17694569804254737,0.12333085218967653,0.0015055441461946156,12.085294851488362,6.145369256243559,4.715397435262593,1.1141585130874745,0.8302624844256954,0.0008294326205202651,2.3353384138972695,-1.5413891474063326,-2.773025449472845,-0.5925091222734219,0.19049527329719296,0.0016089757083893133
0.11,0.08880796336174793,1.6115349959220562,-1.5275163468336297,0.01264252531688825,0.008727357646984861,0.00010745145230689465,1.4438169043110536,0.6914901586821778,0.6636068082689272,0.18819393833761647,0.13229627324486642,0.0015956557552094736,11.778254705764114,6.041356884861047,4.374664418020741,0.9951601878204102,0.7615071699797866,-0.0015946416642194094,2.399042832367268,-1.8371287536271224,-2.8433912015160745,-0.6024469277389904,0.19213180447278363,0.0015372596354459428
0.12,0.10441578101972794,1.6190537868560602,-1.5204459823650618,0.014625577330822814,0.01013433335061626,0.00012419147902262368,1.5607817657980008,0.751879093400394,0.7070364468567973,0.1983052013934564,0.14069757036313987,0.0016740026715729034,11.44796449711158,5.9147323996099255,4.0198588214156405,0.8755237682319077,0.6908965087146228,-0.003929667877109466,2.462460379568932,-2.1557127364105444,-2.917313974971362,-0.6125373012951716,0.1934339419641529,0.0014583259598333446
0.13,0.12116048056961043,1.627163706117861,-1.5129765570171343,0.016698249639473996,0.011619488739369094,0.0001415966194622062,1.6744699549882482,0.8109919261800786,0.7469425347927547,0.2072672308651182,0.14851553887528346,0.0017405140439582527,11.093881015071043,5.76516466067954,3.6524982395003125,0.7553251900524387,0.6188684775246784,-0.006136299084559482,2.5240039707765805,-2.495021364191283,-2.994003444200375,-0.6226172047717611,0.19430241780880814,0.0013723232456225624
0.14,0.13900693017767052,1.6358497017952789,-1.5051445462887323,0.01884894385215816,0.013176831207503637,0.00015954904282021164,1.7846449608060102,0.8685995677417909,0.7832010728402099,0.21506942126841627,0.15573424681345435,0.0017952423358005424,10.71571240188575,5.592620690959006,3.2742896984127707,0.6348221365685092,0.5459745978751442,-0.008181887173380531,2.582034701696607,-2.8526514653371935,-3.072599243407806,-0.6325159902707238,0.1946437144547471,0.001279543843463841
0.15,0.15791760253327927,1.6450944289650897,-1.4969874990077778,0.021065987144460376,0.014800249304294164,0.00017793266253994766,1.8910672355608746,0.9244727169810928,0.8157047280954348,0.2217043292302217,0.16234180967905265,0.0018383619719736014,10.313438782400176,5.397365424492754,2.887118551199043,0.5144116440291526,0.4728136299453993,-0.010041377701307752,2.6348917474410816,-3.2259494337151433,-3.1521909596857,-0.6420606932674344,0.19437243148657485,0.0011804296963892871
0.16,0.17785257170620197,1.6548782772186972,-1.4885438521711682,0.02333767560778205,0.016483556843056378,0.00019663427967034296,1.9934969172922696,0.9783848253607443,0.8443646836609653,0.22716884633216725,0.16833075387622143,0.001870161713039529,9.887323661379526,5.1799553251701465,2.4930290733570466,0.3945940807971233,0.3999872977497816,-0.011697492478665694,2.680926383560169,-3.6120529372155437,-3.231840679516625,-0.6510816269414801,0.19341350570930083,0.0010755724131100224
0.17,0.19876953827637178,1.6651794272015177,-1.4798527293947672,0.02565232638998432,0.018220537834117496,0.00021554461074821233,2.0916966570169797,1.0301149982820592,0.8691122776401093,0.23146507822022708,0.17369809910611186,0.0018910331077869372,9.437916341589766,4.941226024233164,2.094198167883384,0.2759420463662643,0.32807058129957767,-0.01314038422197239,2.7185388869047156,-4.007940015477262,-3.3106072912972646,-0.659418051938218,0.19170419044298764,0.0009657073967156532
0.18,0.22062388294127364,1.675973934934466,-1.4709537257248142,0.027998336033018142,0.02000499029015326,0.00023455917774009956,2.185434466490186,1.0794507732948377,0.8899003669952962,0.23460096430338243,0.17844524560357625,0.001901456699188722,8.96604535443474,4.682274366080139,1.6929036592240738,0.15907321498852056,0.2575920574982362,-0.01436691976379123,2.7462167077202055,-4.41048388174571,-3.387571606098251,-0.6669236763537978,0.18919570123281915,0.0008517020693538915
0.19,0.24336874794189217,1.687235842124931,-1.461886682069319,0.030364242690741942,0.021830767544569397,0.0002535790497249596,2.2744865000618546,1.126190719046495,0.9067043655495133,0.2365906657723801,0.1825777254416137,0.0019019871984859997,8.47286506625678,4.404436915106764,1.2914879474091538,0.04462609443554655,0.18902078674612,-0.015379727386249264,2.7625835578019253,-4.816510922038923,-3.4618611601557707,-0.6734717228780627,0.1858552906666013,0.0007345460946830311
0.2,0.2669551509393995,1.6989373103194532,-1.4526914529458195,0.03273879011155749,0.023691816283345577,0.0002725114345019592,2.3586402997507303,1.1701468194522318,0.9195229123499589,0.23745474208155465,0.18610487387761782,0.0018932384776999627,7.959659071917778,4.1092587729733525,0.8923219603790873,-0.06675979523763509,0.12276292939461086,-0.016186134628420668,2.7664034746964203,-5.222862878892483,-3.532674184496422,-0.6789593711380668,0.18166468196673957,0.0006153077104974912
0.21,0.29133211185489777,1.7110487757835726,-1.4434076711943005,0.03511099162577381,0.025582210419574054,0.00029127012659542966,2.4376960915498294,1.2111465464119562,0.9283781751518941,0.237220151421632,0.18903941362284757,0.0018758692093470445,7.428036209084501,3.798468113683634,0.4977638749866067,-0.17446347792071215,0.05915231022395062,-0.016797039463591013,2.7566525891126226,-5.626453482601017,-3.5993006070039844,-0.6833113144160214,0.17662334735011181,0.0004951354675790504
0.22,0.3164468121227747,1.7235391225634487,-1.4340745138104831,0.03747019236336867,0.02749618069674541,0.0003097758175656084,2.5114700267876957,1.2490346779876083,0.9333157383817325,0.23592007375948576,0.19139702771713565,0.0018505690970178716,6.879775457716817,3.4739407984011206,0.11012187294755194,-0.27789741893047726,-0.0015439219074337984,-0.017225909657414107,2.732523755211789,-6.024327124507118,-3.6611404724380083,-0.6864822825236454,0.17074667057669948,0.0003752142766798596
0.23,0.34224477099360184,1.7363758701955565,-1.4247304726423875,0.03980612832699821,0.029428139865722576,0.0003279562828883559,2.579795887082717,1.2836747632107766,0.9344041168095703,0.23359359636295446,0.19319591689771676,0.0018180465322747469,6.316821462580552,3.1376669040131993,-0.2683829046834436,-0.3765207894353546,-0.05912420545193697,-0.017487810864560416,2.693451547560501,-6.41371052714942,-3.717718187722899,-0.6884584397731496,0.16406565461716305,0.0002567390716693254
0.24,0.3686700384459504,1.7495253727222946,-1.415413133665047,0.042108981075444224,0.031372703451161166,0.00034574645814448293,2.642526745234856,1.3149502526738073,0.9317338977340336,0.23028527484460143,0.19445635854385931,0.0017790175256127032,5.741249169153044,2.7917163048227134,-0.6356503364713584,-0.4698500912523027,-0.11344805643102518,-0.01759860523475698,2.63912442844917,-6.792058479496231,-3.768692352775447,-0.6892575927503659,0.156625791110136,0.00014088469707385684
0.25,0.39566540120016536,1.7629530255781294,-1.4061589682364686,0.04436942700207193,0.03332470627153393,0.00036308841831580714,2.6995362754214955,1.3427652855834702,0.9254165428578484,0.22604459266277044,0.19520028203727657,0.0017341960171324215,5.155226734133214,2.4382047871102057,-0.9897316104452725,-0.5574673598712816,-0.16443038877723382,-0.01757429653124154,2.5694884290730142,-7.157091837601485,-3.8138608274491443,-0.6889282283101128,0.14848551310255564,2.8776768275227287e-05
0.26,0.4231725981496193,1.7766234769654325,-1.3970031393655822,0.04657868040802861,0.03527921496842722,0.00037993127392100563,2.7507196949453925,1.3670451387303189,0.9155828870886462,0.22092534059566762,0.19545086968932868,0.001684285560519847,4.560983128121518,2.0792615650786384,-1.3288552008232108,-0.6390260545109605,-0.21203521082818355,-0.017430527372999993,2.484743411899195,-7.506826831067615,-3.853160978486826,-0.6875474602635256,0.13971437766653388,-7.853478835859033e-05
0.27,0.45113254198521313,1.7905008404803981,-1.3879793255895252,0.04872852977966372,0.037231536872591786,0.00039623099700091436,2.7959943835593855,1.387736351496553,0.902381377605707,0.21498493716351125,0.19523219041645679,0.001629972307990871,3.960535140858666,1.7169969262548672,-1.6514460172867735,-0.7142537781713734,-0.2562659878997984,-0.017182221514802754,2.3852780641221214,-7.839595683202475,-3.8866652819926637,-0.6852179988511848,0.1303875234808503,-0.00018012269031082392
0.28,0.47948551987777105,1.8045489057637165,-1.379119564374547,0.05081136697282069,0.03917722517883689,0.0004119501945485237,2.8352977892557902,1.4048065283318376,0.8859761214978217,0.2082837193156966,0.19456883062451064,0.001571919754760933,3.3557943718557004,1.3534766100417466,-1.9561433183630068,-0.7829548423658701,-0.2971666989431121,-0.01684328060576168,2.271675253682833,-8.154054395245982,-3.914573202132479,-0.6820646196971355,0.120585262486303,-0.0002751849080176571
0.29,0.5081713838060622,1.818731344623619,-1.3704541168298106,0.05282020902342479,0.04111208071105631,0.00042705783533968257,2.8685863928291138,1.418243885990245,0.8665447544736545,0.2008842050604098,0.1934855532219422,0.0015107640791158867,2.7504184119684174,0.9907068617951295,-2.2418237159940055,-0.8450155646810096,-0.3348374208947895,-0.016426510315699083,2.145116348754623,-8.449181811924946,-3.937199628851814,-0.6782300552450939,0.11041804294843885,-0.00036288611880558574
0.3,0.5371299145038109,1.8330119111471594,-1.3620113560288183,0.054748712051060695,0.043032153686891984,0.00044152889130597353,2.89585306977487,1.4280566523540454,0.8442760800992156,0.1928503027635904,0.1920072975835668,0.0014471055966290953,2.146355944383779,0.6305912981132159,-2.507582878503615,-0.900390571672431,-0.3693411971747711,-0.015944186342393585,2.0065974309579993,-8.724296438924023,-3.9549548372779837,-0.6738679941245771,0.0999751317508844,-0.00044270010321709
0.31,0.5663010157989489,1.8473546314978087,-1.3538176771140915,0.05659117849357156,0.044933743107862446,0.000455344009647757,2.9171101295138033,1.4342720350649238,0.8193678914726761,0.18424664425108608,0.19015894209704626,0.0013815118341783423,1.5456072963355048,0.27492508055406534,-2.752748944975792,-0.9491056760319942,-0.4007779112602172,-0.015406853803722503,1.8572755030152863,-8.979022698276209,-3.968330234281862,-0.6691398864823238,0.08934750208862102,-0.0005142363254553263
0.32,0.5956249141060626,1.8617239828284962,-1.3458974305249778,0.05834255738032212,0.04681339351717233,0.0004684891585144998,2.932389830711369,1.436935133068754,0.7920246589113643,0.175137888675056,0.1879650409309878,0.0013145148866742838,0.9498541317688569,-0.07462061234064565,-2.9768778526508157,-0.9912525959021288,-0.42926494308616636,-0.014824060589410992,1.6983526079979014,-9.213272283841437,-3.9778795141883085,-0.6642100351647884,0.07862071811096619,-0.0005772718057161153
0.33,0.6250423262705775,1.876085059767119,-1.3382728778825876,0.059998438114786355,0.048667889553128486,0.0004809552596902078,2.9417412164515024,1.4361076938622963,0.7624552642390074,0.16558807344642376,0.18544960359561571,0.0012466101175707973,0.36076251483823163,-0.4165083146474861,-3.179747730761019,-1.0269841435291198,-0.4549390162246314,-0.014204372083525207,1.531114320099153,-9.427216649217165,-3.984200418402743,-0.6592413936893398,0.06787773333925019,-0.0006317190062493781
0.34,0.6544946258688266,1.8904037275121999,-1.330964169972927,0.06155503819997112,0.05049424894409126,0.000492737804480961,2.945229959824903,1.4318667745080857,0.7308707909660572,0.15566000851847683,0.18263593909627787,0.001178254479075322,-0.2198433057174573,-0.7493421127870811,-3.3613478460089015,-1.0565077214871206,-0.4779484917248289,-0.013555579181575794,1.3569458729368096,-9.621259448024851,-3.987915738831523,-0.6543913318506127,0.05720016598102472,-0.0006776061347154797
0.35000000000000003,0.6839240252528371,1.904646760764895,-1.3239893457258374,0.06300918550450688,0.05228971484557505,0.0005038364543512594,2.9429399384010613,1.4243033252695156,0.6974824247089809,0.1454147304535755,0.1795465901483787,0.001109864987029836,-0.7904096172169682,-1.0718727460147677,-3.521863936905314,-1.0800780214001353,-0.4984376875751799,-0.012884846818071782,1.1772017030650377,-9.796008256420631,-3.989654409670888,-0.6498076500727348,0.04666092838518881,-0.000715102263645668
0.36,0.7132737307167841,1.9187819679946612,-1.317364350727729,0.06435829574974865,0.05405174761620095,0.0005142546485212811,2.9349705463946982,1.413520722976628,0.6624994998108369,0.134911024524177,0.17620327706258984,0.0010418194170021657,-1.349212485621397,-1.382999084001269,-3.661661728260925,-1.0979897176509752,-0.5165548301280598,-0.012198617599134876,0.9932894060800186,-9.952240798634516,-3.9900352068686447,-0.6456256692218756,0.03632985078435469,-0.0007444708694412817
0.37,0.7424881145954606,1.9327783009008046,-1.3111030736249871,0.06560034590305056,0.05577801653004934,0.0005239992068110533,2.9214383878676493,1.3996332906143352,0.6261277102741972,0.12420501533019057,0.17262689138483886,0.0009744558289772325,-1.8948610985946015,-1.6817670163738665,-3.781269107250522,-1.1105702685597283,-0.5324375886814341,-0.011502857413737244,0.8065221990075113,-10.090875138275985,-3.989650839754536,-0.6419654290968639,0.02626565324119233,-0.0007660940151314964
0.38,0.7715128542400399,1.9466059491856915,-1.3052173986421816,0.06673384416094749,0.05746639131484184,0.0005330799500427389,2.9024739644579247,1.382764828488691,0.5885674982805472,0.1133498257896932,0.1688374784792504,0.0009080743231685594,-2.426115150683505,-1.9673658350610905,-3.8813572099534834,-1.1181728496383325,-0.546221006578266,-0.010802919820645185,0.6181429774205172,-10.212935778445495,-3.9890559969203414,-0.6389302210878659,0.01651821934650832,-0.0007804419097974847
0.39,0.8002950560047387,1.9602364210084227,-1.2997172723308816,0.06775779719613581,0.05911493346240203,0.000541509332572164,2.878220176469883,1.3630471822731227,0.5500126311299921,0.10239530351883201,0.16485421475601905,0.0008429382529425083,-2.941915586595396,-2.23912268166528,-3.962720924792902,-1.1211695708961802,-0.5580363345550996,-0.010103680935666937,0.4292999171845221,-10.319523123860655,-3.9887571664325576,-0.6366055394188512,0.007127984764215917,-0.0007880587861332334
0.4,0.8287833611772703,1.9736426096790742,-1.2946107826072548,0.06867167532079199,0.06072188736787228,0.0005493020891138541,2.848830517253157,1.3406188670651622,0.5106489723626755,0.09138781246561753,0.16069539054702583,0.0007792756541690165,-3.441187336478433,-2.4964958574036067,-4.026257584441535,-1.1199443649774512,-0.5680133385516193,-0.009409580752725244,0.24108687983089716,-10.411784867579167,-3.989204734648991,-0.6350585935420004,-0.0018710559954947872,-0.0007895345229050431
0.41000000000000003,0.8569280534721982,1.9867988472678797,-1.289904247956271,0.06947537625209181,0.06228567158277265,0.0005564748903015622,2.814469229492802,1.3156237588805386,0.47065346509837047,0.08037009312998228,0.15637842149003658,0.0007172801187708155,-3.9231819773668386,-2.739065744761545,-4.0729492076269125,-1.1148878207649204,-0.5762723074216218,-0.008724732035026328,0.05444388449131676,-10.490891566203686,-3.990787047252714,-0.6343382273114131,-0.010456219455495137,-0.0007855116084934013
0.42,0.8846811339979287,1.9996809460379918,-1.2856023150354332,0.0701691879896575,0.06380487003649708,0.0005630460227747941,2.7753080525730445,1.2882098770112216,0.43019329208378504,0.06938117375656976,0.15191984537244269,0.0006571132473231849,-4.387169271895142,-2.966525998013538,-4.103841326827897,-1.1063907644375952,-0.5829323383174376,-0.008052794338365477,-0.12976669852077782,-10.558012145103243,-3.9938276525319107,-0.6344756413612076,-0.018611160077523007,-0.0007766511082779805
0.43,0.9119963943737787,2.012266228587256,-1.2817080625700545,0.07075375142970072,0.06527822334325639,0.0005690350824049643,2.731526037584995,1.2585282549264194,0.38942524653785937,0.05845634400432171,0.14733533067593096,0.0005989059630170262,-4.832541352011035,-3.1786732796102184,-4.120024913546947,-1.0948394595883109,-0.5881067114019842,-0.007397118963760718,-0.3107896625262301,-10.61429504756977,-3.998583472169592,-0.6354851201777445,-0.026326910569185173,-0.0007636267365998496
0.44,0.9388294776370735,2.024533547726018,-1.2782231097420524,0.0712300231938326,0.06670462030156057,0.0005744626862757123,2.683308326329482,1.2267319138761565,0.348495282800204,0.04762717641318822,0.14263969583041855,0.0005427603870748021,-5.258797467297534,-3.375396783558383,-4.122618697104778,-1.080611087887501,-0.5919032898021186,-0.0067607131393114805,-0.48797274259281576,-10.660851452465428,-4.0052451203675,-0.6373651916354461,-0.0336010681371787,-0.0007471125070521923
0.45,0.9651379284565862,2.03646329713951,-1.2751477273135827,0.0715992391240154,0.0680830896092934,0.0005793502043166526,2.6308450819512696,1.1929749413492015,0.30753824284696796,0.03692159301827974,0.13784693077328344,0.0004887518040940352,-5.665532834896798,-3.5566675812116952,-4.112752680514854,-1.064069814391118,-0.5944246241638496,-0.006146246915549103,-0.6607613314810613,-10.698741543364191,-4.013938660086781,-0.6400999808103834,-0.040436983892886844,-0.0007277722144967922
0.46,0.9908812337621856,2.0480374139004582,-1.2724809498464864,0.07186287884075751,0.06941279182381928,0.00058371951093155,2.5743305305599455,1.1574116760948536,0.26667774670963434,0.026363971674210694,0.1329702214525875,0.0004369306614897355,-6.0524286879403535,-3.7225280133505008,-4.0915529806549324,-1.0455634264249483,-0.5957679848344455,-0.005556062659952676,-0.8286918504038613,-10.728963640236548,-4.024728545431155,-0.6436606911082813,-0.046842938922844926,-0.0007062505545355424
0.47000000000000003,1.0160208547822527,2.059239373892371,-1.2702206875107716,0.07202263170777738,0.07069301159531328,0.0005875927567934816,2.5139621020067073,1.120195999191286,0.2260262335714809,0.015975286701987272,0.1280219771494012,0.00038732458619315064,-6.419242721200635,-3.873081323900739,-4.0601280814362495,-1.025420526020195,-0.5960253791131862,-0.00499218460456019,-0.9913839866251317,-10.752445978928487,-4.037621494642067,-0.6480071502762359,-0.05283131778439827,-0.0006831657832344937
0.48,1.0405202514415246,2.0700541811793687,-1.2683638361163738,0.07208036449390139,0.07192315019869383,0.0005909921608056433,2.449939665927188,1.0814807286997719,0.18568513943977838,0.005773278612400928,0.1230138603380552,0.00033994040121617216,-6.765799811687764,-4.008481703534871,-4.019556554332711,-1.0039482487527813,-0.5952835643176613,-0.004456329451362873,-1.1485321431693862,-10.770040896042559,-4.052571051923238,-0.6530893677515031,-0.05841779647479986,-0.0006591038214586009
0.49,1.0643449000451006,2.0804683523170784,-1.2669063841488004,0.07203809097265561,0.0731027183867152,0.000593939822047945,2.3824648603576053,1.0414171137709796,0.14574519675733272,-0.004227352124578268,0.11795681880213649,0.0002947661242301813,-7.0919830792312535,-4.128924885895471,-3.970876270591498,-0.9814304765971649,-0.5936240574423621,-0.003949918722219614,-1.299896447520871,-10.782521158802993,-4.069482619980089,-0.6588490601846775,-0.06362056098286727,-0.0006346136868540978
0.5,1.0874623051407941,2.090469896543586,-1.2658435157379837,0.07189794365241924,0.0742313295841738,0.0005964575513642414,2.3117405095693413,1.000154422650798,0.10628684108166522,-0.014014732023637287,0.11286111974586123,0.00025177293162963405,-7.397725390749444,-4.23463941526494,-3.9150751042819367,-0.9581265090709614,-0.5911231420669196,-0.003474093002133305,-1.4452936262116278,-10.790578173037488,-4.088218774048265,-0.6652211124824439,-0.068459569562027,-0.000610204116506237
0.51,1.1098420064080203,2.100048292722116,-1.2651697086382316,0.07166214778550133,0.07530869344069453,0.0005985667221016752,2.237970126722624,0.9578396178529679,0.06738070997520648,-0.023579586691790305,0.10773638565207327,0.00021091707374338458,-7.683001408959823,-4.3258786822114494,-3.853083105050776,-0.9342701554678676,-0.5878518750030892,-0.0030297279416382494,-1.5845880015035765,-10.794821806186976,-4.108604699288009,-0.6721349516215072,-0.07295586856919314,-0.000586341230778707
0.52,1.1314555813672877,2.1091944638301943,-1.264878826443566,0.07133299776327892,0.0763346097570458,0.0006002881393937533,2.161357495926736,0.9146171108078103,0.029088219466564515,-0.03291500222224002,0.10259163163512627,0.00017214172920780528,-7.947820272656086,-4.402913803072735,-3.785766103713679,-0.9100692109872277,-0.5838760968409389,-0.002617451625694045,-1.717682815662847,-10.795781574044558,-4.130433624577005,-0.6795158193696871,-0.07713096864267802,-0.000563447084385924
0.53,1.15227664464147,2.1179007497056364,-1.2649642044054081,0.07091283596664473,0.07730896279726987,0.0006016419272831185,2.082106327418223,0.8706285875442068,-0.008537796184222943,-0.042016179663418744,0.0974353040224069,0.0001353787889365237,-8.19221898004879,-4.466027400045408,-3.713920702061844,-0.8857052808368806,-0.5792564515931886,-0.0022376628473508298,-1.8445120417145797,-10.793908957465002,-4.153472155342662,-0.6872859376714008,-0.0810062853246779,-0.0005418989533483218
0.54,1.1722808444299668,2.1261608786696353,-1.265418728357352,0.07040403410638602,0.07823171599603737,0.000602647432906514,2.0004199788496773,0.826012896399911,-0.04545239519438783,-0.05088018602587162,0.09227531987674939,0.00010055056233954412,-8.416256531392934,-4.515508320995904,-3.6382705898896406,-0.8613339184849096,-0.5740484210165988,-0.0018905497410126593,-1.9650327987535028,-10.789580636530198,-4.177465434987156,-0.6953655666981498,-0.08460264602385244,-0.0005220292147193135
0.55,1.1914458567811281,2.133969938553323,-1.266234906383824,0.06980897705659828,0.07910290706751524,0.0006033231469117444,1.9165012351161281,0.7809059883687556,-0.081617802647214,-0.05950570497877361,0.08711910714778784,6.757140052303761e-05,-8.620008872746634,-4.551647321731758,-3.5594641265704716,-0.8370850469130531,-0.5683023790181778,-0.0015761082363345835,-2.0792184554611866,-10.783102452865638,-4.202142087915267,-0.7036739604106829,-0.08793986346164759,-0.0005041256884356115
0.56,1.2097513781683775,2.1413243475580193,-1.2674049329952186,0.06913004915561502,0.07992264351868489,0.0006036866392421544,1.8305521387249453,0.7354409004696338,-0.11700266113944552,-0.0678927900983258,0.08197364511696509,3.634923304100139e-05,-8.803564669214191,-4.574733718158594,-3.4780731208674975,-0.8130636346352773,-0.5620636709606615,-0.0012941598572111523,-2.1870524773984457,-10.774713934555514,-4.227218916744132,-0.7121302279781592,-0.0910363744243377,-0.0004884323260147824
0.5700000000000001,1.2271791167926709,2.1482218252825254,-1.268920745691246,0.06836962292296632,0.08069109856649727,0.0006037545094053677,1.74277386242934,0.6897477724506256,-0.15158126960272506,-0.07604262326487046,0.07684550478123778,6.787016321321767e-06,-8.967021923255928,-4.585053001295697,-3.394592740404205,-0.7893506012028908,-0.5553727217908317,-0.0010443684255547758,-2.288523051449134,-10.764593241289443,-4.252405341795009,-0.7206541116498335,-0.09390894170636127,-0.0004751501479688821
0.58,1.2437127829495496,2.1546613641546624,-1.2707740739065405,0.06753005011731487,0.08140850745456182,0.0006035423503376414,1.653366615687862,0.6439538872137215,-0.18533282152947045,-0.08395728056514433,0.07174088880645552,-2.1215906772626484e-05,-9.11048544138623,-4.582885394324012,-3.309442480771355,-0.7660039296047891,-0.5482651758454793,-0.0008262553797555583,-2.3836185037809563,-10.75286240915893,-4.277407582492118,-0.729166692806362,-0.09657241652436392,-0.000464438349753376
0.59,1.259338078714324,2.16064320141021,-1.2729564804378877,0.06661365503892763,0.08207516416130409,0.0006030647249795753,1.5625295764774485,0.5981837255547959,-0.21824065313470825,-0.09163950783872474,0.0666656706742265,-4.776253580660535e-05,-9.234065140640924,-4.568505317537108,-3.222968123054752,-0.7430599653234431,-0.5407720700159118,-0.0006392134440540431,-2.4723235150067184,-10.739592794325914,-4.30193258803915,-0.7375910380781541,-0.09903955834526307,-0.0004564155140406225
0.6,1.2740426871150474,2.1661687916717587,-1.2754593955506384,0.06562272996082147,0.08269141848776994,0.0006023351546916231,1.4704608400723502,0.5525590261548654,-0.2502915112750694,-0.09909250781061674,0.06162543264658463,-7.295702879522867e-05,-9.337875174422942,-4.542181714135461,-3.135444607220906,-0.7205348836040173,-0.5329200407741723,-0.00048251856472303345,-2.5546161269606524,-10.724810632237439,-4.325691729045571,-0.7458527967616446,-0.1013209089440753,-0.0004511608844681808
0.61,1.2878162608810857,2.1712407800940445,-1.2782741440528655,0.06455953255511825,0.08325767350958102,0.0006013661186552847,1.3773573766038278,0.5071988422286031,-0.28147485022272706,-0.10631974057032222,0.05662550218110769,-9.690360363383618e-05,-9.42203384564132,-4.504179177193605,-3.047079746936963,-0.6984263076892354,-0.5247315644111339,-0.0003553400831610709,-2.6304655287377945,-10.708502643969572,-4.348404263052394,-0.7538807594455263,-0.1034247175281353,-0.00044871567227226973
0.62,1.3006504107764365,2.175862975962359,-1.2813919657093684,0.0634262851652551,0.08377438337403342,0.0006001690634265552,1.2834149895350728,0.46221958683143327,-0.3117821656502849,-0.1133247389863146,0.05167098644524063,-0.00011970552287294276,-9.486664263423311,-4.454759805860194,-2.9580187087938796,-0.6767150613209871,-0.5162252287618259,-0.00025674920452667394,-2.69983060451837,-10.690621633605748,-4.369800585636149,-0.7616073859282774,-0.10535691387731776,-0.00044908438200058523
0.63,1.3125386934526533,2.180040326557799,-1.2848040294435181,0.06222517576047705,0.08424205142005438,0.0005987544218303411,1.1888282676216826,0.4177350595439894,-0.3412063734149637,-0.1201109404778053,0.04676680460209606,-0.00014146415962141786,-9.531895688159384,-4.394185707012878,-2.868349175436257,-0.6553670386968804,-0.5074160337300881,-0.0001857259299069547,-2.762659221436425,-10.6710920303652,-4.389625275461195,-0.7689693083099489,-0.10712112660389425,-0.00045223615552110946
0.64,1.3234765986874437,2.1837788910386795,-1.2885014418428005,0.06095836039650628,0.08466122859575698,0.000597131640406161,1.093790523479047,0.3738564480880631,-0.36974123992822766,-0.12668153639707697,0.04191771757025943,-0.00016227814241800596,-9.557865498377003,-4.3227220473710775,-2.778107107771487,-0.6343351743428762,-0.49831571707102995,-0.00014116464919222693,-2.8188882316834474,-10.649815336667881,-4.407639936832404,-0.7759078127122273,-0.10871874378620049,-0.0004581061445910955
0.65,1.3334615358128596,2.1870858140324327,-1.292475250543316,0.0596279669955077,0.08503251214572209,0.0005953092146359295,0.9984937125415911,0.33069229937532246,-0.3973808700515458,-0.1330393400998582,0.03712835499651152,-0.0001822425770231546,-9.564721702139249,-4.240640550713405,-2.687283016350844,-0.6135614941188887,-0.488933101187186,-0.00012187864983381758,-2.868444158617473,-10.626675448696151,-4.423625837506598,-0.7823693005512631,-0.11014901334027163,-0.000466596931165825
0.66,1.342492819082563,2.189969298587838,-1.2967164431189437,0.05823610024957293,0.08535654453794148,0.0005932947312030538,0.9031283269703233,0.2883484555405177,-0.42411925756278757,-0.13918667459347692,0.032403239221938836,-0.00020144834328756977,-9.552625905619529,-4.148223325681598,-2.595828646417531,-0.5929792269109289,-0.47927445610458363,-0.00012660382951112936,-2.911244531468723,-10.6015438195934,-4.437386333279935,-0.7883057277809185,-0.11140918053419535,-0.00047758002129784713
0.67,1.3505716516819333,2.1924385781043663,-1.3012159421418,0.056784847445083136,0.08563401259862036,0.0005910949165480713,0.8078832599370289,0.24692795165283415,-0.4499499022856232,-0.1451252804489796,0.027746806067887805,-0.00021998146549825082,-9.52175664253719,-4.04576690204098,-2.5036639753276067,-0.572514954624646,-0.46934387338616546,-0.00015400189947190057,-2.947199827025973,-10.574284437561978,-4.448749064690707,-0.7936750181561213,-0.11249466000081604,-0.0004908974428314262
0.68,1.357701108048683,2.194503886834537,-1.3059645971114433,0.05527628500066817,0.08586564682179462,0.0005887156909997865,0.7129456366749616,0.20653087301708228,-0.47486549696433283,-0.15085624444149684,0.023163422317426338,-0.00023792255482847757,-9.472312960630793,-3.933586347611754,-2.4106844154580918,-0.5520907761018741,-0.45914364543811104,-0.00020266339202379413,-2.976215969336878,-10.544758592150101,-4.457567905546176,-0.7984414444456478,-0.11339923945446517,-0.0005063634791005879
0.6900000000000001,1.3638861141459078,2.196176428547048,-1.3109531739704499,0.05371248550924543,0.08605222081999053,0.0005861622277721865,0.6185006097224827,0.16725417125110342,-0.49885768590065144,-0.156379949142274,0.018657399819590338,-0.0002553463227599979,-9.40451815566656,-3.812019334777992,-2.3167681108146327,-0.5316264586306225,-0.4486746445484684,-0.0002711107165498383,-2.99819732998845,-10.512829402317669,-4.463724638341069,-0.802575969750642,-0.11411531206446049,-0.0005237665705017017
0.7000000000000001,1.3691334253147032,2.1974683429433854,-1.316172342932996,0.05209552507498123,0.08619455088195432,0.0005834390161276447,0.524731116879536,0.12919143963375135,-0.521916896254597,-0.16169604342641916,0.01423300619637952,-0.0002723211644541819,-9.318623539996155,-3.6814300248985967,-2.2217832117877956,-0.5110415491050357,-0.4379366960060338,-0.00035780154697340194,-3.0130501621263193,-10.47836607980479,-4.467130328371715,-0.8060565397477514,-0.11463413408920826,-0.0005428714131906981
0.71,1.3734516013299554,2.198392669438705,-1.321612665350587,0.050427490739125634,0.0862934956038064,0.0005805499280157421,0.43181760152521687,0.09243264953195822,-0.5440322417591177,-0.16680343358555993,0.009894472185207902,-0.0002889088111902556,-9.214912131706566,-3.542212641392858,-2.1255950104060872,-0.49025741569342607,-0.42692893982297875,-0.0004611327379309138,-3.0206863913356554,-10.441247901232538,-4.467726366783026,-0.8088683158481063,-0.11494610394550966,-0.0005634212793664685
0.72,1.3768509782907847,2.1989633079487603,-1.327264580324842,0.04871048779464371,0.08634995556081625,0.0005774982875060043,0.3399376960829355,0.057063851005502764,-0.5651914974254876,-0.17170029444819232,0.005645995700983547,-0.0003051640509737814,-9.093702152189016,-3.394794607978527,-2.028072818402765,-0.46919919035898516,-0.41565017591111797,-0.0005794449353153652,-3.021027676279591,-10.401367862544499,-4.4654851531489355,-0.8110038390014576,-0.11504105840167639,-0.0005851405768254288
0.73,1.3793436369961876,2.1991949763679774,-1.3331183917512766,0.046946646798455186,0.08636487298832585,0.0005742869423426052,0.24926587054027727,0.02316684192170041,-0.5853811426434649,-0.17638409961885235,0.0014917427509596867,-0.0003211345163399044,-8.955350224643455,-3.2396391376088616,-1.9290964728583448,-0.44779758278017745,-0.4040991880224709,-0.000711028020860649,-3.014009642115194,-10.358635990103124,-4.460410390616925,-0.8124631142132055,-0.11490858107072655,-0.0006077376569589403
0.74,1.3809433674862337,2.1991031644785353,-1.3391642564405972,0.04513813010188378,0.08633923144213339,0.0005709183369601205,0.15997304900461962,-0.009181188944234087,-0.604586468932058,-0.1808516696571405,-0.0025641546192453728,-0.00033686053824847197,-8.800254173657938,-3.077247170058699,-1.8285623593471634,-0.42599053732659975,-0.39227504238155575,-0.0008541274372797503,-2.999586180802938,-10.31298228417938,-4.452536971169768,-0.8132536067901152,-0.11453831787693777,-0.0006309078704401851
0.75,1.3816656294689695,2.198704084095263,-1.3453921739156032,0.04328713773450819,0.08627405541083565,0.0005673945863130858,0.07222619827357506,-0.03990803832722792,-0.6227917475005919,-0.18509923673755885,-0.006517603129774913,-0.00035237506470346913,-8.628855335990604,-2.9081585715597176,-1.7263888494348016,-0.4037247065551455,-0.3801773576461187,-0.0010069514457766715,-2.9777337049955377,-10.264359272636577,-4.441930434900817,-0.8133901428245371,-0.11392029370721912,-0.0006543368588371885
0.76,1.381527508401947,2.1980146153247984,-1.3517919784231363,0.04139591249383427,0.08617040985515877,0.0005637175498881813,-0.01381210670225319,-0.06894687704645552,-0.6399804507533141,-0.18912252406739172,-0.010364555567688116,-0.0003677036424904496,-8.44164030893653,-2.7329525290343173,-1.6225210681935716,-0.38095671891978533,-0.36780654381075806,-0.0011676792625117116,-2.9484552383486347,-10.212744157220651,-4.428685996784873,-0.8128947088260858,-0.11304522414223017,-0.0006777040593816415
0.77,1.3805476670534425,2.1970522488978204,-1.358353333633452,0.039466744112650845,0.08602939965209863,0.0005598889052876482,-0.09798413485044478,-0.09623664269781937,-0.6561355210315649,-0.19291683811834298,-0.014101020306014051,-0.00038286446005330666,-8.239142068588416,-2.552247089902446,-1.516934897357773,-0.3576542183533924,-0.35516400815694027,-0.001334470040991853,-2.91178421982317,-10.158140534601852,-4.412927140423505,-0.8117961470113093,-0.11190481577942663,-0.000700686387154395
0.78,1.3787462924313318,2.1958350246184755,-1.3650657304229725,0.03750197239767374,0.08585216892470901,0.0005559102207951808,-0.18013746221107124,-0.12172242793447327,-0.6712396789520588,-0.19647717149771027,-0.01772307273896236,-0.00039786844924673395,-8.021940422565168,-2.366697824770715,-1.4096401752490562,-0.3337966641443426,-0.3422523280301917,-0.0015054725853231865,-2.8677879063082803,-10.100579686330143,-4.39480379539538,-0.8101297472479252,-0.1104920488178797,-0.0007229620502831977
0.79,1.3761450380340494,2.1943814660627097,-1.3719184880561028,0.03550398925597366,0.08563990024146523,0.0005517830263619452,-0.2601254397282499,-0.14535585557656122,-0.6852757633130251,-0.19979831417000804,-0.021226868324378048,-0.0004127194433235566,-7.790661765143012,-2.17699560993337,-1.3006830332201433,-0.3093758786161711,-0.3290753904691428,-0.0016788356797059478,-2.8165702581148224,-10.040121430217228,-4.374490119942392,-0.8079367382227425,-0.1088014354610603,-0.000744214441440155
0.8,1.372766961447732,2.192710511745139,-1.3789007589955642,0.033475239549942776,0.08539381367228022,0.0005475088824796683,-0.33780765863174544,-0.16709543175705593,-0.6982270939461326,-0.20287497060308823,-0.024608656918500574,-0.00042741438822769444,-7.545978130171169,-1.983863552691612,-1.190147351440003,-0.2843963392397715,-0.31563850008659955,-0.001852718899029604,-2.7582742044229374,-9.976854535891029,-4.352181925877242,-0.8052636845746334,-0.10682924815090919,-0.0007641360419226679
0.81,1.3686364573837904,2.1908414430597642,-1.386001537482814,0.031418220746233426,0.08511516569133432,0.0005430894464397029,-0.41305040639415563,-0.18690686853747068,-0.7100778487249828,-0.20570188037093523,-0.027864798094589433,-0.00044194360399653983,-7.288605552940531,-1.7880531048975095,-1.078155329195059,-0.2588752164512167,-0.3019484573102176,-0.00202530375971266,-2.693083198484519,-9.910896712049,-4.328093792155897,-0.8021617995845635,-0.10457371214571216,-0.0007824322678160859
0.8200000000000001,1.3637791863201927,2.1887938093809893,-1.3932096719417997,0.02933548134878013,0.08480524791983719,0.000538526535510948,-0.4857271063597596,-0.20476336787747676,-0.7208134458985508,-0.20827393974532965,-0.03099177714971181,-0.0004562910928754917,-7.019301770382728,-1.590339432051242,-0.9648671862991605,-0.23284216437856653,-0.28801360985431046,-0.0021948050752604864,-2.6212219901963474,-9.842394179341355,-4.302455923402183,-0.7986861859963494,-0.10203515771786846,-0.0007988251839281255
0.8300000000000001,1.3582219989758562,2.1865873507858717,-1.4005138811726923,0.027229618130118066,0.08446538570460002,0.0005338221866047512,-0.5557187344336578,-0.22064585951177762,-0.7304209230892541,-0.2105863218662063,-0.03398622152371726,-0.0004704348906196822,-6.738863305366556,-1.3915161249734087,-0.8504800318586088,-0.20633887723813427,-0.2738438808815147,-0.0023594823654651265,-2.54295656488272,-9.771520848784828,-4.275510817677821,-0.7948950201027598,-0.09921612820438058,-0.000813057010052584
0.84,1.3519928569090935,2.184241918924334,-1.4079027742193195,0.025103272198196806,0.08409693653080179,0.0005289787120311133,-0.6229142066762663,-0.23454318615377076,-0.7388893046627341,-0.21263459319212608,-0.036844917379823774,-0.00048434745736379423,-6.448121995277844,-1.1923893579917058,-0.7352259549889273,-0.17941842924479445,-0.2594507777097874,-0.002517651240409702,-2.458593221227879,-9.698477131129534,-4.247509813703906,-0.7908486962836042,-0.09612144127081172,-0.0008248933458831628
0.85,1.3451207495866047,2.1817773966195246,-1.4153648737165871,0.022959123957259568,0.08370128826954354,0.0005239987509860755,-0.6872107322488984,-0.24645223048095663,-0.746209949726767,-0.21441482409372387,-0.03956482612582548,-0.0004979961045037697,-6.147941037068438,-0.9937716111860928,-0.6193694084839056,-0.15214442036579356,-0.24484738512011006,-0.0026676946174859495,-2.3684767874052803,-9.62348840748848,-4.218709591232871,-0.7866089506179279,-0.09275820200946466,-0.0008341260455660737
0.86,1.3376356083178353,2.1792136168242373,-1.4228886424538911,0.020799887040671417,0.08327985726267174,0.0005188853164457595,-0.7485141268769294,-0.25637797952873465,-0.7523768737303961,-0.21592369165881523,-0.04214310068717914,-0.0005113434540316049,-5.839210630218035,-0.7964750841320523,-0.5032039703956552,-0.12458995392904404,-0.23004834728356371,-0.0028080737290561153,-2.2729880015264907,-9.546803195648335,-4.189368699148764,-0.7822379829361682,-0.08913576783656614,-0.0008405756803134662
0.87,1.3295682174897303,2.1765702815903354,-1.4304625128287591,0.018628301310464376,0.08283408624890841,0.000513641837176469,-0.8067390828105137,-0.2643335233901916,-0.7573870374868105,-0.2171585730207042,-0.0445771013763332,-0.0005243479269290564,-5.5228433053754555,-0.6013049345417126,-0.3870485795716807,-0.09683647490555236,-0.21506984209297997,-0.0029373388302129655,-2.1725401094330286,-9.468691049716021,-4.159744184084744,-0.777797596692171,-0.08526566652685667,-0.0008440935374130886
0.88,1.3209501235683334,2.1738668817258304,-1.4380749188128183,0.016447125032534787,0.082365442136558,0.0005082721946033238,-0.8618093921396909,-0.2703399864504867,-0.7612405984059128,-0.21811762779295876,-0.04686441123504089,-0.0005369642573145174,-5.199769029779561,-0.4090524771529206,-0.27124334914967674,-0.06897249953764018,-0.19992955122622647,-0.003054139578891668,-2.0675747583933592,-9.389440233069958,-4.130088387981594,-0.7733483753204701,-0.08116147006950322,-0.0008445631159469159
0.89,1.3118135423560224,2.171122617818476,-1.4457143300104536,0.0142591263476795,0.08187541362899455,0.0005027807543112958,-0.9136581212310938,-0.27442639073545866,-0.7639411197635183,-0.21879986848552876,-0.049002850756345105,-0.0005491440292028023,-4.8709301809791725,-0.22048847625198204,-0.15614506669820344,-0.041092267869567545,-0.1846466286440851,-0.003157235020662341,-1.95855728829009,-9.30935520597831,-4.100645976297411,-0.7689489123415791,-0.07683862828925819,-0.0008419010930509664
0.9,1.3021912650063403,2.1683563232956153,-1.453369287359664,0.012067074166885856,0.08136550870980387,0.000497172391983215,-0.9622277349682111,-0.27662945228604047,-0.7654957349210308,-0.2192052180793644,-0.050990491919067016,-0.0005608362328080825,-4.537276478068216,-0.036356659574819025,-0.0421224911238052,-0.01329435065459078,-0.16924166945550567,-0.003245503162127239,-1.8459715413360303,-9.228753969759547,-4.071651249864153,-0.7646551104633161,-0.07231426729739945,-0.0008360577490105727
0.91,1.29211656330265,2.165586390168153,-1.4610284400047608,0.009873728624481768,0.0808372519949156,0.000491452513608966,-1.0074701703690356,-0.2769933127462332,-0.7659152645096897,-0.21933455424040882,-0.0528256714888272,-0.000571987837424905,-4.1997599549133575,0.1426324276231004,0.0704484452330704,0.014319758820351025,-0.15373668020851738,-0.0033179500690119212,-1.7303143263570895,-9.147965309064247,-4.04332578311266,-0.7605195624057706,-0.0676069587711023,-0.000827016854248575
0.92,1.2816230947026543,2.1628306980727565,-1.468680582861519,0.007681831224975068,0.08029218195936572,0.000485627069829965,-1.0493468599995524,-0.27556920953964686,-0.76521428567583,-0.21918973995067006,-0.05450700355498825,-0.0005825443779000983,-3.859330053073467,0.31580712133696787,0.18118942545235084,0.04164703920422519,-0.13815505075312018,-0.0033737184228048722,-1.6120896835764642,-9.067325972846122,-4.015876420060847,-0.7565910232809367,-0.06273646677042417,-0.000814795035689059
0.93,1.2707448076388697,2.1601065471819614,-1.4763146943967138,0.005494094818814692,0.0797318480465451,0.000479702564313695,-1.0878287063784788,-0.2724150890794984,-0.7634111535194772,-0.2187736406160376,-0.05603339128206223,-0.0005924505516270007,-3.5169289036360114,0.4825397975341261,0.2897244310696343,0.06858429547330336,-0.1225215269128519,-0.0034120954727494546,-1.4918031002053944,-8.98717783297142,-3.989493647616743,-0.7529139812288519,-0.05772347926168779,-0.0007994406534487456
0.9400000000000001,1.25951584754626,2.1574305954980972,-1.4839199741549418,0.0033131935391049324,0.07915780766797546,0.0004736860560850688,-1.122896009260961,-0.2675951683864073,-0.7605279758228017,-0.21809012797097593,-0.05740403785696348,-0.0006016508228626183,-3.1734868575505586,0.642251413759939,0.3956842317313576,0.09502944981800221,-0.10686218234903322,-0.00343252025742391,-1.3699558259096374,-8.907865057295142,-3.964350353923505,-0.7495283297990751,-0.052589331712718776,-0.0007810322307864118
0.9500000000000001,1.247970464063412,2.1548188009854963,-1.4914858795853063,0.0011417528257669672,0.0785716231018722,0.0004675851557761416,-1.1545383482848035,-0.26117945126009867,-0.7565905430364561,-0.21714407133379654,-0.05861845661032652,-0.0006100900308927185,-2.8299183136860857,0.7944153735065096,0.49871060476410656,0.12088274894695639,-0.09120438727590496,-0.003434589977682645,-1.2470394305603527,-8.829731331510214,-3.9406009681669536,-0.7464691424139626,-0.047355730059166004,-0.0007596764902843781
0.96,1.2361429198238603,2.152286368927957,-1.4990021617478488,-0.0010176603439200436,0.0779748582990547,0.0004614080157934455,-1.182754423955165,-0.2532432057539157,-0.7516282162542556,-0.21594131696870109,-0.05967648028174983,-0.0006177139982696112,-2.487117883048679,0.938560670686416,0.5984602199952296,0.1460478713179505,-0.07557677109311456,-0.003418065363140377,-1.123530734979297,-8.753117161248111,-3.918380967918103,-0.7437665462909117,-0.04204448002163299,-0.0007355060569987201
0.97,1.2240674012205797,2.1498477048266613,-1.5064588995133321,-0.0031625469087151552,0.07736907560519354,0.00045516331444382056,-1.2075518603280524,-0.2438664101295966,-0.745673776548332,-0.21448865647951115,-0.06057826938611555,-0.000624470134962497,-2.1459569169541624,1.0742742889927759,0.6946081378933644,0.17043292151903522,-0.060009175629124556,-0.0033828748448510026,-0.9998872293988932,-8.678357282845548,-3.897806731050449,-0.7414456905476247,-0.03667722920757627,-0.0007086768946112591
0.98,1.2117779314902708,2.147516373079419,-1.5138465319088423,-0.005290484761649316,0.0767558324089682,0.00044886023410557687,-1.228946973030888,-0.23313317472425574,-0.7387632395510261,-0.21279378529341608,-0.061324319622533624,-0.000630308033824371,-1.8072804166745153,1.20120284782682,0.786850882081013,0.19395130269738114,-0.04453259550658828,-0.003329117359932132,-0.8765430748912993,-8.605778207957101,-3.878975701817725,-0.7395268009566215,-0.03127522769089108,-0.0006793655433663742
0.99,1.1993082864259357,2.1453050616069467,-1.5211558883043828,-0.0073991372855608485,0.07613667772646596,0.00044250843358182153,-1.246964506433517,-0.22113114724722582,-0.730935639554037,-0.21086525239115322,-0.061915468250224585,-0.0006351800523755361,-1.4719043324876473,1.319053502393315,0.8749090600800242,0.21652246149033338,-0.029179102203933382,-0.0032570635733956133,-0.7539057610744367,-8.535695923835954,-3.8619668349643272,-0.7380253120145753,-0.02585911186674244,-0.0006477662288356303
