tonegas/nnodely-applications/joint_friction_estimation/dataset/train/mpc_mujoco_episode_16.csv
time,q1,q2,q3,q4,q5,q6,dq1,dq2,dq3,dq4,dq5,dq6,ddq1,ddq2,ddq3,ddq4,ddq5,ddq6,tau1,tau2,tau3,tau4,tau5,tau6
0.0,0.0,1.57,-1.57,0.0,0.0,0.0,0.0,0.0,0.0,0.0,0.0,0.0,3.35259582558388,-14.94100526238344,3.0814124116499144,2.127302692080111,0.5216268919016489,-2.980532469498698e-06,0.46817121159543706,-11.515528743267296,-6.697363018251318,-1.4363958293431758,0.042008132146110995,-0.00018184966383630465
0.01,0.0003336308130990159,1.568511903451535,-1.5696968860742797,0.0001944326195849687,4.32086278884075e-05,5.556814279654377e-07,0.03336308130990159,-0.1488096548465234,0.030311392572035026,0.01944326195849687,0.00432086278884075,5.556814279654376e-05,3.2902134622984582,-14.822466598176657,2.9669208026709875,1.9214584823981475,0.4372632079086607,0.005581628539787831,0.45826211583401866,-11.481611031061995,-6.69128970749763,-1.43567284950366,0.04127305945004863,-0.00018963721625246075
0.02,0.0009944160876544682,1.5655475799945873,-1.5691029898869333,0.0005664954844738894,0.00012432033635043497,1.6894211546997495e-06,0.06607852745554522,-0.2964323456947733,0.05938961873465036,0.03720628648889207,0.008111170846202748,0.00011337397267343119,3.2191152220629613,-14.696372385721325,2.838858000341723,1.7510366170048854,0.38571128786580466,0.005884660960793431,0.4423088520194675,-11.427369238099693,-6.675579582703948,-1.4328353286933213,0.04015576728779995,-0.0001995790606922917
0.03,0.001975119066557147,1.561119620553281,-1.5682317271920332,0.001102052735442728,0.0002400133684271785,3.363725575107007e-06,0.09807029789026786,-0.4427959441306358,0.08712626949001538,0.05355572509688386,0.01156930320767435,0.0001674304420407258,3.139764404748316,-14.56237175116404,2.7004390493780868,1.6075401309331312,0.35490899876467275,0.005647503306481116,0.4206371340919073,-11.352700743403858,-6.650234721264887,-1.4278934756927664,0.03866408922284057,-0.0002115993504102022
0.04,0.0032677474336401994,1.555241379792738,-1.5670973400249064,0.0017889941270481662,0.0003882204965170252,5.547066471857904e-06,0.12926283670830524,-0.5878240760542854,0.11343871671267691,0.0686941391605438,0.014820712808984667,0.00021833408967508963,3.052180141519122,-14.420004887574038,2.5542907644137074,1.4845455532977212,0.3375745235094687,0.005534951811582811,0.3936621739131344,-11.25747204134426,-6.615238938684074,-1.4208536719543667,0.036806839424983875,-0.00022563975175563558
0.05,0.004863531108794323,1.547927027742831,-1.5657146827709456,0.0026167515192191087,0.0005676850761540984,8.21939926231245e-06,0.15957836751541238,-0.7314352049907149,0.13826572539607934,0.08277573921709425,0.01794645796370732,0.0002672332790454546,2.9561137832709283,-14.268729694593757,2.402599452115915,1.3772128805861428,0.3292933040828405,0.0056112337430818116,0.36188697724271024,-11.141523900278845,-6.5705607974684614,-1.4117192962781822,0.03459408697747232,-0.00024165223928833624
0.06,0.006752883747096224,1.5391916083417532,-1.5640990408938404,0.00357593574676967,0.000777689264254151,1.1370136421278961e-05,0.18893526383019002,-0.8735419401077822,0.16156418771052308,0.09591842275505616,0.021000418810005268,0.00031507371589665107,2.851154480951003,-14.107944848704093,2.2472226922692897,1.2819124761389489,0.32738664979023646,0.005868318859181265,0.32590055280167707,-11.004677672982226,-6.516156960649495,-1.4004915716696307,0.03203753459070513,-0.00025959322477072354
0.07,0.008925354475836662,1.529051102906628,-1.5622659738421305,0.004658065556311132,0.0010178864325465962,1.4996080859681549e-05,0.21724707287404385,-1.0140505435125189,0.18330670517099024,0.10821298095414622,0.02401971682924451,0.00036259444384025875,2.736793461321624,-13.937010419796286,2.08977355307071,1.1959397204256064,0.3302307102483386,0.006301649041619672,0.28637530750776863,-10.846742670805597,-6.451975864863668,-1.387170438583749,0.02915096642264895,-0.0002794182835532173
0.08,0.011369573949139187,1.5175224967083547,-1.5602311757733471,0.005855366938782204,0.0012881966060157343,1.9100068712796544e-05,0.24442194733025252,-1.152860619827327,0.2034798068783319,0.11973013824710722,0.027031017346913818,0.0004103987853114994,2.612464213628708,-13.755266776586003,1.9316834485742262,1.117296549959267,0.33684201222991383,0.00691841738925425,0.24406296946511388,-10.667524511570306,-6.377961681339627,-1.371755454160711,0.025950739909778947,-0.00030107708407648
0.09,0.014073197383691713,1.5046238469421769,-1.5580103493857542,0.00716062625947666,0.0015887397567905643,2.3690182702461963e-05,0.2703623434552526,-1.289864976617783,0.22208263875928239,0.13052593206944557,0.030054315077483,0.0004590113989665421,2.4775688178680713,-13.562052266780507,1.774248375255695,1.0445240922749548,0.34662108586736906,0.007737088987942453,0.1997884222369089,-10.466834344979176,-6.2940585285551345,-1.354246713823188,0.022456301126831592,-0.00032450831388514004
0.1,0.017022846444680474,1.4903743504648186,-1.5556190894381872,0.00856708446245421,0.001919791305811156,2.877935537511194e-05,0.29496490609887627,-1.424949647735826,0.2391259947566967,0.14064582029775494,0.03310515490205918,0.0005089172672649978,2.3314967206453465,-13.356719965204993,1.6186621709215174,0.9765743128705786,0.35918839299555927,0.008786619920632788,0.1544408747560709,-10.244498847729634,-6.200214896459155,-1.3346457892858328,0.018690704552139635,-0.0003496345109003156
0.11,0.02020405144604837,1.4747944097293701,-1.5530727735514243,0.01006836258237901,0.0022817497645525233,3.438523154961747e-05,0.3181205001367896,-1.5579940735448436,0.254631588676299,0.1501278119924801,0.03619584587413674,0.0005605876174505526,2.1736402152907215,-13.138652884922886,1.4660396295703357,0.9127114275716153,0.37427152341216896,0.010106229644189502,0.10896184967085887,-10.000370486360648,-6.096388105656431,-1.312956648448808,0.014681117798880908,-0.0003763567669555067
0.12,0.023601195196842197,1.4579056954774758,-1.5503864586802316,0.01165841104966641,0.0026751095819179753,4.053019804519424e-05,0.33971437507938285,-1.6888714251894383,0.26863148711925905,0.15900484672874,0.0393359817365452,0.0006144966495576765,2.003409921622428,-12.907281055747676,1.317431593474943,0.852435964331697,0.39161676994991446,0.011745451441957933,0.06432954499151103,-9.734339606025785,-5.982549357963484,-1.2891866711136903,0.010459289089825938,-0.0004045494201303345
0.13,0.027197459912222995,1.4397312045434747,-1.5475747822819574,0.013331476988652117,0.0031004338172795527,4.724150763344716e-05,0.35962647153807975,-1.8174490934001237,0.281167639827424,0.16730659389857058,0.04253242353615772,0.0006711309588252924,1.8202539175277372,-12.662092399463981,1.17383391063996,0.795426172780914,0.4109058620433448,0.013763927623224259,0.02153926795694866,-9.446344137260155,-5.8586878936767945,-1.263347459743386,0.006061955598310097,-0.00043405462955504743
0.14,0.030974778959052825,1.4202953117289854,-1.5446518676896217,0.015082085015880032,0.0035583217335969967,5.455142503392243e-05,0.37773190468298296,-1.9435892814489422,0.29229145923358313,0.17506080272279156,0.04578879163174439,0.0007309917400475266,1.623684707029281,-12.402643933690975,1.036191507136845,0.7414925669490913,0.43166236459128804,0.016230140368363066,-0.018420235905210552,-9.13638009858538,-5.724815418573017,-1.2354556849123455,0.0015311643859091777,-0.00046467709891471906
0.15,0.03491379585847293,1.399623814663025,-1.5416312335888833,0.01690502803651764,0.0040493660616138065,6.249730587103173e-05,0.39390168994201064,-2.0671497065960294,0.3020634100738321,0.18229430206376074,0.04910443280168094,0.0007945880837109299,1.4133186083864369,-12.12862161631148,0.9053980630181293,0.6905421413800816,0.45313383064926427,0.019217792814536144,-0.054594643615992755,-8.804536802486309,-5.580979162798344,-1.2055356446869463,-0.0030855376959786907,-0.000496180218672848
0.16,0.038993833921201274,1.3777439657084456,-1.538525707893172,0.018795365292486634,0.004574093670444506,7.112148209373461e-05,0.40800380627283434,-2.187984895457957,0.31055256957112354,0.18903372559689935,0.05247276088306993,0.0008624176222702879,1.1889423807982191,-11.839721054616827,0.7822950854559672,0.6425520300798446,0.47413723296048893,0.0227978068560895,-0.08609535139993446,-8.450943012106322,-5.427243535563677,-1.1736154780903432,-0.007735030496625547,-0.0005282785931253657
0.17,0.043192882092351295,1.3546845028184114,-1.5353473462025558,0.02074842552803892,0.005132881862680258,8.04707655619055e-05,0.41990481711500227,-2.3059462890034252,0.3178361690616295,0.19530602355522841,0.05587881922357522,0.0009349283468170887,0.9506065135214291,-11.535794138005858,0.6676662878762052,0.5975462001811174,0.49285958842792876,0.027022883784187823,-0.11213448817850871,-8.075845891470275,-5.263719025987752,-1.1397329104046232,-0.012358795125056506,-0.0005606373456459541
0.18,0.047487604458506166,1.3304756647478857,-1.5321073556284999,0.02275981351431922,0.005725840674046177,9.059528737849894e-05,0.4294722366154873,-2.4208838070525656,0.3239990574055786,0.20113879862803008,0.0592958811365919,0.001012452181659343,0.6987792559694886,-11.216503768146442,0.5622353288587405,0.5555813885308218,0.5066178686920195,0.03190053413709526,-0.13206142714479518,-7.679445954596193,-5.090505399787743,-1.1039238040519856,-0.016893247029022493,-0.0005928613024832796
0.19,0.051853385820409395,1.3051492250340297,-1.528816024087596,0.02482541858684007,0.006352650139753045,0.000101546266915635,0.4365781361903226,-2.5326439713855953,0.3291331540903855,0.20656050725208522,0.06268094657068679,0.0010950979537136059,0.43463506902249555,-10.878649725227563,0.46668214794853213,0.5167480103365101,0.5116126806628021,0.037350245596723064,-0.14539605010054696,-7.260588724907502,-4.907242044223812,-1.066133054858006,-0.02126989114694107,-0.0006244324543399351
0.2,0.05626443779094957,1.2787388112020843,-1.5254826518816542,0.026941423579504853,0.007012342113101849,0.00011337217299286908,0.4411051970540175,-2.641041383194536,0.33333722059418147,0.21160049926647803,0.06596919733488041,0.0011825906077234073,0.17627533698895295,-10.017124866584867,0.3849564507947356,0.4839483002474765,0.5028777590543785,0.04314276003795514,-0.15104464258850922,-6.572000801398536,-4.628495100165415,-1.009466476732957,-0.025325306097227822,-0.0006433873497777162
0.21,0.06069554219552496,1.2513302322597517,-1.5221148493873289,0.029104219919253577,0.007703115221945873,0.00012611571922209935,0.44311044045753906,-2.7408578942332515,0.3367802494325319,0.2162796339748724,0.06907731088440248,0.001274354622923027,-0.07672525682866183,-8.83179349354581,0.318011299183258,0.45221013328758985,0.4747623487470406,0.0487938716003915,-0.14911129443707097,-5.714447870447855,-4.29387030332521,-0.9421744294345133,-0.0289712077738825,-0.0006535859670742417
0.22,0.06512196768182545,1.2230415689562177,-1.5187185963493885,0.03131015523098486,0.008422018673169586,0.0001398041658737606,0.4426425486300487,-2.828866330353396,0.3396253037940348,0.2205935311731286,0.07189034512237125,0.001368844665166125,-0.3277572356702737,-7.621580722171924,0.26532350888219547,0.4185567323616688,0.4207483319265245,0.05351417907421385,-0.14039318347790847,-4.836410281614737,-3.9580514049774633,-0.8753285859463398,-0.03215729908196288,-0.0006611685114235528
0.23,0.06951908664855651,1.1939933917073984,-1.5152984895889297,0.033555494906540216,0.009164559252131069,0.00015443484341270397,0.43971189667310595,-2.904817724881946,0.3420106760458877,0.22453396755553554,0.07425405789614829,0.0014630677538943373,-0.5718885086967895,-6.403262911312384,0.2261736822870315,0.3839433990206764,0.3352865748840347,0.05630727053430917,-0.12582820439496006,-3.947771849574535,-3.6253089715375624,-0.8098385829844881,-0.03483522263070433,-0.0006660852521636173
0.24,0.07386280480940204,1.1643070880527389,-1.5118578165530718,0.035836502169947444,0.00992438897010686,0.00016996040464297655,0.43437181608455233,-2.9686303654659625,0.34406730358577886,0.22810072634072287,0.07598297179757911,0.0015525561230272573,-0.8036280026581977,-5.197850470499458,0.19984805807979455,0.34917991690177885,0.21652324875958118,0.056165382986614776,-0.10661781160689639,-3.0604064890556115,-3.3003516175840106,-0.7466760279098036,-0.036968998345027905,-0.0006683844743412255
0.25,0.07813007168133856,1.1341027683146945,-1.5083986316831466,0.0381495099794385,0.010693180587279508,0.00018627544601510982,0.42672668719365264,-3.020431973804448,0.34591848699253513,0.23130078094910597,0.07687916171726472,0.0016315041372133255,-1.0179439326979698,-4.041707574749446,0.18560788613546286,0.31498574750636266,0.06834140305223979,0.05238035640216898,-0.08415926491227822,-2.1934899394772014,-2.9900804533848415,-0.6872101508203643,-0.038536457510661155,-0.0006684443795656626
0.26,0.08229939508664945,1.103495641436703,-1.504921844767305,0.040490996617876994,0.011460814050202765,0.00020320880362703175,0.4169323405310888,-3.060712687799157,0.3476786915841719,0.23414866384384964,0.07676334629232566,0.0016933357611921933,-1.2111299623403828,-2.959273093920359,0.18261263501759561,0.28214242110900756,-0.09892358715985372,0.04488429676641692,-0.059955326984720135,-1.360223656846249,-2.698873715808277,-0.6322737655832706,-0.03953363585084178,-0.0006664865409399794
0.27,0.08635127891846206,1.0725935788210839,-1.5014273116266734,0.04285765816855817,0.012215950492131747,0.0002205264194064605,0.40518838318126105,-3.090206261561908,0.3494533140631592,0.2366661550681175,0.0755136441928981,0.0017317615779428753,-1.381707328707704,-1.9455279077222447,0.18997159772176797,0.2513720418252916,-0.26997919985748187,0.03440635417947013,-0.03552018731797872,-0.5594636023138799,-2.4258513061778024,-0.5816467488618174,-0.039976403031055895,-0.0006623181830109641
0.28,0.0902684707267875,1.0414976131843778,-1.4979139126451588,0.04524645661283298,0.01294695590461742,0.00023794725425909562,0.39171918083254365,-3.109596563670613,0.35133989815145433,0.23887984442748145,0.07310054124856744,0.0017420834852635114,-1.5308451548163688,-1.125347800885617,0.20691778452435416,0.22311740462231322,-0.42797996117985493,0.022310325475076942,-0.012262176471855285,0.14783607036223534,-2.191248111722339,-0.5391808794337196,-0.039871621804065616,-0.0006581423090935537
0.29,0.0940359345947839,1.0102894952749435,-1.4943796972717585,0.04765473611630226,0.01364300510181251,0.0002551699032169088,0.3767463867996408,-3.1208117909434447,0.35342153734003917,0.2408279503469279,0.06960491971950884,0.0017222648957813183,-1.6613384817911874,-0.5396725306263246,0.23201756073048652,0.19856507268287354,-0.5584767452927224,0.010186004558702555,0.008564425125080155,0.741632554296168,-1.9999676795430135,-0.5056382512163573,-0.039256055956568746,-0.0006547172978230091
0.3,0.09764061388993558,0.9790276127917092,-1.490822038906945,0.050080336872469586,0.014295112401549957,0.00027190410231316283,0.3604679295151686,-3.1261882483234293,0.3557658364813363,0.242560075616732,0.06521072997374477,0.0016734199096254065,-1.777260541363365,-0.24595737547398663,0.2637400125557683,0.17883604735878683,-0.652189975688132,-0.0006110004197303898,0.025937590165013957,1.1945152668922359,-1.858909528800997,-0.4821140365186671,-0.03816887683392305,-0.0006531385756094939
0.31,0.10107101359492927,0.947741263758795,-1.4872378091747305,0.05252171504291181,0.014896861175034862,0.000287898669332761,0.3430399704993694,-3.128634903291425,0.35842297322146155,0.24413781704422255,0.06017487734849053,0.0015994567019598164,-1.882818095809341,-0.08768778925755401,0.30034003111135493,0.16515212314208727,-0.7058770441788749,-0.009236453164706893,0.03902875616634342,1.581219047706147,-1.739672921425418,-0.46289051318308067,-0.036689305767924264,-0.0006508282642807274
0.32,0.10431673443508899,0.9164462490897712,-1.4836234473653975,0.05497792137634105,0.015444715586727005,0.00030296038737554284,0.3245720840159706,-3.129501466902371,0.36143618093328794,0.24562063334292386,0.05478544116921435,0.0015061718042781833,-1.9818282550830866,0.0013392368127026761,0.3411040112079851,0.15730991933028193,-0.7214437511564982,-0.015387438833981415,0.04719153409553967,1.9331184410948519,-1.6302242450647473,-0.4455402743634386,-0.03486087849891948,-0.0006467928873709886
0.33,0.10736803833735482,0.8851514684465247,-1.479974991977319,0.057448536061893866,0.015937940228516086,0.0003169614859011902,0.3051303902265843,-3.129478064324657,0.36484553880785003,0.24706146855528205,0.04932246417890811,0.0014001098525647346,-2.0774555867873628,0.0116398948046174,0.38570135234811326,0.15466199711524342,-0.7043255519755878,-0.019173422350527325,0.04990782125370516,2.245635622981352,-1.5314077256722634,-0.4301553116259932,-0.032703099520546786,-0.000641314148762806
0.34,0.11021549059471519,0.8538579754908769,-1.4762881221557114,0.05993362337551427,0.01637822983589442,0.0003298374276501987,0.28474522573603633,-3.1293492955647717,0.3686869821607772,0.24850873136204066,0.04402896073783351,0.0012875941749008514,-2.172057480413646,0.019402820283699846,0.4337026955726699,0.15676094900518667,-0.6618066303426469,-0.02094698813910334,0.04673501120747951,2.5546138624188264,-1.4303219008489612,-0.4142166326697985,-0.030250970676362315,-0.0006332000916285331
0.35000000000000003,0.11284970103118108,0.8225665691505286,-1.472558157755756,0.06243364123489427,0.016769174159115385,0.0003415784507237354,0.2634210436465893,-3.1291406340348367,0.37299643999552695,0.25000178593799943,0.039094432322096334,0.0011741023073536714,-2.267141229017104,0.02655502218920277,0.48507898391354703,0.1627047640234187,-0.6015838465253078,-0.0211532811566828,0.03730724189643664,2.860686603258864,-1.3267663922638442,-0.3976873182784811,-0.027516953712000622,-0.0006225034472431111
0.36,0.11526116709687628,0.791277986263329,-1.468780066704633,0.06494936919475673,0.017115677309942175,0.00035221786336653424,0.24114660656952067,-3.12885828871996,0.3778091051123226,0.25157279598624627,0.034650315082678906,0.0010639412642798835,-2.3634972357068564,0.030221298945487717,0.5397409842827259,0.17177279095798892,-0.5307888047297047,-0.02023566354619044,0.02133441990895578,3.162235151758653,-1.2213240131190435,-0.38068027619249406,-0.024513008787234683,-0.0006093348318335172
0.37,0.11744020037496106,0.7599926156035639,-1.4649484798475394,0.06748185358360338,0.01742341377148952,0.0003618197568981039,0.21790332780847704,-3.1285370659765093,0.3831586857093427,0.253248438884665,0.030773646154734366,0.0009601893531569702,-2.46131939470934,0.03891218059194153,0.5975242285553884,0.1834149988974234,-0.4554336391577263,-0.018581985875238294,-0.0013947288472638264,3.4629648801000674,-1.1127612148751176,-0.36296551156610124,-0.02125523943858746,-0.0005936029875941269
0.38,0.11937691883883722,0.7287113461917992,-1.461057705443714,0.07003235743622531,0.017698368847115026,0.0003704678167694433,0.19367184638761636,-3.1281269411764674,0.3890774403825468,0.25505038526219215,0.027495507562550595,0.0008648059871339353,-2.5603557161748802,0.043721869170589435,0.6582750887875988,0.19712879303997344,-0.38019036508205084,-0.01650322823113659,-0.031001082240043776,3.758445637454096,-1.0026686500318578,-0.3448500869851542,-0.017757512417923768,-0.0005755038603805898
0.39,0.12106128555628363,0.6974346802618288,-1.4571017523584835,0.07260232652296891,0.01794648338050669,0.0003782560088142604,0.16843667174464189,-3.127666592997045,0.3955953085230484,0.2569969086743608,0.024811453339166453,0.0007788192044817099,-2.6600444981523617,0.046474469009845205,0.7217573373210693,0.21257272869314603,-0.30840357809528673,-0.014233500301127133,-0.06750943914324745,4.049271171388983,-0.8908589871627481,-0.3263004855808311,-0.014039074972169134,-0.0005550581631836787
0.4,0.12248317751941146,0.6661629151510441,-1.4530743540567723,0.0751933598787026,0.018173401760239134,0.000385281440670472,0.142189196312782,-3.1271765110784644,0.40273983017110626,0.25910333557336895,0.022691837973244425,0.0007025431856211625,-2.7596227937307654,0.048133770591116704,0.7877275678614509,0.22945024550116022,-0.2422427520799566,-0.011938237962069165,-0.11084291637809979,4.335634386180071,-0.7772992799965897,-0.30731420472290916,-0.010121427746765468,-0.0005323147392583659
0.41000000000000003,0.12363247245116515,0.6348962394224471,-1.4489689935037289,0.07780718439649753,0.018384311114526614,0.00039163926511308496,0.11492949317536975,-3.1266675728596964,0.4105360553043511,0.2613824517794937,0.021090935428747997,0.0006357824442612963,-2.8582170117369805,0.04921790976692932,0.8559356675045342,0.24750544348463865,-0.1829172623836901,-0.009727265392817763,-0.16081786474274007,4.617523017318262,-0.6620351640987431,-0.28790458958237697,-0.006028513013637431,-0.0005073489016613384
0.42,0.12449914414500321,0.6036347845372915,-1.4447789287134412,0.08044563287065963,0.018583854356031812,0.00039741932559264083,0.08666716938380563,-3.1261454885155673,0.4190064790287616,0.26384484741621056,0.01995432415051971,0.000578006047955585,-2.9549104536190316,0.0500408212193074,0.9261270959806824,0.2665170742332821,-0.13090454427185838,-0.007667890619178497,-0.2171407978282581,4.894832566151007,-0.5451474265178239,-0.2680922034255196,-0.0017866992123133259,-0.00048026198433066483
0.43,0.12507335972780514,0.5723786561434363,-1.4404972186241978,0.08311062486382328,0.01877609887573655,0.000402704183378776,0.05742155828019481,-3.125612839385512,0.4281710089243344,0.266499199316365,0.01922445197047396,0.0005284857786135206,-3.048789729677425,0.05104782379433226,0.9980447190531274,0.2862921888347052,-0.08616040307020656,-0.005796466980722226,-0.27940751792466406,5.167519767219796,-0.42669809091751665,-0.2478946434747768,0.002575318999678753,-0.0004511779353622846
0.44,0.12534557458966128,0.5411279784240964,-1.4361167489721065,0.08580414967063742,0.01896454432217709,0.00040756817554886914,0.027221486185612546,-3.1250677719339826,0.43804696520913333,0.26935248068141293,0.01884454464405412,0.00048639921700931106,-3.138972798891442,0.05527016194590531,1.071429491680669,0.3066584861564965,-0.048296388792311795,-0.00412781917049343,-0.3471049632213978,5.436715280658269,-0.30636266951947316,-0.22725975281925792,0.007026162054715196,-0.0004202064119736451
0.45,0.12530662262469217,0.5098831960775583,-1.4316302567539987,0.0885282489892746,0.01915215564522901,0.0004120772032232525,-0.0038951964969114877,-3.1244782346538167,0.44864922181079114,0.2724099318637181,0.01876113230519188,0.0004509027674383391,-3.2246206886440723,0.071118246671331,1.1460291256840964,0.3274392767741743,-0.016720066774521314,-0.002662479451926547,-0.4196142079022245,5.705961000423725,-0.18305088201976502,-0.206000514128929,0.011531254588179793,-0.00038740478116760363
0.46,0.12494780103037843,0.47864591226096787,-1.427030351030206,0.0912849953102841,0.01934141060559777,0.0004162890076356562,-0.03588215943137303,-3.1237283816590424,0.4599905723792543,0.2756746321009506,0.018925496036876134,0.0004211804412403651,-3.3049656553857942,0.09351699479827186,1.2216394533182051,0.3484163163709977,0.00925972309428058,-0.0013920684201262912,-0.49620804616435465,5.972644218480145,-0.05779693631728705,-0.18432392328743516,0.016057513229571906,-0.00035307589211947405
0.47000000000000003,0.12426094724512533,0.4474183829406202,-1.4223095369710297,0.09407647716274743,0.01953435418340865,0.0004202536980785279,-0.06868537852531018,-3.1227529320347664,0.47208140591762693,0.27914818524633284,0.019294357781087956,0.00039646904428717363,-3.326091802647735,3.214890856773206,1.2405043163638405,0.3583949637464343,0.030926686392206193,-0.00030419482965760025,-0.5692777479975952,7.617004601996178,0.5185032135273617,-0.08223797469251384,0.019540007959056475,-0.0002683145306747517
0.48,0.12324378923477766,0.41651161028966277,-1.4174641557530767,0.0969012846460608,0.019732584099467525,0.00042402529106573783,-0.10171580103476675,-3.090677265095745,0.4845381217953025,0.28248074833133735,0.01982299160588746,0.00037715929872099305,-3.321669898081994,6.85509410402078,1.2517733221207141,0.3389236991643507,0.04742964871405331,0.0006940317274719554,-0.6387466570266211,9.468649130558623,1.130402054681235,0.022711573609170255,0.02249909179065248,-0.00018056613494494287
0.49,0.12189661248117163,0.3862883073228836,-1.4124911852153177,0.09975525086748396,0.01993727046208022,0.0004276509538852999,-0.1347176753606029,-3.0223302966779153,0.4972970537758985,0.28539662214231587,0.02046863626126967,0.0003625662819562066,-3.3105961637450876,9.632847219022533,1.275907836683995,0.2953210836597897,0.059179844245440094,0.0014905490789822173,-0.7037672425424661,10.908226574267825,1.5714704852420673,0.09350707392414132,0.025195593255643953,-0.00011355845548274312
0.5,0.12022038577515491,0.35702528013503204,-1.4073869944156483,0.10263301538785043,0.020149234268572014,0.0004311652126016724,-0.16762267060167174,-2.926302718785157,0.5104190799669304,0.2877764520366466,0.021196380649179225,0.00035142587163724496,-3.2929133072362617,11.691120061444186,1.3060841782135135,0.2395721217062068,0.06724161791247507,0.002042496241951186,-0.7623447807230765,12.001486825292648,1.8736867348354214,0.1370020709247548,0.027524232056352932,-6.443082993124503e-05
0.51,0.11821675519384062,0.3289276604387027,-1.4021478492409694,0.10552882119726255,0.02036902558342834,0.0004345918637836086,-0.2003630581314288,-2.809761969632937,0.5239145174678895,0.2895805809412126,0.02197913148563259,0.0003426651181936233,-3.2687605363124246,13.152775716925715,1.3373346591193247,0.17970092418781647,0.07247991705424184,0.0023874598159129914,-0.8130374395211009,12.805287044545498,2.064603875211226,0.15908198374491805,0.029421882397318178,-3.0532377136620746e-05
0.52,0.11588802821050338,0.3021411386290569,-1.3967702742871078,0.10843702704909457,0.02059698706473414,0.00043794652085444403,-0.23287269833372345,-2.6786521809645825,0.5377574953861539,0.29082058518320136,0.022796148130580087,0.00033546570708354207,-3.23835750473327,14.123077060981045,1.3661141072605574,0.12088484080004491,0.07558923315242172,0.002569360067243509,-0.854934346688185,13.368645893636572,2.167538764944,0.16469052202152729,0.030858468724606625,-9.461729999865633e-06
0.53,0.11323714976615785,0.27676244608253825,-1.3912513046285033,0.11135241780191125,0.020833304831949468,0.00044123877797829923,-0.26508784443455247,-2.537869254651867,0.5518969658604462,0.2915390752816693,0.02363177672153279,0.00032922571238552177,-3.201986602648326,14.691941406613344,1.3899650498585956,0.0662780273589334,0.07711661142101178,0.0026267073643628513,-0.8876002032071932,13.73370024095365,2.2019319184373187,0.15790347124061266,0.03182902896063469,9.216084365498678e-07
0.54,0.11026767220185234,0.252848310557214,-1.385588653496594,0.11427037352835047,0.02107804838333633,0.00044447391199673266,-0.2969477564305511,-2.3914135525324234,0.5662651131909433,0.2917955726439216,0.02447435513868634,0.00032351340184334456,-3.159976140932748,14.93593185334425,1.4072590152684086,0.0176171119221209,0.07748351540049558,0.002591176911571902,-0.9110002141539015,13.93655625208282,2.1837838540086687,0.14202527478491372,0.03234697874903925,2.502399079141367e-06
0.55,0.10698372079402128,0.23042308252547705,-1.3797808160231775,0.117186941797445,0.02133120122633258,0.0004476541827287397,-0.32839514078310594,-2.242522803173698,0.5807837473416461,0.29165682690945277,0.02531528429962475,0.0003180270732007074,-3.112685613103785,14.92001163988037,1.416996414382023,-0.02433578659803004,0.07700714937529618,0.0024881074900924005,-0.925417347377836,14.008044614630336,2.1261113665310893,0.11969323609348964,0.03243854705006748,-3.0758586279749743e-06
0.56,0.10338995638508762,0.20948520680488422,-1.3738271246815488,0.1200988453669337,0.021592683843037464,0.00045077980631220375,-0.3593764408933662,-2.093787572059283,0.5953691341628808,0.2911903569488698,0.02614826167048848,0.00031256235834640545,-3.0604934185548953,14.699087673419646,1.4186515587170767,-0.05947104968291583,0.07592057485475845,0.002337407421669657,-0.9313710104320919,13.97439004181825,2.0393894020300327,0.0929799721916234,0.032138304320360425,-1.4391596741002998e-05
0.5700000000000001,0.09949153633101157,0.19001269295873452,-1.3677277685614797,0.12300344849688619,0.021862370509411536,0.000453849669883671,-0.3898420054076053,-1.9472513846149697,0.60993561200691,0.29046031299524916,0.026968666637407365,0.0003069863571467208,-3.0037869992633275,14.319366919383944,1.4120525298474114,-0.08809930855108661,0.07439084541878227,0.0021545063145095855,-0.9295431429586337,13.857804318317386,1.9319590966980755,0.06348868938324936,0.031485669427117016,-3.0223800037957593e-05
0.58,0.09529407473372417,0.17196771937565558,-1.3614837859043503,0.12589869842653126,0.02214010132433844,0.0004568618458839687,-0.4197461597287401,-1.8044973583078925,0.6243982657129421,0.28952499296450657,0.027773081492690532,0.0003012176000297713,-2.942955138247614,13.81954679750195,1.3972880282043612,-0.11078556567175113,0.07253466028669386,0.0019512322673367333,-0.9207150081079225,13.67701115146646,1.8103924300194476,0.0324384947640593,0.030522261922071067,-4.953031637939842e-05
0.59,0.09080360270520588,0.15530048946103683,-1.3550970372188524,0.12878305364630638,0.02242569060841386,0.0004598139540513105,-0.4490472028518296,-1.6667229914618746,0.638674868549791,0.28843552197751265,0.02855892840754194,0.0002952108167341801,-2.8783820949879613,13.231858428751876,1.374635167209032,-0.12823223067438505,0.07043136720117182,0.0017365705783218832,-0.9057158700697605,13.447710161153692,1.6798103327479235,0.0007386841902419228,0.029289960707247407,-7.142690898943024e-05
0.6,0.08602652922555515,0.13995244375855825,-1.3485701646562138,0.13165540699822714,0.02271893262776956,0.000462703409735598,-0.4777073479650733,-1.5348045702478588,0.6526872562638729,0.2872353351920774,0.029324201935569883,0.00028894556842875343,-2.81044324951799,12.58297953058303,1.3445035762183721,-0.14119806398809587,0.06813340543026758,0.001517294222869836,-0.8853832983515796,13.18298651952507,1.5441550513239815,-0.030947967578438096,0.02782953521956555,-9.516765973447086e-05
0.61,0.0809696030080686,0.12585891886729975,-1.3419065420406342,0.13451500901335117,0.023019605404217425,0.00046552758892963767,-0.505692621748655,-1.4093524891258518,0.6663622615579697,0.28596020151240303,0.03006727764478661,0.0002824179194039677,-2.739501956510782,11.894831939994802,1.3073922383324899,-0.15044335420041222,0.06567444305619574,0.001298473236006098,-0.8605339633868091,12.893672037018826,1.4064198668489238,-0.062152247121289306,0.02617972744500277,-0.00012012704217475477
0.62,0.07563987566591987,0.11295133255081273,-1.3351102189446975,0.13736139499385824,0.023327473200633202,0.00046828393347998775,-0.5329727342148732,-1.2907586316487019,0.6796323095936695,0.28463859805070746,0.030786779641577798,0.0002756344550350099,-2.665907352905552,11.185277126290048,1.2638562978759467,-0.15669414510446344,0.06307554179371255,0.0010838776544971063,-0.8319433561769934,12.588662872342805,1.2688404467292094,-0.09255486410891778,0.02437667911778768,-0.0001457837921766965
0.63,0.07004466638253631,0.10115896429011965,-1.3281858614091728,0.1401943179813848,0.0236422881246604,0.0004709700142712382,-0.5595209283383552,-1.179236826069308,0.6924357535524766,0.2832922987526535,0.03148149240271972,0.0002686080791250447,-2.589992906630184,10.468721611522044,1.214481689315587,-0.1606201861194414,0.06034970111374438,0.0008762910021256481,-0.8003327455926369,12.275198506400507,1.133052558589204,-0.12195098237657687,0.022453615833858794,-0.0001717065789589595
0.64,0.06419152821644164,0.09041039157067812,-1.321138691284579,0.14301368878286203,0.02396379117507085,0.00047358356564897473,-0.5853138166094678,-1.0748572719441531,0.7047170124593859,0.28193708014772334,0.03215030504104466,0.00026135513777365425,-2.5120755345531243,9.756642926954527,1.1598659114277527,-0.16282266442226145,0.05750511424746563,0.0006777508864384899,-0.7663617660448615,11.959106150773799,1.0002208707418834,-0.1502217508116092,0.02044071673472028,-0.00019754139976978132
0.65,0.05808821611691374,0.08063463428664024,-1.3139744256818475,0.14581952354608946,0.02429171296147261,0.00047612250079946927,-0.6103312099527902,-0.977575728403788,0.7164265602731608,0.2805834763227429,0.03279217864017599,0.0002538935150494551,-2.4324551529729166,9.058045573518342,1.1006036332415317,-0.16382880869596406,0.05454742947786695,0.0004897315193188659,-0.7306252161784258,11.645014345471658,0.8711432875082851,-0.1773117232414766,0.018365113802168473,-0.00022300057354123588
0.66,0.0517426566857146,0.07176205267956752,-1.3066992176333312,0.14861189891217053,0.024625774256236407,0.000478584915072557,-0.6345559431199141,-0.8872581607072719,0.7275208048516364,0.279237536608108,0.03340612947637976,0.00024624142730877204,-2.35141455316213,8.37985541891937,1.0372760981049591,-0.16409122265148213,0.05148126322516333,0.00031328078999777464,-0.6936528825076895,11.336539132971875,0.7463348486290504,-0.20321115678115956,0.01625097808107514,-0.00024785318346969064
0.67,0.0451629196894567,0.0637250381006648,-1.2993195987615436,0.15139091446315686,0.024965686483830664,0.00048096908216367716,-0.6579736996257901,-0.8037014578902733,0.7379618871787599,0.2779015550986344,0.033991222759425586,0.00023841670911201317,-2.269219518016512,7.727260054754718,0.9704435090933679,-0.16399037869343047,0.048311164411828145,0.00014912228013305023,-0.6559114393120548,11.036445873823263,0.6260947445351249,-0.22794229693851975,0.014119661135771072,-0.0002719168087600154
0.68,0.03835719130455277,0.05645853050549412,-1.2918424245144065,0.15415666198797023,0.025311152213624875,0.00048327344652516173,-0.680572838490393,-0.7266507595170673,0.7477174247137222,0.2765747524813364,0.03454657297942118,0.00023043643614845818,-2.1861191154166724,7.104001744030802,0.900639749083231,-0.1638391282518903,0.04504218663567361,-2.269416087719023e-06,-0.6178076939457764,10.746789447291754,0.5105595036604285,-0.2515488824853426,0.011989868860564386,-0.00029505038803863593
0.6900000000000001,0.03133374906023796,0.0499003918694438,-1.2842748223390914,0.15690920097615774,0.02566186569442795,0.0004854966142400858,-0.702344224431481,-0.6558138636050321,0.7567602175314972,0.2752538988187516,0.03507134808030785,0.00022231677149240475,-2.102346117840878,6.512628947712244,0.8283689202967448,-0.16388840226483303,0.041680187775733124,-0.00014061345327892605,-0.5796926331510642,10.46903535341907,0.3997449566482162,-0.27408821980138587,0.00987785154648897,-0.00031714806425734907
0.7000000000000001,0.024100938433505817,0.043991660587310064,-1.2766241430213323,0.15964853969363144,0.02601751344984227,0.000487637343770194,-0.7232810626732143,-0.5908731282133737,0.7650679317759004,0.27393387174737066,0.0355647755414317,0.00021407295301082427,-2.0181175100982296,5.954711701719985,0.7541032939203731,-0.16433351176024047,0.03823194617883097,-0.00026578242293275045,-0.5418658779934543,10.204163966864009,0.2935791520142186,-0.29562528653416364,0.007797599248522823,-0.00033813387464636674
0.71,0.016667151041770602,0.038676708319966786,-1.2688979153049467,0.16237462117978585,0.026377774940708393,0.000489694537406321,-0.7433787391735214,-0.5314952267343279,0.7726227716385713,0.2726081486154415,0.0360261490866124,0.00020571936361269547,-1.9336350646593188,5.431024017819156,0.6782823544226417,-0.16532063300216038,0.03470515814645303,-0.0003777729946941033,-0.5045802755380477,9.952759381006011,0.19192784561348564,-0.316228448307736,0.0057610358257961305,-0.00035795718150059564
0.72,0.009040804372939762,0.033903317466403626,-1.2611038038202946,0.16508731351967526,0.02674232329276588,0.0004916672338397191,-0.7626346668830841,-0.4773390853563158,0.7794111484651991,0.27126923398894176,0.03645483520574877,0.00019726964333980393,-1.8490859209338903,4.941704937001714,0.6013126185725923,-0.16695318441069418,0.031108364149666556,-0.00047668452302179753,-0.46804643935761703,9.715087609544849,0.09461493064732318,-0.3359662922549679,0.0037782045383130992,-0.00037658865017025235
0.73,0.0012303229926621606,0.029622695312870876,-1.2532495702874729,0.1677864037718813,0.027110826082624058,0.0004935546020247943,-0.7810481380277601,-0.42806221535327493,0.7854233532821808,0.2699090252206036,0.036850278985817796,0.0001887368185075226,-1.76464323371491,4.4863869085638495,0.523568156054302,-0.16929794989388736,0.027450831784053165,-0.0005627031146959449,-0.43243712274302254,9.49115986330058,0.0014372093181629353,-0.3549055659687458,0.0018574471170719753,-0.0003940168658836689
0.74,-0.00675587883796677,0.025789437655687735,-1.2453430379087633,0.17047159498003173,0.027482946172554038,0.0004953559362903707,-0.798620183062893,-0.38332576571831395,0.7906532378709571,0.26851912081504276,0.0372120089929979,0.0001801334265576381,-1.6804667701981766,4.064317081633605,0.4453914620237276,-0.17239075810409776,0.023742422541452868,-0.0006360899570053702,-0.39789135456119656,9.2807911276739,-0.08782287300300917,-0.37310958760322477,5.567995777437662e-06,-0.00041024524553574934
0.75,-0.014909413195545836,0.02236145398792603,-1.2373920588332323,0.17314250573661977,0.027858342583224116,0.0004970706526035677,-0.8153534357579065,-0.34279836677617054,0.7950979075530943,0.2670910756588031,0.03753964106700761,0.0001714716313196956,-1.5967034055338685,3.674495784684888,0.36709455843988525,-0.17624176961406768,0.019993452157545555,-0.0006971719203008875,-0.36451826734859183,9.083663228211863,-0.17338348603777853,-0.3906366274282775,-0.001772027594122632,-0.00042528898803574085
0.76,-0.023221933229340755,0.019299868052227324,-1.2294044845449734,0.17579867178480488,0.02823667139211474,0.0004986982859641848,-0.8312520033794917,-0.30615859356987035,0.7987574288258917,0.26561660481851124,0.037832880889062385,0.00016276333606171748,-1.5134845984924838,3.3168278884615057,0.2889563743271699,-0.18084077872573,0.016214609539923153,-0.0007463333162251173,-0.33240017757340756,8.899768413484757,-0.2553377537566766,-0.40752202796027576,-0.0034716059430449173,-0.0004391616416706178
0.77,-0.031685146349496526,0.016569008468755208,-1.2213881388924395,0.17843954832165076,0.028617586617575068,0.0005002384929106958,-0.8463213120155769,-0.2730859583472118,0.8016345652533884,0.26408765368458836,0.03809152254603271,0.00015402069465109947,-1.4309324619896349,2.989756621409888,0.2112373198321258,-0.18616987851584188,0.0124163099684802,-0.0007839805006697731,-0.3015936744618213,8.728510515742322,-0.33392595967417465,-0.4238189888691716,-0.005090293485574285,-0.00045190093596239996
0.78,-0.040290826470655225,0.014136253722248904,-1.213350793584835,0.18106451394955467,0.029000741114595212,0.0005016910484879983,-0.8605680121158696,-0.2432754746506304,0.8037345307604389,0.262496562790389,0.038315449702014566,0.00014525555773024445,-1.348880361911099,2.7893864140265596,0.1337823012953976,-0.19220346279288592,0.008616166545240223,-0.0008106408326435666,-0.272105386856518,8.605661890011008,-0.39876525443087923,-0.43805386378326433,-0.006663856526879029,-0.0004625506633288709
0.79,-0.04903079762566121,0.011981606312081793,-1.2053001366217948,0.18367279580668863,0.029385784880215107,0.0005030562431153156,-0.8739971155005986,-0.21546474101671104,0.8050656963040242,0.26082818571339716,0.03850437656198958,0.00013651946273172898,-1.2676544062504786,2.6026638796587873,0.05759215608183155,-0.1996712689085811,0.004783376504754688,-0.0008239398165950096,-0.2437380860023168,8.488348334467947,-0.4625225203373802,-0.45207882162343926,-0.008169074299621675,-0.00047247232382940485
0.8,-0.05789696631704355,0.010086430815760095,-1.197243734571103,0.18626350629158445,0.029772366360139562,0.0005043343429616125,-0.8866168691382337,-0.1895175496321698,0.8056402050691887,0.2590710484895818,0.038658147992445525,0.0001278099846296881,-1.187395425304617,2.413453002918128,-0.01720309712915835,-0.20822423048863659,0.0009359408606210984,-0.0008295910915169513,-0.21653396058821797,8.370683709614385,-0.5268790308957233,-0.46613203004178344,-0.009597515249015295,-0.00048183267845290905
0.81,-0.06688133558022001,0.008431846147221447,-1.1891890256528346,0.18883568400145265,0.030160134344321993,0.0005055254915267539,-0.898436926317646,-0.16545846685386492,0.8054708918268315,0.2572177709868198,0.038776798418243094,0.00011911485651413984,-1.1082042196948476,2.2224344119239254,-0.09058611449881493,-0.21745997885110313,-0.002904650271664977,-0.0008287497690983581,-0.1905581265665559,8.253102343075641,-0.5916556927451952,-0.48018308711674107,-0.010944581427151163,-0.0004906060631917959
0.8200000000000001,-0.0759760150792201,0.006998793064914664,-1.1811433153096,0.19138832504384604,0.030548739599240107,0.0005066297604248178,-0.9094679499000082,-0.14330530823067827,0.8045710343234579,0.2552641042393402,0.03886052549181148,0.00011042688980638954,-1.0301715458827465,2.0237595266872166,-0.16252372913042823,-0.22707028333726753,-0.006720072738845229,-0.0008211425860012167,-0.16585854769466057,8.133658236457475,-0.6573505636366863,-0.4942951858038376,-0.012204019915729981,-0.0004988363703523841
0.8300000000000001,-0.08517323018501893,0.005767451316864005,-1.1731137738948045,0.19392041217205835,0.03093783646188829,0.0005076471809019273,-0.9197215105798829,-0.1231341748050658,0.8029541414795428,0.25320871282123103,0.03890968626481844,0.00010174204771094881,-0.9533598154609971,1.8331115571037624,-0.23303032747152574,-0.2367685611395851,-0.010491494290249204,-0.0008066989669420488,-0.14248873879924995,8.018198021589006,-0.7222315345342645,-0.5082244381320712,-0.013377280236159004,-0.000506356817640847
0.84,-0.09446532825503508,0.0047188017818422965,-1.1651074289258228,0.19643092494491052,0.03132708379653792,0.0005085778605734037,-0.9292098070016142,-0.10486495350217089,0.8006344968981789,0.2510512772852165,0.03892473346496273,9.306796714764225e-05,-0.8778426624431265,1.6377452930616339,-0.3020102726956013,-0.24645720091133572,-0.014208026080267722,-0.0007847091155230301,-0.12044756886955621,7.902235271329264,-0.7875141593015582,-0.5221323113040762,-0.014458770592958739,-0.0005133024612443929
0.85,-0.10384478597941368,0.0038333567605117113,-1.15713116117664,0.19891885798982004,0.03171614624572058,0.0005094219582488222,-0.937945772437861,-0.08854450213305852,0.7976267749182842,0.24879330449095183,0.038906244918266365,8.440976754184682e-05,-0.8036662950911637,1.454211127258552,-0.3694613173906087,-0.2559572343135539,-0.017854164466461597,-0.0007558270129277289,-0.0997606572422525,7.791786005350451,-0.8514362366006325,-0.5357769086405305,-0.015452214659558244,-0.0005195175225602096
0.86,-0.11330421403522387,0.0030928085531729665,-1.1491916956548227,0.20138322204733122,0.03210469489143884,0.0005101797787725509,-0.9459428055810185,-0.07405482073387447,0.7939465521817199,0.24643640575111853,0.03885486457182617,7.578205237286909e-05,-0.7308829266488011,1.2714742798536867,-0.4352826957876035,-0.26526197433167464,-0.021421948679207325,-0.0007197039028419283,-0.08039766495386691,7.682975361190513,-0.9150258009649505,-0.5492919824999135,-0.016354653107454147,-0.0005251326649038963
0.87,-0.122836362289195,0.0024789302209859087,-1.141295596878292,0.2038230536993408,0.03249240822325905,0.0005108517342089565,-0.9532148253971144,-0.06138783321870578,0.7896098776530591,0.24398316520095759,0.03877133318202096,6.719554364055787e-05,-0.6595276244761638,1.1044278242572527,-0.4994497119747412,-0.27427734638372847,-0.024899189048438908,-0.0006772838009102278,-0.06235396602436394,7.581076985853331,-0.9767509406024445,-0.5624727156631245,-0.017171532137510916,-0.0005300283144162487
0.88,-0.13243412332810567,0.001975059091077323,-1.1334492590546215,0.20623741110407884,0.03287897258453304,0.0005114384153248444,-0.9597761038910673,-0.05038711299085857,0.784633782367066,0.2414357404738029,0.03865643612739898,5.8668111588784784e-05,-0.5896354004662805,0.9444145292731964,-0.5618624254945792,-0.28304934786842406,-0.028280218294272297,-0.0006285570359497172,-0.04557507422401344,7.483038806997421,-1.0374016123381042,-0.5754199039990051,-0.017902680300119513,-0.000534323380123832
0.89,-0.14209053594069043,0.0015652344009142603,-1.1256589006119893,0.20862537764185016,0.03326408288218503,0.0005119405483938068,-0.965641261258477,-0.04098246901630628,0.7790358442632204,0.2387966537771324,0.03851102976519878,5.021330689623834e-05,-0.5212317067291035,0.7979425270426626,-0.6224780439108692,-0.2915442730534863,-0.03155610504345496,-0.0005746205066092247,-0.030026119928476536,7.391100738533707,-1.0963025203854189,-0.5880442536782309,-0.01855256419777686,-0.0005379902907663243
0.9,-0.15179878766777247,0.0012348455527424022,-1.1179305568893343,0.2109860595783464,0.03364744304106505,0.000512359017520396,-0.970825172708204,-0.033038884817185796,0.7728343722654948,0.23606819364962536,0.038336015888002666,4.184691265892291e-05,-0.45433679001469207,0.6687600642771854,-0.6812292011226961,-0.2997885327586487,-0.03472111080470386,-0.0005159737969596123,-0.015651187524293536,7.306476504372601,-1.1530715527879305,-0.6002964462098398,-0.01912638016754921,-0.0005410384980040939
0.91,-0.16155221682365528,0.0009710054775102042,-1.110270072075434,0.21331858125558747,0.034028766303448296,0.0005126948733686708,-0.9753429155882816,-0.026384007523219802,0.7660484813900439,0.23325216772410604,0.038132326238324334,3.358558482748116e-05,-0.38896709731425055,0.5514856174162135,-0.7380389123641194,-0.3078330282441919,-0.03777150621231162,-0.0004532689444575744,-0.0023786843821501924,7.227245694359183,-1.2081820244900154,-0.6122347768485711,-0.019626785168711504,-0.0005435619410444038
0.92,-0.17134431412090081,0.0007620145808009655,-1.1026830944651285,0.21562208560683307,0.03440777567386352,0.0005129492918976062,-0.9792097297245544,-0.020899089670923868,0.7586977610305485,0.23035043512455894,0.03790093704152274,2.5441852893534683e-05,-0.32513343095253,0.44921488666362686,-0.7928659931861364,-0.31567534356761895,-0.04070194274740324,-0.0003876134630665662,0.009850057612928759,7.154382487225334,-1.2613235968712184,-0.6238197240047836,-0.02005901488536841,-0.0005455741825784808
0.93,-0.18116872374371862,0.0005976690625824558,-1.0951750710848198,0.21789573200736514,0.03478420419860926,0.0005131235751817197,-0.9824409622817797,-0.016434551821850968,0.7508023380308729,0.22736464005320664,0.03764285247457392,1.742832841135355e-05,-0.2628420517839296,0.3625425155456052,-0.8456617408638016,-0.3233392726436868,-0.04350914239555104,-0.0003196868663558061,0.021103743102268924,7.0879872005358715,-1.3124283100822405,-0.6350426674472639,-0.020428204468592184,-0.0005471145651071603
0.9400000000000001,-0.19101924396111528,0.0004693201181245812,-1.087751242863621,0.2201386940542927,0.03515779517016919,0.0005132191419602631,-0.9850520217396661,-0.01283489444578746,0.7423828221198987,0.22429620469275552,0.03735909715599299,9.55667785433957e-06,-0.20209543727980847,0.2897098609732874,-0.8963815105434934,-0.3308496607927376,-0.046190911892140585,-0.0002502383758794524,0.03145431690804115,7.027371357068003,-1.3616422045950816,-0.6459209935290243,-0.02073883175333728,-0.0005482418143371411
0.9500000000000001,-0.2008898273566773,0.0003696987289885841,-1.0804166412417329,0.222350159100458,0.03552830232711544,0.0005132375047890089,-0.9870583395562005,-0.009962138913599714,0.7334601621888013,0.22114650461652854,0.037050715694624536,1.8362828745832195e-06,-0.14289226322294263,0.2292393809831743,-0.944995240912782,-0.3382134758724291,-0.04874520852504627,-0.00018010157998940568,0.040969980368117886,6.971953582686205,-1.4090844013774066,-0.6564685629845467,-0.02099524509180221,-0.0005490083443648984
0.96,-0.21077458067824612,0.0002927684390839518,-1.073176085961079,0.2245293289119416,0.035895490030897544,0.0005131802498217465,-0.9884753321568835,-0.007693028990463227,0.7240555280653755,0.2179169811483601,0.0367187703782108,-5.725496726237512e-06,-0.08522775021821963,0.17979485734515482,-0.9914842906008065,-0.34542637453733915,-0.051170353707911787,-0.00011003267658601934,0.04971542234394109,6.921211004148131,-1.4548605016707397,-0.6666974607230732,-0.02120162721037378,-0.000549461781461478
0.97,-0.2206677643419524,0.00023359219891103914,-1.0660341838315122,0.22667542105609015,0.036259133409024695,0.0005130490199734296,-0.9893183663706273,-0.005917624017291268,0.714190212956688,0.2146092144148556,0.03636433781271527,-1.3122984831691062e-05,-0.029093959270826544,0.13997857295614874,-1.0358394687785464,-0.3524765882130181,-0.05346512614659753,-4.0701958506472735e-05,0.057751852802596204,6.874612443438951,-1.499080164518832,-0.676620095857269,-0.02136190653983126,-0.000549646742713437
0.98,-0.23056379161998736,0.00018819307989034262,-1.058995328392138,0.22878767088310684,0.03661901846508013,0.0005128454999549873,-0.9896027278034957,-0.004539911902069652,0.7038855439374206,0.21122498270166837,0.03598850560554356,-2.0352001844235164e-05,0.025519926034986682,0.10833262803786198,-1.078060253619167,-0.3593462919384045,-0.05562873339327608,2.7291468554846432e-05,0.06513659251895872,6.831620039539851,-1.5418563679184951,-0.6862490929203564,-0.021479715396295222,-0.0005496047065612239
0.99,-0.24045722754053406,0.00015340899221534039,-1.0520637003987732,0.23086533399658596,0.03697494215797885,0.0005125714027762974,-0.9893435920546707,-0.0034784087675002245,0.6931627993364887,0.20776631134791243,0.035592369289871896,-2.7409717868989965e-05,0.0786273318137523,0.08345021475710059,-1.1181541336758278,-0.3660126484239532,-0.057660761414917466,9.341460294401416e-05,0.07192271379973725,6.791725660108275,-1.583295717191489,-0.6955961916077287,-0.021558401387002935,-0.0005493730964485587
