tonegas/nnodely-applications/joint_friction_estimation/dataset/train/mpc_mujoco_episode_23 copy.csv
time,q1,q2,q3,q4,q5,q6,dq1,dq2,dq3,dq4,dq5,dq6,ddq1,ddq2,ddq3,ddq4,ddq5,ddq6,tau1,tau2,tau3,tau4,tau5,tau6
0.0,0.0,1.57,-1.57,0.0,0.0,0.0,0.0,0.0,0.0,0.0,0.0,0.0,-2.9055083640242234,-18.790801889250712,1.2371829902660636,1.5887747030314756,-0.46037732375351403,-1.3604439841330418e-06,-0.40506059994913307,-13.809825266237429,-7.660107778096871,-1.6479192507439808,-0.037061105918935446,-0.0012690047812162048
0.01,-0.0002891561254414189,1.5681275446984915,-1.569881469649073,0.0001433047907182939,-3.805285645071752e-05,-2.9941098302815884e-07,-0.028915612544141888,-0.18724553015085707,0.011853035092696196,0.014330479071829388,-0.003805285645071752,-2.9941098302815883e-05,-2.835677039266701,-18.676872238932255,1.047407007508454,1.37937963887385,-0.38611491427628053,-0.0030255693334488853,-0.39341461914500353,-13.792863490645889,-7.665188079230784,-1.6501165957362243,-0.036184984612823025,-0.001261059209814714
0.02,-0.0008602881278751604,1.5643940018440639,-1.569664067938741,0.0004123614538641462,-0.00010944109197162603,-9.118602009348333e-07,-0.05711320024337414,-0.37335428544275306,0.02174017103320427,0.026905666314585235,-0.007138823552090851,-6.124492179066744e-05,-2.7551225484695627,-18.552597946253595,0.8416268287074828,1.1992685725218521,-0.34057316487354683,-0.0032633988373831357,-0.3748671772214534,-13.752843006508215,-7.656369350399567,-1.6492106600546328,-0.0348645508150629,-0.0012483307053937046
0.03,-0.0017052418583790468,1.5588117412448028,-1.5693688130747447,0.0007917898572241066,-0.00021117895409449882,-1.8231073525420862e-06,-0.08449537305038862,-0.5582260599261004,0.029525486399634815,0.03794284033599603,-0.010173786212287279,-9.11247151607253e-05,-2.6638364309426614,-18.416437889002392,0.6235193122578409,1.0414177223314596,-0.31335529946180607,-0.0033017802064723156,-0.3498341648060433,-13.689136664646309,-7.633344682040434,-1.6451392166614174,-0.033106809000366846,-0.0012308003022054907
0.04,-0.002814853390800549,1.5513942951819535,-1.5690177698642875,0.0012678580806655007,-0.00034138059649029077,-3.0254457766881074e-06,-0.11096115324215022,-0.7417446062849293,0.03510432104571127,0.04760682234413942,-0.013020164239579194,-0.00012023384241460212,-2.561419900576937,-18.266667571171933,0.39637154183128587,0.9006097181342767,-0.29817028536429824,-0.003496907371609126,-0.31886612772005507,-13.601014046130205,-7.595746757298173,-1.637825851502768,-0.030920271011709195,-0.001208406096581164
0.05,-0.004178889371916849,1.5421565356642255,-1.5686337633150569,0.0018280959647498968,-0.0004988735064438226,-4.5197393510857056e-06,-0.13640359811163,-0.923775951772806,0.038400654923060926,0.05602378840843962,-0.015749290995353177,-0.00014942935743975983,-2.44724420495114,-18.101415348211592,0.16320725680554915,0.7730181193875367,-0.2912005202915431,-0.003885933890507509,-0.2826507947944671,-13.487649352027784,-7.5431559190402595,-1.6271820338439216,-0.02831577379405743,-0.001181056661290154
0.06,-0.0057859737179008115,1.531114865267449,-1.5682401088278302,0.0024610151308393237,-0.0006829600144805348,-6.313829704616037e-06,-0.16070843459839626,-1.10416703967765,0.03936544872267597,0.06329191660894268,-0.01840865080367122,-0.0001794090353530331,-2.3205505129614457,-17.91869877269192,-0.0731203078939231,0.6558873260765523,-0.2901302399106225,-0.0044759237725386924,-0.24201474072837859,-13.348132034670101,-7.475109712296126,-1.6131094624842457,-0.025307488758494045,-0.0011486435975562796
0.07,-0.007623507254214779,1.5182874182047221,-1.5678603520245282,0.0031559111474318033,-0.0008932683309334467,-8.42124009787818e-06,-0.18375335363139678,-1.2827447062727055,0.03797568033018394,0.06948960165924796,-0.021030831645291192,-0.00021074103932621437,-2.1805153057392905,-17.71646206467485,-0.3098627707393504,0.5472861842528189,-0.29355767533908583,-0.005284891903004407,-0.19792246475733855,-13.181480233129717,-7.391113937597659,-1.5955027089837186,-0.02191407331968241,-0.0011110543952173616
0.08,-0.009677584931359076,1.503694268093213,-1.5675180134251991,0.0039027291030994584,-0.0011296574197855742,-1.0860466646216439e-05,-0.20540776771442973,-1.459315011150917,0.034233859932906875,0.07468179556676553,-0.02363890888521275,-0.00024392265483382582,-2.0262963582245477,-17.49261524507536,-0.5443331491076648,0.4459177264484211,-0.3006327966766662,-0.0063468107197555135,-0.15147111809338548,-12.986657026789155,-7.290655206221448,-1.5742521647096814,-0.018159919924569147,-0.00106818625699567
0.09,-0.011932914196240084,1.4873576386672822,-1.5672363349861875,0.004691978081648834,-0.0013921535457302949,-1.3654709387721754e-05,-0.22553292648810083,-1.633662942593094,0.02816784390115214,0.07892489785493752,-0.026249612594472078,-0.0002794242741505315,-1.8570684212739705,-17.245074868168608,-0.7738807236857674,0.3509714517598823,-0.31082531862926466,-0.007712630028056999,-0.10387907982681494,-12.762589359304553,-7.173214904383979,-1.5492472772610157,-0.014076454841448118,-0.0010199612179274497
0.1,-0.014372737605550965,1.4693021134895834,-1.56703802702089,0.005514683233647049,-0.001680904176169803,-1.6831899873224932e-05,-0.24398234093108803,-1.8055525177698724,0.019830796529768414,0.08227051519982155,-0.0288750630439508,-0.00031771904855031784,-1.672054803438867,-16.971803629219373,-0.9958810977244319,0.262007759388446,-0.3237626432433949,-0.009451657070614239,-0.056466622182770376,-12.508188237555359,-7.0382840075279764,-1.52037996381469,-0.009703431525213479,-0.000966342624597167
0.11,-0.016978762670575055,1.4495548407944217,-1.5669450152951212,0.006362366545836621,-0.0019961391945070264,-2.0424918569338892e-05,-0.2606025065024092,-1.9747272695161766,0.009301172576858833,0.08476833121895723,-0.03152350183372237,-0.0003593018696113959,-1.4705598200624403,-16.67086215377546,-1.207739187524453,0.1788664486282201,-0.3390961450584582,-0.01165325130302719,-0.010627015195537937,-12.22237703089989,-6.885381079632586,-1.4875486771557087,-0.00509014855601975,-0.0009073531116537729
0.12,-0.01973110214875695,1.4281457283614698,-1.5669781891999293,0.007227049210578881,-0.002338131261080644,-2.447190825486681e-05,-0.2752339478181896,-2.140911243295176,-0.003317390480806452,0.086468266474226,-0.03419920665736174,-0.0004046989685527919,-1.2520154141989501,-16.340219394752907,-1.4068987849705294,0.10159576462933018,-0.3563626048294495,-0.01442763076337128,0.03221262325318375,-11.903999204567256,-6.7140279269518715,-1.4506538623006406,-0.0002965685703390855,-0.0008430899024953746
0.13,-0.0226082293495826,1.40510764735284,-1.5671571522659273,0.00810126990040641,-0.0027071472783155035,-2.9016569776455704e-05,-0.28771272008256465,-2.303808100862966,-0.017896306599802146,0.08742206898275298,-0.03690160172348596,-0.00045446615215888943,-1.0161144762057268,-15.975204942140982,-1.5908287055151575,0.0304131466029105,-0.3748097279849505,-0.01790331689369884,0.0706365378615277,-11.550532247854989,-6.523307072292987,-1.4095087038013268,0.004605268483714163,-0.0007737057425859365
0.14,-0.025586961226254278,1.3804768989870162,-1.5674999723655558,0.008978114338241855,-0.0031033818267953155,-3.410826864801887e-05,-0.29787318766716764,-2.4630748365824,-0.034282009962840546,0.08768444378354444,-0.03962345484798118,-0.0005091698871563166,-0.7934404156186678,-14.501074387036827,-1.744900657820839,-0.026129566629109036,-0.3933818690957609,-0.022216486440740812,0.1010002440476447,-10.617122617751237,-6.12174747710055,-1.325312823642185,0.009308440485017408,-0.0006833565673722674
0.15,-0.02864547486646917,1.3544002985559584,-1.5680210480798502,0.009851274100012398,-0.0035270182862268316,-3.9804282215768354e-05,-0.3058513640214895,-2.607660043105767,-0.05210757142943578,0.08731597617705424,-0.042363645943151604,-0.0005696013567749485,-0.5656892039925642,-12.77897129954536,-1.873423339069916,-0.08287447403279202,-0.4107736178052104,-0.02744376154814887,0.12343525398835335,-9.539296640414715,-5.67184986059878,-1.231638524430264,0.01380186066610319,-0.0005882018446570678
0.16,-0.03176151521119429,1.3270493831883101,-1.5687321481860739,0.010714419867832524,-0.0039780648588598035,-4.6168439531076116e-05,-0.3116040344725118,-2.7350915367648403,-0.07111001062235775,0.08631457678201264,-0.045104657263297196,-0.000636415731530776,-0.32982082945766544,-10.96873275678481,-1.9773298319693247,-0.14091046389200557,-0.4232587158927772,-0.03355856794253054,0.13766443097427364,-8.398656359950763,-5.205888150275513,-1.1352562208811454,0.018009739728899674,-0.000491982596034993
0.17,-0.03491209323097784,1.2986044867312185,-1.569642606466193,0.011561213502864749,-0.004456117754444369,-5.326720890737248e-05,-0.3150578019783551,-2.8444896457091606,-0.09104582801191956,0.08467936350322254,-0.04780528955845649,-0.000709876937629636,-0.0863770276354512,-9.135390787608653,-2.057150257478824,-0.19928659614646094,-0.4254327857383552,-0.04034052065142091,0.14369342389340684,-7.229037660359557,-4.738034019369357,-1.0391762790825738,0.021844614608452172,-0.0003968390788382004
0.18,-0.0380735209301462,1.2692482593979602,-1.5707594064462047,0.012385420450492915,-0.00496005382655909,-6.116278828476675e-05,-0.3161427699168363,-2.9356227333258467,-0.11167999800116707,0.08242069476281659,-0.05039360721147215,-0.0007895579377394271,0.16218292675219237,-7.300387122629454,-2.1134482660279055,-0.25670219132614847,-0.4103846127832951,-0.04726222941085767,0.14194831000809047,-6.042361940462207,-4.274039141478823,-0.9446563753549582,0.025224485423604864,-0.0003040996281648358
0.19,-0.041221613630645276,1.2391635302753277,-1.5720872404705435,0.013181021065931744,-0.005487656874623019,-6.990222024921319e-05,-0.3148092700499072,-3.0084729122632416,-0.1327834024338696,0.07956006154388294,-0.052760304806392835,-0.0008739431964446439,0.41184144615500723,-5.486186602069172,-2.146822306642683,-0.3120513608689919,-0.3704113685959781,-0.05338789794942189,0.1332822170336746,-4.851133629160598,-3.8194324683436864,-0.8528788165244201,0.02807673134075008,-0.00021507569429612814
0.2,-0.044332023603031706,1.208531068057604,-1.5736285741686524,0.013942307518287162,-0.006035210591747107,-7.950189988024788e-05,-0.3110409972386429,-3.063246221772361,-0.15413336981089812,0.07612864523554183,-0.05475537171240885,-0.0009599679631034696,0.6571010138108706,-3.7313605871631856,-2.1579335889935463,-0.3643777676210824,-0.29884955739250074,-0.057390706799033436,0.11893382695504723,-3.676092187010983,-3.3821640203530356,-0.7654801956093653,0.030341229397761706,-0.0001313014127754024
0.21,-0.047380710134521185,1.1775257371504406,-1.5753837281336138,0.014663979611152265,-0.00659714663021459,-8.992848719171583e-05,-0.30486865314894795,-3.100533090716339,-0.17551539649614556,0.07216720928651016,-0.056193603846748284,-0.0010426587311467938,0.8916168594212551,-2.1228974501084568,-2.1476027965312814,-0.412722578406191,-0.19304209881220658,-0.05781985209992188,0.10044997889214353,-2.5626500373834418,-2.978189668773692,-0.6856621153998803,0.03197149181604653,-5.507303604040084e-05
0.22,-0.05034451419439342,1.1463078298035387,-1.5773510054745292,0.015341272408984781,-0.007165898538471807,-0.00010108025468598637,-0.29638040598722337,-3.121790734690191,-0.19672773409153077,0.06772927978325159,-0.05687519082572167,-0.0011151767494270543,1.1095221182434978,-0.9752389935419304,-2.1171003500226524,-0.45579525193516623,-0.057344308200126815,-0.053651081550209645,0.07955959325056987,-1.6719099121700374,-2.6628583602806972,-0.6244656548304419,0.03291879153245467,7.2875006510868616e-06
0.23,-0.05320174273053152,1.1149917361857813,-1.5795270036068003,0.01597025958363016,-0.007732136882682538,-0.00011277626394860731,-0.28572285361381056,-3.131609361775744,-0.2175998132271158,0.06289871746453772,-0.05662383442107311,-0.0011696009262620929,1.30685349409331,-0.015408399376363891,-2.0695550826065836,-0.4905139441949036,0.09595755892649249,-0.04490260751778974,0.05808646035520647,-0.867940654966957,-2.3841435216783413,-0.5711177225443523,0.03324590652222489,6.14402436561769e-05
0.24,-0.05593263361229709,1.0836731377446733,-1.5819067288176687,0.01654789366389124,-0.008285471366619104,-0.00012476143889520672,-0.2730890881765568,-3.131859844110787,-0.23797252108684744,0.0577634080261084,-0.055333448393656684,-0.0011985174946599407,1.4825808517951125,0.00029439846397269465,-2.0061182910584785,-0.5164673393626442,0.249143344282996,-0.03276526713693795,0.03757551992876186,-0.5368973653522106,-2.2755498140831354,-0.55230105637738,0.032873956625726355,9.303699811174964e-05
0.25,-0.05851956185090449,1.0523536552350428,-1.584484181604699,0.017072540946100053,-0.00881555498245181,-0.0001367302154822006,-0.2586928238607403,-3.1319482509630645,-0.2577452787030294,0.05246472822088131,-0.053008361583270616,-0.0011968776586993894,1.6389468981029214,0.0003139019131882252,-1.9325334395081832,-0.5282625328203636,0.3841292219511261,-0.019302114076205745,0.01951872816166334,-0.2104011144469654,-2.163370803145801,-0.5324614907497097,0.03201332788194128,0.00012159580703059816
0.26,-0.060946898994503194,1.0210333438288677,-1.587252298628822,0.01754374482692433,-0.009313285420397078,-0.00014836420223055365,-0.2427337143598707,-3.1320311406174977,-0.2768117024122877,0.047120388082427765,-0.04977304379452662,-0.0011633986748353054,1.779468097574074,0.00033393432643280026,-1.8483040034164921,-0.5282250692185295,0.486991648185084,-0.0065600034628721104,0.0050434571083568525,0.11935263025596077,-2.044744768192119,-0.5110066880260717,0.030677584562190854,0.0001473584770010489
0.27,-0.06320068039269659,0.9897122574037391,-1.5902029095846797,0.01796203792594318,-0.009771825336383313,-0.0001593719973785431,-0.2253781398193398,-3.1321086425128586,-0.2950610955857724,0.04182930990188503,-0.04585399159862348,-0.0011007795147989444,1.9085064945283297,0.00036158981036036025,-1.753047695181886,-0.5182535588818666,0.5503010653300631,0.0039246667276280345,-0.004794871618213778,0.4522361284411869,-1.9197706812567994,-0.48795126712067965,0.028876913453718202,0.00017028453771321365
0.28,-0.06526813402355632,0.9583904506742233,-1.5933267123566397,0.01832879713593786,-0.010187204980223734,-0.00016952120280937157,-0.2067453630859718,-3.13218067295158,-0.31238027719599976,0.03667592099946783,-0.04153796438404206,-0.001014920543082848,2.0303644425195504,0.0003911520591750363,-1.646569711270522,-0.49982053639457824,0.5733804672335627,0.011392547812460574,-0.009007314249911968,0.7881021565579293,-1.7885733020030037,-0.46331653477327905,0.02662001559914198,0.0001903466720853784
0.29,-0.06713719368658964,0.9270679797358388,-1.5966132637168173,0.018646130529350904,-0.01055842564032657,-0.00017865590902562222,-0.18690596630333267,-3.132247093838459,-0.3286551360177561,0.031733339341304505,-0.0371220660102835,-0.000913470621625064,2.148649555132956,0.0004312050341529957,-1.5288360175638636,-0.47408011395288874,0.5608622585376584,0.015797280433928806,-0.0066669842958843595,1.126795251975671,-1.6512983281270457,-0.43712951608983214,0.023913967663015744,0.00020749886988557218
0.3,-0.0687960909948066,0.8957449037953773,-1.6000509836184955,0.018916787915726763,-0.010887137329723342,-0.00018669889768697107,-0.16588973082169547,-3.132307594046145,-0.34377199016781607,0.027065738637585955,-0.03287116893967725,-0.0008042988661348844,2.2659541925912867,0.00047251470680450354,-1.3999457572611709,-0.4419475658959926,0.5205299677455082,0.01756133827776618,0.0030915609363828256,1.4681339349129716,-1.508117327648338,-0.4094239083631326,0.020765249451916126,0.00022165712503885755
0.31,-0.07023307275418716,0.8644212849381727,-1.6036271709212586,0.019144089101279828,-0.011177050621668967,-0.00019364230481811782,-0.1436981759380563,-3.1323618857204525,-0.3576187302763125,0.02273011855530655,-0.028991329194562415,-0.0006943407131146765,2.383784337199352,0.0005179659481120379,-1.2601116410475217,-0.4041592451600855,0.4612514632434967,0.01731485193806659,0.02106510401238304,1.8119244241532597,-1.3592213668377193,-0.3802387713265881,0.017181382256534296,0.0002326956366441084
0.32,-0.07143625007240585,0.8330971889467089,-1.6073280289984535,0.01933186533429161,-0.011433252013241905,-0.00019953206968325148,-0.12031773182186867,-3.1324095991463743,-0.3700858077194799,0.01877762330117804,-0.025620139157293897,-0.0005889764865133648,2.502664653281532,0.0005698971904307866,-1.1096405109373584,-0.3613174929137126,0.3914354395476707,0.015704364164504936,0.04796670301973607,2.1579536098090335,-1.2048217727586614,-0.3496186428209825,0.013172680050493539,0.00024045524353940876
0.33,-0.07239356056527985,0.8017726859315418,-1.6111386996269583,0.01948441059772926,-0.011661553265067648,-0.00020445083986582368,-0.09573104928739884,-3.132450301516713,-0.38106706285047576,0.015254526343764955,-0.02283012518257429,-0.0004918770182572188,2.6223324840595983,0.0007951483928672499,-0.9489184267251556,-0.313924809279845,0.3181194008800833,0.013287492421527158,0.08440441454969315,2.506073891975107,-1.045118277806136,-0.3176070929284976,0.008753809489626951,0.00024476312892546563
0.34,-0.07309281547282806,0.7704478672334217,-1.6150433038128438,0.019606440076786285,-0.011867951288791541,-0.00020850241416123537,-0.06992549075482184,-3.132481869812007,-0.39046041858854363,0.012202947905702534,-0.020639802372389222,-0.00040515742954116946,2.7419618226784332,0.0009860363878974882,-0.7783909427187274,-0.2624094471488041,0.2466027815659344,0.010494115311104668,0.13085666663496948,2.8559253884126847,-0.8803962325971877,-0.28426627588574344,0.003944840763182969,0.0002454427175548528
0.35000000000000003,-0.07352180298519342,0.739122824912629,-1.619024988144153,0.01970305430416035,-0.012058227902570018,-0.00021179923139151558,-0.04289875123653676,-3.132504232079272,-0.3981684331309281,0.009661422737406543,-0.019027661377847723,-0.0003296817230280205,2.8603614801938324,0.0016177658042283792,-0.5985609848947743,-0.20714348400069182,0.1804617089998115,0.007627436703054213,0.18764627820642352,3.207480915428896,-0.7108285613297227,-0.2496368214442449,-0.0012278159689001929,0.00024235413951026957
0.36,-0.07366842459610051,0.7077976991773663,-1.6230659758799333,0.01977970684583926,-0.012237686422048425,-0.00021445327267871107,-0.014662161090708406,-3.132512573526266,-0.40409877357803375,0.007665254167890906,-0.017945851947840676,-0.0002654041287195488,2.9761482288767684,1.4087611839366364e-05,-0.4099663150956279,-0.14846074980654977,0.12178224036325425,0.0048836437536305954,0.2549157465534845,3.5590527626318327,-0.5371853333618994,-0.21388094013428072,-0.0067317768593178565,0.00023533670388965018
0.37,-0.0735208460705132,0.6764724117759403,-1.6271476232215447,0.01984217694440582,-0.012411004537760076,-0.0002165700781295748,0.014757852558732444,-3.1325287401426056,-0.4081647341611336,0.0062470098566559705,-0.017331811571165104,-0.00021168054508637372,3.0878640086555875,0.0022973951692871588,-0.2132054245291318,-0.08664792996085036,0.07148311608181235,0.0023769439979928197,0.3326072015026024,3.9135090770792007,-0.35859858373882475,-0.17683029621933966,-0.01252644923448459,0.00022446129800780427
0.38,-0.07306765149621573,0.6451472758579594,-1.6312504753248336,0.019896539270653366,-0.012582176249081797,-0.00021824529124065003,0.045319457429746524,-3.1325135917980966,-0.4102852103288848,0.005436232624754419,-0.017117171132172215,-0.00016752131110752327,3.1940696530844788,0.006787543924104631,-0.008860986010839827,-0.022017831457114896,0.029646656811606498,0.00016315768195895863,0.42044199483988465,4.26965213211297,-0.1757037560598385,-0.13862431965829985,-0.01856622829522738,0.00020970567225484416
0.39,-0.07229799187974541,0.6138228285079116,-1.635354326042674,0.01994913717790003,-0.01275451629285762,-0.00021956307580904284,0.07696596164703254,-3.1324447350047793,-0.4103850717840393,0.005259790724666534,-0.017234004377582386,-0.0001317784568392824,3.293397735205405,0.02096738279833607,0.20244047043185692,0.04514966074558158,-0.0041929845360551,-0.0017408460815064863,0.5179094381752725,4.63105487955358,0.012574897929986218,-0.09905731570480454,-0.024797697529545776,0.0001913066622513991
0.4,-0.07120172393086815,0.5825005760537619,-1.6394382755440697,0.020006551744633,-0.01293070407937952,-0.00022059582183677693,0.10962679488772498,-3.132225245414966,-0.4083949501395682,0.005741456673296985,-0.017618778652189998,-0.00010327460277340854,3.3845859170673647,0.042718552376850315,0.42009138287086223,0.11453098376782522,-0.030817418468279456,-0.003342383570923868,0.6242519974955876,4.996255314417143,0.20545015324793794,-0.05830501704412631,-0.03116340093723694,0.000169384729040577
0.41000000000000003,-0.06976953658023856,0.5511827828828525,-1.643480792708035,0.020075574265788775,-0.0131128495741265,-0.00022140466039716265,0.14321873506296023,-3.1317793170909387,-0.4042517163965289,0.006902252115577621,-0.018214549474697972,-8.088385603857244e-05,3.4665058809679477,0.06217410794309134,0.6434517844774666,0.1858406390663383,-0.05115539878400188,-0.004662551189209996,0.7384658456505752,5.359641807991782,0.4006808405573241,-0.016835805303436955,-0.03760258585597296,0.0001439910196708137
0.42,-0.06799306302168855,0.5198714882666056,-1.6474597856320248,0.020163187002512125,-0.013302568491180385,-0.00022204043247298227,0.17764735585500077,-3.1311294616246967,-0.39789929239896543,0.008761273672335132,-0.01897189170538865,-6.357720758196265e-05,3.5381771189459474,0.07454148935765843,0.8718130794173127,0.2588794055598007,-0.06616729005974875,-0.005729342656715097,0.8593189631818406,5.718174766219816,0.5970432507632704,0.025093269380107076,-0.04405042149936504,0.00011536469346211338
0.43,-0.0658649773808092,0.4885680285982345,-1.6513526748497827,0.020276546625341077,-0.013501058183410668,-0.00022254487095511142,0.21280856408793544,-3.130345966837108,-0.38928892177578733,0.011335962282895271,-0.019848969223028274,-5.044384821291518e-05,3.59876346528724,0.08228976707485977,1.104431624192011,0.33347282845024395,-0.07677021949713847,-0.006573106918695615,0.9853695511635229,6.072598281975631,0.794714888320867,0.06751077527411486,-0.05043864927268431,8.39659896363829e-05
0.44,-0.0633790766864621,0.4572732829860802,-1.6551364648266385,0.020422964156435384,-0.013709168903424471,-0.0002229518360606708,0.2485900694347091,-3.1294745612154284,-0.3783789976855869,0.014641753109430508,-0.020811072001380364,-4.0696510555938406e-05,3.624663923855727,1.7236424796960204,1.2785200236848526,0.3916188240879901,-0.08407169959199479,-0.007223783723809163,1.110790100280863,7.2810636222300715,1.2949218643529279,0.17071131785075294,-0.056183892910021,8.057335236976164e-05
0.45,-0.060532624936840654,0.4261508425603524,-1.6587928132531864,0.020606918353642364,-0.01392743011241094,-0.00022329151952290644,0.2846451749621448,-3.1122440425727835,-0.3656348426547892,0.018395419720698126,-0.0218261208986468,-3.396834622356374e-05,3.608526115545548,5.752950800548666,1.3744125484336713,0.4118972183085283,-0.08830793047575192,-0.007696136338322557,1.2286163867063515,9.747623193788417,2.223317435276346,0.35869388549110165,-0.06074029543574431,0.00012066107182356726
0.46,-0.05732708632892868,0.39560215659000497,-1.662309538172056,0.02082770593133128,-0.0141560473429965,-0.00022359195107918392,0.32055386079119735,-3.0548685970347456,-0.35167249188697747,0.022078757768891774,-0.022861723058556143,-3.004315562774832e-05,3.582166605188608,8.851378579661931,1.4879512485911661,0.4026316754591406,-0.08910219278551423,-0.007960731060479898,1.3364953170075646,11.726357571159735,2.9387912283638284,0.5009774887343152,-0.06458326643732527,0.00014267124147139662
0.47000000000000003,-0.05376496536274281,0.3659359703936806,-1.6656735652485062,0.021083099638932935,-0.014394978269588231,-0.0002238742087219519,0.3562120966185869,-2.966618619632437,-0.3364027076450198,0.02553937076016534,-0.023893092659172988,-2.8225764276798825e-05,3.545773666018335,11.171782043271019,1.610301309127017,0.377844694834927,-0.087601749441788,-0.008015167898456355,1.4315548015117618,13.289421015908168,3.4774090369199397,0.6055642336017931,-0.0676434443052929,0.00015161677499647117
0.48,-0.04984978551889311,0.33738353844708124,-1.6688715943600758,0.021370276135864317,-0.014644015563353261,-0.00022415302352150304,0.3915179843849701,-2.855243194659935,-0.31980291115697335,0.02871764969313804,-0.024903729376503075,-2.788147995511273e-05,3.499662577626205,12.84574818813058,1.7349013214969595,0.3468974938324294,-0.08465928184213922,-0.007904378539675516,1.5117988091834234,14.499909363957784,3.8707431931103353,0.6794689868438946,-0.06989722129195698,0.0001516103795106499
0.49,-0.04558605531947956,0.3101117230302896,-1.671890588911949,0.021686410280585704,-0.014902848174499711,-0.00022443806064660927,0.42637301994135485,-2.7271815416791654,-0.3018994551873192,0.031613414472138814,-0.025883261114644975,-2.850371251062215e-05,3.444244190505854,13.986130571177705,1.8569483663006316,0.3158081716229262,-0.0808853283980504,-0.007672688404112282,1.576060177186478,15.4128113068285,4.14593697263292,0.7287109912647624,-0.07135574827281103,0.0001459326225788744
0.5,-0.0409792250718616,0.2842342298539126,-1.6747181278727565,0.022029033386960564,-0.01517110493680157,-0.0002247351062524379,0.46068302476179623,-2.5877493176377016,-0.2827538960807397,0.03426231063748619,-0.02682567623018582,-2.9704560582860787e-05,3.379997458271865,14.689431279967996,1.972998143334678,0.28822556442963787,-0.07669813557560268,-0.007356481005485804,1.623902523673583,16.075934294068183,4.326007713412191,0.7583705651325805,-0.07205528555980317,0.00013712802237093625
0.51,-0.036035637099935465,0.2598212170787611,-1.6773426516362808,0.02239622703466444,-0.015448384221917187,-0.00022504704094122987,0.4943587971926135,-2.44130127751515,-0.26245237635242374,0.036719364770387584,-0.02772792851156164,-3.119346887919842e-05,3.3074468833315094,15.037910714360384,2.0806548363783044,0.26614419237093045,-0.07236890111783012,-0.006984000149182101,1.655493822114723,16.530735015890016,4.4302561079901075,0.7726772417359347,-0.07204904949112378,0.00012711092199375998
0.52,-0.030762471719670736,0.2369074872558055,-1.67975362592738,0.022786704639669413,-0.01573427300437174,-0.0002253746035240131,0.5273165380264728,-2.291372982295561,-0.24109742910992488,0.03904776050049743,-0.028588878245455075,-3.2756258278322214e-05,3.227144715791117,15.101448104751645,2.178330099922846,0.2504260962508553,-0.06806066446452874,-0.006576534677639412,1.671470878659537,16.8130605741879,4.47471392224082,0.7751110705007289,-0.07140057351035793,0.00011727078094130939
0.53,-0.025167690712379495,0.215499447052104,-1.6819416426515041,0.023199818586219702,-0.01602835819965736,-0.00022571697583177676,0.5594781007291239,-2.1408040203701497,-0.21880167241241263,0.04131139465502879,-0.029408519528562216,-3.4237230776366344e-05,3.139657305158815,14.939179783288516,2.2650553156465136,0.24117920449265995,-0.06386012834389199,-0.006149798976751164,1.6728089433298072,16.953809598131965,4.472588885721551,0.7685057173789521,-0.07017850644690085,0.0001085704884304249
0.54,-0.019259979623199162,0.19558099761536338,-1.683898472472253,0.023635520057991077,-0.016330232595987735,-0.00022607222370298884,0.5907711089180334,-1.9918449436740626,-0.1956829820748947,0.0435701471771377,-0.03018743963303758,-3.552478712120969e-05,3.045554875823425,14.600940030979926,2.3403349885613345,0.23802947423440202,-0.05980258988505227,-0.005715195371766679,1.6607055579262533,16.979522020278083,4.434682763120183,0.7551465936341459,-0.0684527038135061,0.0001016341711094934
0.55,-0.013048689868583653,0.17711849885688055,-1.685617080709069,0.02409429084231612,-0.01663949718190902,-0.00022643762649056327,0.6211289754615509,-1.8462498758482833,-0.17186082368159342,0.045877078432504374,-0.03092645859212852,-3.654027875744285e-05,2.9454040224073195,14.1285266997596,2.404032008562684,0.24031464502628097,-0.05589071930808842,-0.005280870162588158,1.6364833260203677,16.912905264408497,4.369770079339455,0.7368603263680532,-0.06629143007461076,9.682299794683215e-05
0.56,-0.0065437813678383885,0.16006493354662704,-1.6870916156619826,0.024577060605719202,-0.016955761216074294,-0.00022680992227281366,0.6504908500745264,-1.705356531025352,-0.14745349529137944,0.04827697634030815,-0.03162640341652751,-3.7229578225038954e-05,2.8397623108192174,13.556811387159199,2.4562776809343774,0.2472203524109844,-0.05210818037309117,-0.004852554665232933,1.6015129293593784,16.77330364513858,4.284932422078626,0.7150939142829859,-0.06375947663755549,9.429884741613665e-05
0.5700000000000001,0.0002442337918632121,0.1443633816801834,-1.688317376528179,0.025085118916143897,-0.017278641007911016,-0.00022718549041642126,0.67880151597016,-1.5701551866443642,-0.12257608661963548,0.05080583104246965,-0.032287979183672356,-3.755681436075934e-05,2.7291744784003495,12.914711787759769,2.4974010853261355,0.25787402759023337,-0.04842913073166777,-0.004434213769767048,1.5571554408155444,16.577116932540438,4.185847913210207,0.6909832044409756,-0.060917005500190136,9.407654922026406e-05
0.58,0.007304346302214302,0.12994990188527403,-1.689290766551073,0.02562002821616987,-0.017607758079384327,-0.00022756048810554507,0.706011251035109,-1.4413479794909372,-0.09733900228940477,0.05349093000259738,-0.03291170714733098,-3.7499768912380416e-05,2.61416982968295,12.226041939213784,2.5278735803993158,0.271408030839666,-0.044824560222252785,-0.00402853461345587,1.5047216522188924,16.338173308429308,4.077038199922834,0.6654111076306246,-0.05781894567902737,9.606588015155482e-05
0.59,0.01462510295224633,0.11675590449940162,-1.6900092358415504,0.02618354173286816,-0.017942737150940267,-0.0002279309532459081,0.7320756650032028,-1.3193997385872396,-0.0718469290477405,0.05635135166982916,-0.03349790715559396,-3.7046514036301023e-05,2.495260513957482,11.51025438917331,2.548265226679849,0.287000499540234,-0.041266286645781136,-0.0036372883065294292,1.4454455303104843,16.068061327145493,3.9620767940387074,0.6390564049514587,-0.054514793260455274,0.00010010469493473747
0.6,0.02219465816259348,0.10471009020366226,-1.690471217360612,0.02677752872085139,-0.0182832042277499,-0.0002282928828209414,0.7569555210347148,-1.2045814295739363,-0.04619815190615639,0.05939869879832297,-0.0340467076809633,-3.61929575033301e-05,2.372940444775519,10.78308680420072,2.559210626688074,0.30390018363527815,-0.037729273899088867,-0.0032615938982700765,1.3804688144317847,15.77642497799124,3.8437632261828028,0.6124342031261377,-0.05104869196140534,0.00010598459851544903
0.61,0.03000082364042536,0.09374001859323816,-1.6906760587976242,0.02740390830989208,-0.01862878494364329,-0.00022864229323447323,0.7806165477831882,-1.0970071610424097,-0.020484143701208306,0.06263795890406892,-0.03455807158933911,-3.4941041353182797e-05,2.247684680532585,10.057124195203263,2.561382235280867,0.3214398999960508,-0.034192790415108476,-0.0029021087041369853,1.31083398379478,15.47122551080345,3.724267589835146,0.5859291531313524,-0.04745969655188343,0.00011347048469697977
0.62,0.03803111610333339,0.08377336266962748,-1.6906239524763973,0.02806459244425837,-0.018979103238607294,-0.00022897526728874227,0.8030292462908025,-0.996665592361068,0.0052106321226934,0.06606841343662917,-0.035031829496400206,-3.3297405426903045e-05,2.1199491314754586,9.342286718300928,2.5554696170044267,0.33904201814048207,-0.030640798016046134,-0.0025591641326425663,1.2374832018177893,15.158973310828543,3.6052498405972426,0.5598225130511594,-0.04378214460184475,0.00012231512653640013
0.63,0.04627280305097503,0.07473889783335229,-1.6903158649398502,0.028761437866486692,-0.019333780392015273,-0.0002292879910805751,0.8241686947641645,-0.9034464836275191,0.030808753654705652,0.06968454222283216,-0.03546771534079776,-3.127237918328416e-05,1.9901704928747295,8.646252035034735,2.5421634478812756,0.3562184832094175,-0.027061856214071867,-0.0022328617529854267,1.1612612848604145,14.844932848168742,3.4879578560792073,0.5343140555680865,-0.04004608181024392,0.00013226984277794126
0.64,0.05471294658424176,0.0665672674423515,-1.6897534674783263,0.029496206745880077,-0.01969243440022731,-0.00022957678312896613,0.8440143533266729,-0.817163039100078,0.05623974615237565,0.0734768879393385,-0.03586540082120396,-2.887920483910092e-05,1.8587663347411172,7.974819868015903,2.5221433248974776,0.3725672132279243,-0.02344874404329822,-0.0019231407405675416,1.0829211773139136,14.533303249441367,3.3733077326351903,0.5095396966669028,-0.03627770259407474,0.0001430920919602012
0.65,0.06333844528608562,0.059191561246843716,-1.688939068556012,0.030270535332151495,-0.020054679667900217,-0.00022983811737096904,0.8625498701843861,-0.7375706195507788,0.08143989223142817,0.07743285862714169,-0.036224526767290606,-2.6133424200291384e-05,1.7261352915254258,7.332226283280302,2.4960686096669207,0.38776620224557945,-0.019797938385670122,-0.0016298249698760703,1.0031308023894572,14.227377205404155,3.2619494660016066,0.4855856337492232,-0.032499780211167124,0.00015455070578889357
0.66,0.0721360741871439,0.052547738006101796,-1.6878755488416632,0.031085909888962072,-0.02042012697275155,-0.00023006864119959618,0.8797628901058283,-0.6643823240741916,0.10635197143488151,0.08153745568105765,-0.036544730485133306,-2.305238286271408e-05,1.5926573193855917,6.721413471874555,2.4645717229689232,0.40156629597126425,-0.01610904048657069,-0.0013526558137568756,0.9224804865425544,13.9296801897192,3.154320520205646,0.4624996288339761,-0.028732070756072946,0.00016642931777623732
0.67,0.08109252284528438,0.046574919161460615,-1.686566299348962,0.03194364910461743,-0.020788383660323692,-0.00023026518940366683,0.8956448658140475,-0.5972818844641178,0.1309249492701231,0.0857739215655361,-0.03682566875721412,-1.9654820407065096e-05,1.4586939927528735,6.1442608985588185,2.4282533935696584,0.4137833272595053,-0.012384208620434656,-0.0010913150238117675,0.8414904159213997,13.642092194051454,3.0506895238406835,0.4402999963631928,-0.024991682305178002,0.00017852844057673423
0.68,0.0901944315715213,0.04121557659268796,-1.6850151630314232,0.0328448921664585,-0.02115905402609067,-0.0002304247946601267,0.9101908726236908,-0.5359342568772655,0.15511363175389664,0.0901243061841067,-0.03706703657669803,-1.5960525645987688e-05,1.324588826367456,5.6017820840595185,2.3876794973677775,0.424290101848424,-0.008627630635658967,-0.0008454408206192143,0.7606177840569743,13.36595348852207,2.95119177877718,0.4189827230964336,-0.02129340582358488,0.00019066652935460386
0.6900000000000001,0.09942842583682447,0.036415634062251415,-1.6832263800462572,0.033790591708096174,-0.021531739845381988,-0.0002305446950892523,0.9233994265303183,-0.47999425304365434,0.1788782985165888,0.09456995416376708,-0.037268581929131704,-1.199004291256187e-05,1.1906675979870236,5.094294314874033,2.34337905372265,0.43300853902937675,-0.0048450545293396985,-0.0006146393933424976,0.6802634327747619,13.102157664883736,2.855858623770315,0.39852719955453964,-0.017650006607802908,0.00020268035850577894
0.7000000000000001,0.10878114889404276,0.03212449925563986,-1.6812045368065187,0.034781510877223594,-0.021906041015856196,-0.00023062233929386464,0.9352723057218293,-0.42911348066115557,0.20218432397384734,0.099091916912742,-0.03743011704742076,-7.764420461234798e-06,1.0572386941379592,4.621558532422612,2.2958433794725863,0.43990223645141313,-0.0010433817645703058,-0.0003984933227209053,0.6007778951843129,12.851229989872877,2.764640623216107,0.37890061350526183,-0.014072480033011536,0.00021442479467520276
0.71,0.1182392926511558,0.028295040355710305,-1.6789545188465562,0.03581822383387614,-0.022281556282036704,-0.00023065538923373294,0.9458143757113036,-0.38294588999295515,0.2250017959962447,0.10367129566525471,-0.03755152661805077,-3.3049939868310983e-06,0.9245934398571036,4.182900979334396,2.24552587531592,0.4449695532532445,0.0027696739498281886,-0.00019656795272304795,0.5224668199465342,12.613396829059353,2.6774271222318604,0.36006155475685436,-0.01057027256822625,0.00022577227500665992
0.72,0.12778962683023565,0.024883519271807285,-1.676481467473832,0.03690111904661452,-0.02265788401608646,-0.0002306417212474658,0.9550334179079842,-0.3411521083903019,0.24730513727242914,0.10828952127383819,-0.03763277340497584,1.3667986267135415e-06,0.7930064103375614,3.777351238829718,2.1928422650308788,0.44823724150798583,0.006585868208261125,-8.416440072434028e-06,0.44559578781631326,12.388664387512057,2.594069038659212,0.34196423210188875,-0.0071514600769927925,0.0002366127563462632
0.73,0.1374190264445348,0.021849495277355666,-1.6737907401211258,0.038030404786714246,-0.023034623032293044,-0.0002305794255348773,0.9629399614299153,-0.30340239944516173,0.2690727352706195,0.11292857400997278,-0.03767390162065807,6.2295712588495115e-06,0.6627358837541314,3.4035227897740565,2.138172844970045,0.44975480422196057,0.010396669985500484,0.0001664166427532976,0.370394427717672,12.176759732244575,2.514352553643059,0.3245528891672435,-0.0038229732778565714,0.0002468487702821343
0.74,0.14711449763975026,0.01915568716148766,-1.6708878742973603,0.03920611648648129,-0.023411373422882315,-0.00023046680412967696,0.9695471195215452,-0.2693808115868006,0.29028658237655025,0.11757116997670435,-0.03767503905892722,1.1262140520032657e-05,0.5340239388179419,3.06012369656402,2.0818606427466113,0.44959029735081657,0.014193385021239902,0.0003283900467355716,0.29706082222914915,11.977409552457212,2.4380940164297207,0.30778040393810413,-0.0005906278131214346,0.0002564027597764737
0.75,0.15686320191073838,0.01676784476688787,-1.667778554973613,0.04042812523194737,-0.023787737391715757,-0.00023030236808832424,0.974870427098813,-0.23878423945997926,0.31093193237473105,0.1222008745466081,-0.0376363968833442,1.6443604135270874e-05,0.4070970116715789,2.745543795797863,2.024216673757115,0.4478240302471228,0.01796739950911652,0.0004779642510360227,0.22576373280397272,11.790123996204853,2.3650579034129677,0.29159159709242266,0.0025406576692040914,0.0002652072964731837
0.76,0.16665247874945974,0.014654588798698201,-1.664468585225727,0.04169614724867942,-0.02416332008204051,-0.00023008483353957604,0.9789276838721355,-0.2113255968189668,0.3309969747885925,0.1268022016732045,-0.037558269032475194,2.1753454874820244e-05,0.2821661216912868,2.458154604044189,1.9655194255428192,0.4445464516672111,0.021710213662666122,0.0006155997648986666,0.15664629338192293,11.614362145002174,2.295012104177687,0.27593397369514827,0.0055667964448083964,0.0002732085019165188
0.77,0.1764698667478192,0.012787248779467613,-1.660963859979223,0.043009753982692335,-0.0245377303871293,-0.00022981311706401253,0.9817387998359456,-0.18673400192305875,0.350472524650404,0.13136067340129126,-0.03744103050887944,2.717164755635259e-05,0.15942721475498625,2.196337442934466,1.9060172992677265,0.4398543916914903,0.025413551588741923,0.0007417531807349942,0.08982837344610912,11.449551483901043,2.2277312063641346,0.2607580943403767,0.008484453668153506,0.0002803648976894859
0.78,0.18630312319028888,0.011139701955326714,-1.6572703426214415,0.044368382477648176,-0.024910581735489924,-0.00022948633056050428,0.9833256442469684,-0.16475468241408997,0.369351735778151,0.13586284949558405,-0.03728513483606206,3.267865035082545e-05,0.039061549933624644,1.9583678774291517,1.8459304863706674,0.43384791628012387,0.029069435693635487,0.0008568762287657905,0.025408670518585197,11.295030672858758,2.162972885460531,0.24601265141780768,0.011290925396271037,0.00028664357673815083
0.79,0.1961402421753155,0.00968820164426274,-1.6533940443976347,0.04577134590376521,-0.025281492849321078,-0.00022910377556320977,0.9837118985026612,-0.14515003110639732,0.38762982238068155,0.14029634261170365,-0.03709111138311552,3.825549972945092e-05,-0.07876392226867347,1.7422689298740506,1.785455609445834,0.42662989229835624,0.03267021621162791,0.0009614133848608875,-0.036532888894766954,11.149977244538366,2.100449875697302,0.2316387905934656,0.013983979652126747,0.00029201565274894774
0.8,0.20596947130359902,0.00841118040651847,-1.6493410062429905,0.047217844347274204,-0.025650088479353544,-0.00022866493692405804,0.9829229128283529,-0.12770212377442694,0.405303815464423,0.14464984435089911,-0.03685956300324663,4.3883863915173353e-05,-0.19389647766525017,1.5470976060765878,1.724756165675596,0.4183034600285236,0.036208476851950167,0.0010557959575739906,-0.09593209043685291,11.014090152906359,2.040069852692606,0.2176171978635184,0.016562207503808813,0.0002964792241867038
0.81,0.21577932694360105,0.007289156192020884,-1.6451172830916763,0.048706974613576724,-0.026016000080247022,-0.00022816947763438272,0.9809855640002018,-0.11220242144975862,0.4223723151314145,0.1489130266302522,-0.036591160089347596,4.954592896753237e-05,-0.30619684683021914,1.3713151134029258,1.6639798505363745,0.4089644611176144,0.03967744940937146,0.0011404475622897592,-0.15274287776718795,10.886730485207918,1.98162777621731,0.20390716513695709,0.019024596172006684,0.000300029110644307
0.8200000000000001,0.22555860814927867,0.0063045791285059015,-1.6407289301754224,0.05023773981802384,-0.02637886645122514,-0.00022761723252893182,0.9779281205677623,-0.09845770635149825,0.4388352916253901,0.15307652044471146,-0.03628663709781189,5.522451054508974e-05,-0.41553897158549524,1.2137050152164175,1.6032516550087492,0.3987058872212268,0.043070722690061736,0.0012157914521607749,-0.20693316578720694,10.767409398972427,1.9249777440983795,0.1904803656436616,0.021370665835657054,0.0003026718641571406
0.8300000000000001,0.23529640925618078,0.005441710405648273,-1.636181991307397,0.051809058360347014,-0.026738334331913464,-0.00022700820212296323,0.973780110690211,-0.08628687228576282,0.45469388680254363,0.15713185423231746,-0.03594678806883238,6.090304059685895e-05,-0.521809428929864,1.0736184749417277,1.542673153318419,0.38761366452419743,0.04638232695025479,0.0012822439065182378,-0.2584843204989449,10.655916103607204,1.870076218671819,0.17732905864470028,0.02360058496356942,0.0003044300530186459
0.84,0.24498213121395462,0.004686557689549493,-1.6314824890818886,0.05341977176066493,-0.027094058938926666,-0.00022634254699839152,0.9685721957773854,-0.07551527160987803,0.4699502225508326,0.16107134003179172,-0.03557246070132035,6.656551245716988e-05,-0.6249066967142459,0.9510167056531005,1.4823250190643817,0.3757619445214626,0.04960687478048964,0.0013402213891124115,-0.30739156735836715,10.5523373633988,1.8169868801078781,0.1644667184943529,0.025715267160656537,0.00030534325231898663
0.85,0.2546054917287618,0.004026871303113252,-1.6266364167544884,0.055068650972943806,-0.02744570443157304,-0.00022562058261923462,0.9623360514807178,-0.0659686386436241,0.4846072327400258,0.16488792122788767,-0.03516454926463717,7.219643791569036e-05,-0.7247404198311125,0.8461095458609569,1.4222727964826536,0.3632101886002195,0.05273968466470791,0.0013901536456049357,-0.35366460740365746,10.456866316619353,1.7658114136633354,0.1519142455889556,0.027716312814408495,0.0003054614678348965
0.86,0.2641565342885491,0.003452165174750474,-1.6216497315171285,0.056754401263261686,-0.027792944310277064,-0.0002248427738247741,0.9551042559787312,-0.05747061283627779,0.4986685237359926,0.16857502903178784,-0.0347239878704024,7.778087944605358e-05,-0.8212296204040289,0.7582884189175487,1.3625554718044461,0.35000031608885607,0.05577666630562472,0.001432494310950383,-0.3973266062761778,10.369245928492546,1.7164908789216256,0.13966104804100504,0.029605547615267565,0.0003048242373517921
0.87,0.2736256362487486,0.002953656250536678,-1.6165283510196637,0.05847566617787003,-0.02813546179390528,-0.00022400972766509084,0.946910196019947,-0.04985089242137961,0.5121380497464826,0.17212649146083372,-0.03425174836282147,8.330461596832629e-05,-0.9143107809735681,0.6824659316227697,1.303314475489845,0.3362005660400742,0.05871466995693542,0.0014677124481020098,-0.43841376212596667,10.28691373313864,1.6681637403275635,0.12754203602397457,0.03138335699039148,0.0003033913426316951
0.88,0.28300351516757416,0.002523757765154043,-1.6112781428236267,0.06023103767814227,-0.02847295027761005,-0.0002231221785537839,0.9377878918825552,-0.042989848538263487,0.5250208196037031,0.1755371500272245,-0.03374884837047701,8.875491113069476e-05,-1.003933724801497,0.6063462128546744,1.2446693074241642,0.32191607770117514,0.061549326651251235,0.0014962523911928455,-0.47695774840859584,10.203623570114393,1.6186787353805907,0.11514421272487613,0.0330463434943857,0.0003009809271056017
0.89,0.29228123380060167,0.002154854329828824,-1.605904920524611,0.06201907457494418,-0.028805114125416222,-0.00022218096536666957,0.9277718633027505,-0.03689034353252194,0.5373222299015687,0.17880368968019067,-0.03321638478061726,9.412131871143348e-05,-1.0900523403885172,0.5371138228217315,1.186531905469206,0.3072980289409841,0.06427232155214391,0.001518377299472004,-0.5129494702729374,10.123170738098594,1.569409448567594,0.10273739669090273,0.034596766641657596,0.00029774519272301585
0.9,0.3014502047175312,0.0018400175127328644,-1.6004144464856331,0.06383830818878891,-0.02913166903983363,-0.0002211870430273749,0.9168970916929511,-0.03148368170959595,0.549047403897781,0.18192336138447288,-0.03265549144174065,9.939223392946795e-05,-1.1726348344330164,0.4716111892891685,1.1289404533892224,0.29242059785789554,0.06688044673861704,0.0015341758677185902,-0.5464209830469979,10.044024930821557,1.5198636706436794,0.09023072445530693,0.03603470438710259,0.0002936681166616842
0.91,0.3105021934696381,0.001572691259880702,-1.5948124298266817,0.06568725081028305,-0.029452342436863108,-0.0002201414772013045,0.9051988752106872,-0.026732625285216246,0.5602016658951472,0.18489426214941437,-0.03206733970294792,0.0001045565826070403,-1.2516562483348153,0.41266990271700266,1.071870731700931,0.2773571615512287,0.06936986363611641,0.0015438493304686315,-0.5774001743088375,9.96771133790486,1.4706169968617497,0.0777387929370448,0.03736245537613529,0.00028883836659341483
0.92,0.3194293210824319,0.001346973931089171,-1.5891045264530912,0.06756439907266357,-0.02976687364052185,-0.00021904544693333159,0.8927127612793798,-0.022571732879153088,0.5707903373590438,0.1877148262380517,-0.03145312036587439,0.00010960302679728931,-1.327101968391049,0.35892204988645954,1.015338274073768,0.26214597681623975,0.0717387977409496,0.0015475923602236014,-0.6059351272336706,9.893602397819814,1.4214921958092304,0.06523130903642062,0.0385815349378187,0.0002832778501199012
0.93,0.32822406550702476,0.001157482020927176,-1.5832963382680796,0.06946823808799107,-0.030075014077778694,-0.00021790023925937163,0.8794744424592893,-0.018949191016199497,0.58081881850116,0.19038390153275098,-0.03081404372568437,0.00011452076739599435,-1.3989666747349814,0.3085087016201714,0.9593534026532607,0.24682937240569602,0.07398539425774775,0.0015456618603460846,-0.632077253832025,9.820828037870882,1.3722283378345685,0.05266237391214681,0.039693263422363054,0.00027699899913100583
0.9400000000000001,0.3368792621425638,0.0009991649511523967,-1.577393413168059,0.07139724624936984,-0.030376527489177636,-0.00021670724234394622,0.8655196635539021,-0.015831706977477936,0.5902925100020611,0.19290081613787693,-0.030151341139894147,0.00011929969154254144,-1.467252221354427,0.26333739785743465,0.903899719098504,0.23145145134637612,0.07610753183032681,0.0015383016436049252,-0.6558773605876146,9.750417655506022,1.323224946029383,0.040112068267710806,0.04070052648070147,0.000270079063568445
0.9500000000000001,0.34538810364729355,0.0008674950759295697,-1.5714012451305923,0.07334989708728719,-0.030671190010581915,-0.00021546794510704292,0.8508841504729722,-0.013166987522282698,0.5992168037466707,0.1952650837917348,-0.02946625214042794,0.00012392972369032885,-1.531968502568137,0.22329900946573522,0.8489790376152994,0.2160318533344232,0.07810443830102454,0.0015257399258263998,-0.6773994856609672,9.682370664345754,1.2745218735016726,0.027591532534608956,0.041606015307790234,0.0002625649795235409
0.96,0.3537441389422569,0.0007584568078926448,-1.565325274030615,0.07532466089459679,-0.03095879022809458,-0.00021418393270162918,0.8356035294963396,-0.01090382680369249,0.607597109997736,0.19747638073095983,-0.028760021751266806,0.0001284012405413742,-1.5931326199640345,0.18767153840195272,0.794591845956711,0.20058685690588174,0.0799755714695145,0.0015082523784707702,-0.6967126065928634,9.616376019192952,1.2260502756788063,0.015091228086396208,0.042412353378908293,0.00025449351342602295
0.97,0.3619412714940563,0.0006684746863880447,-1.5591708860006046,0.07732000655532464,-0.031239129232746105,-0.0002128568802030572,0.8197132551799361,-0.008998212150460021,0.6154388030010438,0.19953456607278605,-0.028033900465152414,0.0001327052498571964,-1.6507687790390766,0.15641302300589974,0.7407343002704099,0.18513499503503095,0.08172039131462405,0.0014861253384876871,-0.7138877413444551,9.552460804535071,1.177857633537384,0.002623613640766194,0.043122534859457946,0.00024591229035559876
0.98,0.3699737568891945,0.0005944091886046187,-1.5529434137481135,0.07933440299485812,-0.031512020641899924,-0.00021148854740648455,0.8032485395138182,-0.007406549778342593,0.6227472252491064,0.2014396439533477,-0.027289140915382162,0.00013683327965726614,-1.7049078725850455,0.12954487585449492,0.6874037147122625,0.16969118403026817,0.08333868126353572,0.0014596393714885192,-0.7289996465135232,9.490678650464652,1.1299993949675744,-0.00979750746581555,0.043739764365169395,0.0002368700721361042
0.99,0.37783619974044824,0.0005335588568597958,-1.5466481367421656,0.08136632030572419,-0.03177729058861956,-0.00021008077365154338,0.7862442851253785,-0.006085033174482287,0.6295277005948001,0.20319173108660613,-0.026526994671964003,0.00014077737549411738,-1.7555867268561411,0.10655735150642304,0.6345978571598139,0.1542669022160319,0.08483052794184509,0.0014290799552461597,-0.7421263625905553,9.43081673861035,1.0824377965875076,-0.022175968182690846,0.04426715817915938,0.00022740638921638545
