tonegas/nnodely-applications/joint_friction_estimation/dataset/train/mpc_mujoco_episode_37 copy.csv
time,q1,q2,q3,q4,q5,q6,dq1,dq2,dq3,dq4,dq5,dq6,ddq1,ddq2,ddq3,ddq4,ddq5,ddq6,tau1,tau2,tau3,tau4,tau5,tau6
0.0,0.0,1.57,-1.57,0.0,0.0,0.0,0.0,0.0,0.0,0.0,0.0,0.0,-14.696184336676778,7.3147408468161075,12.345405170722302,4.6148790969971785,-2.0841579686958767,-1.5447154684267161e-06,-2.047840885999047,1.4787699679058406,-1.3537968420072715,-0.271248824228155,-0.18472417426561874,-0.002350095429226974
0.01,-0.001461749486263533,1.5707334291670116,-1.5687692995298146,0.00043256760264637466,-0.00017736921151290021,-1.5779776982836503e-06,-0.1461749486263533,0.07334291670114748,0.12307004701854732,0.04325676026463746,-0.01773692115129002,-0.00015779776982836503,-14.664289062540517,7.463953082879403,12.205007986816375,4.268934479125129,-1.7587377674808664,-0.01563661968256902,-2.064182242658877,1.499525844974742,-1.3508149485957635,-0.2710455141061425,-0.18577102799402603,-0.0023516627005451675
0.02,-0.0043809947810826465,1.5722152804538183,-1.5663236021591422,0.001269811060712874,-0.0005121918911739358,-4.801420401837931e-06,-0.29192452948191133,0.1481851286806562,0.2445697370672243,0.08372434580664993,-0.033482267966103554,-0.00032234427035542806,-14.613436753747648,7.609346182306191,12.024151069047694,3.9786891889798426,-1.5540236438703516,-0.015820260325032365,-2.0944812147296608,1.4785121486462058,-1.355574125293848,-0.2716562944151,-0.18757516013972775,-0.0023459175062885956
0.03,-0.00875205657395973,1.5744600986448303,-1.5626821681431122,0.0024879047248166824,-0.0009917261316015834,-9.560277619411163e-06,-0.4371061792877083,0.22448181910119125,0.36414340160300074,0.1218093664103808,-0.04795342404276476,-0.0004758857217573232,-14.545557533266786,7.746435205296793,11.80507919960221,3.7279147269006643,-1.4185782033519843,-0.013839238478775329,-2.1382441895743707,1.4138345563661803,-1.368833320679256,-0.27323365705536695,-0.1900733278549591,-0.002332275033620159
0.04,-0.014567842876649528,1.5774815461981975,-1.557867704004624,0.004065843002795141,-0.001607298305745164,-1.5743694261974375e-05,-0.5815786302689799,0.30214475533671414,0.48144641384882175,0.1577938277978459,-0.06155721741435806,-0.0006183416642563212,-14.460649402512871,7.870882798388412,11.549016615436456,3.504216743053121,-1.3214570482230954,-0.011478085877397959,-2.194741754718209,1.3038706289049005,-1.3911871726963585,-0.2758827518629592,-0.1931769719831989,-0.0023099944495933254
0.05,-0.021819739696956945,1.5812919807444457,-1.5519063272256481,0.005984487372504492,-0.002352430055420119,-2.3250449413476207e-05,-0.7251896820307415,0.38104345462481864,0.59613767789759,0.19186443697093503,-0.07451317496749547,-0.0007506755151501833,-14.35752701169249,7.978525590741049,11.256512809681011,3.298182498729375,-1.2441523021281,-0.00889296644355575,-2.262988042588263,1.1473720992828413,-1.423037836117257,-0.2796569593563448,-0.19677306196014185,-0.002278180949622785
0.06,-0.03049742678089886,1.585902047682215,-1.5448275777210945,0.008225841432152653,-0.003221716414162574,-3.1981369336295675e-05,-0.8677687083941917,0.4610066937769318,0.7078749504553621,0.22413540596481613,-0.08692863587424549,-0.000873091992281947,-14.234313175336501,8.065421274050049,10.927730703620824,3.102725846321597,-1.1757540096231907,-0.006080046059127042,-2.34171839978568,0.9435709572061208,-1.4645664425064058,-0.2845537398720491,-0.20072540385318402,-0.002235817233619478
0.07,-0.0405886506379698,1.591320293170481,-1.5366644521605097,0.010772504618252132,-0.004210163715848089,-4.1833619015328454e-05,-1.009122385707094,0.5418245488266105,0.8163125560584793,0.25466631860994793,-0.09884473016855155,-0.0009852249679032777,-14.088774573434097,8.12790866632255,10.562686603993697,2.9125883046574117,-1.110015332778488,-0.0030645546315479777,-2.4293691342980104,0.6922824861003223,-1.5157068362915642,-0.2905114169474907,-0.20487659805307978,-0.0021818138919434643
0.08,-0.05207897799452868,1.597552803959945,-1.5274534409051104,0.013607267194811071,-0.005312810407463376,-5.269810011260328e-05,-1.1490327356558878,0.6232510789463753,0.9211011255399273,0.2834762576558939,-0.11026466916152865,-0.0010864481097274826,-13.918562444188478,8.16267427075867,10.16144871961053,2.7239590179410555,-1.043563188649216,9.46140471977941e-05,-2.524063295875762,0.3939983645970635,-1.576124212814244,-0.29740750827252804,-0.20905079038280902,-0.00211507232444776
0.09,-0.06495154732530595,1.6046028810405564,-1.5172345506002995,0.016712818141926503,-0.006524522999420866,-6.445900817007867e-05,-1.2872569330777262,0.7050077080611361,1.0218890304810784,0.3105550947115433,-0.12117125919574905,-0.0011760908057475384,-13.721393804317074,8.166819636153358,9.724298604181094,2.5341839095171395,-0.9748000814402218,0.003320532725405556,-2.6236065146234147,0.04996312009768644,-1.6452011616428561,-0.30505914600250217,-0.21305730572972537,-0.0020345556696891535
0.1,-0.07918683263052045,1.6124707540754266,-1.50605129849853,0.020071544289301357,-0.00783990107424475,-7.699469202475215e-05,-1.4235285305214511,0.7867873034870206,1.1183252101769616,0.33587261473748553,-0.13153780748238852,-0.0012535683854673475,-13.495193073514866,8.137924467833054,9.251858209579074,2.3415409794165214,-0.9032231017674803,0.006531667661848317,-2.725496734879902,-0.33777226196036914,-1.7220333431982642,-0.3132260183751181,-0.21669518791137687,-0.0019393638505761735
0.11,-0.09476243118626504,1.62115334310032,-1.4939506675077268,0.023665403971787097,-0.009253250384319704,-9.017922959440615e-05,-1.557559855574458,0.8682589024893409,1.2100630990803267,0.3593859682485741,-0.14133493100749533,-0.001318453756965401,-13.238204460504672,8.074101100580819,8.7451842520314,2.1450640814468755,-0.8289950664014469,0.009651288027992422,-2.8269511386859447,-0.7663248413562656,-1.805436572249861,-0.32161611194841366,-0.21975859553826735,-0.0018288088785004398
0.12,-0.11165288501394292,1.6306440730536838,-1.4809830138292246,0.02747586204800674,-0.010758598196791315,-0.00010388433503561023,-1.6890453827677885,0.9490729953363665,1.2967653678502076,0.38104580762196444,-0.15053478124716121,-0.0013705105441204068,-12.949079917496938,7.974036714264129,8.20583120520922,1.944401827139643,-0.7526688968112509,0.012613521209227763,-2.9249526004386928,-1.2319862534718071,-1.8939664470618873,-0.3298943414842568,-0.22204292519715954,-0.0017024863877010549
0.13,-0.12982954396031493,1.6409327454382103,-1.4672019218778323,0.031483875655080464,-0.012349734194233178,-0.0001179813451933483,-1.8176658946372009,1.0288672384526585,1.378109195139226,0.40080136070737205,-0.15911359974418615,-0.0014097010157738078,-12.62694448160434,7.837020570311339,7.635884310739909,1.7397017057770796,-0.6750063354129239,0.01536675001993082,-3.0163166494109337,-1.7302634495463236,-1.9859508734609133,-0.33769393293959626,-0.22335145594934372,-0.001560339239314932
0.14,-0.14926047639082657,1.6520054698884805,-1.4526640039365795,0.03566992184234763,-0.014020265838101984,-0.00013234312218395402,-1.9430932430511623,1.1072724450270124,1.4537917941252734,0.4186046187267163,-0.16705316438688073,-0.0014361776990605725,-12.271425198487542,7.662954073233499,7.037964691277514,1.5315124110812235,-0.5968562500494414,0.01787490060914454,-3.0977757536527357,-2.255953989278236,-2.0795349658278695,-0.3446301930838307,-0.22350205091275077,-0.0014027073766999603
0.15,-0.16991043010708526,1.6638446566812206,-1.4374286446044648,0.0400140594661953,-0.015763680571761952,-0.00014684577072438012,-2.0649953716258693,1.183918679274018,1.5235359332114518,0.43441376238476714,-0.17434147336599665,-0.001450264854042609,-11.882746753601115,7.452346299833852,6.415206930079297,1.3206981981150676,-0.5190707314208751,0.02011708804674761,-3.1660958595324784,-2.803252636135934,-2.172736669487368,-0.35031606211203115,-0.2223349448819853,-0.0012303726058656244
0.16,-0.19174085284864428,1.6764290697559239,-1.4215576927066116,0.044496018488941934,-0.01757340971273477,-0.00016137011293002772,-2.1830422741559015,1.2584413074703316,1.5870951897853158,0.4481959022746632,-0.1809729140972815,-0.00145243422056476,-11.461581447128616,7.20628559461202,5.771218089496632,1.1083653860327018,-0.4424520400044969,0.02208607598845269,-3.2181673868808707,-3.3658893242634162,-2.2635112764536953,-0.35437867028004566,-0.21971714698416608,-0.0010445573870141395
0.17,-0.21470995746404703,1.689733937413718,-1.4051151050830952,0.04909531065939658,-0.019442890041535363,-0.00017580289724932003,-2.296910461540276,1.330486765779405,1.6442587623516447,0.45992921704546513,-0.18694803288005934,-0.0014432784319292303,-11.009178900785015,6.926404358253865,5.110012250525385,0.895793243285187,-0.36771124580848635,0.023785900038655328,-3.2511530053632054,-3.937285236933124,-2.3498208886130554,-0.3564759835990432,-0.21554995667791393,-0.0008469391293528485
0.18,-0.2387728446057775,1.7037311171729914,-1.3881665490367328,0.05379135573861763,-0.02136562065027046,-0.00019003773856035024,-2.4062887141730473,1.3997179759273466,1.6948556046362369,0.46960450792210484,-0.19227306087350982,-0.0014234841311030213,-10.527220567019095,6.614823127332256,4.435934719930724,0.6843740730922683,-0.29544931833034127,0.025229139307632487,-3.2625901931661474,-4.51072738635594,-2.4297059667531045,-0.35631248635543283,-0.2097719768722126,-0.0006396121054505578
0.19,-0.26388166854576217,1.718389309190078,-1.3707789711888136,0.058563618096537956,-0.023335213224598993,-0.00020397580657441813,-2.5108823939984664,1.4658192017086529,1.738757784791917,0.4772262357920328,-0.19695925743285314,-0.0013938068014067897,-10.016828802222385,6.274069800691166,3.7535985424304457,0.4755693843861408,-0.2261531169949862,0.026434038802308102,-3.250320252817499,-5.079551201422191,-2.501353165544398,-0.353652467950661,-0.20234923475789127,-0.0004249510322927552
0.2,-0.28998574775948877,1.733674310176382,-1.3530201392193326,0.06339174985016476,-0.025345432680896247,-0.00021752630630922422,-2.610407921372661,1.5285000986304254,1.7758831969481046,0.48281317536267954,-0.20102194562972533,-0.001355049973480609,-9.477197786309342,5.906994654796814,3.067831856673026,0.2708775490065918,-0.16018081869064105,0.027421492917556023,-3.2122980106935066,-5.637308053328303,-2.563155582730667,-0.3483306130811775,-0.19325801874688547,-0.0002054562888470741
0.21,-0.3170314842125625,1.7495492993257253,-1.3349581618545483,0.0682557376804254,-0.027390223794178464,-0.00023060681377892641,-2.704573645307374,1.58749891493432,1.806197736478423,0.48639878302606454,-0.2044791113282217,-0.001308050746970221,-8.547583151103009,5.511887195191751,2.3930985177329642,0.07599386326529256,-0.10117621613338912,0.028212354833354603,-3.074407021665297,-6.17847788068315,-2.6129497456942046,-0.340013840785222,-0.17752970699713666,4.703407288517982e-05
0.22,-0.34492653804893747,1.7659746707575203,-1.3166600473144268,0.07313643846468418,-0.029463021438983224,-0.00024315278973946106,-2.789505383637495,1.6425371431794993,1.8298114540121555,0.48807007842587824,-0.20727976448047583,-0.0012545975960534651,-7.434500886891974,5.095817444952561,1.7301216503015002,-0.10997683097703437,-0.037780598733036186,0.02867959379204832,-2.8721431964471273,-6.693244185963373,-2.650746540475199,-0.32918048153849555,-0.15796872325543754,0.00030494318929963945
0.23,-0.3735602976471497,1.7829087396368786,-1.298191634225838,0.07801551005637364,-0.03155661914754757,-0.00025510966133498124,-2.8633759598212234,1.6934068879358144,1.8468413088588738,0.48790715916894634,-0.20935977085643495,-0.0011956871595520154,-6.333293869744019,4.664857882064332,1.0787134624750783,-0.2880292888417557,0.03177854313084083,0.028912521439031558,-2.6442417250554966,-7.1748817323538185,-2.6772034586987377,-0.3163704012446552,-0.13739321971316407,0.0005465387622654816
0.24,-0.40282328030189635,1.8003083482198046,-1.2796176120550804,0.08287532934096443,-0.03366355949634752,-0.00026642649601094217,-2.9262982654746654,1.739960858292609,1.8574022170757452,0.48598192845908017,-0.21069403487999488,-0.0011316834675960947,-5.272548489630358,4.222812925042176,0.4421301039747263,-0.457449609972727,0.10260659564475816,0.02900870974377856,-2.3987371792666456,-7.619727698934083,-2.6927409651397918,-0.3019303616825166,-0.11640622174287396,0.0007669946366865262
0.25,-0.4326099896346901,1.8181292457765144,-1.2610011968259798,0.08769906597212171,-0.0357765013750453,-0.00027705721944839613,-2.978670933279377,1.7820897556709856,1.8616415229100525,0.48237366311572805,-0.21129418786977788,-0.0010630723437453954,-4.267246907460556,3.7731957084944123,-0.17638118936400016,-0.6175212883970769,0.1712400992078038,0.028982739530605706,-2.14181648586736,-8.02537969275066,-2.697982301594156,-0.28621112639223545,-0.09544550301395956,0.0009634504568137479
0.26,-0.4628204179243996,1.8363264393450922,-1.2424038076405775,0.09247075602572083,-0.03788846235107579,-0.00028696225595381677,-3.0210428289709466,1.8197193568577927,1.8597389185402358,0.4771690053599117,-0.21119609760304858,-0.000990503650542064,-3.336705210138546,3.3193241370787847,-0.7738690126404291,-0.7676550031059803,0.23554253101094957,0.028836988413321718,-1.8812620635488455,-8.390517912586567,-2.693718459685024,-0.2695609696853688,-0.07501768352575043,0.001133635097196684
0.27,-0.4933619758984011,1.8548545248979116,-1.2238847727106494,0.09717536364002051,-0.03999298689735438,-0.0002961091190324292,-3.054155797400151,1.8528085552819387,1.8519034929928042,0.4704607614299675,-0.21045245462785916,-0.0009146863078612445,-2.5085401367863494,2.864289952131597,-1.3476801588095908,-0.9073822115118186,0.2940938833270419,0.02857858456354001,-1.6272065584606477,-8.714868365995937,-2.6807951654598083,-0.2522920313596936,-0.05574136600471178,0.0012758973721463608
0.28,-0.5241522460724725,1.8736679958470255,-1.2055010651397218,0.10179883119262849,-0.04208428665814476,-0.0003044719615635165,-3.0790270174071335,1.8813470949113922,1.8383707570927634,0.4623467552607981,-0.20912997607903788,-0.0008362842531087231,-1.7796615000074445,2.4109152174117088,-1.8953419010827917,-1.0362997276725232,0.3456775941692154,0.028221598655985836,-1.3832707379764324,-8.999151584339975,-2.6599644494765426,-0.23464161197828803,-0.037790828494174394,0.0013912738531212578
0.29,-0.5551186830458096,1.8927215244533335,-1.1873070566957244,0.10632812304561604,-0.044157296455408106,-0.00031203181380770937,-3.0966436973337097,1.9053528606308012,1.8194008443997223,0.45292918529875537,-0.2073009797263348,-0.0007559852244192905,-1.1746768032351467,1.9618100132645824,-2.4148555402041714,-1.15419053534354,0.38999794598176774,0.027767539845682948,-1.159107103656904,-9.24469916171437,-2.631970665334252,-0.216809409234754,-0.021698740221241755,0.0014801281980732011
0.3,-0.586201064717607,1.911970222057173,-1.169354318921661,0.11075125170641567,-0.046207734702243465,-0.0003187752518249021,-3.1082381671797457,1.9248697603839418,1.7952737774063368,0.44231286607996356,-0.20504382468353577,-0.000674343801719276,-0.7159730771226441,1.5193147190078238,-2.9044639433095267,-1.2609152766409082,0.42659275550039455,0.02723265746067749,-0.9637903855948151,-9.45355078407932,-2.597334005895614,-0.19889458476436533,-0.007930380773684662,0.0015440895111574664
0.31,-0.6173537231438512,1.9313698722959318,-1.151691448336775,0.11505729637418989,-0.048232167241077095,-0.0003246929240774733,-3.1152658426244115,1.9399650238758788,1.7662870584886126,0.43060446677742226,-0.20244325388336315,-0.0005917672252571198,-0.40766758285083876,1.0855250471700406,-3.3627853302335087,-1.3564642229600317,0.45500553191481163,0.026634023529447298,-0.8018947939761614,-9.628288396350992,-2.556316364225576,-0.18089729202839078,0.0033450238388619408,0.0015863239977060356
0.32,-0.648545958435389,1.9508771397472024,-1.1343639290969525,0.11923640897700719,-0.050228030460974814,-0.00032977873635002666,-3.119223529153783,1.9507267451270516,1.7327519239822557,0.41791126028172965,-0.19958632198977194,-0.0005085812272553385,-0.19803578998439011,0.6622826017806079,-3.788681404854212,-1.4408974560959127,0.4750890091341279,0.025980608964157312,-0.6645046821715404,-9.771734070029945,-2.508986436943669,-0.1627555815913247,0.01276160888772402,0.0016115479132973289
0.33,-0.6797568979942308,1.9704497529750244,-1.117414019962147,0.12327981308011499,-0.05219351949723541,-0.0003340314308740733,-3.1210939558841795,1.9572613227821944,1.6949909134805579,0.40434041031078055,-0.19654890362605984,-0.00042526945240466363,-0.06322998813332338,0.25119340384953975,-4.181326221983126,-1.5143724551845228,0.4880221002902375,0.02525241077925275,-0.5482317691989687,-9.886455542186635,-2.4555780117203616,-0.1444580065404025,0.0205907803001037,0.0016226960666607766
0.34,-0.7109731236946686,1.9900466641618486,-1.1008806724374078,0.12717979323284553,-0.0541274562486242,-0.0003374545483815931,-3.1216225700437765,1.9596911186824062,1.6533347524739053,0.3899980152730559,-0.19339367513887878,-0.00034231175075198254,0.025512941523242683,-0.1463612167425844,-4.5401729125589485,-1.5771265846806841,0.4951438648450016,0.02444506633903737,-0.4479466106692217,-9.974953342368597,-2.396384930387629,-0.12600802858512106,0.027185759266180252,0.0016221853907582614
0.35000000000000003,-0.7421858092142556,2.0096281862594507,-1.0847994767641211,0.13092967636592945,-0.05602914020673087,-0.00034005639904873084,-3.121268551958696,1.9581522097602133,1.6081195673286746,0.37498831330839216,-0.19016839581066675,-0.00026018506671377216,0.08769785150183727,-0.5292110359483532,-4.864933248835289,-1.629466050010338,0.49793381652557106,0.02355402893595024,-0.36016971008856924,-10.039598335508744,-2.3318252903812176,-0.10744121106999076,0.03278278930556733,0.00161166352471829
0.36,-0.7733887773861347,2.0291561090758856,-1.0692026337051301,0.13452380630482377,-0.057898211723204016,-0.0003418496178480873,-3.1202968171879055,1.952792281643478,1.5596843058991074,0.3594129938894334,-0.18690715164731464,-0.00017932187993564282,0.1327337822757373,-0.8963815817499922,-5.155558338908442,-1.6717554684371443,0.49772630989699346,0.022580121687750532,-0.28340865327898457,-10.082676239773217,-2.2624064286577066,-0.08881227792735011,0.037490597503617606,0.0015923176331401453
0.37,-0.8045775617883394,2.0485937958288627,-1.0541189501848585,0.13795751240417328,-0.059734546033661,-0.0003428503456967882,-3.118878440220469,1.9437686752977201,1.5083683520271602,0.3433706099349508,-0.1836334310456982,-0.00010007278487009174,0.18822151888831576,-1.2470778067217139,-5.412200380561091,-1.70440017025712,0.49551761526831845,0.021530006616917396,-0.21165603077109058,-10.106422794643825,-2.188676261678169,-0.07018308442086889,0.04166201363893504,0.0015650495951750546
0.38,-0.8357466594942001,2.067906261687832,-1.039573854987662,0.1412270738902078,-0.06153813484371077,-0.00034307861478759987,-3.1169097705860747,1.9312465858969479,1.454509519719632,0.32695614860345346,-0.18035888100497718,-2.2826909081164297e-05,0.2596445410069472,-1.5806706437716056,-5.635221558139095,-1.7278484623876906,0.4924063226172144,0.020399308417283518,-0.14382834733980682,-10.112896145633059,-2.111358333774226,-0.05165776468243216,0.045356634803002616,0.0015303181882468865
0.39,-0.8668889834257305,2.087060235830735,-1.0255894353474888,0.14432967979556705,-0.06330900554328439,-0.00034255774658004784,-3.1142323931530433,1.9153974142902908,1.3984419640173178,0.3102605905359248,-0.17708706995736223,5.208682075519969e-05,0.5127362136131484,-1.8966856954282274,-5.825029795468343,-1.7425232747410355,0.4877410988485027,0.01919627837078297,-0.041430640065079405,-10.104081826801755,-2.0312718948925754,-0.03337870966124229,0.05066968990591319,0.0014862394860053808
0.4,-0.8979793778517647,2.1060242073174176,-1.0121844783368263,0.14726339047090162,-0.06504695768109567,-0.0003413239540672984,-3.109039442603425,1.896397148668237,1.3404957010662393,0.2933710675334576,-0.1737952137811282,0.00012337925127494254,0.9372061957497122,-2.1949577394310538,-5.983200514986024,-1.7492488990537076,0.4849349791763444,0.017822414424292887,0.0931237408199675,-10.08120677298351,-1.9506558993605303,-0.015850554745296702,0.05736083378307805,0.0014303562795867286
0.41000000000000003,-0.9289756348231768,2.1247684409825154,-0.999374628406705,0.1500270611747866,-0.06675137228347544,-0.0003394247037100129,-3.099625697141209,1.8744233665097791,1.2809849930121315,0.2763670703884985,-0.17044146023797657,0.00018992503572854975,1.3689091087482887,-2.475463052718469,-6.111447326232149,-1.7488431040661645,0.4872656276131222,0.016297330558251277,0.2217653745728561,-10.045637867346365,-1.871618286581071,0.0005033038318274508,0.06329604925430599,0.0013642439473445576
0.42,-0.9598348161576813,2.143264979875565,-0.9871725582443713,0.1526202661369962,-0.06842130300865573,-0.0003369064596208918,-3.085918133450448,1.8496538893049688,1.2202070162333603,0.259320496220961,-0.16699307251802908,0.0002518244089121138,1.7790397065722472,-2.7382490428225363,-6.211214477164164,-1.7419620728133651,0.49306510996892783,0.014756337423299737,0.3380160597709987,-9.999495714240524,-1.79488862062767,0.01563365805292638,0.06814086067555326,0.0012898243787193104
0.43,-0.990516122519268,2.161487639764954,-0.975588112945802,0.1550432373425411,-0.07005563465109553,-0.00033381233421162095,-3.068130636158675,1.822265988938927,1.158444529856931,0.24229712055448968,-0.16343316424398047,0.00030941254092708493,2.1766148396230856,-2.9834950199865435,-6.28408854130642,-1.729263863537927,0.5004263536691056,0.013236685411280313,0.444330655232185,-9.944890998573161,-1.720891416072704,0.029564570050153366,0.07205298612827107,0.0012084902187894746
0.44,-1.0209800003647533,2.1794119903208964,-0.9646284683704319,0.1572968025974716,-0.07165318971049482,-0.0003301836139693344,-3.046387784548542,1.7924350555942141,1.095964457537013,0.22535652549305032,-0.15975550593992977,0.0003628720242286558,2.5553258386686046,-3.2114671589605974,-6.331669821909891,-1.7113652787368387,0.5084026995427173,0.011736343882258304,0.5397672958924511,-9.883703365735599,-1.6500139455515856,0.042323300561178306,0.07500974136389033,0.001121870111149045
0.45,-1.051188771442616,2.1970153278034545,-0.9542982906905816,0.15938232696869659,-0.07321279975494839,-0.0003260601492559204,-3.0208771077862604,1.760333748255832,1.0330177679850387,0.20855243712249832,-0.1559610044453571,0.0004123464713413977,2.918766978485818,-3.4225322259335043,-6.355657883059434,-1.6888775955953044,0.5161813378368709,0.010264448047224262,0.6257632179433519,-9.817667177606083,-1.5825218947072388,0.053958613867226,0.07711738140153827,0.001031270924899906
0.46,-1.0811062767938506,2.2142766377135836,-0.9445999057714597,0.16130165432904128,-0.07473335108257026,-0.0003214810351335318,-2.991750535123451,1.7261309910129206,0.9698384919121915,0.19193273603446895,-0.1520551327621865,0.0004579114122388615,3.2665131943411247,-3.617125109049552,-6.357758726965164,-1.6623759237678613,0.5233256629519953,0.008826426849085744,0.7028954897288927,-9.748317001592994,-1.5186311531536907,0.06452216839397601,0.07843758916224415,0.0009379781077922325
0.47000000000000003,-1.1106979198092772,2.231176550738284,-0.9355334690754015,0.16305705192728845,-0.07621381287767824,-0.00031648478120469817,-2.9591643015426525,1.6899913024700386,0.9066436696058268,0.17553975982471753,-0.14804617951079774,0.0004996253928833634,3.5987532084095126,-3.795742016963264,-6.339689212438792,-1.6324052800180517,0.5295397083692297,0.007431861415151952,0.7719163376343336,-9.6770146665423,-1.4584906256272867,0.0740719188291909,0.07904258367305274,0.0008431442351478855
0.48,-1.139930647909346,2.247697292632207,-0.9270971365629864,0.1646511574826405,-0.07765325519101067,-0.0003111093342667934,-2.9232728100068743,1.6520741893923112,0.8436332512414999,0.15941055553520606,-0.14394423133324266,0.0005375446937904772,3.9159913839547795,-3.9589290619710624,-6.30316088869763,-1.5994786228599764,0.5346350200533809,0.006090566256830687,0.8336585847876811,-9.604954704999097,-1.4021966947252533,0.08266805296983809,0.07900945249321718,0.0007477847860826873
0.49,-1.1687729025864249,2.263822629176173,-0.9192872349863458,0.1660869290356878,-0.07905085940614157,-0.00030539202841309667,-2.8842254677078714,1.6125336543966087,0.7809901576640673,0.1435771553047311,-0.13976042151308976,0.0005717305853696728,4.218498747115577,-4.107269540752961,-6.249858733270325,-1.564073166104066,0.5385073798567355,0.004811636706114841,0.8888904175714835,-9.533172280492721,-1.3498030355223989,0.09037053231897957,0.07841228310720329,0.0006527965894461747
0.5,-1.1971945924811447,2.2795378074842874,-0.9120984294606651,0.16736759794839393,-0.08040592358638159,-0.0002993694658102143,-2.8421689894719813,1.5715178308114406,0.7188805525680703,0.12806689127061113,-0.13550641802400162,0.0006022562602882364,4.506910063465299,-4.241376959787079,-6.181437419872498,-1.5266330262539682,0.5411025727758947,0.0036032800245016094,0.9384347378716568,-9.462556874087774,-1.3013285524833134,0.09723723423584912,0.07732776249032801,0.0005589365519923855
0.51,-1.2251670301686903,2.2948294943499112,-0.9055238879547074,0.16849662484831127,-0.08171786396971761,-0.0002930773986874601,-2.7972437687545644,1.529168686562385,0.6574541505957754,0.11290268999173354,-0.13119403833360307,0.0006292067122754203,4.781735088204,-4.361884464380211,-6.099504537514403,-1.4875670218000465,0.5424131043978093,0.0024720355325664745,0.9830468548087476,-9.393862289460023,-1.256765946830884,0.10332230067916937,0.07582856249970273,0.0004668450764812878
0.52,-1.2526628812931597,2.309685712687227,-0.8995554410333279,0.1694776587628092,-0.08298621360006668,-0.0002865505979125303,-2.749585112446945,1.4856218337315887,0.596844692137955,0.09810339144979413,-0.12683496303490646,0.000652680077492977,5.043492150055083,-4.469437606493882,-6.0056138500793255,-1.4472500613828245,0.5424626073712844,0.0014229141118011768,1.0234369083827488,-9.327719805885941,-1.2160871124705541,0.10867535422357147,0.0739841520715894,0.00037704875820870345
0.53,-1.2796561127962416,2.3240957767868093,-0.8941837361904776,0.1703144993514719,-0.08421061889851236,-0.0002798227281926731,-2.6993231503081803,1.4410064099582187,0.5371704842850171,0.08368405886626822,-0.12244052984456857,0.0006727869719857202,5.292706787749644,-4.564687530280084,-5.901258579623381,-1.4060243303985978,0.5412984431977534,0.00045924699320698537,1.0602648622158062,-9.264650442429327,-1.1792483347504228,0.11334089057658386,0.071860233973839,0.0002899691790012949
0.54,-1.3061219403950144,2.3380502270627113,-0.8893983861123891,0.17101106215992237,-0.08539083466099616,-0.0002729262385760124,-2.6465827598772798,1.395445027590204,0.47853500780885316,0.0696562808450488,-0.11802157624837903,0.0006896489616660695,5.529902833089138,-4.648284905000332,-5.787866118514291,-1.364200776112252,0.5389862854766925,-0.00041730257625594014,1.0941364379135174,-9.205076768888086,-1.1461945632810042,0.11735797389293498,0.06951827994657506,0.00020593306616387952
0.55,-1.3320367762100296,2.3515407648936915,-0.885188110352808,0.17157134678730782,-0.0865267178534744,-0.0002658922719499234,-2.5914835815015156,1.3490537830980196,0.4210275759581104,0.056028462738544435,-0.11358831924782434,0.0007033966626089006,5.755595842539596,-4.720874575634285,-5.666794090454583,-1.3220608289577847,0.53560577356998,-0.0012066389472156214,1.1256016914332494,-9.149334103516626,-1.1168627948190522,0.12076018938100386,0.06701525130535507,0.00012518295148620433
0.56,-1.3573781772079438,2.3645601880892455,-0.8815408700362682,0.17199940783448492,-0.08761822050379192,-0.00025875059487411164,-2.5341400997914283,1.301942319555389,0.3647240316539734,0.04280610471771127,-0.10915026503175225,0.0007141677075811748,5.970287810528181,-4.783090854181571,-5.53932757383111,-1.2798582656999216,0.5312468938221535,-0.0019100817288426608,1.1551554977740113,-9.097680953674463,-1.091184670001245,0.1235757991198618,0.06440346705342015,4.7887969100317285e-05
0.5700000000000001,-1.3821247949930084,2.3771023274469205,-0.878443995320786,0.17229932848353396,-0.08866538194144012,-0.00025152954757736215,-2.4746617785064684,1.2542139357674837,0.3096874715482244,0.029992064904905864,-0.10471614376481944,0.0007221047296749467,6.174462742528026,-4.835553378854165,-5.406677313141971,-1.2378211337557268,0.5260068733483685,-0.002530180235373436,1.1832394097574288,-9.050308615327813,-1.069088386163819,0.12582805347450743,0.0617305903314071,-2.5845513034229717e-05
0.58,-1.4062563273942963,2.3891619848105323,-0.8758843054492388,0.1724751965503652,-0.08966832060255642,-0.0002442560129325771,-2.4131532401287936,1.205965736361195,0.2559689871547192,0.017586806683122062,-0.10029386611163002,0.0007273534644785068,6.368582892009971,-4.87886347332393,-5.2699787564232725,-1.1961536690299148,0.5199874614548214,-0.003070509124185161,1.210244467035022,-9.007349892333709,-1.050500025698662,0.12753561666321148,0.05903970834667645,-9.596367121355486e-05
0.59,-1.4297534722280096,2.400734872988897,-0.8738482213003315,0.17253108284968474,-0.09062722559174442,-0.00023695540256861655,-2.3497144833713435,1.1572888178364962,0.20360841489073217,0.005588629931955651,-0.09589049891880023,0.0007300610363960541,6.553085548355021,-4.913600943916567,-5.130291769491712,-1.1550381521994417,0.5132925308626426,-0.003535457056532465,1.236514610993661,-8.968886930149306,-1.035344393996023,0.12871307115153047,0.05636948394511539,-0.0001624555970310916
0.6,-1.452597883558192,2.411817557850947,-0.872321870416745,0.17247102171432563,-0.09154234817070883,-0.00022965165789086013,-2.284441133018243,1.1082684862049894,0.15263508835864092,-0.006006113535909947,-0.09151225789644102,0.0007303744677756435,6.728380295793818,-4.94032125894579,-4.988600891451316,-1.114636660302704,0.5060259642016725,-0.003930017972884059,1.2623504275350497,-8.934958183245373,-1.0235454534360446,0.12937147148606473,0.053754359661095485,-0.00022534439074035567
0.61,-1.4747721307313193,2.4224074028750016,-0.871291184541207,0.17229899351784841,-0.09241399332411925,-0.00022236726359942336,-2.217424717312711,1.0589845024054485,0.10306858755380334,-0.01720281964772219,-0.08716451534104125,0.0007284394291436774,6.894846678604576,-4.9595530610630565,-4.8458160100367245,-1.075092681487945,0.4982898086360201,-0.004259592420961855,1.2880129976315005,-8.905564552803991,-1.0150264309560182,0.1295189237441581,0.051224797641604314,-0.0002846790595147834
0.62,-1.4962596604190155,2.4325025163968275,-0.870741989732242,0.17201890905938705,-0.09324251153443608,-0.0002151232712626766,-2.1487529687696187,1.0095113521825752,0.05491948089650052,-0.028008445846136758,-0.08285182103168358,0.0007243992336746746,7.052832216674516,-4.971795970374534,-4.702773349672939,-1.0365325707285535,0.4901826889006955,-0.004529804435724039,1.3137276861979308,-8.880674742732463,-1.0097096672475003,0.1291611718097527,0.048807541305636144,-0.00034052726404722666
0.63,-1.5170447618676228,2.4421017017722497,-0.8706600891617133,0.17163459568205822,-0.09402829087921737,-0.00020793933058373977,-2.0785101448607386,0.9599185375422358,0.008190057052872346,-0.03843133773288343,-0.07857793447812893,0.0007183940678936829,7.202650722325412,-4.97751864300385,-4.5602366793727604,-0.9990668330481878,0.4817984705827669,-0.004746337706496906,1.33968774336415,-8.860229888918003,-1.0075162662783284,0.1283021760960085,0.046525886930260406,-0.00039296892528520495
0.64,-1.5371125355228434,2.4512044106447854,-0.8710313387173848,0.17114978501007483,-0.09477174954663374,-0.00020083372615628726,-2.0067773655220607,0.9102708872535589,-0.037124955567149974,-0.04848106719833859,-0.07434586674163808,0.00071056044274525,7.344580875582521,-4.977157056656309,-4.418898661542484,-0.9627912283466529,0.47322516393405323,-0.0049147932769506575,1.3660576288578838,-8.844147520087851,-1.0083655950618018,0.1269446740815951,0.04439995550699572,-0.0004420906784386622
0.65,-1.5564488651715422,2.459810699486345,-0.8718417155470305,0.17056810220431956,-0.09547332884771088,-0.0001938234177176585,-1.9336329648698765,0.8606288841559362,-0.08103768296456924,-0.0581682805755277,-0.07015793010771483,0.0007010308438628749,7.47886502138852,-4.971113001485007,-4.279382276288815,-0.9277876982471973,0.4645440556544074,-0.005040569747249091,1.3929760002857727,-8.832324909556554,-1.0121746757197052,0.1250907151118311,0.042446957154748687,-0.0004879811430353321
0.66,-1.5750403937203965,2.46792118955883,-0.8730773796874518,0.1698930566509586,-0.09613348678743334,-0.00018692408215099964,-1.8591528548854248,0.8110490072485169,-0.12356641404213034,-0.0675045553360956,-0.06601579397224666,0.000689933556665886,7.605708158812347,-4.95975276113149,-4.1422422688093885,-0.8941251206044196,0.4558290530482587,-0.005128765950142,1.420558330186508,-8.824641876304332,-1.0188575050850246,0.1227421643703557,0.0406814420921426,-0.0005307269649522627
0.67,-1.5928745027117426,2.47553703042576,-0.8747247289234403,0.16912803401222526,-0.09675269224152516,-0.0001801501557478995,-1.7834108991346005,0.7615840866929713,-0.16473492359885605,-0.0765022638733361,-0.061920545409181404,0.0006773926403100123,7.725277099106627,-4.943405975173425,-4.007966579854212,-0.8618599015110551,0.4471462223611944,-0.005184105280932716,1.4488991355195575,-8.820963091853764,-1.0283243314379538,0.11990117280357615,0.039115533659719086,-0.0005704095782108089
0.68,-1.6099392956600131,2.482659867125253,-0.876770447019485,0.1682762895823793,-0.09733141977167538,-0.00017351487550593621,-1.7064792948270473,0.712283669949307,-0.20457180960446897,-0.08517444298459609,-0.057872753015021566,0.0006635280241963294,7.837699776492691,-4.922364680343064,-3.87697773104255,-0.8310364179571721,0.43855350128145787,-0.005210880308454069,1.4780738175022279,-8.821139946783386,-1.0404809134620225,0.11657061114149786,0.037759140149333126,-0.000607102630092907
0.6900000000000001,-1.6262235852768703,2.4892918110981697,-0.8792015454620482,0.16734094290473356,-0.09787014509934452,-0.0001670303184924694,-1.628428961685706,0.6631943972916873,-0.24310984425631205,-0.09353466776457511,-0.05387253276691471,0.0006484557013466809,7.943064702740132,-4.896882533756529,-3.749634148013855,-0.801687326848544,0.4301005646404974,-0.005212915913124672,1.508140120187381,-8.825012027807595,-1.0552277830876862,0.11275446707221157,0.03662014326032183,-0.0006408700120698247
0.7000000000000001,-1.6417168846387902,2.495435414947361,-0.8820053988436432,0.16632497361727744,-0.09836934124714686,-0.0001607074385500724,-1.5493299361919877,0.6143603849191472,-0.2803853381594991,-0.101596928745611,-0.049919614780232956,0.0006322879942397009,8.041420563879909,-4.867174226992437,-3.6262314149857575,-0.7738337580475516,0.4218288222443043,-0.00519354897266977,1.5391392236251265,-8.832408253438771,-1.0724595314635272,0.10845820516089816,0.03570456188145877,-0.000671764440443056
0.71,-1.6564094023367142,2.5010936510852377,-0.8851697740127894,0.16523121850461986,-0.09882947534716449,-0.00015455609984554156,-1.4692517697923975,0.5658236137876701,-0.3164375169146289,-0.1093755112657573,-0.04601341000176301,0.0006151338704530841,8.132775964653034,-4.8334151051382435,-3.507003464307223,-0.747485410572212,0.4137715284182626,-0.005155622536732185,1.5710964925611268,-8.843147713525399,-1.0920641357406902,0.10368908932301685,0.035016690619408486,-0.0006998265338610975
0.72,-1.670292041632712,2.506269894306723,-0.8886828531071947,0.164062369742559,-0.09925100610736692,-0.00014858510697085133,-1.388263929599783,0.5176243221485153,-0.3513079094405299,-0.1168848762060862,-0.04215307602024282,0.0005970992874690241,8.2170993334441,-4.795741009829872,-3.392123714032709,-0.7226405721892295,0.40595398410050976,-0.005101492429140375,1.6040219050092868,-8.857040255558163,-1.113922343539305,0.09845646762675311,0.034559213085029114,-0.0007250843394450292
0.73,-1.6833564036326887,2.510967908302591,-0.8925332505821576,0.16282097432843987,-0.09963438192049046,-0.00014280223148921455,-1.306436199997655,0.46980139958676903,-0.3850397474962867,-0.12413954141191356,-0.03833758131235274,0.0005782875481636764,8.294319007349323,-4.75424836976478,-3.2817061753877983,-0.699286083486296,0.3983938140284913,-0.005033044305341239,1.637910187237752,-8.873886858629069,-1.1379071317421214,0.09277201896888007,0.03433329043522359,-0.0007475532646451337
0.74,-1.6955947944663061,2.515191836103775,-0.8967100243430699,0.1615094346954772,-0.09998003959414985,-0.00013721423498235273,-1.223839083361735,0.422392780118381,-0.41767737609123085,-0.13115396329626658,-0.034565767365938485,0.0005587996506861821,8.364323523532681,-4.708994566068131,-3.175806560214564,-0.677397268151589,0.3911013035735458,-0.00495171932386107,1.672740683187159,-8.893479834345023,-1.1638832564792887,0.08664996079403359,0.034338626075923584,-0.0007672363777349907
0.75,-1.7070002364448367,2.518946194420065,-0.9012026810908434,0.16013001051231704,-0.10028840367645836,-0.00013182688879663062,-1.1405441978530562,0.3754358316290392,-0.44926567477735385,-0.13794241831601792,-0.030836408230851292,0.0005387346185722109,8.42696214895315,-4.659998603102539,-3.0744234260006653,-0.6569378516917794,0.3840797819593895,-0.004858546756242532,1.7084769874856809,-8.915602892828257,-1.1917069116730499,0.08010721655980713,0.03457350778517723,-0.0007841250456544606
0.76,-1.7175664831440103,2.5222358718063753,-0.9060011759928303,0.1586848216702137,-0.10055988634785899,-0.00012664499080685155,-1.0566246699173574,0.32896773863103423,-0.47984949019868384,-0.1445188842103346,-0.02714826714006356,0.0005181897989779067,8.482045685695848,-4.607242117675019,-2.9774994028029633,-0.6378598911924982,0.37732604082937016,-0.0047541820380412325,1.745066372350602,-8.940031111138964,-1.2212255141413435,0.0731635411364143,0.03503482883561948,-0.0007981998834103471
0.77,-1.7272880383315503,2.525066130556208,-0.9110959068000152,0.1571758524592526,-0.10079488784705143,-0.00012167237961848515,-0.972155518754,0.28302587498324716,-0.5094730807184904,-0.1508969210961087,-0.023500149919243003,0.0004972611188366405,8.529347593281036,-4.550670760923154,-2.884922552123218,-0.620103738961916,0.3708307793057166,-0.004638948950629995,1.782439040017344,-8.966530840961223,-1.2522776338492485,0.06584160181598056,0.035718090001131166,-0.000809431994141113
0.78,-1.7361601786275933,2.527442612184957,-0.9164777025444969,0.15560495693200807,-0.10099379739667308,-0.00011691194671336167,-0.8872140296043033,0.23764816287491572,-0.5381795744481759,-0.15708955272445496,-0.01989095496216464,0.00047604329051234855,8.568605472200492,-4.490195987248353,-2.796527912391591,-0.6035980629571789,0.3645790687426427,-0.004512884785132343,1.820507234094695,-8.994859592106742,-1.2846930882769043,0.05816701213817274,0.03661738463791579,-0.0008177844829924248
0.79,-1.7441789797502603,2.52937134632524,-0.9221378069699961,0.15397386544786465,-0.10115699459260458,-0.00011236564711154854,-0.801880112266693,0.19287341402829197,-0.5660104425499289,-0.16310914841434232,-0.016319719593149595,0.00045462996018131365,8.59952295427287,-4.425697283291699,-2.712099288929304,-0.5882599467248131,0.35855083223784945,-0.004375787515111362,1.8591642455278983,-9.024765928196317,-1.3182932198684827,0.050168315361215604,0.037725369346135476,-0.0008232142309045642
0.8,-1.7513413461581575,2.5308587628126724,-0.9280678568726451,0.15228419238394833,-0.10128485121928163,-0.00010803450917466625,-0.7162366407897248,0.14874164874326595,-0.5930049902649026,-0.1689673063916333,-0.01278566266770493,0.0004331137936882285,8.621772044939208,-4.357024866888839,-2.631371347846179,-0.5739950910849192,0.35272133559909946,-0.004227264123344288,1.8982833517157829,-9.055989410641056,-1.3528913749649656,0.041876914165702495,0.03903322305076296,-0.0008256739160833388
0.81,-1.7576450438565774,2.531911706693726,-0.9342598555597807,0.1505374449892387,-0.10137773345208737,-0.00010391864421395465,-0.6303697698419812,0.10529438810532075,-0.6191998687135593,-0.17467473947096293,-0.009288223280574139,0.0004115864960711602,8.634995960069352,-4.284002880998571,-2.5540320729869936,-0.5606981389032626,0.3470616878217321,-0.004066779357541961,1.9377167307682988,-9.088260626615693,-1.3882936013331606,0.033326943117947205,0.04053059769065177,-0.0008251142711479668
0.8200000000000001,-1.7630887360848857,2.5325374558379816,-0.940706141670838,0.1487350333470375,-0.10143600440667443,-0.00010001725659088632,-0.5443692228308221,0.06257491442560395,-0.6446286111057278,-0.1802411642201224,-0.005827095458705921,0.00039013876230683256,8.638812494976708,-4.206433100592314,-2.479725642516602,-0.5482531428535093,0.34153935019840986,-0.0038937042659403787,1.9772943968374637,-9.12130133593493,-1.4242995792242368,0.0245550805834564,0.042205564069065005,-0.0008214865625962951
0.8300000000000001,-1.7676720215495179,2.532743740785972,-0.9473993536464685,0.1468782813976717,-0.10146002699385089,-9.632865500924043e-05,-0.4583285464632133,0.02062849479906001,-0.6693211975630575,-0.18567519493657939,-0.0024022587176452553,0.0003688601581645884,8.632817955949111,-4.124099161307529,-2.408055776744278,-0.5365341940473236,0.33611865392987994,-0.0037073639313889295,2.0168232067725054,-9.15482477044783,-1.4607037976852824,0.015600297209775571,0.044044556787681176,-0.000814745276221842
0.84,-1.7713954748108829,2.532538766411724,-0.9543323901791821,0.14496843895829448,-0.10145016703741253,-9.285026569548774e-05,-0.37234532613649407,-0.020497437424791057,-0.6933036532713595,-0.19098424393772231,0.0009859956438359472,0.0003478389313752689,8.61659167457677,-4.036771307261639,-2.338589601138713,-0.5254062266394772,0.33076132654158386,-0.00350708386217935,2.056085992836601,-9.188536117595369,-1.4972969834952168,0.006503538826309108,0.046032322544640264,-0.0008048509874389616
0.85,-1.7742606883742964,2.531931234927309,-0.9614983670303646,0.14300669466016222,-0.10140679661099468,-8.957864814898124e-05,-0.28652135634135123,-0.0607531484415261,-0.716597685118244,-0.19617442981322616,0.004337042641784171,0.0003271617546506506,8.589701112472701,-3.944211641858208,-2.2708620580239343,-0.5147260099813042,0.3254270275108908,-0.0032922345092196714,2.094840880607588,-9.222133216986252,-1.5338677845320565,-0.0026926573368745987,0.0481518764054121,-0.0007917733891743351
0.86,-1.7762703159760966,2.530930369706434,-0.9688905706534091,0.1409941897061404,-0.10133029754865762,-8.650951411441531e-05,-0.2009627601800295,-0.10008652208747053,-0.7392203623044488,-0.20125049540218395,0.007649906233706509,0.0003069134034565924,8.551707548739222,-3.8461798498750066,-2.204380887143704,-0.5043433355293452,0.32007389330812686,-0.0030622733995748774,2.1328208551319268,-9.255307495112845,-1.5702047025886945,-0.011944612814371175,0.05038447092830172,-0.0007754944422030047
0.87,-1.7774281164978518,2.5295459393569915,-0.9765024091195785,0.1389320323328269,-0.10122106508254318,-8.363775038624477e-05,-0.11578005217552657,-0.13844303494425275,-0.7611838466169407,-0.20621573733134907,0.010923246611443964,0.00028717637281705456,8.502172324984564,-3.7424393419309414,-2.138632179235457,-0.49410240054160326,0.314659091537024,-0.002816784339166656,2.169733641512265,-9.28774515856618,-1.6060982626955633,-0.021208022423882186,0.05270958321534035,-0.0007560116037798499
0.88,-1.7777389978858051,2.5277882814301815,-0.9843273609004874,0.13682131284306523,-0.10107951155960591,-8.095744599750927e-05,-0.03108813879532575,-0.17576579268100867,-0.7824951780908925,-0.21107194897616705,0.014155352293726088,0.0002680304388735494,8.440663603245996,-3.6327637540588,-2.073086488218322,-0.4838433846584085,0.30913938309140576,-0.002555513155138023,2.2052619679357224,-9.31912866027537,-1.6413433970195577,-0.030438529053782748,0.05510492503254017,-0.000733341080484714
0.89,-1.7772090604013568,2.5256683251182275,-0.992358922116899,0.13466311905630632,-0.10090607018820917,-7.846192427413448e-05,0.05299374844482464,-0.21199563119539644,-0.8031561216411548,-0.21581937867589115,0.017344137139674955,0.0002495521723374794,8.36676357141022,-3.516943716192943,-2.0072054670073274,-0.47340420890427737,0.30347169022216747,-0.002278399409924692,2.239064279207855,-9.349138446412113,-1.6757420116208919,-0.039592352307044,0.05754648106830406,-0.000707521040814685
0.9,-1.7758456384835353,2.523197612265647,-1.0005905529158128,0.13245855200688786,-0.10070119876438592,-7.61437801500323e-05,0.13634219178216694,-0.24707128525801886,-0.8231630798913728,-0.22045670494184555,0.020487142382324356,0.00023181441241021785,8.280076009380073,-3.394793784687439,-1.9404489699258338,-0.46262245965023396,0.29761366722869553,-0.001985603540898273,2.270775966648526,-9.377454983750642,-1.7091056940912697,-0.04862696205191397,0.06000858014357597,-0.0006786147127824842
0.91,-1.7736573404681797,2.5203883160024327,-1.0090156236843735,0.13020874170449337,-0.10046538332690837,-7.399492303913925e-05,0.2188298015355479,-0.2809296263214256,-0.8425070768560585,-0.22498103023944827,0.02358154374775595,0.00021488571108930544,8.18023410820677,-3.2661594163925294,-1.8722825420035436,-0.4513374528538652,0.2915242691794546,-0.0016775288641812658,2.3000111752478394,-9.40376105861793,-1.7412585097924977,-0.05750178527863106,0.06246400372408142,-0.000646713282275677
0.92,-1.7706540853830741,2.5172532563030776,-1.017627361847687,0.1279148627575176,-0.10019914169011004,-7.200662544857606e-05,0.3003255085105466,-0.3135059699354949,-0.8611738163313472,-0.22938789469757856,0.02662416367983291,0.00019882975905631873,8.066908414690037,-3.130923846312176,-1.8021851930462214,-0.4393924068144859,0.285164312735958,-0.0013548379500354368,2.3263652408419766,-9.42774432934384,-1.7720398245751756,-0.06617893201472627,0.0648841353921644,-0.0006119384999334775
0.93,-1.7668471360254776,2.5138059117847145,-1.026418800025955,0.1255781496494753,-0.09990302680378259,-7.016957739458475e-05,0.3806949357596492,-0.34473445183631324,-0.8791438178268176,-0.23367131080422818,0.02961148863274496,0.00018370480539913083,7.939814756607064,-2.9890147184349325,-1.7296573333213576,-0.42663668501562846,0.27849702187916137,-0.0010184629010880908,2.3494177984109936,-9.44910010463315,-1.8013070830619804,-0.07462392355007448,0.06723915400102923,-0.0005744448985852131
0.9400000000000001,-1.7622491275301628,2.510060427081952,-1.0353827263423283,0.12319991145158776,-0.09957762989053869,-6.847394655153939e-05,0.459800849531471,-0.37454847027623805,-0.896392631637315,-0.23782381978875408,0.03253969132439079,0.00016956308430453705,7.798721989832649,-2.8404103109382395,-1.654228729138103,-0.41292806479805577,0.2714885502098383,-0.0006696091862763431,2.3687365872222292,-9.467534310898927,-1.8289384644491877,-0.08280640402435116,0.0694982720575798,-0.0005344215206448757
0.9500000000000001,-1.7568740906535745,2.506031615176164,-1.0445116376746792,0.12078154575182828,-0.09922358331289334,-6.690944392755195e-05,0.537503687658837,-0.4028811905788155,-0.9128911332350956,-0.24183656997594796,0.03540465776453492,0.00015645026239874377,7.643459399157959,-2.6851451934780366,-1.5754663216306888,-0.39813498293633476,0.2641084706251746,-0.0003097527894733165,2.383881959425632,-9.482766602731415,-1.8548353329372844,-0.09070081470026954,0.0716300194760345,-0.000492093055992655
0.96,-1.7507374690340152,2.5017349541133393,-1.0537976966306282,0.11832455158246667,-0.09884156312504187,-6.546539472127728e-05,0.6136621619559286,-0.429666106282466,-0.9286058955948945,-0.2456994169361615,0.03820201878514632,0.00014440492062746724,7.473923580462611,-2.5233151563802956,-1.4929817417223719,-0.38213870605255096,0.256330222647577,5.936941891637737e-05,2.3944120760579692,-9.494533562763172,-1.8789243979316277,-0.09828700915105751,0.0736025712439295,-0.00044772029640509413
0.97,-1.7438561297392894,2.4971865776169686,-1.0632326929945701,0.11583054113483691,-0.09843229126794657,-6.413081387741e-05,0.688133929472575,-0.4548376496370863,-0.9434996363942045,-0.2494010447629757,0.040927185709530654,0.00013345808438672724,7.290084633693852,-2.3550812596979083,-1.4064383494376025,-0.36483537242353226,0.24813150756675384,0.00043577599791122523,2.3998887486987277,-9.502591930654269,-1.901159500552002,-0.10555078728162129,0.07538411579299696,-0.00040159982295127244
0.98,-1.7362483664818043,2.4924032591899867,-1.072808010347705,0.11330125006181911,-0.09799653737089108,-6.289448572743722e-05,0.760776325748521,-0.4783318426981981,-0.9575317353134796,-0.2529291073017804,0.04357538970554918,0.00012363281499727847,7.091991504228845,-2.180672864451907,-1.3155576270818603,-0.34613785239187056,0.23949462194757842,0.0008172636575853875,2.399883856989142,-9.506721796152663,-1.9215229481147236,-0.11248432670528058,0.07694325903431642,-0.00035406285814641963
0.99,-1.727933894965951,2.4874023894011272,-1.0825145984972835,0.11073854618533864,-0.09753512012808294,-6.174504698179706e-05,0.8314471515853099,-0.5000869788859698,-0.9706588149578508,-0.25627038764804644,0.0461417242808138,0.00011494387456401551,6.8797763246969295,-2.000389528763704,-1.2201247636966532,-0.325977377286649,0.230406720939083,0.001201435906263093,2.393986242908782,-9.506729688503793,-1.940026327276929,-0.11908649159784801,0.0782494571794888,-0.00030547323495356323
