tonegas/nnodely-applications/joint_friction_estimation/dataset/train/mpc_mujoco_episode_41 copy.csv
time,q1,q2,q3,q4,q5,q6,dq1,dq2,dq3,dq4,dq5,dq6,ddq1,ddq2,ddq3,ddq4,ddq5,ddq6,tau1,tau2,tau3,tau4,tau5,tau6
0.0,0.0,1.57,-1.57,0.0,0.0,0.0,0.0,0.0,0.0,0.0,0.0,0.0,-0.22917168308917302,-19.008922688658426,6.008944526735803,3.5920002849776154,-0.0362643565222327,-2.3243088616009544e-06,-0.031418172231303054,-13.00295056911625,-6.9503621885144025,-1.4600743566703005,-0.0032626682903389367,-0.0007480688062806602
0.01,-2.2799213091900594e-05,1.5681074633199217,-1.569406244563654,0.00032948457033980854,-3.0661190086933355e-06,1.6146473011280083e-07,-0.0022799213091900593,-0.18925366800784438,0.05937554363460965,0.03294845703398085,-0.00030661190086933354,1.614647301128008e-05,-0.224758357877933,-19.04190850746911,5.759346848524473,3.2438243031958223,-0.03129171993429258,0.0016101367580596548,-0.030671371816309058,-13.071224355448061,-6.988814279099849,-1.4691824645957543,-0.0032115558759025875,-0.0007525990984672078
0.02,-6.794213376084109e-05,1.5643191681245923,-1.5682451554608539,0.000959827557794921,-8.883311330958888e-06,4.911917775207413e-07,-0.004514292066894049,-0.3788295195329347,0.11610891028003074,0.06303429874551125,-0.0005817192322265552,3.297270474079405e-05,-0.21952785251020762,-19.082042484579215,5.47364859549727,2.949228508072231,-0.0282848953085284,0.001665535283305486,-0.02938447911279062,-13.120275198220561,-7.016836781505868,-1.4759343274484438,-0.003126294759998547,-0.0007557790079246497
0.03,-0.0001348984515343376,1.5586311216514326,-1.566546311214264,0.0018663507191053965,-1.7255704147187068e-05,9.742840972427058e-07,-0.006695631777349652,-0.5688046473159717,0.16988442465899212,0.09065231613104754,-0.000837239281622818,4.830923197219644e-05,-0.21344533470615804,-19.1283734321613,5.15607476997652,2.694092081122683,-0.02655024148389873,0.001496004145250307,-0.027577681035541084,-13.149689818341827,-7.03412489069974,-1.4802745349748367,-0.0030066811523321428,-0.0007575815891830743
0.04,-0.00022305716062734118,1.551038667149753,-1.5643421274023377,0.0030272508758292676,-2.8063549058151062e-05,1.594293997908308e-06,-0.008815870909300357,-0.7592454501679661,0.2204183811926293,0.11609001567238711,-0.0010807844910963992,6.200099006656023e-05,-0.2064448493371436,-19.179584425043437,4.809929409607875,2.4676458619907535,-0.025660367213589774,0.0013027443295308139,-0.025282310448631277,-13.158929274195469,-7.040267327770332,-1.4821229219966645,-0.0028526272134703854,-0.0007579661581878837
0.05,-0.0003317186202613693,1.5415366245477093,-1.5616676050296603,0.00442278209605171,-4.123677234344999e-05,2.335892414995935e-06,-0.01086614596340281,-0.9502042602043643,0.2674522372677461,0.13955312202224424,-0.0013173223285298929,7.415984170876271e-05,-0.1984404057246162,-19.234003963782246,4.4378634380999635,2.2617034118075097,-0.025355659339965753,0.0011117723382709777,-0.022541572042630843,-13.147326821967935,-7.034744611749225,-1.4813743965763229,-0.002664227449017803,-0.0007568787061547746
0.06,-0.00046008527299740024,1.5301194644032692,-1.5585601257851602,0.006034634657719024,-5.673863529484536e-05,3.184895480451191e-06,-0.012836665273603097,-1.1417160144440222,0.3107479244500105,0.16118525616673135,-0.0015501862951395372,8.49003065455256e-05,-0.18933307322114357,-19.28961165893634,4.042090712446367,2.0700734165644263,-0.0254793634426419,0.0009221704868611624,-0.01941123698637107,-13.114088312388398,-7.016928455319656,-1.4778989120705526,-0.002441842619130663,-0.0007542524022317269
0.07,-0.0006072514993849375,1.5167815150810373,-1.5550592769001075,0.007845466340712192,-7.455549054284419e-05,4.127947866581329e-06,-0.014716622638753726,-1.3337949322231952,0.3500848885052836,0.18108316829931684,-0.0017816855247998818,9.430523861301387e-05,-0.17901587898922489,-19.34404055953833,3.624564700512149,1.8881117565160679,-0.025937214343048964,0.0007289851276828241,-0.015960171662950037,-13.058294772065832,-6.986082339475551,-1.4715416189445343,-0.002186199268412645,-0.0007500082241398602
0.08,-0.0007721929704020163,1.5015172033106765,-1.5512066912640863,0.009838552243473124,-9.469016299180074e-05,5.1522133051018064e-06,-0.016494147101707875,-1.5264311770360726,0.3852585636021259,0.19930859027609318,-0.0020134672448956547,0.00010242654385204775,-0.1673776108278726,-19.394577396316727,3.1871251111531222,1.7123812825066835,-0.026672199158908172,0.0005265928455224778,-0.012270547354005,-12.978906635982463,-6.941363281370594,-1.4621232194336713,-0.001898503319004012,-0.0007440557538639211
0.09,-0.0009537558120750471,1.4843213283991594,-1.5470458906972564,0.011997527532507326,-0.00011715740221548812,6.245118440877269e-06,-0.018156284167303083,-1.7195874911517128,0.41608005668297926,0.21589752890342015,-0.0022467239223687386,0.00010929051357754626,-0.15430625935132655,-19.438151719595545,2.7316219248189384,1.5403947575098442,-0.027647993874242327,0.0003089814906471755,-0.008437558867038423,-12.874764030842083,-6.881823032306788,-1.4494401842943918,-0.0015805658167291976,-0.0007362939770035476
0.1,-0.001150645898436824,1.465189371406267,-1.542622121941093,0.014306203868189876,-0.0001419803767732002,7.394149293059295e-06,-0.01968900863617768,-1.9131956992892598,0.44237687561635364,0.23086763356825502,-0.0024822974557712086,0.00011490308521820258,-0.13969263189417436,-19.471320654567165,2.2600213926841164,1.3704215029296662,-0.028836747870034096,6.952799926973618e-05,-0.004568457348342181,-12.744585740714513,-6.8064100022356975,-1.4332651246955246,-0.001234938107412067,-0.0007266122544979199
0.11,-0.0013614186275095323,1.444117840976368,-1.5379821762754295,0.01674844509816192,-0.00016918744888656275,8.586694078140413e-06,-0.021077272907270826,-2.107153042989906,0.46399456656634724,0.24422412299720436,-0.002720707211336254,0.00011925447850811176,-0.12344232931306422,-19.486707183150795,1.7747048639865568,1.201425643117794,-0.030208097205857487,-0.00019928302863814196,-0.0007815065273515526,-12.585177275412601,-6.713333852425702,-1.4132178883309252,-0.0008650518191911699,-0.0007148227176975381
0.12,-0.0015844703690893855,1.4211050109060437,-1.5331741620104207,0.01930809696579296,-0.0001988085815402677,9.809933818159223e-06,-0.02230517415798532,-2.301283007032425,0.48080142650088087,0.25596518676310404,-0.002962113265370497,0.0001223239740018811,-0.10899242541554477,-17.873165271705727,1.369349305714124,1.0695788066093712,-0.03174734382859257,-0.0005061008426137104,0.0024455809626803774,-11.58702138692081,-6.313776342363646,-1.3308695439639238,-0.00047387861729893056,-0.0006698873050779648
0.13,-0.001818378762544613,1.3963114816097582,-1.5282372282757641,0.021971341813507128,-0.00023088288018779712,1.1053199135300918e-05,-0.023390839345522756,-2.479352929628562,0.49369337346565045,0.26632448477141674,-0.0032074298647529424,0.0001243265317141695,-0.09424759483821311,-15.906390418934349,0.9950169372739488,0.9380679770123095,-0.033414419165887,-0.0008293748519760946,0.005166132303847529,-10.397985503646405,-5.849510289637945,-1.2360367541398471,-7.970901991706742e-05,-0.0006182190139897014
0.14,-0.0020616960200050736,1.3699330697546646,-1.5232073126495782,0.02472434694769131,-0.00026545083547578976,1.23057836245432e-05,-0.024331725746046057,-2.6378411855093673,0.5029915626185955,0.27530051341841816,-0.0034567955287992643,0.00012525844892422809,-0.0788801462839086,-13.769955145797892,0.6443329052919644,0.8029868840831753,-0.035054699116915,-0.0011943932598696971,0.0073181199531137525,-9.114462695286573,-5.35959035513668,-1.1369754372096403,0.00030919262856100947,-0.000564174713318741
0.15,-0.0023129168535932654,1.3421825160043275,-1.518117991939874,0.027553030466317078,-0.0003025433968500664,1.3556435179779428e-05,-0.025122083358819196,-2.7750553750337015,0.508932070970419,0.2828683518625768,-0.0037092561374276636,0.0001250651555236229,-0.0628135087861918,-11.554136474208246,0.3148603988293317,0.6643622057987244,-0.03642887273132578,-0.0016062599174742065,0.008854314016304743,-7.785020123778088,-4.864714820770619,-1.0381066771229346,0.0006847809805985833,-0.0005100969837113398
0.16,-0.0025704707243123064,1.3132804886248208,-1.5130007723981058,0.030443104669030118,-0.00034216715981081393,1.4793455799521894e-05,-0.025755387071904074,-2.8902027379506667,0.5117219541768151,0.28900742027130416,-0.003962376296074755,0.00012370206197424654,-0.04610802718369297,-9.272357008694609,0.005992790536357262,0.5235239545644461,-0.037205651354806135,-0.0020571935512326833,0.009756312874714944,-6.419766731606287,-4.371209147338382,-0.9409041474840081,0.0010404490803056768,-0.00045676510373378245
0.17,-0.002832726815384586,1.2834542447485362,-1.5078851480275095,0.03338018255468449,-0.00038428511390171147,1.6005126148477162e-05,-0.02622560910722798,-2.982624387628459,0.5115624370596296,0.2937077885654369,-0.004211795409089755,0.00012116703489552682,-0.028888760434711676,-6.947864846821299,-0.2829498796296033,0.3814728657173738,-0.036960087911689005,-0.002524776514572169,0.01004149066939417,-5.033344720606145,-3.88654883525156,-0.8470297293994691,0.0013697592520092005,-0.0004050687176557175
0.18,-0.0030980042400857136,1.2529353127586955,-1.502798673607672,0.0363498650722862,-0.0004287929470739526,1.718032118533934e-05,-0.026527742470112737,-3.051893198984072,0.5086474419837513,0.2969682517601716,-0.004450783317224115,0.00011751950368621783,-0.011363746665858963,-4.632336815679165,-0.5527294641257257,0.23904425682191643,-0.035208209614317365,-0.002969680742386571,0.009762824885476026,-3.653739615442936,-3.422191980065356,-0.7588680180862127,0.0016662258772690676,-0.00035629958413866086
0.19,-0.003364589192249054,1.2219543421091577,-1.4977670630672937,0.03933783450482472,-0.00047549283433943814,1.8309307467926825e-05,-0.02665849521633405,-3.098097064953796,0.5031610540378367,0.2987969432538521,-0.004669988726548549,0.00011289862825874839,0.006170500409571919,-2.4175090437123505,-0.8042290901816553,0.09719454632502078,-0.031499208118173916,-0.003336143219880572,0.009006265857888787,-2.327497158224282,-2.9949716045598582,-0.6797556344753753,0.001923347131098011,-0.0003122816892161109
0.2,-0.0036307601021416864,1.190731961520404,-1.492814321810339,0.04232998441239956,-0.0005240693986206534,1.9384675353960228e-05,-0.026617090989263237,-3.1222380588753724,0.4952741256954799,0.2992149907574842,-0.004857656428121523,0.00010753678860334028,0.02336355635404197,-0.7127837933747231,-1.0387922194485029,-0.042795957460821654,-0.025562664737284607,-0.0035605201993455793,0.00789203739950321,-1.2517336605705325,-2.671530997020117,-0.6225256459270335,0.002127341609790774,-0.0002800250912737074
0.21,-0.0038948184546100015,1.1594379850976917,-1.4879631059211613,0.04531278853743257,-0.0005740763523803649,2.0402092633143237e-05,-0.0264058352468315,-3.129397642271219,0.4851215889177562,0.29828041250330134,-0.005000695375971152,0.00010174172791830106,0.03985952717839222,-0.0024176283973676503,-1.2596549234809953,-0.1770604055402214,-0.017476093869063167,-0.003594120777905996,0.006563346268545909,-0.6553147989072509,-2.524384447808677,-0.6006378476716061,0.0022653335697794324,-0.0002669638151522308
0.22,-0.0041551225802235565,1.1281431571521143,-1.4832352898136376,0.04827391632317928,-0.0006249419468069952,2.136081608336539e-05,-0.026030412561355517,-3.1294827945577404,0.47278161075237307,0.2961127785746712,-0.005086559442663025,9.587234502221527e-05,0.05543026152789532,-0.002086126424991306,-1.4733556311802232,-0.2997530619119084,-0.007717471582547056,-0.0034219605878404724,0.005143344556232687,-0.3988231565653738,-2.495739445022429,-0.6019764793068224,0.0023505325116353615,-0.00026667311977110085
0.23,-0.004410113272755889,1.0968474734602944,-1.4786523947475476,0.05120246370578072,-0.0006759934193262014,2.2264221124136778e-05,-0.025499069253233288,-3.1295683691820004,0.4582895066089905,0.29285473826014374,-0.0051051472519206215,9.034050407713864e-05,0.06993914631236209,-0.0019374792227839091,-1.6837924494861787,-0.40836060138668095,0.002953896696237357,-0.0030583522872452695,0.0037087875540951615,-0.14368770941807152,-2.463431786667198,-0.6024458816490877,0.002408032953183313,-0.00026612865284080694
0.24,-0.00465833323227744,1.065550905106253,-1.4742355385282007,0.05408864484386856,-0.0007264978689226,2.3119907959277608e-05,-0.02482199595215511,-3.129656835404131,0.4416856219346905,0.28861811380878355,-0.005050444959639853,8.556868351408307e-05,0.08332591404312172,-0.0017815186118170147,-1.8897485032829895,-0.5056559720710281,0.01363421178255994,-0.0025437661306608184,0.0023266669820655667,0.11009144100448487,-2.427289314328812,-0.6019979704956706,0.002438031403012415,-0.0002653084980267848
0.25,-0.0048984385684136085,1.0342534198164723,-1.470005334535254,0.056923583693742535,-0.0007757185127146585,2.3938586323358666e-05,-0.024010533613616797,-3.129748528978082,0.42302039929467217,0.2834938849873981,-0.004922064379205849,8.186783640810573e-05,0.09564783693568393,-0.001620491468375266,-2.090172180654945,-0.5937034917388049,0.02340457590424902,-0.0019492266699990546,0.0010608441539767392,0.3624235612936335,-2.3871660540463164,-0.6005884539717821,0.0024408944770141173,-0.00026418970485995715
0.26,-0.005129197269507701,1.002954983561305,-1.4659818023901858,0.059699159786424906,-0.000822976555661062,2.473247329495711e-05,-0.023075870109409303,-3.129843625516733,0.40235321450681494,0.27755760926823697,-0.004725804294640346,7.938869715984421e-05,0.1070511324639795,-0.0014564814715735419,-2.284130744269324,-0.6740273483839925,0.03150717379285059,-0.0013515519351756378,-2.8731967950540623e-05,0.6132216972433719,-2.3429094470514986,-0.5981704866075671,0.0024170437793775887,-0.00026274558394693724
0.27,-0.005349476060641822,0.9716555617476847,-1.4621842867266266,0.062407895272964475,-0.000867706642957925,2.551358802049041e-05,-0.0220278791134121,-3.129942181362023,0.37975156635592333,0.2708735486539568,-0.004473008729686292,7.811147255333018e-05,0.11773233182846839,-0.0012916673693970056,-2.4707722263850744,-0.747739367108534,0.03745782787744387,-0.0008148670884130238,-0.0008862300771130759,0.8624052807099178,-2.2943604835294074,-0.5946947622022092,0.0023668464698492642,-0.00026094687830202314
0.28,-0.005558219519448129,0.9403551200829484,-1.4586313811816658,0.06504287354587918,-0.0009094959123947588,2.6292277537339575e-05,-0.02087434588063068,-3.1300441664736316,0.3552905544960726,0.26349782729146976,-0.004178926943683378,7.786895168491628e-05,0.1279016720250668,-0.0011281442428765147,-2.6492988933795765,-0.8156367462995036,0.04107622565400068,-0.00038050865656005795,-0.0014597012122858238,1.1099021136023615,-2.2413543975616372,-0.5901097462173293,0.002290544928411209,-0.00025876311103005393
0.29,-0.005754426200434721,0.9090536252069742,-1.4553408556563578,0.0675976820038513,-0.0009481017192714494,2.7076203175817665e-05,-0.019620668098659144,-3.1301494875974263,0.3290525525307886,0.25548084579721203,-0.0038605806876690625,7.8392563847809e-05,0.13775447669922752,-0.0009679239776148639,-2.8189480412662755,-0.8782762517954215,0.0424492575443087,-6.577313803332596e-05,-0.0017006530374872276,1.355649886244656,-2.1837216598952316,-0.5843619760382803,0.0021882340065837265,-0.0002561638327422091
0.3,-0.005937125966605466,0.8777510451526779,-1.4523295854552032,0.07006637331070315,-0.0009834486570102087,2.786986483654438e-05,-0.01826997661707454,-3.1302580054296314,0.3011270201154574,0.24686913068518493,-0.0035346937738759193,7.936616607267156e-05,0.14745223308552113,-0.0008129072211822592,-2.9789787306696143,-0.9360307566394503,0.041857289958523114,0.00013136735115915066,-0.0015636700566372735,1.599597358868285,-2.1212892456690904,-0.5773964293595168,0.0020598808428971003,-0.0002531195940626932
0.31,-0.006105361370423847,0.8464473496832291,-1.4496134813788684,0.07244344083553392,-0.0010156094838710938,2.8674606466039284e-05,-0.016823540381838087,-3.1303695469448796,0.27161040763348976,0.2377067524830773,-0.0032160826860885227,8.047416294949034e-05,0.15711272239884644,-0.0006648600803045828,-3.128663157977978,-0.989132461384731,0.03969125158906801,0.00022531735235981065,-0.0010062400164846004,1.841705250523587,-2.053882151572874,-0.5691569564246346,0.0019053739859452063,-0.0002496025815006098
0.32,-0.006258174451249422,0.8151425105429235,-1.4472074202101746,0.07472380496823966,-0.0010447762492453276,2.94889697353084e-05,-0.015281308082557538,-3.1304839140305516,0.2406061168693712,0.2280364132705745,-0.002916676537423387,8.143632692691154e-05,0.16680750049279786,-0.0005253957564129237,-3.267281676312575,-1.0377060791821187,0.0363792695853556,0.0002363836267773034,1.1145988357325401e-05,2.0819468745024166,-1.9813251379203023,-0.5595867717529721,0.0017245873237635143,-0.00024558694642735435
0.33,-0.006394599144568244,0.7838365016498288,-1.4451251753242433,0.07690280776269048,-0.0010712276605752166,3.0309245474018646e-05,-0.013642469331882118,-3.1306008893094774,0.20822448859312948,0.217900279445083,-0.002645141132988898,8.20275738710244e-05,0.1765646084867235,-0.0003959599030115834,-3.39412071647573,-1.0817944702185684,0.03233190276469672,0.0001860079796534575,0.0015246247992885282,2.3203085439485567,-1.903444674857352,-0.5486290014136695,0.0015174472822237393,-0.0002410489059377452
0.34,-0.0065136587614588164,0.7525292992515752,-1.4433793473874375,0.07897621392918341,-0.0010952973736337748,3.113009381482502e-05,-0.011905961689057323,-3.1307202398253624,0.17458279368058008,0.20734061664929265,-0.0024069713058558154,8.208483408063718e-05,0.18637441489791443,-0.00027781847903433676,-3.5084730335138405,-1.1213786029472494,0.027907710692505073,9.386693281210334e-05,0.0035663702401158726,2.5567897589928497,-1.8200710738313106,-0.5362272819720219,0.0012839960185009806,-0.00023596670445775718
0.35000000000000003,-0.0066143676454819755,0.7212208820605254,-1.4419812952996034,0.0809402166245863,-0.0011173461964796472,3.1945141602918396e-05,-0.010070888402315868,-3.130841719104981,0.1398052087834167,0.196400269540288,-0.0022048822845872366,8.150477880933795e-05,0.1961968320164803,-0.00017204708648636577,-3.6096398323626486,-1.1563932584915175,0.023396556302878613,-2.3523642760425734e-05,0.006163841093504333,2.791403177494132,-1.7310407855439345,-0.5223264069166303,0.0010244470783421385,-0.00023032051103191124
0.36,-0.006695736031918115,0.6899112313806435,-1.4409410676895857,0.08279144680796227,-0.0011377396671498829,3.2747503499296316e-05,-0.00813683864361395,-3.1309650679881895,0.10402276100177466,0.1851230183375976,-0.002039347067023573,8.0236189637792e-05,0.2059686475496386,-7.95208133516175e-05,-3.6969344175733267,-1.1867395440514112,0.019016180278589007,-0.00015319045479383897,0.00933892760164301,3.0241743648898045,-1.6361988442013975,-0.5068730157342469,0.0007392325382311715,-0.00022409230387945137
0.37,-0.006756777206306568,0.6586003312354323,-1.4402673354017492,0.08452698516813878,-0.0011568313173888677,3.3530203497798466e-05,-0.006104117438845261,-3.1310900145211202,0.06737322878365459,0.17355383601765106,-0.0019091650238984824,7.82699998502147e-05,0.21561021257737778,-9.055129034216208e-07,-3.769687079983439,-1.212295017568266,0.0149173909110865,-0.00028549990592247054,0.013107047264211403,3.2551413126987603,-1.535401436264567,-0.4898163201355141,0.0004290420451695141,-0.00021726577075417935
0.38,-0.006796516199985482,0.627288168503911,-1.4399673255161802,0.08614437580773315,-0.0011749512010299245,3.428649424294303e-05,-0.003973899367891438,-3.131216273152128,0.030000988556908977,0.16173906395943793,-0.0018119883641056842,7.562907451445627e-05,0.22503113092011956,6.335030438790316e-05,-3.8272509758891755,-1.2329220220311754,0.011193913432140379,-0.00041367774471751106,0.017476230518518508,3.484353713512246,-1.4285185681194268,-0.47110886077382735,9.48547003444399e-05,-0.0002098262353404889
0.39,-0.006813999416278609,0.5959747330697825,-1.4400467575302005,0.08764164100113385,-0.0011923988808344903,3.5010083619242625e-05,-0.0017483216293126829,-3.131343543412841,-0.007943201402035659,0.14972651934006967,-0.00174476798045658,7.235893762995946e-05,0.23413487273993178,0.00011302272638425703,-3.869008785256405,-1.2484746743315718,0.00789397026084368,-0.000533244130995425,0.02244622844370343,3.7118719783228817,-1.3154368037787734,-0.450707286756941,-0.0002620352607247623,-0.00020176060776467593
0.4,-0.0068083047237236394,0.5646600179874592,-1.4405097823958126,0.08901729644357843,-0.0012094399347635412,3.569528374029381e-05,0.0005694692554969565,-3.131471508232328,-0.046302486561216834,0.13756554424445838,-0.0017041053929050807,6.85200121051187e-05,0.24282239755639098,0.00014811765222604603,-3.894379955072678,-1.2588048374148055,0.0050316747829671216,-0.0006414709347071779,0.02800766904539092,3.93776598161134,-1.1960620400622384,-0.4285731491392049,-0.0006399983034608139,-0.0001930573506009529
0.41000000000000003,-0.0067785516704623495,0.5333440196672932,-1.441358925157846,0.09027036648365462,-0.0012263050692546088,3.633709888944792e-05,0.002975305326128957,-3.131599832016613,-0.08491427620334183,0.12530700400761874,-0.0016865134491067628,6.41815149154109e-05,0.2509949473016289,0.00016887228965833362,-3.9028283409756197,-1.2637673144603152,0.002597152325315044,-0.0007369112620933538,0.034141285929859315,4.1621135215668135,-1.0703222821533245,-0.4046736982643925,-0.0010370546214278993,-0.00018370644920389474
0.42,-0.006723911564414141,0.5020267380810782,-1.4425950319709968,0.09140039888921922,-0.0012431910398474331,3.6931267929381856e-05,0.005464010604820813,-3.131728158621491,-0.12361068131506972,0.11300324055645951,-0.0016885970592824234,5.9416903993393185e-05,0.25855618553731025,0.00017576303380765378,-3.893870072321113,-1.2632244258672145,0.0005649064685595007,-0.0008190172631619697,0.04081724229583552,4.384998490518537,-0.9381703772647818,-0.37898267346844144,-0.0014508643811701207,-0.00017369937584875967
0.43,-0.006643617230094112,0.47070817698876755,-1.4442172222912921,0.09240747874285847,-0.0012602627272599541,3.7474274468137726e-05,0.00802943343200287,-3.131856109231065,-0.16221903202952317,0.10070798536392511,-0.0017071687412521007,5.4300653875587124e-05,0.26539584039484526,0.000545839799367976,-3.8671959036089327,-1.25701903519764,-0.0011000039122716077,-0.0008878440102133012,0.047991982258959606,4.606664097076958,-0.7995445500161174,-0.3514743649329809,-0.0018786256858472402,-0.00016302670778143874
0.44,-0.006536974086604587,0.43938838159310634,-1.4462228577478087,0.09329224254677229,-0.001277655874511444,3.7963336470405176e-05,0.010664314348952505,-3.131979539566121,-0.2005635456516567,0.08847638039138242,-0.0017393147251489947,4.890620022674479e-05,0.267139183240826,1.5144120003048547,-3.8436650201385354,-1.2360980078764978,-0.002513502397223477,-0.00094402099705862,0.054907503697928635,5.516133826871604,-0.42706565413884734,-0.28118750052440566,-0.0022365392263425567,-0.00012934014330953
0.45,-0.006403794562014462,0.40821818098476925,-1.4486086393440085,0.0940553267445715,-0.0012954770834815474,3.839755431382638e-05,0.013317952459012506,-3.1170200608337066,-0.2385781596199892,0.07630841977992109,-0.001782120897010325,4.342178434212023e-05,0.26759044512707464,5.552334192009968,-3.8047448128711654,-1.2255308098266184,-0.003548750244304899,-0.0009738798441550622,0.06181866113816989,7.58296213203844,0.3202531223357141,-0.14406608619272754,-0.0024816721988211773,-5.8592119433660475e-05
0.46,-0.006244020774049102,0.3775999035511373,-1.4513683684569976,0.09469474844400005,-0.001313795314662859,3.877751966701106e-05,0.015977378796535963,-3.0618277433631924,-0.2759729112989095,0.06394216994285568,-0.0018318231181311566,3.799653531846796e-05,0.26730341975846933,8.66534047891153,-3.7371682575370855,-1.2434622071433825,-0.004178572814928838,-0.0009779735397217326,0.06857407800951346,9.23559118214413,0.892805994804509,-0.04176085903317733,-0.002723843774528857,-6.255935920063794e-06
0.47000000000000003,-0.00605766994372657,0.3478437594770223,-1.4544937588155635,0.09520714551342924,-0.0013326506232589205,3.910216820160285e-05,0.018635083032253235,-2.975614407411506,-0.3125390358565992,0.0512397069429177,-0.0018855308596061702,3.2464853459179406e-05,0.2662699420701926,11.003935782572434,-3.6493364305929195,-1.2756607141833634,-0.00450692143667597,-0.0009897447114259883,0.07498841886103266,10.539003655391548,1.322156592364088,0.03237018061967273,-0.0029521561213058586,3.1202987911063167e-05
0.48,-0.005844835126356005,0.3191828215609247,-1.4579750816325026,0.09558873370495213,-0.0013520616671096831,3.936918360257983e-05,0.021283481737056454,-2.8660937916097597,-0.34813228169389554,0.03815881915228973,-0.0019411043850762642,2.6701540097697625e-05,0.2644909129621893,12.69843932525962,-3.5476498825346106,-1.3124893365351902,-0.004616403575673278,-0.0010068725098401066,0.08091511044616842,11.549492649435166,1.6358152082995274,0.08411656861359676,-0.00315918620453871,5.6851836152433494e-05
0.49,-0.0056056849936854895,0.2917859992016124,-1.4618016559815887,0.09583592994149424,-0.0013720316238068297,3.957566431287445e-05,0.02391501326705159,-2.7396822359312276,-0.38265743490860693,0.02471962365421121,-0.0019969956697146424,2.064807102946209e-05,0.2619750306255743,13.86067696412978,-3.4369590589178536,-1.3476492798078255,-0.004571367938629334,-0.001024415778636989,0.08624674849877173,12.315404112895962,1.857181782463392,0.11838370291950845,-0.0033402936013585804,7.32822887885044e-05
0.5,-0.005340462823515066,0.26576917303103775,-1.4659622194125754,0.09594573625869983,-0.0013925527658860445,3.971861951824017e-05,0.026522217017042316,-2.601682617057465,-0.41605634309865996,0.010980631720559022,-0.002052114207921486,1.4295520536571904e-05,0.2587373198803626,14.586329935011872,-3.320916418044497,-1.377238217305056,-0.004420772739003875,-0.001038992388572746,0.09091259235533947,12.878174453804892,2.0058483833954472,0.139246968065821,-0.003492992001016366,8.264434136662994e-05
0.51,-0.005049484860017132,0.24120472334710535,-1.470445205837329,0.09591595438417758,-0.0014136099098252313,3.9795289833498314e-05,0.029097796349793374,-2.4564449683932406,-0.4482986424753612,-0.0029781874522253875,-0.0021057143939186883,7.66703152581455e-06,0.2547977127099849,14.957015832628384,-3.202248345342607,-1.399052702586058,-0.0042008381783054105,-0.0010487521264435085,0.09487410293459028,13.273243137900208,2.098004187680071,0.15003583160887887,-0.003616413200333014,8.669353991894453e-05
0.52,-0.004733138195106177,0.21812965903880316,-1.4752389516117792,0.09574528251804637,-0.0014351829384408837,3.980333735019467e-05,0.03163466649109549,-2.30750643083022,-0.4793745774450343,-0.017067186613120094,-0.0021573028615652365,8.047516696355062e-07,0.2501797962532518,15.042122887136427,-3.0829655291106626,-1.4120738670717543,-0.003937502859890585,-0.0010529092961570896,0.09811944838324932,13.530850798555807,2.14687554480035,0.15343004749617573,-0.003710859980960886,8.684314249330754e-05
0.53,-0.004391878299620253,0.196552529280177,-1.480331846049276,0.09543333208885087,-0.001457248581351505,3.9740944538576905e-05,0.0341259895485924,-2.1577129758626166,-0.5092894437496769,-0.03119504291955024,-0.002206564291062147,-6.239281161776744e-06,0.24490976914845056,14.900424451180466,-2.9645260889513594,-1.4160902595151654,-0.0036486413513193705,-0.0010513565478439402,0.10065773429824224,13.67673625649385,2.1631602682898787,0.15155691610922245,-0.0037774419916462563,8.421598117955701e-05
0.54,-0.00402622630937734,0.17645927849442652,-1.4857124389941674,0.09498059196778189,-0.0014797816192068654,3.960685135502615e-05,0.036565199024291326,-2.0093250785750483,-0.5380592944891323,-0.04527401210689752,-0.002253303785536027,-1.3409318355075695e-05,0.23901560652692921,14.58149852093608,-2.8479623536337897,-1.4114230227080142,-0.0033459949842049586,-0.0010443951776614169,0.102513503842482,13.732744841067884,2.155432589141015,0.14608308065908143,-0.0038177867834491676,7.969296642624247e-05
0.55,-0.0036367661487485907,0.15781818575661433,-1.4913695153023199,0.09438835996749141,-0.0015027556547104928,3.94003515757976e-05,0.038946016062874886,-1.86410927378122,-0.5657076308152394,-0.059223200029048004,-0.002297403550362735,-2.064997792285528e-05,0.23252641408476313,14.126974453763356,-2.7339795944517604,-1.3987272392968784,-0.003036791400082506,-0.0010325548341029167,0.10372184870303777,13.717359016794504,2.1305066930778773,0.13829737802545314,-0.0038338167895376144,7.395663338356342e-05
0.56,-0.003224141554751728,0.14058401265561282,-1.4972921439221358,0.09365865577295922,-0.0015261435692609697,3.9121263225790374e-05,0.04126245939968629,-1.7234173101001515,-0.5922628619815983,-0.07297041945321972,-0.0023387914550477003,-2.7908835000722555e-05,0.22547194384527036,13.571626580992787,-2.623033053012012,-1.378849819462804,-0.0027250558657111457,-0.0010164756458180824,0.10432430157483769,13.646160983446428,2.0937542229219157,0.12918325508711137,-0.003827582447580218,6.75290875782082e-05
0.5700000000000001,-0.00278905304825803,0.12470146843325074,-1.5034697075971095,0.09279412525428743,-0.0015499177604728868,3.8769883533687254e-05,0.04350885064936976,-1.588254422236208,-0.6177563674973687,-0.08645305186717846,-0.002377419121191705,-3.513796921031237e-05,0.21788224298016193,12.944332237243026,-2.5153881119799877,-1.352729236692472,-0.002412638443002546,-0.0009968328134603022,0.10436555414195384,13.53223572151576,2.0493757896222133,0.11948052283061669,-0.0038011417663976854,6.080431238535521e-05
0.58,-0.0023322548856298418,0.11010808774862087,-1.5098919179068846,0.09179794302087958,-0.0015740502344374946,3.834693566525463e-05,0.04567981626281881,-1.4593380684629866,-0.642221030977512,-0.09961822334078477,-0.002413247396460778,-4.229478684326243e-05,0.2097874090616599,12.268909840660118,-2.4111673287823514,-1.3213261274836938,-0.0020999933904713997,-0.0009742897470403911,0.10389096007355558,13.386521919424137,2.0006292823323055,0.10973697695904824,-0.00375647727122538,5.40751615606683e-05
0.59,-0.0018545520136246222,0.09673660449344461,-1.5165488193431942,0.09067371781216682,-0.0015985126081628706,3.785351221363346e-05,0.047770287200521955,-1.3371483255176262,-0.6656901436309598,-0.11242252087127608,-0.0024462373725376036,-4.9342345162116665e-05,0.20121742844803983,11.564851127018205,-2.310387197532222,-1.2855765540775472,-0.0017867519269503251,-0.0009494702101280339,0.10294473355582814,13.218117383588837,1.950019243694205,0.10035083122207633,-0.003695442227169281,4.755555644573849e-05
0.6,-0.0013567970423021304,0.08451689456012981,-1.5234307853155196,0.08942540367108634,-0.0016232760624453166,3.7291018802660816e-05,0.04977549713224919,-1.2219709933314793,-0.6881965972325321,-0.12483141410804817,-0.0024763454282446034,-5.6249341097264484e-05,0.1922020780077398,10.847961080964911,-2.2129868590409707,-1.2463618158061607,-0.001472128949487006,-0.0009229429870041272,0.1015687315980611,13.034545197790116,1.899452334329841,0.09160512432219256,-0.003619729133473264,4.139850653371704e-05
0.61,-0.0008398872445578485,0.07337755128377285,-1.5305285083496452,0.08805721865432957,-0.0016483112733407818,3.66611200025923e-05,0.05169097977442819,-1.1139343276356966,-0.7097723034125635,-0.1368185016756765,-0.0025035210895465133,-6.298988000685125e-05,0.18277087086617388,10.13093358665916,-2.118850563849012,-1.2044902730230334,-0.0011552006533053216,-0.0008952146882453826,0.09980170296312688,12.841993899875998,1.8503666016653715,0.08369578780951423,-0.0035308538972844343,3.5710849659579234e-05
0.62,-0.0003047615867039393,0.06324715088669067,-1.537832986240987,0.08657357196577668,-0.001673588341034815,3.5965688942505596e-05,0.05351256578539091,-1.0130400397082187,-0.7304477891341742,-0.1483646688552892,-0.0025277067694033156,-6.954310600867029e-05,0.17295302917434247,9.423896421504002,-2.027825342575831,-1.1606879748295462,-0.0008350842419204696,-0.0008667276569533922,0.09767888989533366,12.645548044909438,1.8038432577910277,0.07675525137719182,-0.003430149578176787,3.056570789801393e-05
0.63,0.0002476022080129762,0.05405526220823019,-1.5453355055237525,0.08497899975024913,-0.0016990767277554138,3.520676143096245e-05,0.05523637947169155,-0.9191888678460481,-0.7502519282765504,-0.159457221552755,-0.002548838672059894,-7.589275115431408e-05,0.1627115844627448,9.115437222664395,-1.9419778071877882,-1.115895360335113,-0.000513327342008485,-0.0008379023346775094,0.0951994562629787,12.635715875178363,1.8246051015101112,0.08276135118411351,-0.0033008539034225684,3.247157279730215e-05
0.64,0.0008161840593991818,0.04577116031344111,-1.5530276001465508,0.08327777391511354,-0.0017247438648200744,3.4386674396799546e-05,0.056858185138620565,-0.8284101894789075,-0.7692094622798394,-0.1701225835135585,-0.0025667137064660714,-8.200870341629073e-05,0.15211203816534352,8.921347192283076,-1.857945441621867,-1.0736980932688986,-0.000173184499296819,-0.0008067270542497784,0.09232402009404114,12.6772891195106,1.8645209097796793,0.0926418134604105,-0.0031510946163828797,3.656924515755575e-05
0.65,0.0013999280081426228,0.03837551579469822,-1.5609009254592943,0.08147386457049782,-0.0017505550957548348,3.350773261026885e-05,0.0583743948743441,-0.7395644518742889,-0.7873325312743523,-0.18039093446157228,-0.0025811230934760358,-8.78941786530696e-05,0.1412177895226315,8.614431725375466,-1.7740997166572114,-1.0343892992548724,0.00018611719520456038,-0.0007763480404314738,0.08906633794617133,12.659210341031848,1.8847567155379006,0.09908793618838962,-0.002990891012538732,3.8918427552968774e-05
0.66,0.00199774851024934,0.03183776125797818,-1.5689472477378608,0.07957110538274278,-0.0017764745624670362,3.2572023787618636e-05,0.059782050210671685,-0.6537754536720045,-0.8046322278566551,-0.19027591877550437,-0.0025919466712201376,-9.357088226502138e-05,0.13005990949700186,8.238439405446714,-1.6912908820747603,-0.9964244119219039,0.0005548329009129604,-0.0007487286206305788,0.0854732856002956,12.6019380884186,1.8924603526968673,0.10342353570580937,-0.0028212940823823507,4.0219274506860116e-05
0.67,0.0026085335661097946,0.026120448345426667,-1.5771584900705518,0.07757327470285898,-0.0018024657643451489,3.158150057110254e-05,0.061078505586045474,-0.5717312912551513,-0.8211242332690938,-0.19978306798838064,-0.0025991201878112604,-9.905232165160983e-05,0.1186718890794276,7.785239864325223,-1.6098433543273387,-0.9589640545291243,0.000927506874687567,-0.0007230759351417593,0.08158621529999939,12.50058688317559,1.8858503937766864,0.10528356393377988,-0.0026450934964260204,4.026409291874917e-05
0.68,0.0032311480763471782,0.02117843709003933,-1.585526764943324,0.07548416545046763,-0.0018284920159090173,3.053803824317947e-05,0.06226145102373839,-0.4942011255387334,-0.8368274872772216,-0.20891092523913482,-0.002602625156386851,-0.00010434623279230714,0.10708490472025972,7.239738451883001,-1.5301285107799352,-0.9213083560577982,0.0012995528868188777,-0.0006988556409586177,0.07744919089421139,12.346603718268415,1.8618401738636576,0.1040481526468512,-0.002465544073122679,3.870594217717363e-05
0.6900000000000001,0.0038644369639145217,0.01695739157675391,-1.5940444170159327,0.07330764918697008,-0.0018545168695289502,2.9443477846298953e-05,0.06332888875673434,-0.42210455132854197,-0.8517652072608745,-0.21765162634975527,-0.002602485361993292,-0.00010945603968805147,0.09532721752996533,6.6300572324271,-1.4526658246469744,-0.882824622673203,0.001666737663189144,-0.0006757033033160664,0.07310899560438543,12.153095587113665,1.8248868006743602,0.1005246779830532,-0.0022841091056211567,3.596413350039752e-05
0.7000000000000001,0.004507228011706444,0.013396581017143984,-1.6027040521811633,0.07104769991295867,-0.0018805043377174196,2.8299683697519353e-05,0.06427910477919227,-0.35608105596099265,-0.8659635165230634,-0.2259949274011413,-0.0025987468188469398,-0.00011437941487795993,0.083426031683091,6.0247943477702455,-1.3777822696436193,-0.8432782624951436,0.002026882491364068,-0.000653078245284433,0.06860490197089164,11.954281570824204,1.7867978014110886,0.09692795327382014,-0.0020998017474856785,3.3217634296370274e-05
0.71,0.005158334598441562,0.01043571350387737,-1.6114985227775969,0.06870835603312239,-0.0019064188019172396,2.7108597955414786e-05,0.06511065867351172,-0.29608675132666146,-0.8794470596433646,-0.23393438798362753,-0.0025914464199819913,-0.00011910857421045684,0.07141024077878619,5.35432225457061,-1.3052413281474884,-0.8030365344449404,0.0023809593371231785,-0.0006303733822297652,0.06396315111231393,11.71455018797305,1.7348375082749512,0.09078186274188933,-0.0019169715093658504,2.913329961345795e-05
0.72,0.005816558574000841,0.00800800013183408,-1.6204209542259458,0.0662937477498463,-0.0019322252647073792,2.5872197542397336e-05,0.0658223975559279,-0.24277133720432909,-0.8922431448348889,-0.2414608283276093,-0.0025806462790139433,-0.0001236400413017449,0.05930607143137989,4.68652218024405,-1.2354308517191512,-0.7618445600500952,0.002726471695879251,-0.0006080697321529938,0.05922227163311153,11.468136792693567,1.6809148079499234,0.0843382713045256,-0.0017345254097360483,2.490550670985501e-05
0.73,0.006480692896453296,0.006046917171614284,-1.629464735809661,0.06380806068705987,-0.0019578892759258486,2.459253267707183e-05,0.06641343224524546,-0.19610829602197954,-0.9043781583715308,-0.24856870627864308,-0.0025664011218469516,-0.00012796648653255058,0.04714034015692961,4.047095016470356,-1.168234008476598,-0.7200645347103283,0.0030642184617437063,-0.0005857373131853971,0.05440418009532596,11.228526556176048,1.6296275525678123,0.07845818551759515,-0.0015521163195560265,2.0991103125611508e-05
0.74,0.007149524315553221,0.004488766822372536,-1.6386234941174558,0.06125548783778874,-0.001983376798972619,2.3271723348438217e-05,0.06688314190999245,-0.15581503492417476,-0.9158758307794826,-0.25525728492711314,-0.002548752304677048,-0.00013208093286336134,0.03493976343691204,3.394138906573012,-1.1033927246331698,-0.6781818133305384,0.003395544938295386,-0.0005633375394898943,0.049524427927176234,10.97430146273971,1.5732642452412458,0.07162537670128433,-0.0013721337442198877,1.6578513168875052e-05
0.75,0.007821836032572143,0.003268503587252569,-1.6478910999562186,0.05864022617826737,-0.002008654324304167,2.1911913614425796e-05,0.06723117170189226,-0.12202632351199674,-0.9267605838762846,-0.2615261659521367,-0.0025277525331547997,-0.0001359809734012421,0.02273041418753625,2.8454816043914315,-1.0410188663505027,-0.6362396334596063,0.003719407160060348,-0.000541325201820958,0.044603510014101205,10.767349414473898,1.5337186145728565,0.06808368808237279,-0.0011898191355920846,1.3927892642502772e-05
0.76,0.008496410327267993,0.002331472015590496,-1.657261597426181,0.05596637940944914,-0.002033688463915097,2.0515309998350993e-05,0.06745742946958508,-0.09370315716620727,-0.9370497469962459,-0.2673846768818231,-0.0025034139610929846,-0.0001396603616074803,0.01053892929140829,2.290515496688481,-0.9803748342054033,-0.5952113451165064,0.004039787389658945,-0.0005191450854026142,0.0396354650420256,10.550729664629765,1.490668734448144,0.06386417824710798,-0.0010094343057213465,1.0933006771095505e-05
0.77,0.009172031192366885,0.0016223894456331904,-1.6667292152949114,0.05323797403990815,-0.0020584461795797185,1.9084087038905555e-05,0.06756208650988911,-0.07090825699573057,-0.9467617868730247,-0.27284053695409904,-0.0024757715664621353,-0.0001431222959445438,-0.0016086292048926008,1.8537684161118244,-0.9216091346948665,-0.5549434758702803,0.00435451570392744,-0.0004977410773094604,0.034635326381694004,10.390756191097626,1.4677675433961703,0.06359944898426072,-0.0008255391343535865,1.0056954993215377e-05
0.78,0.009847486961372772,0.0010977506572867,-1.6762882920378723,0.05045887199105078,-0.0020828944131773787,1.7620429280109175e-05,0.06754557690058874,-0.052463878834649036,-0.9559076742961051,-0.2779102048857366,-0.002444823359765996,-0.00014636577587963807,-0.013685886947787544,1.4288052788802796,-0.8639575039294556,-0.5163124696017369,0.004667182127384706,-0.00047651160318293306,0.02958975167816258,10.23222147190939,1.4452767780725366,0.06341702939628446,-0.0006418628374242982,9.253931581048818e-06
0.79,0.010521572916892371,0.0007152264049192521,-1.6859332821353494,0.04763279134964616,-0.0021070003330080226,1.6126446414451677e-05,0.06740859555195984,-0.0382524252367448,-0.9644990097477151,-0.282608064140462,-0.0024105919830643774,-0.00014939828656574997,-0.025666826593732393,1.136438552848558,-0.8074987010466368,-0.47911419336898886,0.0049754229011410855,-0.0004562863350186658,0.024506250827235218,10.140506190089997,1.44666892792081,0.06796071068919857,-0.00045265865837822866,1.0990337882659638e-05
0.8,0.011193093913358623,0.0004456975457652276,-1.6956586748081075,0.04476322636316408,-0.0021307309799031985,1.460421537661668e-05,0.06715209964662512,-0.02695288591540245,-0.972539267275807,-0.2869564986482082,-0.0023730646895175813,-0.00015222310378349972,-0.03752531774515947,0.8494665952827001,-0.7514109469196074,-0.44415147233017466,0.00528263094073228,-0.00043645360371692525,0.019365740123023938,10.048648176798215,1.4479081060270644,0.07248333480510735,-0.00026243726261924,1.2765455900801615e-05
0.81,0.011860866956584063,0.0002605852068275782,-1.7054590105517768,0.041853490916954644,-0.002154053631101344,1.3055694120480975e-05,0.06677730432254397,-0.018511233893764942,-0.9800335743669245,-0.29097354462094366,-0.0023322651198145507,-0.00015485212561357052,-0.049235609042377886,0.6404118450124204,-0.6958667673568815,-0.41098987824009514,0.005585262056449103,-0.0004178662018451719,0.014177137528234178,9.996347043287084,1.4633304599028685,0.07984267477843142,-6.791345585352025e-05,1.6093541752104247e-05
0.8200000000000001,0.012523723792401966,0.0001390742066218842,-1.7153288415564087,0.03890669400043063,-0.0021769357378142525,1.1482757524707424e-05,0.06628568358179034,-0.012151100020569402,-0.9869831004631876,-0.29467969165240115,-0.002288210671290873,-0.00015729365957735516,-0.06077199595719146,0.5185928488279263,-0.6404692039114199,-0.37987632129537785,0.005883891867021651,-0.0004000583060270943,0.00893147982195873,9.989932926451212,1.4952553755579827,0.0905221533788151,0.0001322802306304412,2.1241069346841937e-05
0.8300000000000001,0.01318051347343963,6.904141918103738e-05,-1.7252626866893153,0.035925715892993294,-0.002199344863902408,9.887190722181141e-06,0.06567896810376644,-0.007003278744084681,-0.993384513290647,-0.2980978107437341,-0.0022409126088155824,-0.0001595566802526283,-0.08110984021813225,4.471479860621364,-0.43434727294252795,-0.31761719912904773,0.006547310556634156,-0.00036081148889527404,-0.00036560143193355155,12.265504777673966,2.364541028326278,0.2708740014540957,0.0006808306116626926,0.00011626349219492045
0.84,0.013829207592489155,0.0004443142277440601,-1.735237238514556,0.03291364314238346,-0.00222119545472124,8.273730530381319e-06,0.06486941190495234,0.037527280856302275,-0.9974551825240857,-0.30120727506098366,-0.002185059081883175,-0.00016134601917998235,-0.08300098658518257,-2.9719416220377224,-0.5025900548735036,-0.3539712426404069,0.006609179885743999,-0.0003538725910587348,-0.0027066207739442315,8.189665040964641,0.9039108898618904,-0.020959876851965098,0.00044125345109145733,-3.7393627492187225e-05
0.85,0.01446961582961587,0.0005234705643075645,-1.7452649448142274,0.029873078993196158,-0.002242516137653022,6.6382798802482614e-06,0.06404082371267164,0.007915633656350438,-1.002770629967151,-0.3040564149187299,-0.0021320682931782243,-0.00016354506501330569,-0.09385933499422934,-1.7785816630207034,-0.47390285775781926,-0.2938843758688039,0.00668031315021822,-0.0003766030089322747,-0.007286183690843561,8.886364757607929,1.193241432310677,0.04186708738607266,0.0006599303324583831,-5.121725031877913e-06
0.86,0.015100655258038474,0.00042534697509633414,-1.755341733842822,0.026807935569407464,-0.0022632845346092284,4.984090300196988e-06,0.0631039428422603,-0.009812358921123036,-1.0076789028594622,-0.3065143423788695,-0.002076839695620606,-0.00016541895800512737,-0.10443766605430001,-0.6979164800997729,-0.43292850913127334,-0.25478643108247034,0.00687029576297693,-0.00034603913682440535,-0.012244928223973283,9.535673137420446,1.4656311284770467,0.10151043939471181,0.0008961928654563449,2.5753013051173886e-05
0.87,0.01572127065172466,0.00025757766539790295,-1.7654625583131727,0.02372066649847863,-0.0022834710145020354,3.3140156472874902e-06,0.06206153936861846,-0.016776930969843118,-1.0120824470350642,-0.30872690709288314,-0.0020186479892807235,-0.00016700746529094975,-0.11471581009822827,0.3683240736504192,-0.38192973842972955,-0.23026571018954634,0.007129758135526187,-0.0003181208494071842,-0.01753508146032828,10.190965972436942,1.7400583041785278,0.16178539679134157,0.0011518608583651491,5.7226053270025554e-05
0.88,0.016330436581519815,0.00012637581335295817,-1.7756214976189206,0.020612673293236204,-0.002303041646472132,1.6300221931294213e-06,0.06091659297951548,-0.013120185204494476,-1.0158939305747912,-0.31079932052424264,-0.0019570631970096623,-0.0001683993454158069,-0.1323505146470156,4.927632623200251,-0.18331516127184422,-0.18530655760750392,0.007726940344788935,-0.00027564311863725877,-0.026693544148838573,12.87892543977388,2.768335365745401,0.37775302240788106,0.001728989161403557,0.00017095452187936713
0.89,0.01692639411818938,0.00048594356245530907,-1.7857954805377028,0.01748517825121786,-0.0023219148309057344,-6.40471524162486e-08,0.05959575366695626,0.035956774910235086,-1.0173982918782167,-0.31274950420183445,-0.0018873184433602422,-0.000169406934554567,-0.13408491819691354,-2.946252520217835,-0.23066781360546518,-0.2354355044523455,0.007881288442111889,-0.0002764834159823537,-0.029652352770825393,8.439659906389027,1.157414063124321,0.04977208267280536,0.0014886722931283063,-2.976640759944039e-07
0.9,0.017508968182843632,0.0005520878484033963,-1.795995654746323,0.014340205249733975,-0.0023401171949758524,-1.7729219279994898e-06,0.05825740646542543,0.006614428594808722,-1.0200174208620183,-0.3144973001483885,-0.0018202364070118097,-0.00017088747755832412,-0.1433407114657645,-1.7651563355855353,-0.20068101715980324,-0.18352532510514585,0.007889175232631773,-0.0003035634243154228,-0.03443055173524623,9.151518666619594,1.454495646420579,0.11518434301428189,0.0017187890416814858,3.3688200128926784e-05
0.91,0.018077235545255328,0.000442422686741382,-1.8062178463971499,0.011181047201362392,-0.0023576323524570025,-3.4939488622323574e-06,0.05682673624116937,-0.010966516166201427,-1.022219165082696,-0.3159158048371584,-0.0017515157481150093,-0.00017210269342328674,-0.15220511102690243,-0.6803271618246435,-0.15892486575814568,-0.15063165970024261,0.008009047349946119,-0.0002771773697178431,-0.03949739570521761,9.823331405684476,1.736930489433822,0.17780458336804233,0.0019623067415637345,6.647929108175322e-05
0.92,0.01863031180983592,0.0002649947798341787,-1.8164569359482508,0.008009678830885743,-0.0023744372490876017,-5.224740113132232e-06,0.05530762645805947,-0.017742790690720333,-1.0239089551100895,-0.3171368370476648,-0.0016804896630599334,-0.00017307912508998747,-0.16066266088057374,0.41698438642404817,-0.1074089974924568,-0.13089644614828377,0.008193063853479066,-0.0002523319826885223,-0.04479802559987095,10.516425655270693,2.0268879823799235,0.24218558387889869,0.0022214736735096763,0.00010043796812102921
0.93,0.019167353044639335,0.00012910786510464493,-1.8267069260742708,0.0048271122932019,-0.0023905049112728175,-6.963686689105842e-06,0.0537041234803414,-0.013588691472953374,-1.0249990126019943,-0.3182566537683843,-0.0016067662185215873,-0.00017389465759736096,-0.17550775048403758,12.856785407434746,0.7776038224018187,0.06495440005502218,0.00878610891912901,-0.00013218658294866792,-0.05385361741810249,18.058315781884254,4.906737488353732,0.8524546784614497,0.0031965174528373634,0.0004205238057034159
0.9400000000000001,0.019686879794501764,0.0012741367432502644,-1.8368708791504476,0.001644717091779669,-0.002405720292195367,-8.697902145835152e-06,0.051952674986242744,0.11450288781456196,-1.0163953076176824,-0.3182395201422231,-0.001521538092254923,-0.00017342154567293096,-0.17594091086999142,-5.454476457719456,0.0845191708243398,-0.19660977940892366,0.00910350786382308,-0.00019661155284178555,-0.05811337545512192,7.245171618026307,0.8593365190418352,0.0044863094217282296,0.002512558705426639,-2.000961740929519e-05
0.9500000000000001,0.02018884442463851,0.0018762319206457522,-1.8470326272713873,-0.0015479868689307632,-0.002420152205444362,-1.044466426974105e-05,0.0501964630136745,0.06020951773954877,-1.0161748120939775,-0.3192703960710432,-0.0014431913248995278,-0.0001746762123905898,-0.18313843773460053,-4.2407873304263495,0.09048682856530199,-0.110093739702533,0.00876387105158094,-0.00026939128076364227,-0.062096714818418164,7.9723609252218886,1.162868027571167,0.07194818073753745,0.002704220248123645,1.4977519725111921e-05
0.96,0.020672529336165854,0.0020562019219569454,-1.8571900235627814,-0.004745221386532171,-0.0024338095836901764,-1.220016711915511e-05,0.048368491152734304,0.01799700013111931,-1.0157396291394176,-0.3197234517601408,-0.001365737824581439,-0.00017555028494140588,-0.18983093195832143,-2.9718366291567015,0.1091042627072154,-0.052922631388018004,0.00862410595695362,-0.00023136936705392408,-0.06629955174079585,8.748959211991256,1.4859430518269954,0.14379861858787688,0.002913476103263107,5.249015907920712e-05
0.97,0.021137267032737092,0.001940385967692753,-1.867339835294879,-0.007943438240221614,-0.002446688128723106,-1.3960476162393103e-05,0.04647376965712381,-0.011581595426419233,-1.0149811732097445,-0.31982168536894423,-0.0012878545032930025,-0.0001760309043237993,-0.19602556382942407,-1.8491079879958279,0.14049412356953583,-0.01761163431600199,0.008615494419749625,-0.00019085196619900158,-0.0706927699999563,9.454746099182339,1.7830041267745322,0.21041099796831209,0.003128753127149284,8.751577808887441e-05
0.98,0.02158243945069433,0.0016405855369466557,-1.8774778554894391,-0.011140577411213104,-0.0024587760961061415,-1.5722865338459335e-05,0.044517241795723715,-0.029980043074609716,-1.0138020194560282,-0.3197139170991491,-0.0012087967383035238,-0.00017623891760662328,-0.20171613621173903,-0.8662998380353207,0.18201384366026363,0.002856867742850877,0.008679712972800235,-0.0001615040945445595,-0.07520276789927684,10.090639789341822,2.053780683263122,0.2716542455995865,0.0033463899525521448,0.00011995654097996326
0.99,0.022007478658428486,0.0012546852773280789,-1.8875991085825419,-0.01433554595265702,-0.0024700582068254884,-1.748565245014601e-05,0.04250392077341554,-0.03859002596185769,-1.0121253093102733,-0.3194968541443917,-0.001128211071934675,-0.00017627871116866737,-0.20689651586538438,-0.032507638172815115,0.23155596890248023,0.013705055043897074,0.008777841667827024,-0.00014193144602658858,-0.07975741476312398,10.648450518712517,2.2947864571520626,0.32672816979320823,0.0035621303416693037,0.0001493650459622426
