tonegas/nnodely-applications/joint_friction_estimation/dataset/train/mpc_mujoco_episode_45 copy.csv
time,q1,q2,q3,q4,q5,q6,dq1,dq2,dq3,dq4,dq5,dq6,ddq1,ddq2,ddq3,ddq4,ddq5,ddq6,tau1,tau2,tau3,tau4,tau5,tau6
0.0,0.0,1.57,-1.57,0.0,0.0,0.0,0.0,0.0,0.0,0.0,0.0,0.0,-4.0153970378184525,-5.610274493322954,8.778970206162947,3.929239205308269,-0.5992525057107798,-2.5831549645971563e-06,-0.5595835536771742,-5.71910565914372,-4.172740387382176,-0.8735494500642607,-0.050689521241837655,-0.0010203795086089168
0.01,-0.00039948857320498964,1.569443907772357,-1.569127338353166,0.0003647981475155653,-5.0308455207535376e-05,-3.0820587262043727e-07,-0.039948857320498965,-0.05560922276431153,0.0872661646833977,0.03647981475155653,-0.0050308455207535374,-3.082058726204373e-05,-3.9861778267490666,-5.51209024799064,8.757785128790486,3.663785913448992,-0.5062983378629617,-0.003083907864089852,-0.5571173594018332,-5.68389178218931,-4.1581500372681495,-0.8701180736305547,-0.05052326351053885,-0.0010155982234485478
0.02,-0.0011952475531696201,1.5683416563485437,-1.5673856830360369,0.0010735587410553558,-0.00014519707633418993,-9.335327550157255e-07,-0.07957589799646304,-0.11022514238131544,0.1741655317129311,0.07087605935397905,-0.009488862112665454,-6.253268823952883e-05,-3.9530475534961522,-5.408927727545118,8.722506698026374,3.4552893008715593,-0.4496318195290421,-0.0031685549902893406,-0.5526367820558736,-5.642364020655441,-4.141370426091215,-0.8660462408661416,-0.05023574394048433,-0.0010076891606095966
0.03,-0.002383793230938503,1.5667036251269582,-1.5647796919666748,0.002109780465947488,-0.0002811336781135562,-1.8558166593566513e-06,-0.11885456777688827,-0.16380312215855386,0.26059910693621596,0.10362217248921321,-0.01359366017793663,-9.222839043409258e-05,-3.917128070944349,-5.3014210052751105,8.677186463054502,3.289982757065781,-0.4152678723441845,-0.0029447113337495168,-0.5462267377789093,-5.594791414114995,-4.1225447104412565,-0.8613703262367627,-0.0498308283130728,-0.000996750079433253
0.04,-0.003961439133639225,1.5645405882229566,-1.5613147080988738,0.003460250847819991,-0.00045593874298034703,-3.060169241928784e-06,-0.15776459027007217,-0.21630369040014574,0.3464983867800979,0.13504703818725033,-0.01748050648667908,-0.00012043525825721323,-3.879040004644391,-5.1900847340095515,8.624846283452133,3.1573520787560465,-0.39475106413575745,-0.0027494411779800387,-0.5379792634618344,-5.541461658392456,-4.101822613365187,-0.8561272886284688,-0.04931232066337634,-0.0009828783310749174
0.05,-0.005924328386920221,1.5618636719883852,-1.5569965339076843,0.005114247621809085,-0.0006682742025031743,-4.537927842862038e-06,-0.19628892532809952,-0.26769162345715375,0.43181741911894844,0.1653996773989094,-0.021233545952282728,-0.00014777586009332542,-3.8391011771129846,-5.075343052066013,8.567709491972597,3.0493670854990906,-0.3829519256542362,-0.0025877714047259914,-0.5279923854719798,-5.482678985450216,-4.079359901724121,-0.8503546723544697,-0.04868392596943296,-0.0009661688392380652
0.06,-0.008268447649989234,1.5586843194730453,-1.55183126763706,0.00706292841751714,-0.00091733272827195,-6.284254603293992e-06,-0.2344119263069014,-0.31793525153398045,0.5165266270624218,0.19486807957080557,-0.024905852576877566,-0.00017463267604319541,-3.7974456255580895,-4.9575514248700765,8.507378580590299,2.9598913990046327,-0.37674879975581277,-0.0024319181808865054,-0.5163691249634929,-5.418762280848939,-4.055317993832082,-0.8440905994658703,-0.04794922979069019,-0.0009467137148575302
0.07,-0.01098962981646777,1.5550142601462844,-1.5458251877729652,0.009298863859799304,-0.0012026481810694274,-8.296281984193887e-06,-0.27211821664785346,-0.3670059326760994,0.6006079864094862,0.22359354422821634,-0.02853154527974773,-0.00020120273808998943,-3.7540950984285915,-4.837013274319349,8.444971697875392,2.884230469488866,-0.3742335258565781,-0.0022596246616983784,-0.5032165777394279,-5.350043317581447,-4.029863649308838,-0.8373737544564933,-0.04711168660621489,-0.0009246026222557663
0.08,-0.014083549801409164,1.5508654835969173,-1.5389846753434098,0.01181567973784235,-0.0015239792989377508,-1.05719595172019e-05,-0.3093919984941394,-0.4148776549367148,0.6840512429555431,0.2516815878043046,-0.03213311178683234,-0.00022756775330080135,-3.7090020572181635,-4.713992736167753,8.381227575123518,2.818786015882621,-0.37423163508270463,-0.0020553963944540676,-0.48864503903613943,-5.276865009249011,-4.0031686989338855,-0.8302433598596677,-0.04617461266329598,-0.0008999234589750518
0.09,-0.017545716011866667,1.546250216225583,-1.531316166046865,0.01460778200120871,-0.001881237655744093,-1.3109361290948462e-05,-0.34621662104575035,-0.46152673713343995,0.7668509296544668,0.279210226336636,-0.03572583568063421,-0.0002537401773746561,-3.6620755746103164,-4.588724520633493,8.316586318473467,2.760792169718952,-0.3760121933542777,-0.0018079424601280536,-0.47276716125196794,-5.199579603950957,-3.975409777815465,-0.8227391399159103,-0.045141181346230304,-0.0008727631447156433
0.1,-0.021371459064622886,1.5411809001643202,-1.5228261260412936,0.01767014456019705,-0.00227444236497859,-1.5906261825532175e-05,-0.38257430527562175,-0.5069316061262717,0.8490040005571384,0.3062362558988341,-0.03932047092344973,-0.0002796900534583712,-3.613196963014883,-4.461421590884699,8.251251800149246,2.7081142720429874,-0.37911217218124804,-0.0015081776626035825,-0.4556971422739043,-5.118546755394448,-3.946768030260714,-0.8149012689568121,-0.04401442027980746,-0.0008432084324420763
0.11,-0.02555591869471851,1.5356701738240908,-1.5135210466184585,0.020998144634180566,-0.0027036909181971974,-1.895986018468439e-05,-0.4184459630095623,-0.551072634022949,0.9305079422835139,0.3328000073983516,-0.04292485532186074,-0.0003053598359152215,-3.562229241034886,-4.332281185898006,8.185240061862858,2.659095674546318,-0.3832300319968809,-0.0011479870396788883,-0.4375499473786194,-5.034131420965316,-3.917428759339786,-0.8067703011041557,-0.04279721005178707,-0.0008113467117871918
0.12,-0.03009402942735482,1.5297308535968455,-1.5034074540433633,0.02458743404230457,-0.0031691397278421915,-2.2266581578164377e-05,-0.4538110732636309,-0.5939320227245254,1.0113592575095165,0.3589289408124007,-0.046544880964499415,-0.0003306721393479988,-3.509022911297455,-4.201489576714285,8.118417123106736,2.612441298920709,-0.3881611522471786,-0.0007195054285475955,-0.418440570689018,-4.946701548683711,-3.8875809983441987,-0.7983870781474894,-0.04149228482029297,-0.0007772668008942399
0.13,-0.034980505364715864,1.5233759163352083,-1.492491931634699,0.028433837625894208,-0.0036709904724061882,-2.582191584441104e-05,-0.4886475937361041,-0.6354937261637219,1.0915522408664249,0.3846403583589636,-0.050185074456399664,-0.00035553342662466615,-3.453419542263285,-4.069225843736597,8.050528799087003,2.5671293314138204,-0.39375857146893267,-0.00021471002906725545,-0.3984833438901881,-4.8566255266876315,-3.8574169852560405,-0.7897926129349024,-0.04010223529665986,-0.0007410597332467664
0.14,-0.040209824308895706,1.5166184823077555,-1.4807811517593084,0.03253327213118593,-0.004209479871507893,-2.9620270035184972e-05,-0.522931894417984,-0.6757434027452698,1.1710779875390518,0.40994345052917236,-0.05384893991017045,-0.00037983541907739326,-3.3952540571408676,-3.935664887453092,7.981224524652662,2.5223444473589822,-0.39990903956333135,0.0003748014976761027,-0.37779130086326596,-4.76426938056185,-3.8271315250897677,-0.7810279462303059,-0.038629514729941694,-0.0007028195488111286
0.15,-0.04577621136673554,1.5094717983870014,-1.4682819158584748,0.0368816805182836,-0.004784871444196804,-3.3654822742186134e-05,-0.5566387057839833,-0.7146683920754179,1.249923590083368,0.43484083870976614,-0.05753915726889109,-0.00040345527070011645,-3.334356278295218,-3.800979828869091,7.9100767107488155,2.4774275099622116,-0.4065183351817687,0.0010579233605825245,-0.35647560731543876,-4.669993715743793,-3.796921228654517,-0.7721339757202728,-0.037076448599862255,-0.0006626440979847388
0.16,-0.051673622140495715,1.501949221274837,-1.4550012009522513,0.04147497791549221,-0.005397448364302074,-3.791737383626789e-05,-0.5897410773760171,-0.7522577112164233,1.3280714906223468,0.45932973972086144,-0.06125769201052696,-0.000426255109408175,-3.2705520618133748,-3.665343914066388,7.83659679682084,2.431837875629684,-0.4135021889511634,0.0018440887918509397,-0.33464506445537456,-4.574150414557919,-3.7669836200056017,-0.7631512566711247,-0.035445248765829405,-0.0006206358643763936
0.17,-0.057895725586966235,1.49406420060952,-1.4409462113079101,0.04630900639774115,-0.0060475068661369705,-4.2398186747674334e-05,-0.6222103446470516,-0.7885020665317118,1.4054989644341231,0.4834028482248937,-0.06500585018348969,-0.00044808129114064444,-3.2036642279633023,-3.5289320061239864,7.760248881589643,2.385125347461253,-0.4207805966846738,0.00274327752265191,-0.3124056952987846,-4.477079110206449,-3.7375161086773256,-0.7541197746247648,-0.03373803282625143,-0.0005769028092625533
0.18,-0.06443588661904638,1.485830261831707,-1.4261244341314732,0.05137949650275812,-0.006735349859577134,-4.708582237938962e-05,-0.6540161032080152,-0.8233938777813057,1.4821777176436854,0.5070490105016964,-0.06878429934401634,-0.000468763563171528,-3.1335134154207083,-3.391921724540067,7.680461596634673,2.3369095135151596,-0.4282741791105895,0.003765997870860849,-0.2898604212695932,-4.379103473215133,-3.7087148267554966,-0.7450786914630028,-0.03195684941520998,-0.0005315592370577074
0.19,-0.07128714852327973,1.4772609887162298,-1.4105436982640054,0.056682033961742644,-0.00746128053816097,-5.196696485233673e-05,-0.6851261904233357,-0.8569273115477236,1.5580735867467865,0.5302537458984528,-0.07259306785838358,-0.0004881142472947113,-3.0599189400716944,-3.254494275385079,7.596638717595096,2.286864736666809,-0.435901771570558,0.004923251015632513,-0.2671088353605291,-4.2805273592271424,-3.6807733349688445,-0.736066067146701,-0.030103710100541532,-0.0004847266774534159
0.2,-0.07844221527145756,1.4683700055025515,-1.394212234950014,0.062212030552709685,-0.008225595839249544,-5.702623990571001e-05,-0.7155066748177829,-0.8890983213678233,1.6331463313991414,0.5529996590967041,-0.07643153010885734,-0.0005059275053373278,-2.982699710756628,-3.1168350032614915,7.508168875203721,2.2347094667756693,-0.4435787449061248,0.006226480974310888,-0.24424707621010094,-4.181630880378637,-3.653881206238183,-0.7271185604271821,-0.028180628445646373,-0.00043653477606217354
0.21,-0.08589343381247035,1.459170958581022,-1.3771387398042592,0.06796469831501122,-0.009028579660624468,-6.224602713711142e-05,-0.7451218541012784,-0.91990469215294,1.7073495145754674,0.5752667762301524,-0.08029838213749241,-0.0005219787231401414,-2.9016752372020456,-2.9791336876843313,7.414434624135404,2.1801988529324365,-0.45121574987235213,0.007687511245106915,-0.2213678050320781,-4.082666475404396,-3.6282224994829297,-0.7182711128099867,-0.02618966665407583,-0.00038712218146468274
0.22,-0.09363277644104832,1.449677497714752,-1.3593324351437006,0.07393502661601119,-0.009870495764732265,-6.760626749265062e-05,-0.7739342628577982,-0.9493460866270105,1.7806304660558556,0.597032830099997,-0.08419161041077976,-0.0005360240355539196,-2.8166667552362514,-2.8415846009108825,7.314821045036102,2.1231198666377438,-0.45871769183115063,0.009318467329582525,-0.198560284410024,-3.9838550656589606,-3.6039741408957897,-0.7095566210018307,-0.02413299002908569,-0.0003366374125288287
0.23,-0.1016518233522677,1.4399032567985244,-1.3408031318797566,0.08011776175307589,-0.01075158031700104,-7.308426758098464e-05,-0.8019046911219381,-0.9774240916227477,1.8529303263943975,0.6182735137064694,-0.08810845522687753,-0.0005478000088334021,-2.727498488624414,-2.7043863409192315,7.208723988754047,2.063288323338533,-0.46598281051670476,0.011131683001385895,-0.1759105545793249,-3.88538239489776,-3.5813042343175274,-0.7010056039724039,-0.022012929249122605,-0.0002852396858070332
0.24,-0.10994174550436232,1.4298618341768523,-1.3215612901878666,0.08650738891924156,-0.011672034012353793,-7.865450253134733e-05,-0.8289922152094622,-1.0041422621672176,1.924184169189011,0.6389627166165678,-0.0920453695352753,-0.0005570234950362688,-2.6339990639939157,-2.5677414516827857,7.09555801702434,2.0005473233706503,-0.4729017798283799,0.013139586966989691,-0.15350169902748467,-3.787395659447181,-3.560370326793893,-0.6926458716129718,-0.01983205018562101,-0.00023309967882763854
0.25,-0.1184932879273121,1.4195667725631063,-1.301618078190996,0.09309811646916134,-0.01263201374662864,-8.428841927169786e-05,-0.8551542422949783,-1.029506161374599,1.9943211996870591,0.6590727549919777,-0.09599797342748467,-0.0005633916740350529,-2.5360030945199523,-2.431855842752306,6.974764045610577,1.9347667343011885,-0.4793567662554228,0.015354565273879794,-0.13141418714744063,-3.690000541912954,-3.5413176600716247,-0.6845022028202172,-0.01759323067473609,-0.00018040020134421395
0.26,-0.127296753630864,1.4090315386205354,-1.2809854279152861,0.09988386250074244,-0.013631623788494373,-8.995424228971666e-05,-0.8803465703551915,-1.0535233942570796,2.063265027570984,0.6785746031581087,-0.09996100418657321,-0.0005665823018018802,-2.433352948889067,-2.296938021199209,6.845816646518758,1.8658434128652104,-0.4852203988114727,0.017788793394536317,-0.10972627741099056,-3.59325876576475,-3.5242774443476126,-0.6765960418408925,-0.015299743305788635,-0.00012733674335012573
0.27,-0.13634198828319127,1.398269502283787,-1.25967608780384,0.1068582438228702,-0.014670906403453091,-9.561678417448105e-05,-0.904523465232727,-1.0762036336748513,2.130934011144607,0.6974381322127761,-0.10392826149587184,-0.0005662541884764377,-2.32590072443929,-2.1631981511354,6.708230900000048,1.793701921960679,-0.490354612867824,0.020454030237569643,-0.0885144602627704,-3.497186290723688,-3.5093651988579166,-0.668945223340409,-0.012955342916266422,-7.411786633765863e-05
0.28,-0.14561836585055643,1.387293915915951,-1.2377036711147353,0.11401456741482704,-0.01574983187518782,-0.00010123726353993072,-0.9276377567365168,-1.0975586367836125,2.1972416689104732,0.7156323591956847,-0.10789254717347291,-0.0005620479365449674,-2.213510447492159,-2.0308469596055434,6.561568568439696,1.718295540617076,-0.49460933820128083,0.02336136443708442,-0.0678539158920956,-3.401752272543083,-3.4966792197273437,-0.6615637401159968,-0.010564357102846113,-2.096540370037509e-05
0.29,-0.15511477540952331,1.3761178934107685,-1.2150826995930624,0.12134582450106657,-0.016868287861274724,-0.00010677313332567432,-0.9496409558966877,-1.117602250518246,2.262097152167288,0.7331257086239529,-0.11184559860869037,-0.0005535869785743596,-2.0960605305320144,-1.9000945138036898,6.405443101916112,1.6396073944876193,-0.4978210103168781,0.026520901079622627,-0.04781895851888296,-3.3068789229136444,-3.48629927154652,-0.6544615758065466,-0.008131777700248439,3.188556088892298e-05
0.3,-0.16481960936712353,1.364754389361717,-1.1918286419195399,0.12884468736673407,-0.018026068010610557,-0.00011217792298602658,-0.970483395760022,-1.136350404905161,2.3254057673522417,0.7498862865667494,-0.11577801493358322,-0.0005404789660352263,-1.9734465273279391,-1.7711489065922548,6.239522344188508,1.5576515502062271,-0.4998108957266352,0.029941374699971823,-0.028483436279552188,-3.2124424448490436,-3.4782856884302995,-0.6476446465394883,-0.005663350907756333,8.418695766274221e-05
0.31,-0.17472075335207451,1.3532161784277557,-1.167957946662573,0.136503509022444,-0.019222859759455767,-0.00011740109875237593,-0.9901143984950989,-1.1538210933961253,2.3870695256966856,0.7658821655709904,-0.119679174884521,-0.0005223175766349348,-1.845583430670757,-1.6442133573982523,6.063656997084182,1.4724725484532968,-0.5003832178618985,0.03362967181367116,-0.009920984218642764,-3.1182611814581263,-3.472660892032119,-0.6411104039395625,-0.0031656475715308267,0.00013568038196517837
0.32,-0.1848055779932109,1.341515835240817,-1.143488057199752,0.1443143264146543,-0.02045823120707592,-0.00012238794630473106,-1.0084824641136378,-1.1700343186938589,2.446988946282084,0.7810817392210313,-0.12353714476201523,-0.000498684755235512,-1.7124112100572464,-1.5194883981740976,5.877503068692504,1.3841567533950645,-0.4993231601152033,0.03759027196081863,0.007794591790889843,-3.0241406575337786,-3.469461862216396,-0.6348609459560479,-0.0006461822903660597,0.00018609202245115542
0.33,-0.19506093311870468,1.3296657144569166,-1.1184374453708719,0.1522688659353712,-0.021731616979734487,-0.0001270794834138027,-1.0255355125493766,-1.1850120783900249,2.5050611828880176,0.7954539520716885,-0.12733857726585665,-0.0004691537109071625,-1.5738961366226123,-1.3971664943630981,5.681005508849786,1.2928119842904007,-0.4963947895456897,0.04182448065180433,0.024589476557815765,-2.929823465022413,-3.4686728393261266,-0.6288866086121662,0.001886570202681688,0.0002351413792536739
0.34,-0.2054731444927091,1.3176779317186378,-1.0928256167995025,0.16035855237858368,-0.023042302961020843,-0.00013141240864382228,-1.0412211374004425,-1.198778273827874,2.5611828571369326,0.8089686443212474,-0.1310685981286358,-0.00043329252300195836,-1.4300364610132765,-1.2774321674424205,5.474120203527431,1.1985848007481614,-0.49133891406880537,0.046329615965067454,0.04038985288434277,-2.835025473629769,-3.4702636647868643,-0.6231755632241027,0.0044230960827153325,0.00028253883445335384
0.35000000000000003,-0.21602801363326474,1.3055643453767503,-1.0666731148972566,0.16857452112414145,-0.024389409781838803,-0.00013531909554478412,-1.0554869140555656,-1.2113586341887526,2.615250190224591,0.8215968745557782,-0.134710682081796,-0.0003906686900961842,-1.2808670164547444,-1.160460242604881,5.256870051800546,1.1016551597367084,-0.4838711488752345,0.05109797041102973,0.055122262668746036,-2.739435060155346,-3.4741823215921146,-0.6177121375661827,0.0069528145670380535,0.00032798860031381995
0.36,-0.22671082114853847,1.293336539173769,-1.0400015181102293,0.17690763344891866,-0.02577187496419578,-0.00013872764338443595,-1.0682807515273742,-1.2227806202981286,2.667159678702715,0.8333112324777198,-0.13824651823569759,-0.0003408547839651844,-1.1264650685111277,-1.0464148482997269,5.029300087957975,1.002235836275478,-0.4736803410722299,0.05611560489958767,0.06871414908950946,-2.642723173560319,-3.4803615778013235,-0.6124785910212864,0.009464059292988134,0.00037119060890238953
0.37,-0.23750633415111788,1.2810058059707286,-1.0128334347956998,0.18534849467809014,-0.02718843363456348,-0.00014156199817441537,-1.0795513002579404,-1.2330733203040523,2.716808331452968,0.8440861229171475,-0.14165586703677005,-0.00028343547899794066,-0.9669592559540163,-0.9354512716625586,4.7911944437076315,0.900572339043535,-0.46042770618674833,0.06136094473611797,0.08109448059638275,-2.5445717643388694,-3.4887590489056244,-0.6074650778155893,0.011944038536729942,0.0004118392275799163
0.38,-0.24839881861479474,1.268583132223064,-0.9851925234080332,0.1938874736741596,-0.028637597778118775,-0.00014374216297478935,-1.089248446367685,-1.2422673747664574,2.7640911387666525,0.8538978996069458,-0.14491641435552957,-0.00021801648003739863,-0.8025540949763763,-0.8277336671127542,4.540439014829931,0.7969474110454797,-0.44374735154975875,0.06680311056701066,0.09219365472684793,-2.4447962768290994,-3.4995861342592516,-0.6027259066177714,0.014378539622743255,0.0004496022360923389
0.39,-0.2593720590653664,1.2560791808288436,-0.9571036981559873,0.202514715495483,-0.03011763419660091,-0.00014518453511613204,-1.0973240450571695,-1.250395139422054,2.8088825252045933,0.8627241821323393,-0.14800364184821357,-0.00014423721413427023,-0.6334093405974701,-0.7233053477510974,4.2863378673797365,0.6914029013195613,-0.423247599489774,0.07239955969133022,0.10195220843778688,-2.3423553411899682,-3.511463767994874,-0.597928586992024,0.01675435852982832,0.0004843141790815892
0.4,-0.2704093738024502,1.2435042905227311,-0.9285922191365833,0.211220194950895,-0.03162654024550079,-0.0001458022674240443,-1.1037314737083779,-1.2574890306112378,2.851147901940395,0.8705479455412,-0.15089060488998773,-6.17732307912257e-05,-0.46025485917580167,-0.62264677497326,3.98917405996892,0.5851802924971121,-0.3985131070950503,0.07809799162576653,0.11028937240878148,-2.239665145336355,-3.5297768282929005,-0.5943942489413578,0.019048354281651515,0.0005151407285631675
0.41000000000000003,-0.28149368575783246,1.230868412781747,-0.899687572462216,0.2199936118216767,-0.03316202231073616,-0.0001455062556833436,-1.1084311955382207,-1.263587774098407,2.890464667436735,0.8773416870781704,-0.15354820652353726,2.9601174070069045e-05,-0.28456743525998385,-0.5268603362662919,3.5682524352362126,0.47811727907908086,-0.36914945773005703,0.08381744770565688,0.1170876140875706,-2.140798617599427,-3.565646418547923,-0.5948537380000576,0.021223547348325635,0.0005406436708606861
0.42,-0.2926076662150803,1.2181809751925359,-0.8704313748952033,0.22882397664534201,-0.03472148121258727,-0.000144207063486604,-1.1113980457247832,-1.2687437589211101,2.925619756701272,0.8830364823665298,-0.1559458901851112,0.00012991921967395984,-0.10639620744521587,-0.43582595703774996,3.0972308965974182,0.36427490091358905,-0.3348088351515161,0.08943052406556329,0.12229531480420337,-2.03924914919319,-3.6090019716246444,-0.5968968003251915,0.02326702611170071,0.0005613739626658912
0.43,-0.3037337392316474,1.2054509267453932,-0.8408702019369851,0.23769952713902387,-0.036301987713079215,-0.00014181576383462098,-1.1126073016567137,-1.2730048447142657,2.956117295821815,0.8875550493681865,-0.15805065004919408,0.0002391299651983017,0.07435668479553185,-0.3489661465255122,2.6518976168340926,0.2426427563072746,-0.2950712142364846,0.09481702141468498,0.12589573946427052,-1.9300507812226053,-3.6492922412699413,-0.5979911105950642,0.025171756230984325,0.0005780257922077247
0.44,-0.3148540716379267,1.1926868226771388,-0.811048171102968,0.246608029050611,-0.03790025132832502,-0.00013824441791784965,-1.1120332406279316,-1.2764104068254467,2.9822030834017137,0.8908501911587123,-0.1598263615245811,0.00035713459167713475,0.25707005284324086,-0.2659872285080815,2.237518303737824,0.11698710354309227,-0.24948356886729361,0.09986169482674614,0.1278803934516506,-1.8133439782855318,-3.6855379260259227,-0.5979178761497304,0.026922214492275075,0.0005905224722134669
0.45,-0.3259506331578922,1.1798968518904571,-0.7810064024249083,0.2555370972558862,-0.03951259270180177,-0.0001334072700029008,-1.1096561519965464,-1.2789970786681544,3.004176867805969,0.8929068205275199,-0.16123413734767453,0.0004837147914948846,0.4409991934625964,-0.18662640885075824,1.8556971534321955,-0.009485216951465425,-0.1976663898589892,0.10442967884374346,0.12826494108824432,-1.6896294061114894,-3.7172942853844138,-0.5965857510750338,0.02850398174305995,0.000598793744755977
0.46,-0.33700526898728983,1.1670888602661695,-0.7507828409220868,0.2644744544290324,-0.04113492063709902,-0.00012722234801318166,-1.1054635829397665,-1.2807991624287673,3.022356150282148,0.8937357173146214,-0.1622327935297247,0.0006184921989719139,0.6253355259534525,-0.11061509395857554,1.5131058165295628,-0.13426719115873054,-0.13934614777156784,0.10837170255600276,0.12709110302855856,-1.5593187224524594,-3.743454448308113,-0.5937405855773349,0.029905594473772973,0.0006028808087592281
0.47000000000000003,-0.34799977919998765,1.1542703763557496,-0.7204115862473609,0.27340815823087533,-0.042762715085730145,-0.00011961330173749914,-1.0994510212697801,-1.2818483910420058,3.0371254674725847,0.8933703801842937,-0.16277944486311247,0.0007609046275682521,0.8091080082045193,-0.037735134269537216,1.2060415149094532,-0.25506117235640646,-0.07438532134097331,0.11153191753439877,0.12442532726343988,-1.4233566344258124,-3.764350142055419,-0.5894732321627076,0.031116170991854035,0.0006027566315624398
0.48,-0.35891601468463125,1.141448628920608,-0.6899232409399638,0.2823267626948855,-0.044391019502411595,-0.00011051162343520788,-1.0916235484643588,-1.2821747435141455,3.0488345307397102,0.8918604464010135,-0.16283044166814495,0.0009101678302291266,0.9913011884043689,0.03223026800482438,0.9381958671806699,-0.3703499019302958,-0.0028297055263419857,0.11374939289783859,0.1203570915146102,-1.282416510491392,-3.779333972207564,-0.5836362439944355,0.0321283719397122,0.0005985217754848242
0.49,-0.3697359783538759,1.1286305669182048,-0.6593445380515622,0.29121945255085724,-0.04601444414608338,-9.985901757351214e-05,-1.0819963669244663,-1.28180620024032,3.0578702888401548,0.889268985597175,-0.16234246436717875,0.0010652605861695744,1.170785387644398,0.099464597080446,0.7055122911452933,-0.47880139469381056,0.07506323661212377,0.11487007322216003,0.11499801697441117,-1.137443158427882,-3.7888286785541054,-0.5763376829976277,0.03293606900718639,0.0005902363379129852
0.5,-0.3804419384461766,1.115822874103595,-0.6286987303051319,0.3000761274858153,-0.04762718385651813,-8.761001544003843e-05,-1.0705960092300706,-1.2807692814609983,3.0645807746430376,0.8856674934958051,-0.16127397104347443,0.0012249002133473707,1.3463672127611914,0.16412080537897317,0.5038188979040044,-0.5796164009210961,0.15878304768617246,0.11475169834288962,0.10847693417521394,-0.98928846153533,-3.79329379440967,-0.5676933424922445,0.033535168981339944,0.0005779935509974525
0.51,-0.3910165490867716,1.1030319810803846,-0.598005994067412,0.3088874446091976,-0.04922305275663341,-7.373468501971478e-05,-1.0574610640595032,-1.2790893023210375,3.069273623772,0.8811317123382293,-0.15958689001152843,0.0013875330420323653,1.516806211541843,0.2263224913559823,0.3276068244789061,-0.6724025409153246,0.24754093617172357,0.11327396827091657,0.10093685967281221,-0.8387214803297093,-3.793386159455769,-0.5578658162744603,0.03392325466209233,0.0005619023813542816
0.52,-0.40144297640248805,1.0902640745974825,-0.5672839673586432,0.3176448237606119,-0.050795538205812535,-5.822132823455677e-05,-1.042642731571649,-1.276790648290211,3.0722026708768806,0.875737915141435,-0.15724854491791232,0.0015513356785158004,1.680813513978566,0.2861508684124141,0.16846473303147014,-0.7571058115807621,0.34025336205656487,0.11034782082422145,0.09253074730692908,-0.6864179807187254,-3.790169123519449,-0.5471153926978879,0.0340988135170098,0.0005420665922152973
0.53,-0.4117050301016212,1.0775251025850299,-0.5365485753648447,0.32634041471190917,-0.05233787600604634,-4.107905251312337e-05,-1.026205369913315,-1.2738972012452576,3.0735391993798453,0.8695590951297261,-0.15423378002338106,0.0017142275721433403,1.8371796166509935,0.3436927366851384,0.023279802128610402,-0.8341303037984849,0.43553570294757415,0.10592336855723106,0.08341945961515315,-0.5328154780208055,-3.7840019084952976,-0.5355350017563806,0.034063023208728734,0.0005186596133400072
0.54,-0.42178728782008673,1.0648207814811346,-0.5058143384110576,0.3349670518404937,-0.053843146753605874,-2.2339951689621773e-05,-1.0082257718465548,-1.270432110389538,3.073423695378713,0.8626637128584521,-0.15052707475595295,0.0018739100823501596,1.9838648316456362,0.39860810491629134,-0.1678605777861994,-0.903186379363181,0.5317346352766017,0.1000008423330444,0.07375216427235583,-0.37868360836173764,-3.782917710789517,-0.5250536915608846,0.03380139820717429,0.0004913455939243613
0.55,-0.4316752995352218,1.0521565523134402,-0.4751002589354919,0.3435180301046281,-0.05530440204889118,-2.0615534848180527e-06,-0.9888011715135085,-1.2664229167694396,3.071407947556573,0.8550978264134425,-0.14612552952853028,0.002027839820480372,2.1190324283989,0.4505711915043077,-0.42852898518905114,-0.9666415575471632,0.6268483998699788,0.09260740847675863,0.06366352749642626,-0.2236618153452651,-3.790116856061454,-0.5164642387027147,0.03330370977276074,0.0004601134918882527
0.56,-0.44135577200648307,1.0395375494529608,-0.4444321526701501,0.35198682641223844,-0.05671481258537798,1.9671673078766637e-05,-0.9680472471261232,-1.2619002860479334,3.0668106265341772,0.8468796307610345,-0.14104105364868005,0.002173322656358469,2.203313089004381,0.4825828126678137,-3.5212454105948403,-0.9967446838297196,0.7190246120972228,0.08382564903313283,0.05281720332055215,-0.06887613444850733,-4.177556098421741,-0.5985180792240244,0.03172053003971428,0.00040064112421179496
0.5700000000000001,-0.4508203746151313,1.0269666046508292,-0.41411410757314987,0.3603582366691195,-0.058068257482318884,4.270786635647618e-05,-0.9464602608648257,-1.2570944802131616,3.031804509700024,0.837141025688102,-0.13534448969409033,0.002303619327770954,2.2580476391816866,0.5029341871556964,-6.982124837109481,-1.1292815842479555,0.8001871338045503,0.07245384709447755,0.040801284682346624,0.11286066351815793,-4.618015782484075,-0.6944170209108447,0.02946465719115691,0.00033168042312921835
0.58,-0.46006369875719133,1.0144455410543425,-0.38448691885994385,0.368607433244462,-0.05935951354621828,6.684932615480096e-05,-0.9243324142060035,-1.252106359648669,2.9627188713206,0.8249196575342523,-0.12912560638993964,0.0024141459798324777,2.2965992836742055,0.5206381065825998,-9.589980022872048,-1.3670874428188533,0.8670700020424777,0.05896303660384894,0.028044487372796283,0.31508276415608005,-4.9478455324374595,-0.7655232735197832,0.026885383575266014,0.00026394117809429947
0.59,-0.46908196623342296,1.001976164113714,-0.3558079964508339,0.3767045088657428,-0.06058429201524184,9.18774435193793e-05,-0.901826747623161,-1.2469376940628485,2.8678922409109964,0.809707562128084,-0.12247784690235586,0.0025028117364578346,2.3185491867760626,0.5389336727441371,-11.500976329503754,-1.6547745110958054,0.9187241388279317,0.04439104487235257,0.015217423347754378,0.5249085187513702,-5.186784123032151,-0.816252600702932,0.02405887116090546,0.00019798283982064578
0.6,-0.477873059664312,0.9895604848323134,-0.32826644200449895,0.38461827078577393,-0.06173933212315322,0.00011756364588089019,-0.8791093430888992,-1.2415679281400487,2.7541554446334935,0.7913761920031124,-0.1155040107911379,0.0025686202361510885,2.324315345313565,0.5597745345043751,-12.843819577008635,-1.9555533282110744,0.9540111651871059,0.02959899561979107,0.002862239880168882,0.7328827215929464,-5.351476229814057,-0.8502798300178982,0.02105892810187331,0.00013432775794717272
0.61,-0.4864364719181751,0.9772008412620451,-0.3019955275421639,0.3923186754781745,-0.06282250061469727,0.00014367839949589714,-0.8563412253863083,-1.235964357026836,2.627091446233506,0.7700404692400568,-0.10831684915440531,0.002611475361500695,2.3149979672387433,0.5841230355632528,-13.72505030419472,-2.2457737670838753,0.9722251003626213,0.015331784882680388,-0.008611769430908012,0.9325319779696564,-5.455963275395259,-0.8706870944753737,0.017954901804066885,7.341755545245787e-05
0.62,-0.49477318858537994,0.9648999421817988,-0.2770830649238076,0.3997783129048786,-0.06383285503304412,0.00016999960743833208,-0.8336716667204879,-1.2300899080246346,2.4912462618356326,0.7459637426704057,-0.10103544183468542,0.0026321207942434947,2.2922053357016257,0.612203155240168,-14.233169772614728,-2.5109287555877486,0.9734230728955109,0.0021861445593858164,-0.018922639386354145,1.1198111438178464,-5.512079752940444,-0.8800734522215707,0.01480966006169147,1.5591793890621828e-05
0.63,-0.5028855206957552,0.9526608537572083,-0.2535800489425744,0.4069732382203264,-0.06477064810623359,0.00019631997884472617,-0.8112332110375282,-1.223908842459046,2.350301598123317,0.719492531544777,-0.09377930731894744,0.0026320371406394075,2.257871993621228,0.643715913576929,-14.441870494480995,-2.7427736603681154,0.9585192411419949,-0.009416001181967726,-0.027902463544731044,1.2925468120064936,-5.529779074537469,-0.8806375557846389,0.011678109571753116,-3.8916546961739455e-05
0.64,-0.5107769062392615,0.9404869470270399,-0.23150787526171382,0.4138833642503294,-0.06563726708127843,0.000222452802992192,-0.7891385543506346,-1.217390673016838,2.2072173680860594,0.6910126030002998,-0.08666189750448396,0.002613282414746582,2.2140852903955115,0.6780199135076679,-14.412585448124217,-2.9372836976064605,0.9292027399760229,-0.019231819367429015,-0.03547932575236658,1.4499353014187577,-5.517405972086277,-0.8742413951204742,0.008606400870994794,-8.997443294892941e-05
0.65,-0.5184516983123689,0.9283818212159524,-0.2108643723754601,0.42049256483149405,-0.06643511451888158,0.0002482357888674511,-0.7674792073107353,-1.210512581108755,2.064350288625372,0.6609200581164649,-0.07978474376031486,0.002578298587525913,2.162934904006763,0.7142789796008403,-14.196521115930054,-3.093229611858611,0.887744691149855,-0.027180640131741818,-0.0416572783864495,1.5921208667431075,-5.481927464081272,-0.8624606389174163,0.0056317855697279985,-0.00013753588534042157
0.66,-0.525914955207787,0.9163492151014062,-0.1916288396990281,0.4267885926519752,-0.06716744519990193,0.00027353292859415187,-0.7463256895417997,-1.2032606114546136,1.9235532676432003,0.6296027820481138,-0.07323306810203517,0.002529713972670077,2.106395039282899,0.7515787378295936,-13.836299553087134,-3.2112002317935264,0.8367558962099229,-0.033312758237817874,-0.046496645164654175,1.7198601400964333,-5.429130863114907,-0.8466253742123503,0.0027829970990973325,-0.00018162655277256874
0.67,-0.5331722441769585,0.9043929159892653,-0.1737662481153954,0.43276288186748074,-0.06783817742983364,0.0002982345949290342,-0.7257288969171563,-1.1956299112140918,1.7862591583632703,0.5974289215505536,-0.06707322299317071,0.002470166633488231,2.0462429879522346,0.7890143740255826,-13.367302942021075,-3.2929408252757,0.7789456081095307,-0.037772120127002484,-0.050096196858111466,1.8342675217809843,-5.363794842420257,-0.8278538507500244,8.099393309638284e-05,-0.00022232822175120045
0.68,-0.5402294666700881,0.8925166733450329,-0.15723073192975587,0.43841028236922724,-0.06845169689042117,0.00032225624106540054,-0.705722249312959,-1.1876242644232329,1.653551618563952,0.5647400501746511,-0.061351946058753666,0.0024021646136366355,1.9840124240332337,0.8257524506846988,-12.818789391403335,-3.3409094142583164,0.7169159238190052,-0.04075978701916716,-0.05257805466118129,1.9366306183060749,-5.28983790353851,-0.8070810101914847,-0.002460088782234668,-0.00025976468134463837
0.6900000000000001,-0.5470927092061587,0.8807241218666317,-0.1419684799686822,0.44372875658958466,-0.06901266844280998,0.00034553613050059895,-0.6863242536070607,-1.1792551478401185,1.526225196107367,0.531847422035741,-0.05609715523888044,0.0023279889435198404,1.920976161521172,0.8610702854054642,-12.214829997300924,-3.357980072995744,0.6530098974670411,-0.04250270494893593,-0.05407562036496982,2.0282828491993676,-5.21044746552905,-0.7850830113892758,-0.0048319058786251215,-0.0002940895754445685
0.7000000000000001,-0.5537681210258881,0.8690187168400448,-0.1279201168253284,0.44871905907707843,-0.06952586718424998,0.0003680325063919618,-0.6675411819729404,-1.1705405026586904,1.4048363143353797,0.4990302487493791,-0.05131987414399982,0.0022496375891362824,1.8581513190855545,0.8943768095015274,-11.575103344290158,-3.3472433438396365,0.5892176123574998,-0.04322989290553059,-0.05472444576434859,2.110520545998962,-5.128192060328182,-0.7624985758763506,-0.0070308795553577375,-0.00032547637408583425
0.71,-0.5602618174880354,0.8574036830339328,-0.1150226517609443,0.4533844121339377,-0.06999603566285531,0.0003897205435964784,-0.6493696462147283,-1.1615033806112032,1.2897465064384086,0.4665353056859286,-0.047016847860533326,0.0021688037204516584,1.7963196150846912,0.9252189450461515,-10.915573696199557,-3.311869933500166,0.5271347787007072,-0.043156271279635394,-0.05465572308086871,2.1845532324370645,-5.045118643197772,-0.7398477188791657,-0.009057247330955798,-0.0003541103211331507
0.72,-0.5665798067658238,0.8458819771740157,-0.10321106164959172,0.4577301863620192,-0.07042777019969484,0.0004105893404230258,-0.6317989277788383,-1.1521705859917089,1.1811590111352575,0.43457742280814554,-0.04317345368395302,0.0020868796826547416,1.736056336437225,0.9532773653438006,-10.249072206802392,-3.25501555176697,0.46796310852839607,-0.04247318230431074,-0.053991970316670385,2.2514776350240107,-4.962836719696623,-0.7175482618023281,-0.010914213537827781,-0.0003801820990132407
0.73,-0.5727279366646046,0.8344562631734015,-0.09241956499131529,0.4617635921200282,-0.07082543615168559,0.0004306391214309077,-0.6148129898780933,-1.142571400061423,1.0791496658276425,0.40334057580090393,-0.0397665951990743,0.002004978100788189,1.6777628674772929,0.9783550989571717,-9.585795775287588,-3.1797529282779635,0.4125399967947136,-0.04134412772152052,-0.05284446264479683,2.312267914729964,-4.882590785217594,-0.6959304137903835,-0.012607217558162624,-0.0004038829280406279
0.74,-0.5787118581514071,0.8231288987400031,-0.08258263600990363,0.4654933860438621,-0.07119310979121363,0.00044987874920929705,-0.598392148680244,-1.1327364433398448,0.9836928981411656,0.37297939238338895,-0.03676736395280441,0.0019239627778389326,1.6216991262642926,1.0003618879591416,-8.933735032815298,-3.089022484708206,0.36138576786232823,-0.03990417912703159,-0.05131198992662919,2.3677764018173906,-4.805322426705391,-0.6752496424093548,-0.014143318806781739,-0.00042540084079658436
0.75,-0.5845370022992903,0.8119019316829118,-0.07363580092272709,0.4689295955208829,-0.0715345432113288,0.00046832358672087266,-0.5825144147883101,-1.1226967057091206,0.8946835087176541,0.34362094770208457,-0.034143342011516434,0.0018444837511575598,1.5680135816168626,1.0192966038764486,-8.299040841470521,-2.9855965739143357,0.314758817503646,-0.0382617070370217,-0.049480575908859716,2.41874064724229,-4.73172331800246,-0.6556980115403226,-0.015530690596880215,-0.0004449179110212621
0.76,-0.5902085676659488,0.8007771041382326,-0.06551625243859208,0.47208326308983506,-0.07185314812223235,0.0004859937125373866,-0.5671565366658508,-1.1124827544679197,0.8119548484135007,0.3153667568952139,-0.03186049109035632,0.0017670125816513962,1.5167695906412437,1.0352294302322775,-7.68633728849395,-2.8720542352131204,0.2727115224669776,-0.036501372077307304,-0.0474238594126268,2.4657938444738456,-4.662280240872071,-0.6374141397826085,-0.01677821105563975,-0.00046260825613518813
0.77,-0.5957315155411785,0.7897558629761334,-0.05816331328182904,0.474966212018056,-0.07215199438763845,0.0005029124666734941,-0.5522947875229764,-1.1021241162099178,0.7352939156763036,0.28829489282209186,-0.029884626540609218,0.0016918754136107492,1.4679675767466414,1.0482849878488447,-7.098988049704268,-2.7507645426374587,0.2351422338110638,-0.03468762753774124,-0.04520390143378718,2.5094766337175205,-4.597313154748762,-0.6204919136897776,-0.01789513784444946,-0.0004786366656241765
0.78,-0.6011105709382636,0.77883937478626,-0.051518774955693465,0.47759083371150474,-0.07243381947179224,0.0005191052913696046,-0.5379055397085079,-1.091648818987343,0.6644538326135575,0.2624621693448718,-0.02818250841537912,0.001619282469611053,1.4215630838209916,1.0586271326434111,-6.539322316977753,-2.6238771892606465,0.2018407159420511,-0.03286824609616623,-0.04287223905078209,2.5502490190040907,-4.537007257029783,-0.6049880821847304,-0.01889085367168414,-0.0004931577345372957
0.79,-0.606350227624444,0.7680285440285533,-0.045527133982510584,0.4799698971057068,-0.0727010454758484,0.0005345988257694264,-0.5239656686180472,-1.08108307577067,0.5991640973182882,0.23790633942020917,-0.026722600405614673,0.0015493534399821831,1.3774810499626797,1.0664458064819669,-6.008825710499088,-2.4933192148681407,0.17252593503520852,-0.031077586783650135,-0.04047105508642977,2.5885016401682903,-4.4814398669782545,-0.5909288462234908,-0.019774670604122305,-0.0005063154011606741
0.8,-0.6114547558602474,0.7573240331506037,-0.040135744416968676,0.4821163797532926,-0.07295580102199409,0.0005494202131940852,-0.5104528235803375,-1.0704510877949547,0.5391389565541906,0.2146482647585786,-0.025475554614569504,0.0014821387424658803,1.3356268077866855,1.0719460676212589,-5.508300184949788,-2.3607969034438003,0.14687615516797659,-0.029339462137954353,-0.03803437109551977,2.6245659761627764,-4.430602767304178,-0.5783155251083072,-0.02055568230072672,-0.000518242799510425
0.81,-0.6164282118349318,0.7467262836894025,-0.035294902383742985,0.48404331996429173,-0.07319994581844308,0.0005635965825181031,-0.4973455974684379,-1.0597749461201191,0.4840842033225692,0.19269402109991493,-0.02441447964489868,0.001417636932401779,1.2958942926155255,1.0753392228335543,-5.038001634406492,-2.2278018303671274,0.12455194941132341,-0.02766955949645933,-0.035589202572402376,2.658723429682381,-4.384421232592631,-0.5671295311482719,-0.02124265669666469,-0.0005290623780291887
0.8200000000000001,-0.6212744480515177,0.7362355375792616,-0.030957876202127844,0.48576368905687967,-0.07343509626314924,0.0005771546694184539,-0.48462362165858236,-1.0490746110140923,0.43370261816151423,0.17203690925879284,-0.02351504447061644,0.001355808690035081,1.2581721017552403,1.0768359443245377,-4.59776437794821,-2.0956204199501407,0.10521305392438118,-0.026077427887681637,-0.03315662871353044,2.691213430663764,-4.34277103575394,-0.5573369098771321,-0.02184396393497894,-0.0005388862902229737
0.8300000000000001,-0.6259971241163692,0.7258518580777975,-0.02708089437598937,0.4872902825048511,-0.07366265089706428,0.0005901205479418869,-0.472267606485153,-1.0383679501464131,0.3876981826138475,0.15265934479714494,-0.022755463391504083,0.001296587852343307,1.2223477634545283,1.0766411286674071,-4.18701401022428,-1.965346360857648,0.08853010793273042,-0.02456807284984719,-0.0307528108022367,2.7222378634007818,-4.305480602221325,-0.5488894464602054,-0.022367495307252138,-0.0005478162072151354
0.84,-0.6305997175537978,0.7155751498543179,-0.02362309275367125,0.48863562891080387,-0.07388381487364995,0.0006025194494579476,-0.4602593437428592,-1.0276708223479571,0.34578016223181207,0.1345346405952757,-0.022116397658567183,0.0012398901516060608,1.188310681084419,1.0749500054815684,-3.8050255529080195,-1.8378918506028246,0.07419250399378408,-0.02314319157458966,-0.02838977406302753,2.751971525865812,-4.272364928098668,-0.5417331097305575,-0.022820694327586228,-0.0005559451511268786
0.85,-0.6350855343890833,0.7054051779788809,-0.020546446282577242,0.48981191494106513,-0.07409962293841152,0.0006143756455825484,-0.44858168352854316,-1.0169971875437016,0.30766464710940056,0.11762860302612399,-0.02158080647615687,0.001185619612460077,1.1559540116355886,1.0719459687099882,-3.4508051735970855,-1.7140066557335665,0.06191272535857073,-0.021802176029564357,-0.026076252672931406,2.780561857976402,-4.243210420816656,-0.5358050818069905,-0.023210481548401805,-0.0005633567957522919
0.86,-0.6394577193376157,0.695341585594351,-0.017815673786289433,0.49083092503943765,-0.07431096059891285,0.0006257123821157838,-0.4372184948532392,-1.006359238452995,0.27307724962878077,0.10190100983725348,-0.02113376605013284,0.001133673653323547,1.125175784548082,1.0677988179359728,-3.123189595462445,-1.5942904827883062,0.051428786429246476,-0.02054281641206135,-0.023818325589330478,2.808134055830664,-4.217787735592362,-0.5310372487964294,-0.023543262149323674,-0.0005701263370523043
0.87,-0.6437192655078764,0.6853839101569696,-0.015398125578919276,0.49170399451668284,-0.07451858334206256,0.0006365518506742603,-0.42615461702606977,-0.9957675437381392,0.2417548207370157,0.08730694772451658,-0.020762274314971747,0.0010839468558476392,1.0958797496812192,1.0626640560007088,-2.82099071423268,-1.479207791721147,0.042504873271571486,-0.01936185814459579,-0.02161990864376105,2.8347971016361786,-4.195870536425709,-0.5273609975447529,-0.023824969081887158,-0.0005763218970727567
0.88,-0.6478730235476348,0.6755315982440516,-0.013263668186424219,0.4924419742398845,-0.07472313389127062,0.0006469151858287426,-0.4153758039758362,-0.9852311912917975,0.2134457392495056,0.07379797232016791,-0.020455054920806338,0.0010363335154482246,1.0679754401572263,1.0566828714892371,-2.54288631947294,-1.3691055613679648,0.03493063996505463,-0.0182554317900121,-0.01948329441503323,2.860642492999449,-4.177221162933719,-0.524704293898395,-0.024061026682463398,-0.000582004090249835
0.89,-0.6519217102341381,0.6657840189062534,-0.011384555484812039,0.49305520580519613,-0.07492515754569509,0.0006568224825935353,-0.40486866865033244,-0.9747579337798293,0.18791127016121795,0.06132315653116454,-0.020202365442446815,0.000990729676479271,1.0413781330810357,1.0499821950812949,-2.287574989270951,-1.2642250101960872,0.02852008899638908,-0.017219321579134306,-0.017409480211647777,2.8857499542537397,-4.161610498192204,-0.5229966348010302,-0.024256412057711584,-0.000587227494203216
0.9,-0.6558679165181158,0.6561404756323559,-0.009735301525868186,0.4935535056399404,-0.075125115720309,0.0006662928261360981,-0.3946206283977727,-0.9643543273897532,0.16492539589438532,0.04982998347442765,-0.0199958174613907,0.000947034354256281,1.0160088825365288,1.0426755291329093,-2.0537031040629894,-1.1647176858104773,0.023109713121124975,-0.016249198173130308,-0.015398513381581238,2.9101866998447368,-4.148808275475326,-0.5221670983904683,-0.024415644418908256,-0.0005920405913738228
0.91,-0.65971411502036,0.6466002169906133,-0.008292547925407654,0.49394615692779464,-0.07532339781524813,0.0006753443307772678,-0.3846198502244242,-0.9540258641742562,0.14427536004605315,0.039265128785426255,-0.019828209493913222,0.0009051504641169726,0.9917941253901326,1.0348635515923204,-1.8399344104508026,-1.0706564741175235,0.018556643104117143,-0.015340748148298555,-0.013449729316742081,2.9340104286062743,-4.138591776665142,-0.5221466102593564,-0.024542826241934806,-0.0005964866318074366
0.92,-0.6634626670212125,0.6371624460339951,-0.00703493269120283,0.49424190816922775,-0.07552033156755679,0.000683994184106401,-0.3748552000852448,-0.9437770956618269,0.12576152342048239,0.0295751241433091,-0.019693375230865146,0.0008649853329133201,0.9686654454722466,1.0266350881952762,-1.6449328287114258,-0.9820479057651559,0.01473658976958142,-0.014489780022550525,-0.011561963104003401,2.9572698107449695,-4.130743291903532,-0.5228675605154484,-0.024641657803297235,-0.0006006039300080221
0.93,-0.6671158289659396,0.6278263285611047,-0.005942958840710535,0.4944489773913404,-0.07571619203586312,0.0006922586942227913,-0.36531619447271335,-0.9336117472890398,0.10919738504922949,0.020706922211263905,-0.019586046830632635,0.0008264510116390315,0.9465589329252316,1.0180679223271016,-1.4674649465493759,-0.898841772820373,0.011541895001235314,-0.013692281522711292,-0.009733685718593465,2.9800081627596438,-4.125063135517545,-0.5242669739524877,-0.02471549825689169,-0.0006044269506062325
0.9400000000000001,-0.6706757585489539,0.618591000347698,-0.004998872920383221,0.49457506081919245,-0.07591120938145941,0.0007001533365835572,-0.3559929583014335,-0.923532821340669,0.09440859203273139,0.012608342785201676,-0.019501734559629804,0.0007894642360765806,0.9254057645989742,1.009227351998186,-1.3087424488992945,-0.8209331881565682,0.008879721447739741,-0.012944474727594968,-0.00796263312008489,3.002328838326261,-4.121675426253185,-0.5263571004767987,-0.02476831710849528,-0.0006080027019693674
0.9500000000000001,-0.6741445213185003,0.6094555739998063,-0.004186783799411233,0.4946273374009845,-0.07610557600139115,0.0007076927538141577,-0.346876276954645,-0.9135426347891644,0.0812089120971988,0.005227658179210148,-0.01943666199317375,0.0007539417230600508,0.9051631469167387,1.0001845630208615,-1.1615888200099644,-0.7482929996238856,0.006664694117105852,-0.012243320050344897,-0.0062488172907390165,3.02409656933918,-4.119618074979912,-0.5288999358363085,-0.02480060394129731,-0.0006113179989902819
0.96,-0.6775240946780717,0.6004191435217755,-0.0034919567994838837,0.49461249711195265,-0.07629945156321824,0.0007148909152897623,-0.3379573359571394,-0.9036430478030794,0.0694826999927349,-0.0014840289031856219,-0.019387556182709077,0.0007198161475604654,0.885655945570435,0.9909432372530635,-1.0447130587838076,-0.6804726480925791,0.004839736851553977,-0.011584336542486251,-0.004589669241794138,3.0458830977665623,-4.1212977789288825,-0.5324358822590918,-0.024822352002210054,-0.0006145197661258468
0.97,-0.6808163851278934,0.5914807912017372,-0.002902652020288779,0.494536711629377,-0.07649297076898613,0.0007217607930775805,-0.32922904498216704,-0.893835232003828,0.05893047791951049,-0.007578548257566509,-0.019351920576788997,0.0006869877787818142,0.866229620229613,0.981437094920309,-1.0102094485400743,-0.6171573577534972,0.0033298030632482045,-0.01096838125606081,-0.0030003771901457726,3.069166720341002,-4.133516262294513,-0.5385124197342401,-0.024857720825220943,-0.0006179373105620747
0.98,-0.6840232929722079,0.5826395989029303,-0.0024152463566545685,0.4944054733100999,-0.07668625835384511,0.0007283133746403294,-0.3206907844314439,-0.8841192298806979,0.04874056636342103,-0.013123831927714817,-0.019328758485897563,0.0006552581562748887,0.8471728474004271,0.9720371974581589,-1.0096122228405677,-0.5610306849933906,0.001940711713255966,-0.010403939016376706,-0.0014784734892160402,3.0926558525032064,-4.150097905334092,-0.5456792751415286,-0.02489406875719314,-0.0006213568389351868
0.99,-0.6871466833303433,0.5738946668380525,-0.002029476895689536,0.4942235422237821,-0.07687943347804725,0.0007345585403199628,-0.3123390358135486,-0.8744932064877828,0.03857694609650323,-0.018193108631774552,-0.01931751242021362,0.0006245165679633409,0.8285255689063241,0.9628558137622985,-1.0272073361026464,-0.5123209330708347,0.000627225198549547,-0.009880351312726021,-2.4647197418872085e-05,3.1159394992777973,-4.169029165180763,-0.553459253489146,-0.024928044600326285,-0.0006247160595231358
