tonegas/nnodely-applications/joint_friction_estimation/dataset/train/mpc_mujoco_episode_48 copy.csv
time,q1,q2,q3,q4,q5,q6,dq1,dq2,dq3,dq4,dq5,dq6,ddq1,ddq2,ddq3,ddq4,ddq5,ddq6,tau1,tau2,tau3,tau4,tau5,tau6
0.0,0.0,1.57,-1.57,0.0,0.0,0.0,0.0,0.0,0.0,0.0,0.0,0.0,2.7854545067885947,18.596229868315522,13.684885449830269,4.483464597345716,0.3797465815025003,-5.71637129631597e-06,0.3879568351232435,7.420479971845001,0.8298627932810847,0.18183916141168277,0.03542015632837756,0.0006008959272433738
0.01,0.00027699995879246084,1.5718583533232184,-1.568633349783766,0.00042367077076541196,3.2698433093925954e-05,5.60573853248203e-07,0.027699995879246084,0.1858353323218293,0.13666502162341368,0.04236707707654119,0.003269843309392595,5.60573853248203e-05,2.7714057076733476,18.093035350945303,13.168141049651368,4.045718504318941,0.3193438023288824,0.0055567243237666375,0.3923795427824914,7.033339489502273,0.6632831577110885,0.14450334523014097,0.035623207572575005,0.0005799094248780394
0.02,0.0008294140416788892,1.5755248777496136,-1.5659532251914834,0.0012340012964294161,9.435299320199083e-05,1.7047844829292002e-06,0.05524140828864284,0.3666524426395086,0.26801245922825656,0.08103305256640042,0.006165456010806487,0.00011442106296809972,2.750056925093857,17.554984539345327,12.603781247232476,3.6638297344669724,0.2799198234160887,0.005633479143512865,0.4022641682195973,6.569439446468259,0.48875246237698367,0.10700599993306237,0.03610300433717227,0.0005574261065275066
0.03,0.0016550194774526527,1.5809458472820035,-1.5620170757482352,0.002398029524514341,0.00018243576475782713,3.385163950696057e-06,0.08256054357737636,0.5420969532389851,0.39361494432481114,0.1164028228084925,0.008808277155583629,0.0001680379467766857,2.7218704901255992,16.98316633615561,11.999485065747983,3.323266525074615,0.25178661921487944,0.0049068783345935785,0.41715443669316393,6.035605982774841,0.3071357669116699,0.06946194623294621,0.0368161741453598,0.0005332290054786437
0.04,0.00275096770248655,1.5880641160954858,-1.556885973907811,0.0038857624805465367,0.0002950525089271807,5.5497486671871376e-06,0.10959482250338973,0.7118268813482409,0.5131101840424322,0.14877329560321956,0.011261674416935357,0.00021645847164910803,2.687025381970856,16.379115688067632,11.36199687528837,3.013366192521474,0.22930868035365037,0.004061936133197719,0.4365272182206962,5.439114513353295,0.11948654888377153,0.03202872567222159,0.037710416893651344,0.0005070903433234034
0.05,0.004113780645642934,1.5968192839106365,-1.550624030518121,0.00566939147179729,0.0004306057041359822,8.148847460206322e-06,0.1362812943156384,0.8755167815150806,0.6261943389690083,0.17836289912507527,0.013555319520880148,0.00025990987930191834,2.6455498890809306,15.744769402340948,10.69736878467641,2.726408676186537,0.20931998405324492,0.0031987466844514145,0.45978350947601865,4.787602475210903,-0.07298066485643062,-0.005101370339674727,0.03872658062871366,0.0004787827685709908
0.06,0.0057393403526166745,1.6071478990861048,-1.543297858628625,0.007722731764999206,0.0005876071571265733,1.1134415573409285e-05,0.16255597069737404,1.032861517546823,0.7326171889495972,0.2053340293201916,0.015700145299059116,0.0002985568113202963,2.5974098726475896,15.082420453708878,10.011134362618396,2.456904709906638,0.1901606612890756,0.002344255773370385,0.48624041116097844,4.088973900581011,-0.26892064315104314,-0.04170966125814135,0.03980081453274274,0.00044809704471410476
0.07,0.007622877553613749,1.6189836953970824,-1.534976073134474,0.01002083232048151,0.0007645820413443316,1.4459334982308314e-05,0.18835372009970744,1.183579631097758,0.8321785494150986,0.2298100555482303,0.017697488421775827,0.00033249194088990296,2.54256835997855,14.394669891191057,9.308429241947728,2.201047371416749,0.1710779275474721,0.0015206019594407039,0.5151268021115779,3.3512973588433708,-0.4668898326470252,-0.07755959368021437,0.04086679027243187,0.0004148618142203528
0.08,0.009758963091096584,1.6322578580952494,-1.5257288179310506,0.012539713587030356,0.0009600280802518841,1.8077264998444575e-05,0.21360855374828355,1.3274162698166911,0.9247255203423207,0.2518881266548846,0.019544603890755248,0.0003617930016136261,2.4810258315275364,13.684376298634396,8.594070891675003,1.9562890990676678,0.15184970071784498,0.0007490164011372258,0.5455848371386438,2.582699390683911,-0.6653798347875379,-0.11240517225650148,0.04185795970067021,0.00037896265732987125
0.09,0.012141504952130216,1.6468993145038184,-1.5156273154651811,0.015256200907554677,0.0011724070391144364,2.1942871925185937e-05,0.23825418610336307,1.4641456408569054,1.0101502465869405,0.27164873205243206,0.02123789588625522,0.000386560692674136,2.4128467108309932,12.954603332391327,7.872607443031562,1.7210152954295665,0.1325469531331862,4.6779328049417757e-05,0.5766786826566013,1.7912559983495902,-0.8628510520435442,-0.1459990724145135,0.04270979638169189,0.0003403585913613475
0.1,0.014763752759288136,1.662835044136498,-1.5047434359942096,0.018147828432789444,0.0014001540640957266,2.6012227032109645e-05,0.2622247807157919,1.5935729632679654,1.0883879470971667,0.2891627525234769,0.02277470249812902,0.0004069355106923711,2.3381753551192324,12.20856589902559,7.148343582365236,1.494292427024945,0.11338400332850718,-0.0005747672222620182,0.6074110872654549,0.9848848751952035,-1.0577656693059336,-0.17810023196007507,0.04336195282644567,0.0002990947446068744
0.11,0.017618310839925048,1.6799904031393775,-1.4931492856433324,0.02119279410909392,0.0016416957111229716,3.0243233920139533e-05,0.2854558080636911,1.7155359002879425,1.159415035087712,0.30449656763044747,0.02415416470272451,0.00042310068880298864,2.257243694016719,11.449577800441643,6.425349905487689,1.2756736798042994,0.094625594237149,-0.0011106283521873372,0.6367475245929275,0.17124213747138306,-1.2486188743750368,-0.2084806835028531,0.043760256355923094,0.0002553104137701976
0.12,0.020697160361231343,1.698289457960917,-1.480916813610355,0.024369950689927863,0.0018954709326987778,3.4596006968292593e-05,0.3078849521306294,1.8299054821539407,1.2232472032977402,0.3177156580833943,0.025377522157580615,0.0004352773048153058,2.1703720790643155,10.680998058110443,5.707461121149702,1.0650493073913054,0.07653126026746371,-0.0015614778112222893,0.6636468097199091,-0.6423754752367357,-1.433968206358958,-0.23693160021256032,0.04385846431954055,0.00020924198688299209
0.13,0.023991690467677046,1.7176553229944114,-1.4681174396818804,0.027658821135931228,0.0021599515466491203,3.9033163998078264e-05,0.32945301064457017,1.9365865033494447,1.2799373928474658,0.3288870446003367,0.02644806139503423,0.0004437157029785671,2.077964731536666,9.906181894637214,4.998267100495216,0.8625316931911726,0.059324419230900816,-0.0019324063062375885,0.687096372643207,-1.449117981393747,-1.6124596347460156,-0.26326829401382523,0.04361970560857631,0.00016122070991253566
0.14,0.02749273789545616,1.738010497380165,-1.4548217037083444,0.031039629427329567,0.002433660216322377,4.352002254080118e-05,0.3501047427779114,2.035517438575381,1.329573597353588,0.3380808291398337,0.027370866967325647,0.00044868585427229157,1.9805010240863572,9.128434024473988,4.301100206884991,0.6683675813981296,0.04317781112993835,-0.0022314877831846047,0.7061498288835428,-2.242658494667472,-1.782850390081602,-0.2873341990883377,0.043017547607710926,0.00011166545373638218
0.15,0.03119063416682927,1.75927719636955,-1.4410989388818016,0.03449333990664787,0.0027151849781233113,4.802470446852986e-05,0.36978962713731106,2.1266698989384887,1.3722764826542757,0.3453710479318309,0.02815247618009342,0.0004504681927728682,1.8785237877297354,8.350966371236428,3.61902143777219,0.4828716181649746,0.02820952205745897,-0.0024684220375048582,0.7199641856737362,-3.0172561373449263,-1.944027965555079,-0.30900377042538624,0.04203664617069687,6.107100983294864e-05
0.16,0.03507525919292144,1.7813776730834239,-1.4270169706446245,0.03800169992252575,0.003003190014954335,5.251816167047795e-05,0.3884625026092169,2.21004767138739,1.4081968237177194,0.350836001587788,0.028800503683102354,0.00044934572019480866,1.7726257341810516,7.576860753365869,2.9548073257589405,0.30637668728924794,0.014485553452008304,-0.0026533984060432836,0.7278339846243758,-3.767804366698953,-2.0950250631592304,-0.3281843078572549,0.04067295819146007,9.992666277956481e-06
0.17,0.0391360999345432,1.8042345269848532,-1.4126418428787195,0.04154728185874287,0.0032964227942391257,5.697413850385408e-05,0.40608407416217585,2.285685390142931,1.4375127765904896,0.3545581936217118,0.029323277928479097,0.0004455976833376124,1.663434960790068,6.80903694566246,2.310939012634071,0.13919752846306466,0.002026096562607549,-0.0027962389825761935,0.7292199075945534,-4.489864093064316,-2.2350303808676095,-0.34481674802733897,0.03893352003658571,-4.0971994647657584e-05
0.18,0.04336231268038905,1.827770995916413,-1.3980375727291874,0.045113521681173746,0.003593717936641902,6.136908681910325e-05,0.4226212745845852,2.3536468931559837,1.4604270149532133,0.3566239822430882,0.02972951424027763,0.00043949483152491643,1.5516003572782548,6.050226417174679,1.689594452649592,-0.018395114412829372,-0.009186453520653615,-0.002905821518672358,0.7237698289764148,-5.179681500827954,-2.3633952542925023,-0.35887549433190885,0.036835818275001625,-9.120301643010959e-05
0.19,0.04774278748960962,1.8519112291141797,-1.3832659350434522,0.04868475197545341,0.0038939983073272904,6.568204779470641e-05,0.43804748092205675,2.4140233197766747,1.4771637685735226,0.35712302942796675,0.03002803706853884,0.00043129609756031585,1.4377775727560025,5.3029516904914855,1.092644332262779,-0.16619198760556486,-0.01919905763222829,-0.0029897481635110523,0.7113309274503143,-5.83419109979905,-2.4796363115378384,-0.3703673842898454,0.03440679983364113,-0.000140078605111023
0.2,0.05226621339768913,1.8765805391679546,-1.368386276989342,0.0522462281225071,0.00419627386393886,6.989451251661617e-05,0.45234259080795114,2.4669310053774915,1.4879658054110279,0.35614761470536865,0.030227555661157,0.0004212464721909767,1.322616042003786,4.569511212959985,0.52165197542723,-0.30405619821669916,-0.028079993093957256,-0.003054210837786897,0.6919521995133804,-6.451004962997915,-2.5834343924865566,-0.3793299100357584,0.0316815853494307,-0.0001869952125653144
0.21,0.056921143086330464,1.901705631444462,-1.3534553629817756,0.05578414679982737,0.004499638783401908,7.399027076606357e-05,0.4654929688641332,2.5125092276507326,1.4930914007566465,0.353791867732027,0.03033649194630474,0.0004095758249447393,1.206747420637422,3.8519693888240214,-0.0221227420225123,-0.4319288558157881,-0.03591168658210808,-0.003104001226554187,0.6658774660807703,-7.028389550457127,-2.674630089398232,-0.38582882333312835,0.028701961047279654,-0.00023138619646171241
0.22,0.06169605585549079,1.927214810002924,-1.338527249619675,0.05928565642831805,0.004803267344810289,7.795525515976861e-05,0.47749127691603244,2.5509178558462,1.4928113362100646,0.3501509628490677,0.03036285614083808,0.0003964984393705043,1.0907756465791894,3.1521514535677304,-0.537715648602104,-0.5498306197371869,-0.042784639945207203,-0.0031426180136049364,0.6335296563938904,-7.565231761359043,-2.753216318926754,-0.38995525999618186,0.025514730451800527,-0.0002727382386161267
0.23,0.06657941789589866,1.953038159513564,-1.323653189930779,0.0627388595265001,0.005106408983706061,8.177738577682268e-05,0.4883362040407876,2.5823349510639826,1.4874059688895926,0.3453203098182048,0.030314163889577184,0.00038221306170540636,0.9752687329836323,2.471642879238657,-1.0244470330549946,-0.6578600831687531,-0.04879250132044266,-0.0031724320873846024,0.5954877281231106,-8.06099602894955,-2.8193283764803923,-0.3918225178520978,0.022170007708774378,-0.0003106048941223438
0.24,0.07155973903210087,1.9791077031398527,-1.3088815658556245,0.06613280720072916,0.005408382864866738,8.54464187614374e-05,0.49803211362022126,2.6069543626288665,1.4771624075154495,0.3393947674229062,0.030197388116067668,0.00036690329846147165,0.8607523065306647,1.8117929492746696,-1.4819073289600428,-0.7561897626808927,-0.054028228720824245,-0.003194879513797183,0.5524579955625766,-8.515674384536162,-2.8732319542764264,-0.3915626182201806,0.01871952977201211,-0.0003446168560842644
0.25,0.07662562528007032,2.0053575367596186,-1.294257847582007,0.06945748620383672,0.005708572253374033,8.895380110362423e-05,0.506588624796944,2.624983361976597,1.462371827361757,0.33246790031075685,0.03001893885072949,0.00035073823421868304,0.7477048342386989,1.1737219915712116,-1.9099402135055252,-0.8450603291743768,-0.058581234386642755,-0.0032106604711860665,0.5052418677718071,-8.9297314856129,-2.915309628323055,-0.3893227745417544,0.015215056073566494,-0.0003744887379503424
0.26,0.08176582673237827,2.0317239402635128,-1.2798245780726296,0.07270379914536021,0.006006418901505359,9.229253283351795e-05,0.5140201452307953,2.6366403503894205,1.4433269509377455,0.32463129415234876,0.029784664813132654,0.00033387317298937146,0.6365544299711979,0.5583316010837457,-2.30862363051072,-0.9247736064860472,-0.06253537161276945,-0.0032199294967469594,0.4547020456010503,-9.304046594793782,-2.9460463254327482,-0.3852618818013228,0.011706912624859591,-0.00040002238054964116
0.27,0.08696928044249226,2.058145466966061,-1.2656213809133137,0.07586353854280603,0.006301417614073556,9.545703716843919e-05,0.5203453710113988,2.642152670254832,1.420319715931601,0.3159739397445818,0.02949987125681965,0.00031645043349212357,0.5276770961679602,-0.033682863380831006,-2.6782492518468572,-0.9956847726591729,-0.0659676203637618,-0.003222467952238295,0.4017291096679567,-9.639854375400338,-2.966014257492999,-0.3795471253288309,0.008242723967563436,-0.0004211068700167818
0.28,0.09222514812415879,2.084563012389987,-1.2516849894470332,0.07892935547237315,0.006593111108052586,9.84430386732306e-05,0.5255867681666525,2.6417545423926105,1.393639146628054,0.30658169295671156,0.02916934939790305,0.00029860015047914124,0.42139623438285,-0.6018181402813336,-3.0193008796373495,-1.0581941224752356,-0.06894733544666964,-0.0032178337912398547,0.347210183317915,-9.938686148591913,-2.9758577589486466,-0.37235078852589487,0.004866362158436403,-0.00043771559697302085
0.29,0.09752284860972942,2.1109198638469473,-1.2380492950485655,0.08189472361531472,0.006881085243583273,0.00010124744918541652,0.5297700485570631,2.63568514569603,1.3635694398467622,0.2965368142941564,0.028797413553068675,0.00028044105121859326,0.31798324749044793,-1.145747783030041,-3.3324322643716506,-1.1127386849238299,-0.07153593535998337,-0.003205486611793429,0.2920010160365001,-10.20231298790191,-2.9762783987397454,-0.36384731893094785,0.0016171280642205818,-0.0004499007927383216
0.3,0.10285208512151,2.13716173235059,-1.2247454123326624,0.08475389950787764,0.007164964672146839,0.00010386826107620543,0.5329236511780597,2.6241868503642305,1.3303882715903206,0.28591758925629196,0.02838794285635662,0.00026208118907889057,0.21765905473204578,-1.6653061298832594,-3.618444772708098,-1.159783933187235,-0.07378692714131208,-0.003184887952159654,0.23690244623682782,-10.432691757218878,-2.9680206724890414,-0.3542106933022464,-0.0014708324998720162,-0.00045778604467698565
0.31,0.10820286750251479,2.163236768471205,-1.2118017590709587,0.08750187979320632,0.0074444089229582285,0.00010630444733174972,0.5350782381004788,2.6075036120615174,1.2943653261703756,0.27479802853286933,0.027944425081138962,0.00024361862555442924,0.12059634608741729,-2.1604718682172406,-3.878265287482028,-1.1998157756716754,-0.07574618001581879,-0.0031555780273511136,0.18264180737706637,-10.63191494603625,-2.9518585192182543,-0.34361210597867653,-0.004368886223385809,-0.00046155732206588305
0.32,0.11356552962787615,2.1890955637805236,-1.1992441486140675,0.09013435624694276,0.007719108929514182,0.00010855586791889624,0.536266212536137,2.5858795309319005,1.2557610456891173,0.26324764537364326,0.027470000655595406,0.0002251420587146523,0.026922412934053182,-2.63135150675088,-4.112924666438483,-1.2333329736263803,-0.07745237687563014,-0.003117230842571317,0.1298594710910194,-10.802164920523518,-2.928582848816842,-0.3322179906221906,-0.0070540606017900605,-0.00046145304007598134
0.33,0.11893074227662144,2.2146911395432842,-1.1870958926697255,0.09264766930828475,0.007988783983806832,0.00011062318192426466,0.5365212648745291,2.5595575762760707,1.2148255944341957,0.2513313061341994,0.026967505429264918,0.00020673140053684312,-0.0632775940357061,-3.0781630392973773,-4.323537029541392,-1.260840093281832,-0.07893758685533112,-0.0030696900345945632,0.07910040009041513,-10.945672988731165,-2.8989902112602746,-0.32018837339659223,-0.009509006855980844,-0.0004577536581404735
0.34,0.12428952178697189,2.2399789242920503,-1.1753779123697008,0.0950387607983392,0.008253179095141524,0.00011250776500793078,0.5358779510350444,2.5287784748765927,1.171798030002467,0.23910914900544494,0.026439511133469148,0.00018845830836661218,-0.14995711249302693,-3.501220043499375,-4.51128008985911,-1.28284106779466,-0.08022791425576814,-0.003012987949717383,0.030810327500451255,-11.064683476511277,-2.8638726871548217,-0.3076755457336504,-0.011721805473231798,-0.0004507712567576712
0.35000000000000003,0.12963323484836572,2.2649167218774133,-1.1641088556618744,0.09730512645067194,0.008512062723050079,0.00011421163178090245,0.5343713061393848,2.493779758536301,1.126905670782651,0.22663656523327416,0.025888362790855483,0.00017038667729716694,-0.23310443736377284,-3.9009164114564756,-4.6773766914791395,-1.2998334161912801,-0.08134418886829664,-0.002947350528764159,-0.014664005254305872,-11.161422833591084,-2.824009033305691,-0.29482303717401503,-0.013685644494983103,-0.0004408394705186297
0.36,0.13495359980178873,2.2894646715217983,-1.1533052191842246,0.0994447688175665,0.00876522484885818,0.0001157373627891278,0.5320364953423002,2.454794964438484,1.0803636477649803,0.21396423668945613,0.025316212580810207,0.000152573100822536,-0.3127389091295944,-4.277711862644692,-4.823077670633748,-1.312303142675571,-0.0823026706031893,-0.002873190504333545,-0.05707123364529363,-11.238073641349349,-2.780157078021151,-0.281764863330977,-0.015398400963072626,-0.00042830408134753636
0.37,0.14024268482846394,2.3135852013262475,-1.1429814729095904,0.10145615105184273,0.009012475347548754,0.00011708803585929241,0.5289085026675204,2.4120529804448925,1.0323746274634087,0.20113822342762352,0.024725049869057415,0.00013506730701646024,-0.3889071028053233,-4.632118347283039,-4.949646113924965,-1.3207203197533985,-0.08311574752112882,-0.0027910913264218573,-0.09624910936567813,-11.296753276934608,-2.7330473293284845,-0.26862502063985677,-0.016862154722023955,-0.00041351450025338263
0.38,0.14549290340721463,2.33724297659001,-1.1331501859897695,0.10333815199999011,0.009253642620259248,0.0001182671616280009,0.5250218578750699,2.365777526376256,0.983128691982102,0.18820009481473687,0.02411672727104938,0.00011791257687084872,-0.46167908291489834,-4.964687411962556,-5.058343050675466,-1.3255353423288057,-0.08379261123339266,-0.0027017840850170893,-0.13211632015573221,-11.339496901584754,-2.683377735050203,-0.2555171979451777,-0.018082661420615355,-0.0003968162929027355
0.39,0.15069700741447617,2.3604048442061187,-1.1238221523709946,0.10509002297935184,0.009488572447736234,0.00011927862313289343,0.5204104007261533,2.3161867616108807,0.9328033618774874,0.17518709793617349,0.023492982747698656,0.00010114615048925396,-0.5311447751768451,-5.275998569062635,-5.15041458517504,-1.3271758269756795,-0.08433989745914783,-0.0026061195453375152,-0.16466306988903404,-11.36824438186755,-2.6318095161949806,-0.24254467481206635,-0.01906880841421245,-0.0003785448374765833
0.4,0.15584807822946678,2.383039774295415,-1.1150065148969628,0.10671134655136438,0.009717127026085653,0.00012012661938956997,0.5151070814990599,2.263493008929629,0.8815637474031908,0.16213235720125432,0.022855457834941993,8.479962566765404e-05,-0.5974104925506166,-5.56664868682006,-5.227080448923409,-1.326044120630602,-0.08476228256311202,-0.002505037226802842,-0.19394102269540459,-11.384830717689145,-2.5789639835549663,-0.22980037739344666,-0.019832073663865066,-0.0003590201448906235
0.41000000000000003,0.160939516191751,2.405118800139155,-1.1067108867577513,0.1082019975453455,0.009939184147989763,0.00012081561291084896,0.5091437962284229,2.2079025843739637,0.8295628139211391,0.14906509939811183,0.022205712190410922,6.889935212789866e-05,-0.6605956419015827,-5.837242397353324,-5.289523932644435,-1.3225153757370798,-0.08506302934880239,-0.0023995332533351954,-0.22005312128686885,-11.390979536563346,-2.525420240875917,-0.21736706443010267,-0.020386003938225795,-0.0003385428228397391
0.42,0.16596502874048974,2.4266149573683236,-1.0989414692811126,0.10956210653371552,0.010154636495037062,0.00012135028114469973,0.5025512548738733,2.149615722916882,0.776941747663883,0.13601089883700226,0.02154523470472982,5.346682338507752e-05,-0.7208296278472293,-6.0883835049434625,-5.338883142513872,-1.3169361440870766,-0.08524447740248675,-0.0022906284953132516,-0.24314368858541613,-11.388299215988445,-2.47171367557917,-0.20531761823479644,-0.020745724877034192,-0.00031739112671282663
0.43,0.17091861754504495,2.4475032232676135,-1.0917031651952096,0.11079202591028475,0.010363391009780716,0.00012173547181451332,0.4953588804555219,2.088826589929003,0.7238304085903038,0.12299193765692253,0.020875451474365488,3.851906698135826e-05,-0.7782489623194337,-6.320667365922098,-5.376243514252228,-1.3096234389139916,-0.08530847498849381,-0.0021793383068202665,-0.2633891213815065,-11.37828121118251,-2.41833513890993,-0.19371541808758186,-0.020927491943092125,-0.0002958190119644774
0.44,0.1757945649161048,2.4677604569547467,-1.0849996866177756,0.11189229867860653,0.01056536831947549,0.00012197616214109637,0.48759473710598417,2.0257233687133356,0.6703478577434104,0.11002727683217846,0.020197730969477336,2.4069032658304676e-05,-0.832994581941404,-6.534674204108875,-5.4026315119579005,-1.300864213992309,-0.08525675095647234,-0.002066644911096538,-0.28098939110104504,-11.362300190518901,-2.3657307207906113,-0.18261477616729688,-0.02094828809428026,-0.00027405508326748063
0.45,0.18058741976576287,2.487365341102217,-1.0788336571452326,0.11286363001746472,0.010760502187029617,0.0001220774219116217,0.4792854849658085,1.9604884147470611,0.6166029472542947,0.09713313388581846,0.01951338675541273,1.0125977052532317e-05,-0.885209369889676,-6.730963294755069,-5.419009434996614,-1.2909152090283023,-0.08509122637402333,-0.0019534732919292974,-0.29616048367215875,-11.341615603851794,-2.314302027427437,-0.1720614184361084,-0.020825471219717496,-0.00025230232437234055
0.46,0.18529198336457275,2.5062983257816356,-1.073206707526142,0.1137068616552786,0.01094873896844667,0.00012204438033796113,0.4704563598809875,1.8932984679418197,0.5626949619090523,0.08432316378138918,0.01882367814170521,-3.3041573660565507e-06,-0.9350358786621842,-6.9100681399865564,-5.426271257926128,-1.280003114044412,-0.08481426677152282,-0.0018406711862427594,-0.30912784144865485,-11.317374409510107,-2.2644068938392534,-0.16209299824798026,-0.020576472067349152,-0.00023073849001497459
0.47000000000000003,0.18990329512353282,2.5245415749117717,-1.0681195645067016,0.11442294905438721,0.011130037059825256,0.00012188219661747046,0.46113117589600733,1.8243249130136119,0.5087143019440323,0.0716087399108616,0.01812980913785861,-1.6218372049067345e-05,-0.9826142376843189,-7.072492165556902,-5.425239424638477,-1.2683250035911513,-0.08442887657255671,-0.0017289935900496323,-0.32012081075759297,-11.290614523750593,-2.2163604167382958,-0.15273962437138208,-0.020218541432591962,-0.00020951703697396964
0.48,0.19441661861048787,2.5420789157391916,-1.0635721325312388,0.11501294137959728,0.01130436632077659,0.00012159603407609831,0.45133234869550354,1.7537340827420071,0.4547431975462732,0.0589992325210066,0.01743292609513339,-2.8616254137214418e-05,-1.0280802453488014,-7.218705491887473,-5.41666253152413,-1.2560490048469717,-0.08393883848779815,-0.0016190919632849132,-0.3293680606491103,-11.262268939653548,-2.1704362930516616,-0.14402440166935998,-0.019768544038527975,-0.00018876848598202152
0.49,0.19882742799200193,2.5588957916731285,-1.0595635680695632,0.11547796420253476,0.011471707464800966,0.00012119103773688898,0.4410809381514065,1.6816875933937048,0.40085644616756644,0.04650228229374779,0.016734114402437605,-4.049963392093337e-05,-1.0715636276333698,-7.349142278845037,-5.401213830564204,-1.2433151570959957,-0.08334880084580387,-0.0015115081564973654,-0.3370939024970204,-11.233170143096292,-2.126868362732184,-0.1359639699956825,-0.019242795346268195,-0.00016860210488411242
0.5,0.20313139507510644,2.5749792187388842,-1.0560923464247958,0.11581920487409277,0.011632051410717627,0.0001206723151205943,0.4303967083104521,1.608342706575587,0.34712216447673344,0.03412406715580097,0.016034394591666157,-5.1872261629468294e-05,-1.1131864561968305,-7.4641988047202465,-5.379490495050694,-1.230236432334081,-0.08266431659683082,-0.0014066729036616987,-0.34351542296830784,-11.204054711809297,-2.0858523204764556,-0.12856903754304083,-0.01865693689479333,-0.00014910781956217842
0.51,0.2073243771073858,2.5903177458407556,-1.0531563209513624,0.1160379004809699,0.011785398592593827,0.00012004492004975549,0.41929820322793443,1.533852710187113,0.2936025473433444,0.02186956068771426,0.015334718187619929,-6.273950708388116e-05,-1.1530617164849943,-7.564232216319886,-5.352013595916528,-1.2168998886467968,-0.08189183798990118,-0.0013049085946418293,-0.3488403305330109,-11.175567939997517,-2.047547548452365,-0.12184490331177589,-0.0180258453205382,-0.000130358268220086
0.52,0.2114024054788694,2.6049014189584865,-1.0507527746836454,0.11613532828860117,0.011931758228737942,0.00011931383919542002,0.4078028371483619,1.4583673117730953,0.24035462677170477,0.009742780763126076,0.014635963614411506,-7.310808543354714e-05,-1.1912920185125417,-7.649559925247419,-5.319228744032223,-1.203367933268236,-0.08103867118632024,-0.001206435917957327,-0.35326541156644636,-11.148268373533224,-2.0120790321860462,-0.11579196508450051,-0.017363570035201666,-0.0001124109263081389
0.53,0.21536167545494278,2.618721749336771,-1.0488784644421092,0.11611279856124226,0.0120711475531763,0.00011848398107815159,0.3959269976073387,1.382033037828446,0.18743102415362028,-0.0022529727358900006,0.01393893244383578,-8.298581172684342e-05,-1.2279684450366983,-7.720459629396062,-5.2815073607772405,-1.1896796768609654,-0.08011289521662412,-0.0011113838726083403,-0.3569754931863234,-11.122632168910158,-1.9795393283856333,-0.11040621035784609,-0.01668329456147442,-9.53102404169629e-05
0.54,0.2191985370557661,2.631771685664943,-1.0475296575462294,0.11597164964015344,0.012203591015601062,0.00011756016721345896,0.3836861600823341,1.3049936328171754,0.1348806895879883,-0.014114892108882915,0.01324434624247611,-9.238138646926301e-05,-1.2631695344639227,-7.777169948587301,-5.239148545588343,-1.175852364822294,-0.0791232497791805,-0.0010198025665341115,-0.3601428149769629,-11.099057216620825,-1.9499905601294145,-0.10567968864481889,-0.015997316702992936,-7.908971982861863e-05
0.55,0.22290948718423875,2.644045590182737,-1.0467021613229295,0.1157132451523528,0.012329119458038593,0.00011654712507742144,0.37109501284726326,1.227390451779409,0.08274962232999139,-0.025840448780063172,0.012552844243753091,-0.00010130421360375193,-1.2969603963344818,-7.819891619316094,-5.19238151514023,-1.1618828752632915,-0.07807899638342075,-0.0009316781723315293,-0.3629267186645751,-11.077866977127124,-1.923466416446988,-0.1016009636714797,-0.01531704299658624,-6.377394339387e-05
0.56,0.22649116309131953,2.655539218592229,-1.0463913456560383,0.11533897321489023,0.01244776927843458,0.00011544948256191107,0.3581675907080784,1.1493628409491965,0.031081566689126774,-0.037427193746257824,0.011864982039598706,-0.0001097642515510364,-1.3293919658758921,-7.848789337400886,-5.1413685924593455,-1.1477492768359419,-0.07698975742004244,-0.0008469493625831159,-0.3654735755388266,-11.059314043818702,-1.8999741501764256,-0.09815554634693616,-0.014652993319633371,-4.9380448555045935e-05
0.5700000000000001,0.22994033725364654,2.6662497035914448,-1.0465921588769487,0.11485024749279989,0.012559581592961897,0.00011427176359113668,0.34491741623270217,1.0710484999215837,-0.0200813220910334,-0.048872572209033543,0.011181231452731689,-0.0001177718970774393,-1.3605003963650733,-7.863994095712755,-5.086208728831556,-1.1334124415951905,-0.07586533766669401,-0.0007655245365538743,-0.3679168782041904,-11.043583386435953,-1.8794965520968496,-0.09532630674523407,-0.014014811862925919,-3.592147456592223e-05
0.58,0.23325391372466578,2.6761755417957405,-1.0472991373495582,0.11424850996247612,0.012664601410135506,0.00011301838458264425,0.33135764710192445,0.9925838204295564,-0.07069784726094039,-0.06017375303237607,0.010501981717361022,-0.00012533790084924323,-1.3903066006625058,-7.8656061098144585,-5.026941541874498,-1.1188177111157174,-0.07471553285461852,-0.000687299138038111,-0.37037743605745405,-11.030795323969098,-1.8619939034653492,-0.09309386669135067,-0.013411281239061592,-2.340553950434674e-05
0.59,0.23642892600561888,2.6853165837544015,-1.0485064091538479,0.11353523522607353,0.012762876830738507,0.00011169365145645055,0.3175012280953087,0.9141041958661168,-0.12072718042896022,-0.07132747364025864,0.009827542060299961,-0.0001324733126193699,-1.4188159489848817,-7.85369827058254,-4.963551853841851,-1.103896614515044,-0.0735499299514526,-0.0006121723783898414,-0.37296362168940683,-11.021008240305335,-1.8474058996299165,-0.09143697283174043,-0.012850336926701197,-1.1838834300027166e-05
0.6,0.23946253646718102,2.693674026717328,-1.0502076923221304,0.11271193621651407,0.0128544582881211,0.00011030175692555133,0.3033610461562152,0.8357442962926478,-0.17012831682826382,-0.08232990095594594,0.00915814573825942,-0.00013918945308992282,-1.4460181336033655,-7.828320110163889,-4.89597471232166,-1.0885686379528536,-0.07237770392331822,-0.0005400627056546536,-0.37577162513601853,-11.014221084068163,-1.8356535439784651,-0.09033285075181469,-0.012339079771372373,-1.2264211764208928e-06
0.61,0.2423520373359192,2.7012504097554215,-1.0523962881298972,0.11178017112674418,0.012939397843613623,0.00010884677783908845,0.2889500868738185,0.757638303809356,-0.21885958077668546,-0.09317650897698894,0.008493955549252266,-0.00014549790864628866,-1.4718872117968913,-7.789502254382591,-4.824100872016681,-1.0727430449074546,-0.07120741586870505,-0.00047092140393922843,-0.3788856813544085,-11.010375701306582,-1.8266410126028174,-0.0897575405722203,-0.011883784766105139,8.426773073440323e-06
0.62,0.24509485324199012,2.7080496107897196,-1.0550650699889719,0.11074155139104569,0.013017748551581575,0.00010733267239515416,0.2742815906070916,0.6799201034298263,-0.26687818590746315,-0.10386197356984891,0.007835070796795143,-0.00015141054439342874,-1.4963818386585377,-7.737261327535315,-4.7477827110380115,-1.0563207456149115,-0.0700468175482305,-0.0004047437701552026,-0.38237824424596245,-11.009359057615356,-1.820257491169587,-0.08968621433946619,-0.011489904841075049,1.7115175998921764e-05
0.63,0.2476885453055884,2.714076845039113,-1.0582064685338153,0.10959775054055189,0.013089563908032113,0.00010576327709233735,0.259369206359827,0.6027234249393215,-0.3141398544843358,-0.11438008504938023,0.007181535645053861,-0.00015693953028167982,-1.519445700849977,-7.6716052670273704,-4.66684054823364,-1.0391962125013343,-0.06890266745263673,-0.00034157739395634934,-0.38631008796380084,-11.011005412470242,-1.8163789860107387,-0.09009347534901166,-0.01116206889420707,2.483200535401879e-05
0.64,0.2501308167196336,2.7193386643554986,-1.0618124535316262,0.10835051374980278,0.013154897395647357,0.00010414230334613202,0.2442271414045195,0.5261819316385588,-0.360598499781099,-0.12472367907490985,0.006533348761524321,-0.0001620973746205329,-1.5410081610525552,-7.592538995750197,-4.581069319716239,-1.021259436284435,-0.06778056361591833,-0.0002815271680363107,-0.39073032322269596,-11.015098513016648,-1.8148701114143257,-0.0909536393177223,-0.010904073791170527,3.1568924495091694e-05
0.65,0.2524195197651809,2.7238429568794187,-1.065874513282515,0.10700166788639483,0.013213802136666064,0.0001024733337562818,0.22887030455472768,0.4504292523920105,-0.406205975088862,-0.13488458634079564,0.005890474101870704,-0.0001668969589850224,-1.5609851206310341,-7.500070389796422,-4.49024556321217,-1.002397914820385,-0.06668479835386432,-0.0002247567701656461,-0.39567632299145306,-11.0213738771888,-1.8155858545609391,-0.0922409970763868,-0.010718870549621035,3.7315917600806676e-05
0.66,0.25455266417427286,2.727598946419618,-1.0703836322065354,0.10555313187178704,0.013266330663166554,0.00010075981807183944,0.21331444090919358,0.37559895401994725,-0.45091189240206003,-0.1448536014607793,0.00525285265004912,-0.00017135156844423673,-1.579280104900413,-7.394216468444321,-4.394134648500227,-0.9824986638123647,-0.06561823995042015,-0.00017148649686504758,-0.4011735584011645,-11.029521236764324,-1.8183733185782966,-0.09393005820189851,-0.010608545393851292,4.2061382402239624e-05
0.67,0.2565284267327274,2.73061719093762,-1.0753302673387215,0.10400692715839994,0.01331253481203685,9.900506895961224e-05,0.19757625584545516,0.30182445180016637,-0.49466351321861,-0.15462047133870896,0.004620414887029569,-0.00017547491122271987,-1.595785571402618,-7.27500972277777,-4.292498181467122,-0.9614502353697532,-0.0645822459853953,-0.00012198747262304188,-0.40723535203523226,-11.039187209666506,-1.823073442852071,-0.09599577477350713,-0.010574296815273344,4.579243506948895e-05
0.68,0.2583451619930728,2.7329095795043976,-1.0807043244703873,0.10236518812658453,0.013352465749284708,9.72122577361362e-05,0.1816735260345344,0.22923885667777483,-0.5374057131665924,-0.16417390318154162,0.003993093724785814,-0.00017928112234760337,-1.610384436839567,-7.1425044893498075,-4.18510149869099,-0.9391447272412243,-0.06357661245440216,-7.657241747638377e-05,-0.4138625620270657,-11.04997826740253,-1.8295226981249382,-0.09841374423910743,-0.010616410192256672,4.849541832073228e-05
0.6900000000000001,0.2600014139459662,2.7344893270915334,-1.086495134683795,0.10063017220515053,0.013386174125390194,9.53844102706281e-05,0.16562519528934502,0.15797475871358765,-0.5790810213407549,-0.17350159214339994,0.0033708376105486024,-0.00018278474655081012,-1.6229518129007023,-6.996783266489742,-4.071721159510652,-0.9154797625579363,-0.06259956207148942,-3.558331627639966e-05,-0.42104321657456456,-11.061464057877869,-1.837554752137595,-0.10116039023581083,-0.01073423189841307,5.0156599661463266e-05
0.7000000000000001,0.26149592847750924,2.7353709665647563,-1.0926914320268313,0.09880426952121728,0.013413710360204386,9.35244033038645e-05,0.14945145315430064,0.08816394732230644,-0.6196297343036307,-0.182590268393325,0.0027536234814193113,-0.00018600069667636075,-1.6333569353441828,-6.837962863743207,-3.952152333826719,-0.8903604172600375,-0.06164777413225586,6.235157380407585e-07,-0.4287521245192454,-11.073181135897816,-1.8470020997221082,-0.10421312014194498,-0.010926145148028667,5.0763041951380346e-05
0.71,0.2628276664204796,2.735570337264195,-1.0992813330637372,0.09689001188944647,0.013435125052537633,9.163496145332533e-05,0.13317379429703574,0.01993706994383497,-0.6589901036905856,-0.19142576317708115,0.002141469233324779,-0.0001889441850539173,-1.6414652645602208,-6.66620027005075,-3.826215976975903,-0.8637010702366936,-0.0607164570839025,3.169433270078237e-05,-0.4369504933943954,-11.084637143454176,-1.8576976494605906,-0.10755045815999964,-0.011189550076042278,5.03036233301993e-05
0.72,0.2639958169902579,2.7351045695835223,-1.106252319016475,0.09489008095745015,0.013450469506164287,8.971865518624536e-05,0.1168150569778334,-0.046576768067256316,-0.6970985952737823,-0.1999930931996324,0.0015344453626654569,-0.00019163062670799806,-1.6471407297191187,-6.48169812408369,-3.6937656784523245,-0.8354271497364394,-0.059799463511584605,5.729606817467259e-05,-0.4455855916116584,-11.095315469467955,-1.8694762573805361,-0.11115215285223681,-0.011520850712092426,4.8770178079846166e-05
0.73,0.2649998113817419,2.7339920649996743,-1.113591221178578,0.09280731533349168,0.01345979636061826,8.777790003813973e-05,0.10039943914839412,-0.11125045838482586,-0.7338902162102844,-0.20827656239584683,0.000932685445397347,-0.00019407551481056306,-1.6502480827643282,-6.28470967105912,-3.5546940694934834,-0.8054767489233647,-0.058889445670224916,7.713481784865639e-05,-0.45459049595170686,-11.10468040417469,-1.8821761967769592,-0.11499925827792368,-0.011915451568398384,4.615872449601463e-05
0.74,0.26583933629240497,2.73225247105586,-1.1212842102391027,0.09064471653459193,0.013463160311994992,8.581495733439694e-05,0.08395249106630633,-0.17395939438141572,-0.7692989060524869,-0.21625987988997478,0.00033639513767318814,-0.00019629427037427862,-1.6506553232439256,-6.07554309462264,-3.4089386759581544,-0.77380208368578,-0.057978048036740226,9.097380782424613e-05,-0.4638839689189459,-11.112182787052847,-1.8956405522236153,-0.11907418821225652,-0.012367766505981629,4.247074058523755e-05
0.75,0.266514347129399,2.729906650862801,-1.129316790098767,0.08840545360781184,0.0134606189061443,8.38319366369076e-05,0.06750108369939921,-0.23458201930587622,-0.803257985966432,-0.22392629267800904,-0.0002541405850691233,-0.00019830206974893327,-1.6482361505674492,-5.854565120157605,-3.2564871077542987,-0.7403707669731396,-0.057056131715929936,9.864996591024688e-05,-0.4733705124414206,-11.11726612946891,-1.9097185252385633,-0.12336074335443127,-0.012871242362446864,3.77144437383916e-05
0.76,0.2670250806556651,2.726976646755692,-1.1376737966939632,0.08609286629471116,0.013452233384265324,8.183080008771613e-05,0.05107335262661543,-0.29300041071089666,-0.8357006595196135,-0.23125873131006808,-0.0008385521878976528,-0.00020011365491914837,-1.6428723969913652,-5.622203797130086,-3.0973814844081122,-0.7051668760723366,-0.05611402401434429,0.00010008826199464638,-0.4829406444633742,-11.119373174509247,-1.9242666389595677,-0.12784411194159911,-0.013418399511270707,3.190602682888749e-05
0.77,0.26737206683174536,2.723485637826224,-1.146339402267959,0.08371046662859409,0.013438069559117203,7.981336875946971e-05,0.03469861760802402,-0.3491008929468124,-0.8665605573995815,-0.23823996661170696,-0.001416382514812083,-0.00020174313282464155,-1.6344563927000404,-5.378950382630127,-2.9317220081337867,-0.6681917922919833,-0.055141785190483183,9.53130796879087e-05,-0.4924714428300379,-11.117952837352034,-1.9391498295948257,-0.13251084475608696,-0.01400089107725112,2.507080081553185e-05
0.78,0.2675561396165725,2.7194578911386595,-1.155297125443383,0.08126193887586931,0.013418198698935485,7.778133105093491e-05,0.018407278482713074,-0.40277466875644496,-0.8957723175424083,-0.24485277527247795,-0.001987086018171734,-0.00020320377085348028,-1.6228932139266987,-5.125360265763972,-2.7596696107263394,-0.6294647964158884,-0.05412948340998103,8.44560277703521e-05,-0.5018273962044175,-11.112467450645326,-1.9542424133501597,-0.13734880611941735,-0.014609581962415262,1.7244193240572645e-05
0.79,0.267578446502017,2.714918706534678,-1.1645298473575605,0.07875113775631562,0.013392698395764286,7.573625308874506e-05,0.002230688544452096,-0.45391846039817785,-0.9232721914177376,-0.25108011195536883,-0.0025500303171199653,-0.0002045077962189841,-1.6081027662519758,-4.8620528924894195,-2.581447618356842,-0.5890234078674403,-0.053067468353132696,6.775977563722169e-05,-0.5108615943898526,-11.102400221404546,-1.9694289189737986,-0.14234710307850595,-0.015234648155959183,8.472553289015958e-06
0.8,0.2674404565722673,2.7098943550315227,-1.1740198340241865,0.07618208490182649,0.013361653395314208,7.367959101785886e-05,-0.01379899297497323,-0.5024351503155255,-0.9489986666626046,-0.25690528544891367,-0.0031045000450077927,-0.00020566620708862003,-1.5900216580486115,-4.589710672224585,-2.397342398346618,-0.5469234606617732,-0.05194663380831965,4.557770582591658e-05,-0.5194172803090437,-11.087262789655767,-1.9846047779560503,-0.14749599557493498,-0.01586569603327744,-1.1862824856929846e-06
0.81,0.2671439668999431,2.70441201091973,-1.1837487649832044,0.07355896353882135,0.013325156366633723,7.161270498725869e-05,-0.02964896723241842,-0.5482344111792744,-0.9728930959017906,-0.2623121363005137,-0.003649702868048502,-0.0002066886030600174,-1.5686048234528132,-4.309076870358243,-2.207702973573694,-0.5032389146620169,-0.05075865996163387,1.836938681110123e-05,-0.5273297731384013,-11.066602765158798,-1.9996768667013438,-0.1527867909150627,-0.01649190052289983,-1.1662703978147245e-05
0.8200000000000001,0.26669110711575544,2.6984996777680936,-1.1936977681977428,0.07088611140543764,0.013283308591795414,6.953687456822002e-05,-0.045285978418761676,-0.5912333151636431,-0.9949003214538354,-0.2672852133383713,-0.004184777483830922,-0.00020758304190386813,-1.5438268600978875,-4.02095251384477,-2.012939612546634,-0.45806140627751013,-0.0494962269583592,-1.3307902986148257e-05,-0.5344287570473897,-11.040011107729034,-2.014563897561496,-0.15821172629642244,-0.01710216017263255,-2.2875353214135973e-05
0.8300000000000001,0.2660843420169466,2.692186108642258,-1.2038474610548118,0.06816801194031091,0.013236220558368194,6.745331528394808e-05,-0.06067650988088712,-0.6313569125835921,-1.0149692857069086,-0.2718099465126737,-0.0047088033427220705,-0.0002083559284271924,-1.515683053933279,-3.726192359541461,-1.8135214255989176,-0.41149954818544465,-0.04815319262731155,-4.8811187219388597e-05,-0.5405409131913634,-11.00712920953847,-2.0291966583728462,-0.1637638434674288,-0.01768526631853288,-3.473148433835274e-05
0.84,0.2653264721109679,2.6855007209371498,-1.214177997227389,0.0654092838046773,0.013184012440557811,6.536319588429063e-05,-0.07578699059787064,-0.6685387705108184,-1.0330536172577216,-0.2758728135633614,-0.005220811781038211,-0.0002090119399657459,-1.484190071498717,-3.4256999960413923,-1.6099730192551442,-0.3636779929150844,-0.04672472893889079,-8.742674198991551e-05,-0.5454928548030759,-10.967655534793218,-2.0435181029586706,-0.16943685978160636,-0.01823008279604176,-4.712766879519095e-05
0.85,0.26442063202407745,2.6784735063102745,-1.2246691190617014,0.06261466882317103,0.013126814458409216,6.326765597000155e-05,-0.09058400868904552,-0.7027214626875146,-1.049112183431246,-0.2794614981506266,-0.005719798214859595,-0.0002095539914289085,-1.4493863087089027,-3.1204221687180977,-1.4028702808812392,-0.3147362798045865,-0.045207413721720435,-0.00012838727236158531,-0.5491143073486817,-10.921351673679283,-2.0574832978197,-0.17522503993955507,-0.018725731974884557,-5.9950843851914506e-05
0.86,0.2633702867388911,2.6711349362807892,-1.2353002150669377,0.05978901845056733,0.013064767108215063,6.116782355858116e-05,-0.10503452851863221,-0.7338570029485283,-1.0631096005236185,-0.2825650372603696,-0.006204735019415248,-0.00020998324114203845,-1.4113318941794253,-2.8113424338860766,-1.1928353835227283,-0.2648274889506226,-0.043599276256142794,-0.00017089051269517097,-0.5512414588100083,-10.868047673583462,-2.071059232822388,-0.1811230725849636,-0.01916178238822902,-7.307968926716657e-05
0.87,0.2621792256595049,2.663515864126624,-1.2460503820070625,0.05693727889141591,0.012998021261096103,5.9064832188272214e-05,-0.11910610793862107,-0.7619072154165534,-1.0750166940124946,-0.2851739559151427,-0.006674584711896077,-0.00021029913703089458,-1.370108354031674,-2.4994742608793596,-0.9805311158065244,-0.21411672905050771,-0.04189979747117256,-0.0002141184267874241,-0.5517203903353235,-10.807646521277269,-2.0842245059970907,-0.18712595563611847,-0.019528432895984462,-8.63863036117275e-05
0.88,0.2608515545367243,2.6556474237674372,-1.2568984910273613,0.0540644750166738,0.012926738130444194,5.6959837177276445e-05,-0.13276711227806007,-0.7868440359186684,-1.0848109020298844,-0.28728038747421025,-0.007128313065190883,-0.00021049950109957671,-1.3258179536046741,-2.1858537100981463,-0.766654653467469,-0.16277948853524649,-0.04010986746236167,-0.00025725620031727403,-0.550410485849477,-10.740127664744191,-2.0969688944844367,-0.19322889380096847,-0.019816688197232882,-9.97381391936529e-05
0.89,0.2593916853183367,2.647560926363942,-1.2678232571929542,0.05117569323580549,0.012851089112392413,5.4854030689869144e-05,-0.1459869218387656,-0.808649740349529,-1.0924766165592967,-0.2888781780868313,-0.007564901805178139,-0.0002105806487407301,-1.2785827392572842,-1.8715318204707347,-0.5519308971989632,-0.1109998809332069,-0.03823170480289306,-0.00029951028442590233,-0.5471877117014514,-10.665549482183021,-2.109292825143647,-0.19942721115820639,-0.020018520602012303,-0.00011300014340299825
0.9,0.257804324019462,2.639287755393558,-1.2788033117736164,0.04827606349418737,0.012771255506564784,5.274865530724578e-05,-0.1587361298874667,-0.8273170970383915,-1.0980054580662302,-0.28996297416181127,-0.007983360582762847,-0.0002105375382623363,-1.2285433101894097,-1.5575668412989805,-0.3371055059617243,-0.058968816114907785,-0.03626874355028242,-0.0003401248576092031,-0.541947654821088,-10.584050627808963,-2.1212067593127473,-0.20571628101218248,-0.020127013290222946,-0.00012603704518712418
0.91,0.2560944567351376,2.630859260978306,-1.2898172765792333,0.04537074057393162,0.012687428126953997,5.0645015855479704e-05,-0.1709867284324411,-0.8428494415251717,-1.101396480561692,-0.2905322920255755,-0.008382737961078718,-0.00021036394517660759,-1.175857355731375,-1.245016441229824,-0.12293775567547427,-0.006882128881783078,-0.03422549487824078,-0.0003783961958170323,-0.5346082106478307,-10.495850208631675,-2.132730506665295,-0.2120914744740391,-0.02013648081483582,-0.00013871571880497643
0.92,0.25426733394087203,2.6223066542435314,-1.3008438396331936,0.04246488488141402,0.012599806814804807,4.85444893027233e-05,-0.1827122794265534,-0.8552606734774684,-1.102656305396033,-0.29058556925175943,-0.008762131214919006,-0.00021005265527564032,-1.1206979976914897,-0.9349300213913179,0.08980664948764838,0.04506130457132618,-0.032107390870339536,-0.00041368459897907217,-0.5251118204360626,-10.401246772536199,-2.143892483043483,-0.21854812841658808,-0.020042563325049854,-0.000150907553353936
0.93,0.2523284532465278,2.6136609024760205,-1.3118618314666943,0.039563642906914234,0.012508599866803192,4.644853259926026e-05,-0.193888069434424,-0.8645751767510887,-1.1017991833500707,-0.29012419744997825,-0.009120694800161384,-0.00020959567034630418,-1.0632519800328515,-0.6283412509529911,0.30036269185713527,0.09666143346501188,-0.02992061817489855,-0.0004454236603857603,-0.5134271712213069,-10.300616114798453,-2.1547289265968175,-0.22508153263058103,-0.019842291858851908,-0.0001624907560123256
0.9400000000000001,0.250283540784282,2.6049526258282176,-1.322850301324701,0.036672127540988975,0.01241402339268053,4.435868839436057e-05,-0.20449124622458148,-0.8708276647802992,-1.0988469858006709,-0.28915153659252624,-0.009457647412266127,-0.00020898442048996913,-1.003717749363599,-0.32626093200193484,0.5079729683531051,0.14771885585683164,-0.027671948983913452,-0.00047312682927337646,-0.49955029017114005,-10.194407936681905,-2.1652830855748126,-0.23168693520961467,-0.0195341230411428,-0.0001733525195103344
0.9500000000000001,0.24813853142245082,2.5962119962826695,-1.333788592593312,0.033795398428693044,0.012316300616562543,4.227658862016497e-05,-0.21450093618311855,-0.8740629545548059,-1.093829126861082,-0.2876729112295931,-0.009772277611798674,-0.00020820997741955962,-0.9423034695092185,-0.029670287216951204,0.7118943301272264,0.19803657472599712,-0.025368576204061632,-0.0004963913267703873,-0.48350498732301805,-10.08314141506645,-2.17560438978279,-0.23835956444201337,-0.01911794257443093,-0.00018339098986410045
0.96,0.24589954800365882,2.587468639548891,-1.3446564167874078,0.03093844253678593,0.01221566113607585,4.0203955983257516e-05,-0.22389834187920094,-0.8743356733778427,-1.0867824194095759,-0.28569558919071103,-0.010063948048669388,-0.0002072632636907458,-0.8792250119130093,0.2604852510292273,0.911404144642701,0.2474216657776993,-0.023017958799453453,-0.0005148996148029994,-0.4653426256429009,-9.967399765328157,-2.185747616110963,-0.24509466482282624,-0.018595037972789667,-0.00019251697854975655
0.97,0.24357287980834275,2.5787515405149994,-1.3554339254754684,0.028106155100895702,0.01211234015244322,3.8142603447231876e-05,-0.23266681953160812,-0.8717099033891543,-1.0777508688060513,-0.283228743589023,-0.010332098363262978,-0.00020613525360256416,-0.8147039609284313,0.5433016872205587,1.1058061049597816,0.29568683924655037,-0.02062768219803157,-0.0005284186722287337,-0.4451412235420951,-9.847823900191917,-2.195772056786426,-0.25188754424319576,-0.017968042015161553,-0.00020065537358169086
0.98,0.24116496044316654,2.5700889528203055,-1.366101779563901,0.02530332110956683,0.012006577683638995,3.609443182402405e-05,-0.24079193651762137,-0.8662587694694112,-1.0667854088432713,-0.280283399132887,-0.010576246880422557,-0.00020481716232078216,-0.7489656694185088,0.8179214979746298,1.294435525531961,0.3426518812842758,-0.01820533742724617,-0.0005367974199946557,-0.42300392100172945,-9.725105304447888,-2.2057406971844435,-0.2587336289900321,-0.017240849333725133,-0.00020774621581360307
0.99,0.23868234534895377,2.5615083130541483,-1.3766412154147094,0.022534597470517646,0.011898617771234495,3.406142561735862e-05,-0.24826150942127595,-0.8580639766157387,-1.0539435850808518,-0.2768723639049186,-0.010795991240450054,-0.0002033006206665431,-0.6822373956756201,1.0835380248702149,1.4766640784981397,0.3881449638279806,-0.01575842138324468,-0.0005399626502829158,-0.39905686483371683,-9.599978258843294,-2.2157194082729728,-0.26562852291188027,-0.016418509365807955,-0.0002137454195603084
