tonegas/nnodely-applications/joint_friction_estimation/dataset/train/mpc_mujoco_episode_22 copy.csv
time,q1,q2,q3,q4,q5,q6,dq1,dq2,dq3,dq4,dq5,dq6,ddq1,ddq2,ddq3,ddq4,ddq5,ddq6,tau1,tau2,tau3,tau4,tau5,tau6
0.0,0.0,1.57,-1.57,0.0,0.0,0.0,0.0,0.0,0.0,0.0,0.0,0.0,6.97124865716104,1.3281557470382286,9.107073063948274,3.6459269346930583,1.0117266480911766,-5.1539700720582005e-06,0.9719892610023823,-2.159884118978874,-2.9072585014880925,-0.615149685290573,0.08782328461059702,0.0008216165196641651
0.01,0.0006934756340273543,1.570135592621248,-1.5690930725552834,0.0003404356654259026,8.550526956207847e-05,1.0623397086166665e-06,0.06934756340273543,0.013559262124777682,0.09069274447165786,0.034043566542590255,0.008550526956207847,0.00010623397086166664,6.930674205001477,1.3725100347292265,9.04636372328966,3.393563285851915,0.8521279095486634,0.010591838111925433,0.9727812406849061,-2.16324121821064,-2.909408837314992,-0.6155358388321226,0.08783561340114417,0.000818466736695795
0.02,0.00207586333254553,1.570411314668421,-1.5672866681204558,0.0010012684386391229,0.00024668818663289795,3.238913584419723e-06,0.13823876985181754,0.02757220471731312,0.18064044348275293,0.06608327732132202,0.016118291707081945,0.00021765738758030564,6.883438873907846,1.4176449015735564,8.96760098847646,3.1906941750252003,0.7530032766865986,0.010997650428203443,0.9754125221574059,-2.1777581048729284,-2.913864526146228,-0.6160686927644734,0.08794343913693767,0.0008118226906073576
0.03,0.00414215362255851,1.570831734052973,-1.564589663361947,0.0019661881610001557,0.0004773520924266806,6.461203915615e-06,0.20662902900129798,0.042041938455189366,0.2697004758508941,0.09649197223610328,0.02306639057937826,0.0003222290331195277,6.831439013143798,1.4626362229171517,8.874195164070773,3.0247974134441122,0.6898829799491892,0.010098693566320094,0.9797889386838576,-2.203542451625993,-2.920709402482367,-0.6167663791659546,0.08813831900979038,0.0008016470880903921
0.04,0.006886994414115883,1.5714013679986836,-1.5610121107520054,0.0032216614160339285,0.0007734583334312455,1.0662868896783629e-05,0.2744840791557373,0.05696339457105909,0.35775526099415444,0.12554732550337727,0.029610624100456492,0.0004201664981168629,6.775685055660732,1.506673045079299,8.768633517218873,2.886329044092868,0.6480326222866815,0.009116290504633362,0.9857783083665892,-2.2406723400010677,-2.930004676801043,-0.617639324937755,0.08840856632495396,0.0007878918916549499
0.05,0.010304739814074133,1.572124610094999,-1.556565058981033,0.0047562055191997825,0.001132236755295483,1.5789438574388816e-05,0.34177453999582497,0.0723242096315464,0.44470517709724355,0.1534544103165854,0.035877842186423765,0.0005126569677605186,6.716642292297397,1.5490322839563615,8.652695505663687,2.768013870749911,0.6185673253033421,0.008150228804154835,0.9932113076679557,-2.289189940098666,-2.941787825881561,-0.6186902476510073,0.08873944625943855,0.0007704921375579671
0.06,0.014389465109867133,1.5730056642653318,-1.5512604277497464,0.0065598345826466615,0.001551648741645271,2.1794226369905956e-05,0.4084725295792999,0.08810541703328434,0.5304631231286634,0.18036290634468788,0.041941198634978784,0.0006004787795517142,6.654439006465425,1.5890613659244068,8.52761904552868,2.664307097273422,0.596138483073446,0.007166449374031103,1.001882149589342,-2.349094236075278,-2.956071244457065,-0.6199141015032992,0.08911336917453683,0.0007493660444308513
0.07,0.019134960593126374,1.5740484843616922,-1.5451109241714687,0.008623636798630947,0.002030063678516049,2.863435854506984e-05,0.474549548325924,0.10428200963604714,0.6149503578277613,0.2063802215984286,0.0478414936870778,0.0006840132175163883,6.58899444882726,1.6261665700650205,8.394229717785164,2.570983948542459,0.5775399567258113,0.006134280523266256,1.0115492661370382,-2.4203331803577095,-2.972840787118977,-0.6212980160793657,0.08951009455432042,0.0007244185022859639
0.08,0.024534712080191704,1.5752567185591069,-1.5381299908167985,0.010939451795515906,0.002566064777369148,3.626819769753115e-05,0.539975148706533,0.12082341974146596,0.698093335467022,0.23158149968849592,0.053600109885309916,0.0007633839152461309,6.520098434080909,1.6598055358207653,8.25304165503718,2.4848269516161885,0.5608656165421451,0.005038170369010331,1.0219361729888485,-2.50279560373301,-2.9920543079226642,-0.6228212610642891,0.08990695645024246,0.0006955463871902549
0.09,0.030581873092239642,1.5766336580589413,-1.5303317775749101,0.01349962435601527,0.0031583334175652065,4.4653826688301304e-05,0.6047161012047938,0.1376939499834434,0.7798213241888348,0.2560172560499363,0.05922686401960586,0.0008385628990770157,6.447461834048848,1.6894828352490285,8.104336757441729,2.4033879491466905,0.5449995815468576,0.0038736968381689607,1.032732681428726,-2.5963031801256484,-3.013640294387386,-0.6244552643810656,0.09027911909766471,0.000662644874896611
0.1,0.03726923192638466,1.5781821898554007,-1.5217311311430972,0.01629681647770799,0.003805581249892763,5.3748218090669115e-05,0.6687358834145024,0.15485317964595036,0.860064643181292,0.2797192121692719,0.06472478323275563,0.0009094391402367809,6.370749633257171,1.7147477972104341,7.9482273152804845,2.3248072639248853,0.5293074680206153,0.002643352749792882,1.0435966130087322,-2.700602733173166,-3.03749668763209,-0.6261637076750282,0.09059986935693302,0.0006256143013075912
0.11,0.04458917582014638,1.579904753497973,-1.5123435972087076,0.01932386410497404,0.00450651143793163,6.350683296880527e-05,0.7319943893761719,0.17225636425724047,0.9387533934389656,0.3027047627266048,0.07009301880388666,0.0009758614878136153,6.289603578424585,1.7351939675155554,7.784705903952316,2.247676511580732,0.5134490817837971,0.0013536181341349263,1.0541561618264228,-2.815359168143164,-3.0634899777894207,-0.6279027204470484,0.09084095072275047,0.0005843673003175018
0.12,0.0525336538041703,1.5818033019104973,-1.5021854313482768,0.02257366818067653,0.005259797745128565,7.388348667447046e-05,0.7944477984023917,0.18985484125242238,1.0158165860430906,0.32498040757024915,0.07532863071969349,0.0010376653705665186,6.2036586283295225,1.7504597258127994,7.613685478990794,2.1709346967537186,0.49726446398542024,1.3032355534292606e-05,1.0640130348148382,-2.940149310935141,-3.091454661202711,-0.6296211916578123,0.09097294172909563,0.0005388360302745062
0.13,0.061094139480487204,1.5838792664159158,-1.4912736154094595,0.026039112194855486,0.006064074602683439,8.483037965816776e-05,0.8560485676316906,0.2075964505418539,1.0911815938817382,0.3465444014178956,0.08042768575548735,0.001094689298369731,6.112555688186786,1.760229676698065,7.435031873303101,2.093789643261271,0.48070423586672817,-0.0013690844634535182,1.07274648000427,-3.074456931220809,-3.1211931416038787,-0.6312612147809044,0.09096567957431503,0.0004889793284045222
0.14,0.07026159475103694,1.586133526172276,-1.4796258767179828,0.029713000330706497,0.006917933966169731,9.629822856694912e-05,0.9167455270549737,0.22542597563602215,1.1647738691476508,0.3673888135851011,0.08538593634862927,0.0011467848908781355,6.015952062770182,1.7642365023341253,7.248590339755256,2.015658665198302,0.4637867010104273,-0.0027834945356994822,1.0799182850646074,-3.2176692158025246,-3.152476150395768,-0.6327586787623548,0.09078872766617843,0.00043478963517729616
0.15,0.08002643538954707,1.5885663822556548,-1.467260707907191,0.0335880117667014,0.00781992638238817,0.0001082364558910392,0.9764840638510134,0.24328560833788337,1.2365168810791691,0.3875011435994902,0.09019924162184385,0.001193822732409009,5.913530423531784,1.7622630157609032,7.0542073534679375,1.9361238111444194,0.4465711242266579,-0.004221631828233541,1.0850787930026071,-3.3690749386518037,-3.185043750653591,-0.6340440129905576,0.09041188354410953,0.0003762995228278169
0.16,0.09037849926000517,1.5911775366334364,-1.4541973855346597,0.03765666779641392,0.00876856466249842,0.00012059341074072137,1.0352063870458106,0.2611154377781489,1.30633223725314,0.40686560297125207,0.09486382801102515,0.0012356954849682168,5.805006698039922,1.7541441943199987,6.8517485617399,1.8548981071030646,0.4291408122223608,-0.005676002396626245,1.087773938797447,-3.5278645443299426,-3.2186069751993127,-0.6350430891568367,0.08980572131646843,0.00031358765260280214
0.17,0.1013070179131737,1.5939660762599226,-1.4404559859537613,0.04191130925766831,0.009762329146903097,0.0001333166024071672,1.0928518653168526,0.2788539626486246,1.3741399580898295,0.4254641461254393,0.09937644844046777,0.0012723191666445823,5.690137058726242,1.7397690056116804,6.641113523593953,1.7718000625074133,0.41159216084165706,-0.007140446671604295,1.0875532608588523,-3.6931323209124987,-3.2528501311022926,-0.6356782768655025,0.08894216042605839,0.0002467839787517064
0.18,0.11280059222476957,1.596930462498241,-1.426057397166611,0.04634408238385807,0.01079967390500743,0.00014635293424742683,1.1493574311595869,0.29643862383183,1.4398588787150215,0.4432773126189762,0.10373447581043312,0.001303633184025963,5.568724053566907,1.719081867222571,6.42224769851539,1.6867343471252987,0.3940273655413655,-0.00861029557098636,1.0839787860673906,-3.863880787269931,-3.2874337815517913,-0.6358696432037894,0.08779505032198037,0.00017607401679348568
0.19,0.12484717266706674,1.6000685260302998,-1.4110233256122064,0.05094693165166719,0.011879033431374609,0.0001596489293714076,1.2046580442297175,0.3138063532058854,1.5034071554404531,0.46028492678091176,0.10793595263671793,0.0013295995123980787,5.440621848166218,1.6920836082041149,6.195152011625639,1.599677040948908,0.3765494143668171,-0.01008244158349747,1.0766346291047753,-4.039027358526034,-3.321998391866792,-0.635536279463687,0.0863407585817927,0.00010170200091773828
0.2,0.13743404472572385,1.6033774673624337,-1.395376297049556,0.05571159853862365,0.012998829534712028,0.00017315094233865015,1.2586872058657117,0.33089413321339806,1.564702856265041,0.47646668869564496,0.11197961033374187,0.0013502012967242562,5.305740514768962,1.6588318262720316,5.959890229721925,1.5106642392925451,0.3592585370641501,-0.011555340179368656,1.0651370887438216,-4.2174132844285666,-3.356168600373845,-0.6345977311497317,0.08455874831362635,2.3972771433997987e-05
0.21,0.15054781988414478,1.6068538629706686,-1.3791396508867635,0.06062962534993322,0.014157478201114657,0.00018680535303772328,1.3113775158420948,0.34763956082349046,1.623664616279243,0.4918026811309571,0.11586486664026285,0.0013654410699073128,5.164049295258114,1.6194405606709554,5.716594320782017,1.419783088369563,0.3422496159204158,-0.013028953776805352,1.0491449691910417,-4.397814780640703,-3.389558048153548,-0.6329755006932526,0.08243212939121676,-5.6747741798959936e-05
0.22,0.16417443249896072,1.6104936770586087,-1.3623375274875598,0.06569236344930153,0.015353396268196077,0.0002005587403863699,1.3626612614815927,0.3639814087940162,1.6802123399203721,0.5062738099368308,0.11959180670814196,0.0013753387348646618,5.015578773368997,1.5740792268598063,5.46546793175775,1.3271645531138674,0.3256102616804135,-0.014504648848093105,1.0283698072127867,-4.578956195621107,-3.4217746755709353,-0.6305945863377715,0.07994816734285913,-0.00014003354043061337
0.23,0.17829914278378364,1.6142922788252492,-1.344994848158858,0.07089098535034398,0.01658500778418929,0.00021435803461455254,1.4124710284822934,0.3798601766640402,1.7342679328701618,0.5198621901042447,0.12316115159932121,0.0013799294228182624,4.860421910268767,1.5229707855069008,5.206788100038509,1.2329773945347782,0.30941937483224535,-0.015985055768434897,1.0025856494262815,-4.7595249792768515,-3.452426369507313,-0.6273850158761236,0.07709873361540297,-0.00022540114240442535
0.24,0.19290654600652654,1.618244465062049,-1.3271372876873186,0.07621650020724706,0.017850749952945878,0.00022815064777120765,1.46074032227429,0.3952186236799896,1.785756047153942,0.5325514856903074,0.12657421687565873,0.00137926131566551,4.698733923171965,1.4663891443483235,4.940905308171442,1.137422970302076,0.293746081007896,-0.017473900287049204,0.9716380023416612,-4.938188147649684,-3.4811268247311737,-0.6232833306850429,0.07388068152601303,-0.0003123137423530156
0.25,0.20798058789111082,1.622344487820877,-1.3087912394493006,0.08165977229616224,0.01914907858621,0.00024188458278811818,1.507404188458428,0.4100022758827817,1.8346048238018071,0.544327208891518,0.12983286332641233,0.0013733935016910542,4.530731015648968,1.40465581668321,4.66824199487577,1.0407305784967065,0.27864896877379763,-0.018975814850564543,0.9354515734495737,-5.113609874312345,-3.5075014672797797,-0.6182339741469588,0.07029613352118474,-0.00040018690797472196
0.26,0.22350458610034127,1.6265860868193913,-1.2899837732659276,0.0872115421106799,0.020478473001036626,0.00025550852197842055,1.5523998209230456,0.4241598998514367,1.880746618337302,0.5551769814517662,0.13293944148266273,0.0013623939190302349,4.3566879984440074,1.3381358839690536,4.389289645411784,0.943153147168621,0.2641755805575414,-0.020496137188185326,0.8940364369443475,-5.284469787298328,-3.531193278108606,-0.6121905392682991,0.06635266737070984,-0.0004883957194212984
0.27,0.23946125756623496,1.6309625261803666,-1.2707425863117503,0.09286244971214898,0.021837440314156832,0.0002689718962701149,1.59566714658937,0.4376439360975329,1.9241186954177312,0.5650907601469081,0.13589673131202062,0.0013463374291694348,4.176934868900891,1.2672333314379598,4.10460459719037,0.8449631366984462,0.25036212001993263,-0.022040702777778698,0.8474922934414361,-5.449481513396458,-3.5518683525578334,-0.6051168332305743,0.06206339157582736,-0.0005762832061666114
0.28,0.2558327513301425,1.635466635038499,-1.2510959475099703,0.0986030599836722,0.023224519097245027,0.0002822249367952082,1.637149376390751,0.45041088581323135,1.9646638801779868,0.574061027152323,0.13870787830881948,0.0013253040525093359,3.991852444109231,1.1923858442112278,3.81480271076763,0.7464485716944278,0.23723334617993075,-0.02361563681136092,0.7960105488742187,-5.607410991675382,-3.5692210356959935,-0.5969877216757988,0.05744690347105978,-0.0006631698866895212
0.29,0.27260068646035174,1.640090851494153,-1.231072635957655,0.10442388943927956,0.024638282367838236,0.00029521871068975675,1.6767935130209253,0.462421645565403,2.0023311552315484,0.5820829455607359,0.1413763270593209,0.0012993773894548512,3.8018671662533396,1.1140591664877626,3.520553068837058,0.6479091572467581,0.22480262860036504,-0.025227150309094393,0.7398740117409018,-5.7570940767447025,-3.5829784855237623,-0.5877897225981948,0.0525271271137183,-0.0007483641732112039
0.3,0.28974619453189776,1.64482726934981,-1.2107018740193234,0.11031543424010799,0.026077339900323203,0.0003079051431227465,1.7145508071545998,0.47364178556569647,2.037076193833157,0.5891544800828425,0.1439057532484965,0.001268643243298972,3.607445217722624,1.0327411375822806,3.2225708768076733,0.5496524629481616,0.21307214048260548,-0.02688134399036879,0.6794540967941574,-5.897452969693719,-3.592904534670604,-0.5775213284140119,0.04733303192596524,-0.0008311733689462092
0.31,0.3072499660839617,1.649667687032738,-1.1900132558054546,0.11626819906968527,0.02754033985006915,0.00032023702767575905,1.7503771552063936,0.48404176829280743,2.06886182138689,0.5952764829577282,0.14629999497459498,0.001233188455301258,3.4090860976756403,0.9489355256431047,2.9216097464062174,0.45199017902555205,0.202033168474836,-0.028584022582328172,0.6152055226263348,-6.027511050337525,-3.5988027457895324,-0.5661930446945154,0.041898237000811175,-0.0009109149607784597
0.32,0.32509230041597875,1.6546036580873151,-1.1690366718129002,0.12227272652230371,0.029025969691523223,0.00033216802725177265,1.7842334332017047,0.4935971054577153,2.09765839925545,0.6004527452618444,0.14856298414540725,0.0011930999576013595,3.2073158201677616,0.8631557827519716,2.6184535442295918,0.3552344635944298,0.1916665198461338,-0.03034052131725473,0.5476585948987227,-6.146405737069161,-3.600518585583317,-0.5538271447711021,0.03626050981194018,-0.0009869278974202525
0.33,0.3432531580452581,1.6596265426127517,-1.147802230546747,0.12831962666311225,0.030532956477967464,0.00034365266771154026,1.816085762927935,0.5022884525436482,2.1234441266153175,0.6046900140808529,0.15069867864442427,0.0011484640459767602,3.0026798978822122,0.7759188438069818,2.3139079893093526,0.25969440934074495,0.1819430096478687,-0.032155545604697355,0.4774092704175982,-6.253399066656683,-3.5979406744334073,-0.5404571500572237,0.03046117160967842,-0.0010585835423623665
0.34,0.361712215126972,1.6647275590265405,-1.1263401779675435,0.13439960642667767,0.032060066436732676,0.00035464632642886405,1.8459057081713928,0.5101016413788882,2.1462052579203568,0.6079979763565427,0.1527109958765214,0.0010993658717323774,2.7957362735574263,0.6877390865273025,2.0087921754412497,0.16567266329679597,0.1728240126839058,-0.03403302422616972,0.4051072935213433,-6.3478857638355155,-3.591001102860479,-0.5261270562976748,0.024544424853615823,-0.001125296002688045
0.35000000000000003,0.38044891913162243,1.6698978355502865,-1.104680815614757,0.14050349853271907,0.03360610391905759,0.0003651052179297907,1.873670400465046,0.517027652374604,2.1659362352786626,0.6103892106041386,0.15460374823249143,0.0010458891500926654,2.587048355076645,0.5991225614009243,1.7039301851934536,0.07346223510523586,0.16426206752170103,-0.035975975887501566,0.3314427797909294,-6.429398654596192,-3.5796748393968265,-0.5108903351654721,0.01855662050069426,-0.0011865315581255616
0.36,0.39944254508495125,1.6751284608417625,-1.0828544182476967,0.1466222896135652,0.03516990972857032,0.00037498637874209607,1.899362595332884,0.523062529147593,2.1826397367060197,0.6118791080846124,0.156380580951273,0.0009881160812305388,2.3771782998245836,0.5105615890155233,1.40014294882465,-0.016656471665428718,0.15620152236948037,-0.03798638862111137,0.257131687897654,-6.497611364157773,-3.5639782858022397,-0.4948087483516332,0.012545484720753376,-0.0012418169484204279
0.37,0.4186722516997037,1.6804105332339692,-1.0608911518202473,0.15274714726745559,0.03675035885666587,0.00038424765353544575,1.9229706614752424,0.5282072392206646,2.196326642744928,0.61248576538904,0.15804491280955432,0.0009261274793349669,2.1666806801832563,0.42252980855608163,1.0982404848013787,-0.10441837352318828,0.1485792153397263,-0.04006511133639423,0.18290066473230976,-6.5523383265302675,-3.5439670631714115,-0.47795101710699733,0.006559325584985426,-0.0012907463193595418
0.38,0.4381171367663232,1.685735208087258,-1.0388209925672367,0.1588694457747492,0.038346357656983514,0.00039284768458278005,1.944488506661953,0.5324674853288821,2.207015925301063,0.6122298507293633,0.1595998800317644,0.0008600031047334273,1.9560966456576119,0.3354777459759548,0.7990146397495335,-0.18957613915148164,0.14132518434426977,-0.042211756751592305,0.10947176950880627,-6.593532213522542,-3.519733135119284,-0.46039139385246497,0.0006462404425874382,-0.0013329866763717101
0.39,0.4577562912189207,1.691093742812678,-1.0166736479299832,0.16498079023994108,0.03995684049488525,0.00040074590652187323,1.9639154452597518,0.5358534725419937,2.2147344637253443,0.611134446519188,0.16104828379017355,0.0007898221939093204,1.7459486788566947,0.249828954105626,0.5032324252828676,-0.2719023177799307,0.1343634045237021,-0.044424615035854986,0.03754757858780233,-6.621278963717475,-3.491401390988385,-0.4422081838679378,-0.005146655913565647,-0.0013682817471060236
0.4,0.4775688513518989,1.6964775391820046,-0.994478479988549,0.1710730389505502,0.04158076591143773,0.00040790254834273745,1.9812560132978208,0.5383796369326668,2.219516794143419,0.6092248710609114,0.1623925416552478,0.0007156641820864208,1.5367360231481642,0.16597676038762452,0.2116300280011627,-0.35119114797342726,0.12761255363963375,-0.04670057763114612,-0.03220285479360668,-6.635790653629553,-3.4591258224018318,-0.42348226423949864,-0.010773963531035137,-0.0013964542082259565
0.41000000000000003,0.49753404872948825,1.7018781826007388,-0.9722644320005764,0.17713832377381789,0.04321711234504284,0.00041427864447127037,1.9965197377589334,0.5400643418734126,2.22140479879725,0.6065284823267675,0.16363464336051098,0.0006376096128532897,1.328930839941491,0.08428164159836891,-0.07509245222591321,-0.42726003715590327,0.1209868081543819,-0.049035071080738984,-0.09915676051419842,-6.637396502057218,-3.423085430402685,-0.40429564436214427,-0.01619267324207651,-0.0014174062843897992
0.42,0.5176312574031741,1.7072874780830887,-0.9500599585734274,0.18316906844311745,0.04486487345767569,0.00041983605675873783,2.0097208673685825,0.5409295482349934,2.2204473427149085,0.6030744669299561,0.16477611126328515,0.000555741228746744,1.1229751338438563,0.005069229350829738,-0.35627550112883877,-0.49995070822900145,0.11439667471933124,-0.051422000982980665,-0.1627487723887357,-6.62653233342976,-3.383479998179931,-0.3847301076489519,-0.021362771961994893,-0.0014311187767894738
0.43,0.5378400381285937,1.7126974827310224,-0.9278929599197219,0.18915800461741314,0.04652305311679216,0.00042453750911775095,2.0208780725419606,0.5410004647933727,2.216699865370549,0.5988936174295691,0.16581796591164744,0.0004701452359013109,0.9192784648812006,-0.07137106420704635,-0.6313039108728945,-0.5691300153380718,0.10774986342653348,-0.053853706667472995,-0.22248013056524246,-6.603728846416264,-3.3405258566250597,-0.36486596805987476,-0.026247765893508797,-0.001437648622778845
0.44,0.558140179352045,1.7181005345814513,-0.9057907205682372,0.19509818562844655,0.048190660088462796,0.0004283466364626539,2.0300141223451265,0.5403051850428912,2.210223935148472,0.5940181011033406,0.1667606971670636,0.00038091273449029656,0.7182164489878927,-0.1447868239361703,-0.8996097254145109,-0.6346904359818835,0.1009522103496665,-0.056320927627610984,-0.27792577402995505,-6.569599040645043,-3.294451757595978,-0.3447809680604239,-0.030815113274988367,-0.001437125125548308
0.45,0.5785117348154702,1.7234892777452082,-0.8837798528242443,0.2009829978610562,0.04986670250225282,0.0004312280495102413,2.037155546342525,0.5388743163756897,2.201086774399288,0.588481223260963,0.16760424137900248,0.00028814130475873756,0.5201300313340725,-0.2149628470148703,-1.1606744287184236,-0.6965502511340831,0.09390865755089184,-0.05881278325555356,-0.3287392225009176,-6.524825148147865,-3.245494953868132,-0.32454933709735195,-0.03503656147833921,-0.0014297450224685108
0.46,0.5989350577059867,1.7288566838176003,-0.8618862451973239,0.20680616974170246,0.051550182153846824,0.0004331474168683309,2.042332289051645,0.5367406072392121,2.189360762692035,0.5823171880646261,0.16834796515940004,0.00019193673580895852,0.32532550196577253,-0.2817208396949271,-1.4140304077728711,-0.7546534287475644,0.08652429879556456,-0.061316767864109556,-0.3746552357704265,-6.4701453986720585,-3.1938975664946025,-0.3042410220673326,-0.038888386374483164,-0.0014157665820675942
0.47000000000000003,0.6193908313502086,1.7341960695920424,-0.8401350159418691,0.2125617783385048,0.05324008871742211,0.000434071565678286,2.0455773644221904,0.5339385774442196,2.1751229255454843,0.5755608596802335,0.1689906563575289,9.241488099550844e-05,0.13407520977730367,-0.3449186463563306,-1.6592617336119566,-0.8089692289707111,0.07870549857476572,-0.06381876349667559,-0.41549032096769395,-6.406340921230406,-3.13990330084547,-0.2839210939471954,-0.042351534818309375,-0.001395502932529397
0.48,0.6398600965233884,1.7395011111548937,-0.8185504717869884,0.21824425360260408,0.05493539394627234,0.0004339686018744428,2.0469265173179796,0.5305041562851178,2.1584544154880767,0.5682475264099296,0.16953052288502218,-1.0296380384319404e-05,-0.05338108097371521,-0.40444906689088006,-1.8960043124837784,-0.8594915515479267,0.07036109067749882,-0.06630307337844288,-0.4511412306454041,-6.334223050323575,-3.083754553044904,-0.26364932808042346,-0.04541167375832217,-0.0013693148294037854
0.49,0.6603242755076002,1.7447658544806184,-0.7971560718692637,0.22384838030522577,0.05663504594708828,0.0004328080508716315,2.0464178984211836,0.5264743325724728,2.1394399917724667,0.5604126702621699,0.16996520008159388,-0.0001160551002811309,-0.23683425762493424,-0.460238321701637,-2.123945465913476,-0.9062380473605369,0.061403660339175326,-0.06875247919719579,-0.4815816543819603,-6.254621266373725,-3.0256899298309006,-0.24347994982877652,-0.04805915177044495,-0.0013376030675633398
0.5,0.6807651930907621,1.7499847226814549,-0.7759743968244565,0.22936929774728848,0.05833796362047141,0.0004305610191839814,2.044091758316196,0.5218868200836464,2.1181675044807227,0.552091744206271,0.17029176733831303,-0.0002247031687650158,-0.4161034241043249,-0.5122442250593664,-2.3428230027469845,-0.9492490168773182,0.05175091092981754,-0.07114832561319662,-0.5068573520553075,-6.168371958182374,-2.9659421877950263,-0.22346153256864576,-0.05028888069493124,-0.001300800733247563
0.51,0.7011650947483731,1.7551525200947506,-0.7550271229432293,0.23480249733869696,0.060043031367480355,0.0004272003771074088,2.039990165761095,0.516779741329584,2.0947273881227195,0.5433199591408479,0.17050677470089462,-0.00033606420765725485,-0.5910330461702483,-0.5604541273650522,-2.5524238487897555,-0.988586118568616,0.04132711214375773,-0.07347063544776078,-0.5270800075058617,-6.07630815265148,-2.9047365831399534,-0.20363703143896075,-0.05210014649782961,-0.001259365477394209
0.52,0.7215066622916467,1.7602644334140547,-0.7343350012515157,0.24014381816254682,0.061749094169011594,0.0004227009621597367,2.034156754327369,0.5111913319304144,2.0692121691713545,0.5341320823849872,0.17060628015312354,-0.00044994149476721074,-0.7614897645880264,-0.6048826852153061,-2.752582299894643,-1.0243309102333713,0.030064621730239605,-0.07569825886225756,-0.5424200970505142,-5.979250315268844,-2.842289610800287,-0.1840439338218945,-0.05349635946470598,-0.0012137719726204562
0.53,0.7417730272986955,1.765316030087098,-0.7139178413383477,0.245389440655363,0.06345495315124415,0.0004170398024634935,2.026636500704884,0.5051596673043253,2.0417159913168033,0.5245622492816175,0.17058589822325515,-0.0005661159696243178,-0.9273589690477788,-0.6455695152594638,-2.943177963440491,-1.0565832457459594,0.017905466997412134,-0.07780905951433195,-0.5530990694759448,-5.877998285428916,-2.7788081023017477,-0.16471450623593026,-0.05448475439647743,-0.0011645046943790235
0.54,0.7619477826690251,1.770303254215255,-0.6937944997226491,0.25053587854823745,0.06515936175581051,0.00041019635867680217,2.017475537032956,0.49872241281570195,2.0123341615698633,0.5146437892874437,0.170440860456636,-0.0006843443786691361,-1.0885412290649794,-0.6825767838863441,-3.1241334505542397,-1.0854595491431844,0.004802965704782114,-0.07978014004786044,-0.5593811241895804,-5.773324374599775,-2.7144886449814187,-0.14567611701399896,-0.05507605163352106,-0.0011120511432101444
0.55,0.7820149926554928,1.775222420195357,-0.6739828725254665,0.25557996922538506,0.0668610226373027,0.0004021527824315019,2.0067209986467756,0.49191659801020104,1.981162719718251,0.5044090677147617,0.17016608814921963,-0.0008043576245300309,-1.2449486804853689,-0.7159867800011661,-3.295411877808899,-1.1110909873098862,-0.00927664130618222,-0.08158810845392755,-0.5615648542676398,-5.665967623462888,-2.64951728106021,-0.12695161469780586,-0.05528408953637981,-0.0010568956007417983
0.56,0.8019592017318168,1.7800702043463021,-0.6544998921949672,0.2605188626662673,0.06855858541263599,0.00039289418853193217,1.9944209076323949,0.48477841509451525,1.9482980330499335,0.49388934408822244,0.1697562775333277,-0.0009258593899569712,-1.3965014673187655,-0.7458995127597178,-3.457014232620145,-1.133621561894822,-0.024352581072505597,-0.08320938562546977,-0.559974993469292,-5.556629186917896,-2.584069443272659,-0.1085597433354033,-0.055125438552099865,-0.000999513488134512
0.5700000000000001,0.82176544264758,1.784843634760334,-0.6353615280178359,0.26535000914510676,0.07025064538608435,0.00038240893741650893,1.980624091576318,0.47734304140318584,1.9138364177131306,0.4831146478839467,0.1692059973448353,-0.0010485251115423208,-1.5431243383106032,-0.772430370323332,-3.608976651412236,-1.1532061405859722,-0.04042800615552,-0.08462055301906247,-0.5549544732195334,-5.4459687934698895,-2.5183100839818904,-0.09051557764963414,-0.05461900625392009,-0.0009403663728498502
0.58,0.8414192440065046,1.7895400796127137,-0.6165827901419364,0.2700711458673887,0.07193574336986659,0.0003706889236052983,1.9653801358924603,0.4696444852379609,1.8778737875899478,0.47211367222819195,0.16850979837822505,-0.0011720013811210642,-1.6847434957236318,-0.7957078696757798,-3.7513676540640484,-1.1700084475245056,-0.05748856951260617,-0.08579873759323325,-0.5468569593493818,-5.334602207977996,-2.4523939565587023,-0.0728309631803638,-0.05378564181969524,-0.0008798976485881855
0.59,0.8609066376777749,1.7941572341544034,-0.5981777368306986,0.2746802827268545,0.073612366712407,0.0003577298650750278,1.9487393671270254,0.4617154541689704,1.8405053311237765,0.4609136859465854,0.16766233425404145,-0.0012959058530270465,-1.8212837899947,-0.8158715214812484,-3.8842853723833657,-1.1841990325094045,-0.07550117375357512,-0.08672202923678475,-0.5360400010673756,-5.223099613832093,-2.3864660108907403,-0.05551494883602522,-0.05264774737058113,-0.0008185288944665908
0.6,0.8802141663147801,1.79869310660092,-0.5801594846690826,0.2791756873685616,0.07527895163428203,0.0003435315877486321,1.930752863700527,0.45358724465165134,1.8018252161616048,0.4495404641707053,0.16665849218750176,-0.0014198277326395736,-1.952666347974182,-0.8330698280237253,-4.007854804594284,-1.195953238690743,-0.09441295715364184,-0.08736992377338923,-0.522858887984614,-5.111984821987909,-2.320661868830246,-0.0385742016816545,-0.051228902481552124,-0.0007566569032956254
0.61,0.8993288912114654,1.803146003117295,-0.5625402214435707,0.28355586974380953,0.0769338869549548,0.00032809829859516853,1.9114724896685256,0.4452896516375103,1.761926322551187,0.4380182375247962,0.16549353206727743,-0.001543328915346356,-2.0788067140675244,-0.8474584265975534,-4.122225122219654,-1.2054491886791485,-0.11415058197212247,-0.08772378241375287,-0.5076612764592418,-5.001735209480867,-2.255108349838879,-0.022013396126632653,-0.04955350704875169,-0.0006946513553149769
0.62,0.9182384006744083,1.8075145120846707,-0.5453312214238917,0.28781956634110895,0.0785755192714022,0.00031143884024794125,1.890950946294291,0.4368508967375836,1.7209000019679084,0.4263696597299426,0.1641632316447397,-0.0016659458347227263,-2.1996135725400787,-0.8591983854450187,-4.227567050451176,-1.2128658093280702,-0.13461989114843753,-0.08776729636010097,-0.4907826151483594,-4.892782288549424,-2.1899240217428075,-0.005835571866226297,-0.04764644659772806,-0.0006328531029748123
0.63,0.9369308190299627,1.8117974878189773,-0.5285428627815523,0.2919657242738598,0.0802021596225659,0.0002935669196067603,1.8692418355554394,0.42829757343065983,1.67883586423394,0.4146157932750867,0.16266403511637004,-0.0017871920641180942,-2.314988105362486,-0.8684546545634705,-4.324070338238203,-1.2183809158078454,-0.15570599666750073,-0.08748694328442064,-0.472542372195536,-4.785512808797413,-2.1252197561207704,0.009957543087457832,-0.04553278307553151,-0.0005715730242078095
0.64,0.9553948163217827,1.8159940338968648,-0.5121846468892676,0.29599348539999554,0.0818120916413762,0.00027450130263790586,1.8463997291820038,0.4196546077887372,1.635821589228472,0.4027761126135726,0.16099320188103133,-0.0019065616968854426,-2.4248240232284934,-0.875394669519853,-4.411941329991888,-1.2221693758741878,-0.17727385634630277,-0.08687242073990836,-0.45324104336293747,-4.680270298384533,-2.0610992722187804,0.025365246218159637,-0.0432374732144652,-0.0005110913959324914
0.65,0.973619618686529,1.8201034862290015,-0.49626521925559675,0.2999021706415071,0.08340358115936514,0.0002542659675641989,1.8224802364746329,0.41094523321368626,1.5919427633670802,0.3908685241511565,0.15914895179889335,-0.002023533507370695,-2.5290082879112528,-0.880187102877083,-4.49140064705181,-1.2244013753344394,-0.19916938511111848,-0.08591704042745418,-0.43315790178322783,-4.577356955550094,-1.9976596572783447,0.04038761163373372,-0.04078511570396115,-0.0004516577360132204
0.66,0.9915950193265901,1.824125396006351,-0.48079239186015055,0.3036912646624911,0.08497488718839392,0.00023289020888371501,1.7975400640061043,0.4021909777349469,1.547282739544617,0.37890940209839935,0.15713060290287922,-0.0021375758680483876,-2.6274225222779948,-0.8830007549924432,-4.562680983940942,-1.2252408055083173,-0.22122113191047976,-0.08461806676314132,-0.4125494357724081,-4.477035808382786,-1.9349918546929428,0.05502527779371341,-0.038199727670041025,-0.00039349106027994265
0.67,1.009311389930494,1.8280595126313635,-0.46577316666632007,0.30736040105319096,0.08652427416090025,0.00021040868519662704,1.771637060390383,0.3934116625012438,1.501922519383047,0.36691363906998653,0.15493869725063295,-0.0022481523687087985,-2.7199450806300143,-0.8840035738131228,-4.626025021943367,-1.2248437928619857,-0.24324253442273225,-0.08297698350022542,-0.3916484110460331,-4.3795330682323375,-1.8731811144258317,0.06927927019371305,-0.03550455034283525,-0.00033678050116367963
0.68,1.0267596923267723,1.8319057667333887,-0.4512137601003502,0.3109093481544882,0.08805002526578229,0.00018686140467118998,1.7448302396278448,0.3846254102025236,1.4559406565969883,0.35489471012972446,0.1525751104882034,-0.0023547280525437067,-2.8064537273799277,-0.8833617918566108,-4.681683460664073,-1.2233573898583465,-0.2650347411770593,-0.08099967339292347,-0.3706634873243131,-4.285040610154983,-1.8123074026244974,0.08315085667925995,-0.032721883289599206,-0.0002816862357166289
0.6900000000000001,1.043931490097881,1.8356642533561343,-0.4371196282975585,0.3143379956425646,0.0895504566733335,0.00016229364314230697,1.7171797771108888,0.37584866227455654,1.4094131802791663,0.34286474880763984,0.15004314075512093,-0.002456776152888301,-2.886828847446407,-0.8812391677959011,-4.729913166927235,-1.220918444333682,-0.286389965490093,-0.07869649805211343,-0.3497793162208889,-4.193718521986293,-1.7524457693745537,0.09664143259072647,-0.02987294619684649,-0.00022834067295201743
0.7000000000000001,1.0608189598298587,1.8393352153947464,-0.42349549292846,0.31764634197716834,0.0910239324015006,0.000136755791292632,1.6887469731977611,0.3670962038612065,1.3624135369098498,0.3308346334603747,0.14734757281671032,-0.0025537851849674977,-2.960957088335151,-0.8777963199192397,-4.770975439569628,-1.2176526623587591,-0.30709530896251636,-0.07608226824515951,-0.3291570469688057,-4.105697671788246,-1.6936666750909826,0.10975243265350881,-0.026977766890317886,-0.000176849853282255
0.71,1.0774149016330392,1.842919027351068,-0.41034536742942346,0.32083448279930527,0.09246887953925999,0.00011030312908104277,1.6595941803180503,0.3583811956321649,1.3150125499036538,0.3188140822136927,0.1444947137759394,-0.002645266221158922,-3.0287353129912136,-0.8731901391300159,-4.805134388318174,-1.2136738765280608,-0.3269369656886205,-0.07317609881586418,-0.3089351684216363,-4.021082251318857,-1.6360362772021566,0.12248526639202009,-0.024055094072835174,-0.00012729501610978615
0.72,1.093712748541354,1.8464161794677847,-0.39767258347422646,0.32390260034553003,0.09388380351320302,8.299552750230299e-05,1.6297846908314717,0.34971521167166564,1.267278395519698,0.30681175462247834,0.1414923973943034,-0.0027307601578739783,-3.090074725474612,-0.8675732700080324,-4.83265542490028,-1.2090835280120675,-0.34570469355629463,-0.07000114699657023,-0.28923061937389344,-3.9399522606643327,-1.5796166796034612,0.13484127383207173,-0.02112233312366723,-7.973429513300742e-05
0.73,1.1097065743841465,1.8498272622954046,-0.38547981753448685,0.32685095392667457,0.09526730306245806,5.489707981326165e-05,1.5993825842792453,0.34110828276199184,1.2192765939739587,0.29483535811445405,0.1383499549255035,-0.0028098447689041336,-3.144905019559641,-0.8610936496729992,-4.853803864735491,-1.2039703665636807,-0.3631964178687399,-0.06658423788495615,-0.27014010410792927,-3.8623659061385727,-1.5244661479044561,0.14682169833598668,-0.018195503224568258,-3.4204504511075115e-05
0.74,1.1253910997260415,1.8531529517402159,-0.37376911738845064,0.3296798714992111,0.0966180845765435,2.6075666459715144e-05,1.5684525341894904,0.3325689444811186,1.171070014603619,0.28289175725365023,0.13507815140854432,-0.0028821413353546507,-3.1931783945215875,-0.8538940956685863,-4.86884363789009,-1.1984103681178464,-0.3792228167543179,-0.06295538598160988,-0.25174155578203145,-3.7883618899112887,-1.4706392938245862,0.15842767356395987,-0.015289214043460671,9.27701742849162e-06
0.75,1.1407616954876396,1.8563939946363597,-0.3625419284490376,0.3323897423379291,0.09793497545189976,-3.3975400105270563e-06,1.5370595761598163,0.3241042896143735,1.122718893941306,0.27098708387180653,0.13168908753562583,-0.00294732064702422,-3.2348732833690437,-0.846111935715439,-4.878036108355919,-1.1924668648215881,-0.3936117289625676,-0.059147226601392044,-0.23409569647261413,-3.717961575523064,-1.4181872322589681,0.16966022175318526,-0.012416660204436958,5.071053683167157e-05
0.76,1.1558143838923474,1.8595511948808037,-0.35179911979341566,0.33498101079965054,0.09921693613639754,-3.34486218568698e-05,1.5052688404707655,0.31572002444439984,1.0742808655621947,0.25912684617214,0.12819606844977754,-0.0030051081846342747,-3.2699976469262815,-0.8378786738633539,-4.881639001053198,-1.1861908774751573,-0.4062122237949408,-0.05519437532667337,-0.21724764907992555,-3.651171018459021,-1.3671577145806297,0.1805202607365593,-0.009589631791828205,9.011205193441911e-05
0.77,1.1705458364314503,1.862625400166122,-0.3415410097877174,0.3374541711497527,0.1004630705571317,-6.400150502013907e-05,1.4731452539102867,0.30742052853182505,1.0258110005698289,0.24731603501021313,0.12461344207341687,-0.0030552883163269275,-3.2985917023278772,-0.829319689209431,-4.879905436194914,-1.1796216356464093,-0.4168981806607519,-0.05113273717018618,-0.2012285626683949,-3.5879828552792836,-1.3175952417024406,0.19100861737230224,-0.006818539168191568,0.00012751144318141818
0.78,1.1849533685988745,1.8656174893424387,-0.3317673912118327,0.3398097634067427,0.10167263466466356,-9.497857876361203e-05,1.440753216742411,0.2992089176316746,0.9773618575884699,0.23555922569900217,0.12095641075318611,-0.003097707374347296,-3.320729976036189,-0.8205539648610392,-4.873083070728999,-1.1727872663766288,-0.4255712420511655,-0.046998789500629856,-0.18605721896150207,-3.5283780484603415,-1.2695411603152782,0.2011260453149647,-0.004112450425203508,0.00016295066643970196
0.79,1.1990349312165862,1.8685283604365315,-0.3224775558005056,0.34204837014539896,0.10284504287526591,-0.00012630133393550332,1.408156261771178,0.29108710940927246,0.9289835411327133,0.22386067386562683,0.11724082106023602,-0.003132275517189131,-3.3365225983579796,-0.8116938461407368,-4.861413346470444,-1.165705628619536,-0.43216302787323446,-0.0428288638630272,-0.17174159351731982,-3.472327487117419,-1.2230337455655689,0.21087324531978638,-0.0014791398288706375,0.00019648200710917002
0.8,1.212789098248431,1.8713589193527944,-0.31367031812819574,0.34417061418639616,0.10397987224972892,-0.00015789100720105476,1.3754167031844846,0.28305589162629524,0.8807237672309846,0.21222440409972015,0.11348293744629996,-0.003158967326555145,-3.3461157871628275,-0.8028448281089335,-4.845130844236429,-1.1583852675224584,-0.43663652973895584,-0.03865845155509473,-0.15828035048660183,-3.4197934461971884,-1.178108273245201,0.22025088653121067,0.001074854335503117,0.00022816641026255204
0.81,1.2262150510812186,1.8741100692774477,-0.3053440387762919,0.3461771570901037,0.10507686431046172,-0.00018966921854913975,1.3425952832787658,0.2751149924653348,0.8326279351903807,0.20065429037075325,0.10969920607327995,-0.0031778211348085,-3.349691501355408,-0.7941053732846634,-4.8244627428060385,-1.1508264605425946,-0.4389866391167674,-0.03452155619189501,-0.1456642547464663,-3.3707309086047696,-1.1347970843455268,0.22925962745881345,0.003544164067537994,0.0002580718993791015
0.8200000000000001,1.2393125593337135,1.8767827008039732,-0.2974966467322119,0.3480686983645545,0.10613592446517851,-0.00022155858979420784,1.309750825249486,0.2672631526525554,0.7847392044080027,0.1891541274450815,0.10590601547167951,-0.0031889371245068074,-3.3474662777583255,-0.7855667609677517,-4.799628380869341,-1.1430223262613062,-0.4392398009537075,-0.030450113673791357,-0.13387748958236464,-3.325088756117611,-1.0931296445776366,0.23790013558720224,0.005924519605709702,0.0002862720937549853
0.8300000000000001,1.2520819583336005,1.879377682794229,-0.2901256609806126,0.3498459752924931,0.1071571190724142,-0.0002534833326398781,1.2769398999886876,0.25949819902557864,0.7370985751599264,0.1777276927938605,0.10211946072356749,-0.0031924742845670234,-3.339689296555236,-0.7773129698096393,-4.770838919342309,-1.1349599666760408,-0.4374528220778684,-0.02647349616525929,-0.12289887195270542,-3.2828108359041743,-1.0531326011850022,0.24617310479833726,0.008212672478339036,0.0003128448322753318
0.84,1.264524123476422,1.8818958539860313,-0.2832282112572697,0.3515097632799014,0.10814067024852092,-0.0002853697960928419,1.2442165142821393,0.2518171191802335,0.6897449723342872,0.1663787987408276,0.09835511761067274,-0.0031886463452963816,-3.3266397486251753,-0.7694205952667124,-4.738297100544875,-1.126621614690018,-0.43371089898541726,-0.02261811219349763,-0.1127029607230285,-3.243836910070988,-1.0148298390739228,0.25407927000321573,0.010406315038877382,0.00033787090892483204
0.85,1.2766404417462625,1.8843380153542078,-0.2768010579460683,0.35306087662835384,0.10908694857490833,-0.0003171469645436805,1.2116318269840605,0.244216136817645,0.6427153311201443,0.1551113348452437,0.09462783263874125,-0.0031777168450838654,-3.3086236015493546,-0.76195880333307,-4.702197099822452,-1.1179857604117807,-0.4281249603764614,-0.018907110111840764,-0.10326105611945914,-3.20810349597069,-0.9782425379656416,0.2616194185829963,0.012503997803689385,0.00036143292321218174
0.86,1.2884327807334521,1.8867049232282502,-0.27084061110888075,0.3545001696357726,0.10999646391574108,-0.00034874689958057245,1.1792338987189581,0.23669078740425867,0.5960446837187565,0.14392930074187274,0.09095153408327558,-0.003159993503689192,-3.285969878757332,-0.754989321529198,-4.662724464281772,-1.1090282325943583,-0.42082844431056454,-0.01536018727295585,-0.09454209105109317,-3.1755446050757747,-0.9433892319363295,0.2687943984256095,0.014505045831120802,0.00038361424661232074
0.87,1.2999034555282376,1.8889972831657837,-0.2653429486467998,0.3558285379343719,0.11086985459824461,-0.0003801051204818928,1.1470674794785458,0.2292359937533538,0.5497662462080917,0.13283682985993378,0.08733906825035234,-0.0031358220901320363,-3.259026577610601,-0.7485664675698732,-4.620056132461799,-1.099723214913249,-0.4119736469119748,-0.011993502625959218,-0.08651341691942278,-3.1460923881133582,-0.9102858723646592,0.27560512251093916,0.01640947529018468,0.000404498104218761
0.88,1.3110551939003556,1.8912157445771678,-0.26030383359916254,0.3570469199804856,0.11170787523893858,-0.0004111609202533113,1.1151738372118103,0.22184614113840107,0.5039115047637249,0.12183820461136596,0.08380206406939614,-0.003105579977141849,-3.2281563570571468,-0.7427372154930062,-4.5743605280062205,-1.090044180623611,-0.40172778862014136,-0.008819686362681267,-0.07914148810423105,-3.1196776939142783,-0.8789458949597776,0.28205257014424606,0.018217911265924296,0.0004241667690748437
0.89,1.3218911001924802,1.8933608960927364,-0.2557187305939791,0.35815629861820636,0.11251138351890101,-0.00044185761594882367,1.0835906292124604,0.21451515155684947,0.45851030051834313,0.11093786377207515,0.0803508279962433,-0.003069669569551233,-3.1937321241235654,-0.737541298356282,-4.525797719788,-1.079964733216201,-0.39026894508619137,-0.005847936869889159,-0.07239245052546522,-3.0962305490981787,-0.8493802912046751,0.28813778506246224,0.01993150773754259,0.0004427008651455419
0.9,1.3324146183609806,1.895433261660513,-0.25158282146971794,0.35915770264697394,0.11328132621957276,-0.00047214273376814015,1.0523518168500494,0.20723655677765204,0.4135909124261149,0.1001404028767575,0.07699427006717575,-0.0030285117819316507,-3.156132641595056,-0.7330113459354687,-4.474519640474875,-1.0694593448292267,-0.37778198356716963,-0.003084192737248248,-0.0662326405660577,-3.075680565329577,-0.8215976842309286,0.2938618707405548,0.02155187054664112,0.00046017877362116143
0.91,1.3426294945911905,1.897433297358781,-0.24789102009386446,0.36005220833206064,0.11401872482822195,-0.0005019681309940643,1.021487623020991,0.20000356982680617,0.3691801375853483,0.08945056850867253,0.07373986086491861,-0.0029825397225924197,-3.115738267702545,-0.7291730552351677,-4.420670355242408,-1.0585039881520384,-0.36445463312984927,-0.0005313659559045281,-0.060629001238215185,-3.057957280467238,-0.7956044088497569,0.299225983305182,0.023080984048930317,0.00047667613622520764
0.92,1.3525397398977421,1.8993613889046983,-0.24463798640825282,0.360840940805985,0.11472466101006105,-0.0005312900581779705,0.9910245306551542,0.19280915459172016,0.3253033685611645,0.07887324739243588,0.07059361818390986,-0.0029321927183906184,-3.072926923601285,-0.7260453910711155,-4.36438637223977,-1.0470766612202471,-0.3504737995194067,0.0018103782973366567,-0.055549422821626636,-3.042990439511178,-0.7714045952091884,0.3042313225207036,0.024521142016500932,0.0004922654484353169
0.93,1.3621495930950704,1.9012178498372632,-0.24181813973487815,0.36152507531792355,0.11540026222357262,-0.0005600691660710051,0.9609853197328427,0.18564609325648757,0.28198466733746647,0.0684134511938543,0.0675601213511562,-0.002877910789303466,-3.028070367074057,-0.7236408135326796,-4.30579698648744,-1.0351578077333663,-0.3360222147244536,0.003943309824165464,-0.05096301533185391,-3.0307102208444734,-0.7490002553342209,0.3088791213492884,0.02587488323229341,0.0005070157350141172
0.9400000000000001,1.3714634844907094,1.903002920350414,-0.23942567137875292,0.36210583829692616,0.11604668772852127,-0.0005882704626213217,0.9313891395638982,0.17850705131507663,0.23924683561252197,0.05807629790025865,0.0646425504948643,-0.0028201296550316585,-2.981530832393237,-0.7219655287933311,-4.245024649133118,-1.022730638196963,-0.3212754886675877,0.005871803321871205,-0.04684032012513627,-3.0210474128803413,-0.7283913716401298,0.3131706346038643,0.027144932096812572,0.0005209922999727644
0.9500000000000001,1.3804860006163315,1.9047167667498832,-0.23745455656641895,0.36258450820295485,0.116665115204195,-0.0006158632259158689,0.9022516125622112,0.17138463994691577,0.19711148123339695,0.04786699060286713,0.061842747567372666,-0.0027592763294547237,-2.933658077700356,-0.7210197595175515,-4.182185354382914,-1.0097813592993514,-0.3063996075501527,0.007602002580387568,-0.0431534677446218,-3.013933545865237,-0.709575986390641,0.3171071272119901,0.028334144452190672,0.0005342565430332374
0.96,1.3892218502704496,1.906359481505665,-0.23589856576001905,0.3629624161472997,0.11725672816041256,-0.0006428208792537834,0.8735849654118185,0.1642714755781914,0.15559908063999017,0.03779079443448486,0.059161295621756524,-0.0026957653337914443,-2.8847868635265934,-0.720798031009889,-4.117389036948393,-0.9962993204165258,-0.2915489014763035,0.009141489843818684,-0.03987628879334537,-3.009300983258238,-0.6925502910021009,0.32068986259268506,0.02944545872276578,0.0005468658347895764
0.97,1.3976758321039833,1.9079310838705776,-0.23475127538743462,0.3632409462706671,0.11782270428744243,-0.0006691208346213079,0.8453981833533591,0.15716023649127123,0.11472903725844444,0.027853012336744136,0.05659761270298711,-0.002629995536752451,-2.8352348699059244,-0.721289469262836,-4.0507399734695,-0.982277087067505,-0.27686448410614517,0.010498969352706333,-0.03698438420944887,-3.007082976806318,-0.6773087140699859,0.3239200916193521,0.030481852376252012,0.0005588734430630769
0.98,1.4058528039370235,1.9094315210344075,-0.23400607802897924,0.36342153587312526,0.11836420485471397,-0.0006947443107259351,0.8176971833040187,0.1500437163829785,0.0745197358455387,0.018058960245812106,0.054150056727154255,-0.0025623476104627185,-2.785301045443406,-0.7224781071725735,-3.982337182072679,-0.9677104515177408,-0.2624731499848516,0.011683972127049858,-0.03445516084497026,-3.007213689162742,-0.6638440070111985,0.32679904260277215,0.03144630362659848,0.0005703285033698408
0.99,1.4137576539534036,1.9108606697824981,-0.23365619210058144,0.36350567529511163,0.11888236523334487,-0.0007196761314744793,0.7904850016380122,0.14291487480906265,0.03498859283977871,0.008413942198639592,0.051816037863090525,-0.002493182074854432,-2.7352643700077177,-0.7243431953933911,-3.9122748149661684,-0.9525983906593662,-0.24848670130625594,0.01270658713573114,-0.03226783773391391,-3.0096281876495383,-0.6521473262695385,0.3293279126812991,0.03234175822944238,0.0005812760269390332
