tonegas/nnodely-applications/joint_friction_estimation/dataset/train/mpc_mujoco_episode_38 copy.csv
time,q1,q2,q3,q4,q5,q6,dq1,dq2,dq3,dq4,dq5,dq6,ddq1,ddq2,ddq3,ddq4,ddq5,ddq6,tau1,tau2,tau3,tau4,tau5,tau6
0.0,0.0,1.57,-1.57,0.0,0.0,0.0,0.0,0.0,0.0,0.0,0.0,0.0,4.936114768267819,1.7682152192088227,9.498483025060514,3.780590000622322,0.7151614777812974,-4.8158772614215195e-06,0.688283227691598,-1.8629583573472943,-2.7690627340081626,-0.5835905997760203,0.06220662535146055,0.0005232234601254052
0.01,0.000491024147165418,1.5701795917975112,-1.5690540006642493,0.0003531146974895265,6.046314987046664e-05,8.132420724911938e-07,0.0491024147165418,0.01795917975111055,0.09459993357507239,0.03531146974895265,0.006046314987046664,8.132420724911938e-05,4.909275585557925,1.7795247550582902,9.431657656481224,3.519766682026333,0.6025183590486733,0.008107808864663113,0.6892936383529448,-1.8845822513839368,-2.7779250539089273,-0.5853768271300941,0.062247271000796224,0.0005204313151255852
0.02,0.0014700302114495543,1.5705400212170564,-1.567170118880949,0.0010386295126616324,0.00017445813269937214,2.480952848241214e-06,0.09790060642841363,0.03604294195451724,0.1883881783300207,0.06855148151721058,0.011399498282890549,0.000166771077575002,4.877767629581989,1.7899877207537263,9.34648580010498,3.310324043285938,0.5325698679806301,0.008432912716604513,0.691867688597924,-1.9185525395889576,-2.789342400815575,-0.5873509834536026,0.062370266633421316,0.000515085786193669
0.03,0.002933664995785658,1.5710824012866778,-1.564357914372832,0.0020397036641668772,0.0003376156991512051,4.951186554560462e-06,0.14636347843361033,0.05423800696214767,0.28122045081172176,0.10010741515052449,0.0163157566451833,0.00024702337063192475,4.842938559373735,1.7989125174461784,9.246666725114057,3.1393469673950776,0.48799673252117515,0.007750240192557989,0.695906369077649,-1.9647134901830627,-2.8033151656192894,-0.5895132990420294,0.06256744397889519,0.0005071497173063215
0.04,0.004878337957318484,1.5718076540751438,-1.5606281136399864,0.0033423895518898223,0.0005470865448003686,8.172926061447973e-06,0.19446729615328262,0.07252527884661,0.37298007328455424,0.13026858877229452,0.020947084564916348,0.00032217395068875117,4.8055110121160105,1.8057308569558348,9.134948210533269,2.9970027304495943,0.45838176671083986,0.006998298027411032,0.7012807871851527,-2.022874168656314,-2.819820824482655,-0.5918564218217133,0.0628280480115937,0.0004965774983609649
0.05,0.007300256471066744,1.5727164622982404,-1.5559924068251865,0.004934885822358676,0.0008009126487031466,1.2103903457141443e-05,0.24219185137482602,0.09088082230965888,0.4635706814799909,0.15924962704688533,0.025382610390277806,0.000393097739569347,4.765823371984878,1.8099720212910329,9.01334733769236,2.8758072054891315,0.43745396269090264,0.006258361244964483,0.7078332811000645,-2.092804461658929,-2.8388135399831427,-0.5943655724755637,0.06313894639933587,0.0004833107354334657
0.06,0.010195437316263467,1.5738092287353687,-1.5504633006642115,0.00680696858383143,0.0010976484849801217,1.6707734389533738e-05,0.28951808451967226,0.10927664371282267,0.5529106160975091,0.18720827614727542,0.029673583627697512,0.0004603830932392295,4.723976899071209,1.8112442510034072,8.883320545130136,2.770066699346984,0.4214491386718002,0.005507798609149184,0.7153783355269965,-2.17423076212837,-2.8602237587001174,-0.5970186973319358,0.06348483142051041,0.0004672786536838523
0.07,0.01355970333611685,1.575086042058435,-1.5440540145062243,0.008949558380117104,0.0014361335360235522,2.195103352772834e-05,0.33642660198533836,0.12768133230662515,0.640928615798723,0.2142589796285674,0.03384850510434305,0.0005243299138194602,4.679926183332941,1.8092213135900144,8.745895111522023,2.6754520689237538,0.4081219711410391,0.004725333708156754,0.7237034708793059,-2.2668315003262327,-2.8839578482281656,-0.5997866411004507,0.06384842477111681,0.0004484010084588975
0.08,0.017388670817460365,1.5765466480816652,-1.5367784093133103,0.01135439058141064,0.0018153565173904631,2.7801530283245795e-05,0.3828967481343514,0.1460606023230294,0.7275605192914028,0.2404832201293536,0.037922298136691096,0.0005850496755517454,4.6335353329006495,1.8036328757369011,8.60177112449683,2.5886739211498657,0.3961484957109036,0.0039004039550052383,0.7325702541974326,-2.3702326975485284,-2.909897815122159,-0.6026333562745898,0.06421069336857817,0.00042659231240982473
0.09,0.02167773108485954,1.5781904257375656,-1.5286509417856877,0.01401376454789331,0.002234375254579618,3.422695743991076e-05,0.4289060267399177,0.16437776559004416,0.8127467527622632,0.26593739664826693,0.04190187371891548,0.0006425427156664965,4.584613499705091,1.7942576748723733,8.451400853595574,2.507235196506034,0.3847642608621449,0.0030303478170941034,0.7417155648446465,-2.484003715774044,-2.937901145539106,-0.6055161628058574,0.06455108220211633,0.0004017667423679334
0.1,0.02642202857224431,1.5800163673005911,-1.5196866374701505,0.016920352813655438,0.0026922703750435497,4.1194441705905676e-05,0.474429748738477,0.18259415630254505,0.8964304315537184,0.29065882657621284,0.045789512046393165,0.0006967484265994917,4.532937982207117,1.7809187434958498,8.295050827249751,2.4292429521639107,0.37354490764852954,0.0021173111845698145,0.7508532360610981,-2.6076533753928954,-2.967800811035275,-0.6083860695403901,0.0648477685715156,0.00037384337806987207
0.11,0.03161643689942199,1.5820230625369376,-1.5099010780175863,0.020067056043120195,0.0031881195770015027,4.8670208656411403e-05,0.5194408327177684,0.200669523634634,0.9785559452564287,0.3146703229464757,0.049584920195795315,0.0007475766950505724,4.4782698753356,1.7634801238563056,8.132850665847247,2.3532653828620376,0.36227284919539926,0.0011660785802565243,0.7596761813055352,-2.7406266122799625,-2.9994054821826692,-0.6111881672593482,0.0650779405692999,0.0003427515680303534
0.12,0.03725553404279693,1.5842086865709657,-1.4993103987565273,0.0234468929521223,0.0037209844338748554,5.6619482187148934e-05,0.563909714337494,0.2185624034028103,1.0590679261059022,0.33798369090021074,0.05328648568733528,0.0007949273530737532,4.420365244985232,1.7418446441318702,7.964831758511632,2.278223368627991,0.350856007129579,0.00018264170837767324,0.7678590996980192,-2.882301842978559,-3.032499991739478,-0.6138621015681496,0.06521810127865599,0.00030843628398461765
0.13,0.04333357742841811,1.5865709913367,-1.4879312935175404,0.027052917009520866,0.004289904834856507,6.500650251014632e-05,0.6078043385621177,0.23623047657343185,1.137910523898682,0.3606024057398566,0.056892040098165134,0.0008387020322997385,4.3589835909848365,1.7159524254927174,7.790958126680136,2.203308340460474,0.3392780386943208,-0.0008267444298821758,0.7750618363823796,-3.031989201149106,-3.066846086613973,-0.6163426320806689,0.06524439880239717,0.0002708633516305388
0.14,0.04984447961741162,1.589107300534364,-1.4757810242348401,0.03087815373367852,0.004893898062090816,7.37946141443336e-05,0.6510902188993505,0.25363091976641083,1.2150269282700283,0.3825236724157653,0.06039932272343094,0.000878811163418729,4.293894624791139,1.6857798626416618,7.61115124406434,2.1279201778137598,0.3275676376184862,-0.0018561875614180323,0.7809334504914529,-3.188929798589983,-3.1021835035386234,-0.6185602821958933,0.06513298086617253,0.00023002445222656696
0.15,0.05678178515408921,1.5918145080427624,-1.4628774333107013,0.034915553917922636,0.005531960655241572,8.294639248035692e-05,0.6937305536677589,0.2707207508398196,1.2903590924138768,0.4037400184244117,0.06380625931507555,0.0009151778336023309,4.224883941233676,1.6513388758265517,7.42531014219742,2.051620327178256,0.3157794166627994,-0.002900571301948318,0.7851170154018894,-3.35229614926015,-3.138231397092226,-0.6204420811981168,0.06486037134320388,0.00018594178808571378
0.16,0.06413864907838841,1.5946890797528297,-1.449238957088703,0.03915795927261199,0.006203071912181102,9.242378832978289e-05,0.73568639242992,0.2874571710067426,1.3638476221998395,0.4242405354689354,0.06711112569395294,0.0009477395849425975,4.151757894648827,1.6126762750173294,7.23332779388443,1.9740964620136943,0.30398185354689033,-0.0039558200784197695,0.7872551433794028,-3.521193874380483,-3.1746901404856693,-0.6219123974271522,0.06440386464457827,0.0001386723013026192
0.17,0.07190781755049187,1.5977270587892092,-1.4348846390692362,0.043598077844750234,0.006906198299662226,0.00010218827684603478,0.7769168472103466,0.3037979036379454,1.4354318019466645,0.4440118572138248,0.07031263874811244,0.0009764488516251891,4.074347829986393,1.5698731106173516,7.035104510672159,1.895135870434725,0.2922495757909296,-0.005019056618412954,0.7869961902797872,-3.694664780705221,-3.2112435094628102,-0.6228938579066392,0.06374193254450314,8.831133262295315e-05
0.18,0.08008161098691303,1.6009240740779425,-1.4198341417345517,0.04822846723511068,0.007640298308432547,0.00011220100180258304,0.8173793436421167,0.3197015288733344,1.5050497334684647,0.46303893903604476,0.07341000087703213,0.001001272495654827,3.9925137270359237,1.5230439123638715,6.830558896949952,1.8146054200964024,0.2806583407135932,-0.006088678979345286,0.7840010568678087,-3.8716913726718696,-3.247561248024107,-0.6233083461866887,0.06285463671340918,3.499560817507466e-05
0.19,0.08865191005862816,1.6042753522014872,-1.4041077560455215,0.05304152412799444,0.008404327448579147,0.00012242290932236837,0.8570299071715124,0.3351278123544689,1.5726385689030091,0.48130568928837625,0.07640291401466005,0.0010221907519785333,3.9061472651999076,1.472335740863513,6.61963675867095,1.7324364572311346,0.26928171690000724,-0.007164376085678548,0.7779504631383393,-4.051202822894041,-3.2833020018047634,-0.6230780663832689,0.061724039071588466,-2.109455306242901e-05
0.2,0.09761014485022343,1.6077757324591602,-1.3877264078391314,0.05802947901863879,0.009197243182227768,0.00013281486730850277,0.8958234791595271,0.35003802576730336,1.6381348206390134,0.49879548906443427,0.07929157336486217,0.0010391957986134392,3.8151742915103424,1.417926995831195,6.4023182581091245,1.6486133853477192,0.2581888637519256,-0.00824709599169049,0.7685525327112431,-4.23208238525126,-3.3181165913009734,-0.6221266576475047,0.060334601113884154,-7.973390813546561e-05
0.21,0.10694728742342544,1.6114196850234288,-1.3707116605023584,0.063184395297493,0.01001800965566474,0.00014333776835726022,0.9337142573202007,0.36439525642686976,1.7014747336773066,0.5154916278854218,0.08207664734369731,0.0010522901048757455,3.7195566661093076,1.3600259424610006,6.1786235290353515,1.563164966868026,0.2474430395655567,-0.00933897818872964,0.7555504881191286,-4.413176191862376,-3.3516515833001406,-0.6203803397623935,0.05867356265228401,-0.0001406519173199743
0.22,0.11665384796878024,1.6152013320517136,-1.3530857134301648,0.06849817205176822,0.010865602135658027,0.00015395261504096684,0.97065605453548,0.37816470282847964,1.7625947072193502,0.5313776754275225,0.08475924799932863,0.0010614846683706625,3.619293461081709,1.2988689330334724,5.948616912552376,1.4761576194068518,0.2371006083782632,-0.010443259333313026,0.738730226942575,-4.593303330986694,-3.383553105463755,-0.6177690674429182,0.056731290032644356,-0.00020353339170405492
0.23,0.12671987466631013,1.6191144715809331,-1.3348713958966159,0.07396255009027305,0.01173901108370097,0.00016462058725627533,1.0066026697529895,0.3913139529219678,1.8214317533548998,0.5464378038504825,0.08734089480429445,0.001066797221530848,3.514421496424428,1.2347183151929297,5.712409937287127,1.3876901539740203,0.22721039926882725,-0.011564160305225446,0.7179275255790164,-4.771267059071159,-3.413470836701202,-0.6142276684074652,0.05450158384839346,-0.00026802019888628656
0.24,0.137134957310804,1.6231526039992057,-1.3160921560810503,0.07956912080099528,0.012637245822155356,0.00017530309192345629,1.0415082644493856,0.40381324182726336,1.8779239815565412,0.5606570710722217,0.08982347384543854,0.0010682504667180964,3.405015208477307,1.1678600314588317,5.470163144527594,1.2978895376156885,0.2178133216308531,-0.012706761303996839,0.6930346040770272,-4.945866958572589,-3.4410620954204294,-0.6096969385776827,0.0519819365279258,-0.0003337140366297866
0.25,0.14788823469133094,1.6273089608571292,-1.2967720450971738,0.08530933752255515,0.013559337760858731,0.00018596179574850632,1.075327738052694,0.41563568579234134,1.9320110983876573,0.5740216721559878,0.09220919387033753,0.0010658703825050025,3.2911858595682215,1.09860092649318,5.222086845347453,1.206907367423451,0.2089421698289513,-0.013876870568707123,0.6640057836775665,-5.115911815748268,-3.465995939636967,-0.6041246670236096,0.049173730926178515,-0.0004001802538380405
0.26,0.15896840564907358,1.6315765357510195,-1.2769356959725162,0.0911745291585746,0.01450434316350164,0.00019655864206026986,1.1080170957742623,0.42675748938902053,1.9836349124657668,0.5865191636019446,0.09450054026429086,0.0010596846311763542,3.1730801116869265,1.0272657893478254,4.968440891828284,1.1149168236099456,0.20062156881361837,-0.015080891259844798,0.6308619796909849,-5.280232960878355,-3.4879571875563027,-0.5974665635542815,0.04608237219771275,-0.00046695266635139553
0.27,0.1703637436741438,1.6359481169833936,-1.2566082976188764,0.09715591579443245,0.01547134544107386,0.0002070558529375588,1.1395338025070239,0.4371581232374178,2.0327398353639867,0.598138663585785,0.09670022775722197,0.0010497210877288916,3.0508780007928573,0.954194167285048,4.709533541659196,1.0221099320873925,0.19286802360571365,-0.016325690030147166,0.5936937966332775,-5.437697789515433,-3.5066502656170613,-0.5896870633699491,0.04271734674130882,-0.000533539283248931
0.28,0.18206211484210974,1.6404163216827337,-1.2358155639209891,0.10324462609367449,0.016459456965605745,0.00021741591796872498,1.1698371167965935,0.4468204699340036,2.0792733697887336,0.6088710299242048,0.09881115245318843,0.001036006503116619,2.9247903612013446,0.8797369956041631,4.445719499484192,0.9286950155100779,0.18569004296875669,-0.017618469859385533,0.5526630298929069,-5.5872231677997055,-3.5218027924311515,-0.580759985714226,0.039092203837216254,-0.0005994288288663086
0.29,0.19405099883585306,1.6449736310459038,-1.2145836981499887,0.10943171626032001,0.01746782040172821,0.0002276015710564309,1.1988883993743322,0.45573093631701767,2.1231865771000544,0.6187090166645518,0.10083634361224653,0.001018565308770591,2.795055760873834,0.8042530941514422,4.177397221587228,0.8348942495424083,0.17908831276952242,-0.01896664881786303,0.5080024275045537,-5.727788419417994,-3.533168812510531,-0.570669027143058,0.03522445768196337,-0.0006640979181650856
0.3,0.20631751274926718,1.6496124263531153,-1.1929393529797199,0.11570819035641795,0.018495609556540518,0.00023757575670922703,1.2266513913414125,0.46387953072115407,2.1644345170268906,0.6276474096097941,0.10277891548123054,0.000997418565279614,2.6619370180067814,0.7281055857045418,3.9050055755805335,0.7409412702767195,0.1730558984656554,-0.020377745647998324,0.46001362495335407,-5.858447596403721,-3.5405316024592586,-0.5594080746001565,0.031135409780965136,-0.0007270187196538221
0.31,0.21884843732718054,1.6543250253974577,-1.1709095864468633,0.12206502176375744,0.01954202975012766,0.0002473015872617407,1.253092457791336,0.47125990443423416,2.202976653285651,0.6356831407339482,0.1046420193587143,0.0009725830552513655,2.5257173768653067,0.6516582941984004,3.629019947753902,0.6470788011978197,0.1675784594162586,-0.02185927227754325,0.40906323266575606,-5.978340751252553,-3.543705984791652,-0.5469813289379027,0.02684989399419435,-0.0007876669220326568
0.32,0.23163024526152676,1.659103718969007,-1.1485218142499378,0.1284931755763851,0.020606317709984914,0.0002567422924493058,1.278180793434622,0.4778693571549315,2.238777219692553,0.642815381262766,0.10642879598572542,0.0009440705187565067,2.3866964261290513,0.5752721816565944,3.3499478995527516,0.5535562848409885,0.16263446057990905,-0.02341863279641565,0.35557712669454294,-6.086703951888441,-3.542540098461477,-0.5334032351793534,0.022395948844994185,-0.0008455298087501058
0.33,0.24464913113773482,1.6639408070374517,-1.1258037588265308,0.13498363170788083,0.021687740992737188,0.0002658611627400376,1.3018885876208066,0.483708806844473,2.2718055423407004,0.6490456131495732,0.10814232827522754,0.000911887029073178,2.245185846205943,0.49930188197365005,3.0683244717203086,0.46062751718668693,0.15819536983306826,-0.025063027895299572,0.30003306442907357,-6.182877815085707,-3.5369165924989407,-0.5186982220551039,0.01780442389872494,-0.0009001142397525806
0.34,0.2578910426079126,1.6688286342869538,-1.1027833956827837,0.14152740849517742,0.022785596936025866,0.0002746214878066696,1.3241911470177807,0.4887827249502175,2.3020363143747145,0.6543776787296595,0.10978559432886772,0.0008760325066631973,2.101505072999404,0.4240923872620643,2.784707236759056,0.3685482917713703,0.15422583167428705,-0.026799363291084566,0.24295181514159547,-6.266314374671043,-3.5267532267343,-0.5029002592985615,0.01310852900066118,-0.0009509543417667968
0.35000000000000003,0.27134171235876225,1.6737596246723392,-1.0794888974739296,0.14811558657978136,0.02389921114240928,0.00028298649151011927,1.3450669750849633,0.4930990385385413,2.3294498208854146,0.6588178084603935,0.11136142063834117,0.0008365003703449693,1.9559769646744187,0.3499759385941755,2.499671198522927,0.27757406672748264,0.15068381055057145,-0.028634160401970643,0.18488705611047007,-6.336582147541325,-3.512002881800255,-0.48605224685211024,0.008343336847177345,-0.0009976187176060857
0.36,0.2849866904422111,1.67872631468628,-1.05594857634969,0.15473933284802782,0.02502793549571805,0.00029091926477206413,1.3644978083448818,0.49666900139409187,2.3540321124239645,0.6623746268246462,0.11287243533087739,0.000793277326194484,1.808923555260544,0.27726916779140026,2.2138036345859957,0.18795767182704548,0.14752069946915114,-0.030573467205507854,0.126414335598528,-6.393369310975763,-3.492652998239128,-0.4682052551660138,0.0035452506808536163,-0.0010397170007366934
0.37,0.29881137654520606,1.6837213850523747,-1.0321908250838463,0.1613899242147548,0.02617114570865726,0.00029838269774149097,1.382468610299496,0.4995070366094546,2.375775126584374,0.6650591366726963,0.11432102129392098,0.0007463432969426825,1.6606619747197036,0.20627053067350376,1.9276989722488342,0.09994707459746888,0.14468139198213414,-0.032622767082973236,0.068119441364485,-6.436484956862957,-3.468724480841406,-0.44941763994245293,-0.0012485502027101206,-0.0010769056029517636
0.38,0.31280105179158446,1.6887376905883058,-1.008244057503766,0.16805877103962302,0.027328238398692493,0.0003053394127141817,1.3989675246378397,0.5016305535931163,2.3946767580080492,0.6668846824868238,0.11570926900352314,0.0006956714972690719,1.5115006096948824,0.13725806512243224,1.6419537826812938,0.013783225048660697,0.14210431808743618,-0.034786883346056396,0.010586535689908638,-6.465858440226867,-3.4402701186213553,-0.4297540578145356,-0.006000674001329247,-0.001108892529465835
0.39,0.326940909692865,1.6937682880158682,-0.9841366487236903,0.1747374399722265,0.028498627687542775,0.0003117516993483261,1.413985790128053,0.503059742756238,2.4107408780075597,0.6678668932603461,0.11703892888502809,0.0006412286634144388,1.3617355728606737,0.07048749969325424,1.3571619697802575,-0.07030200209518878,0.1397214471186965,-0.037069877096134574,-0.04561357592892307,-6.481536888838416,-3.407372582549792,-0.4092844114449747,-0.01067407588193649,-0.0011354411658448052
0.4,0.3412160858955719,1.6988064615298144,-0.9598968756659627,0.18141767603101874,0.029681741318087058,0.0003175814538371658,1.4275176202706918,0.5038173513946108,2.4239773057727607,0.6680236058792249,0.1183113630544282,0.0005829754488839731,1.2116475419415873,0.006190730566776492,1.0739102209872655,-0.1520877503376079,0.13745826333788624,-0.039474936109507364,-0.0999346853166787,-6.483680985948231,-3.3701420719324435,-0.38808275333887987,-0.015232600717513763,-0.0011563729735889392
0.41000000000000003,0.35561168640962776,1.703845745974396,-0.9355528583280006,0.18809142373173401,0.03087701628134376,0.0003227901238529022,1.4395600514055849,0.5039284444581626,2.434401733796207,0.6673747700715273,0.11952749632567049,0.0005208670015736371,1.0614990223491512,-0.055425323380973175,0.7927737768202641,-0.23136599436275684,0.13523372277719048,-0.042004252561037105,-0.15186559964317836,-6.4725591777473355,-3.3287136859276982,-0.3662261773111434,-0.019641497284406745,-0.0011715690644834964
0.42,0.3701128140447156,1.7088799475143537,-0.9111325022207559,0.19475084709316262,0.032083893945595895,0.000327338661266252,1.4501127635087834,0.503420153995759,2.4420356107244725,0.6659423361428595,0.12068776642521319,0.0004548537413349743,0.9115320802915838,-0.11417948550517154,0.5143125646928808,-0.3079432104183888,0.13296020291247235,-0.04465888754936668,-0.20093944414706533,-6.448540489869002,-3.283244599086475,-0.34379372511052736,-0.02386789334641851,-0.001180970656650745
0.43,0.38470459282860936,1.7139031617251452,-0.8866634423677532,0.20138834836157155,0.03330181467991976,0.00033118748487389173,1.4591778783893774,0.5023214210791486,2.4469059853002713,0.6637501268408911,0.12179207343238609,0.00038488236076397503,0.761966586350646,-0.16991671199651295,0.23906773126162661,-0.38164189431473816,0.13054346009733298,-0.04743862071004848,-0.2467416068420301,-6.412086162284422,-3.2339111190760814,-0.32086533331002565,-0.027881222574324356,-0.0011845784462986735
0.44,0.3993721902326136,1.7189097890646452,-0.8621729892136999,0.207996585309452,0.034530211965574514,0.0003342964556299642,1.4667597404004253,0.5006627339499922,2.449045315405324,0.6608236947880461,0.12283972856547587,0.00031089707560724386,0.612999003074543,-0.2225081209355215,-0.03244140343747201,-0.4523019199738399,0.1278826133302804,-0.05034178351992752,-0.2889161407050329,-6.363740328923344,-3.180905701181872,-0.297520842399129,-0.031653595991926506,-0.0011824509573399255
0.45,0.41410083708379314,1.7238945477246734,-0.8376880767492106,0.21456848697934267,0.03576850599119262,0.0003366248671763252,1.4728646851179508,0.4984758660028156,2.4484912464489286,0.6571901669890661,0.12382940256181085,0.000232841154636101,0.46480174420090553,-0.2718506790505646,-0.29971995707750865,-0.5197817340100233,0.12487017695017388,-0.053365075473530144,-0.3271705019308305,-6.304119977270802,-3.12443398816736,-0.27383908626284087,-0.03516011252247265,-0.0011747019554421822
0.46,0.4288758451010115,1.728852483894879,-0.8132352131144205,0.22109726775896155,0.037016096731781425,0.00033813145479373466,1.4775008017218396,0.4957936170205707,2.4452863634790183,0.6528780779618891,0.12475907405888065,0.00015065876174094776,0.31752312773316044,-0.31786657120363515,-0.562299658066295,-0.5839593840054769,0.12139216922875873,-0.05650336290525815,-0.36127856744428793,-6.233904424424449,-3.0647119361648474,-0.24989707613653325,-0.03837910515126959,-0.001161497032992555
0.47000000000000003,0.4436826220513887,1.7337789795031333,-0.7888404339001526,0.22757643968955993,0.03827235651754143,0.0003387744262467502,1.4806776950377172,0.4926495608254225,2.4394779214267905,0.6479171930598389,0.12562597857600047,6.429714530155232e-05,0.17128794017210344,-0.3605022826203329,-0.8197405841636872,-0.6447333798557446,0.11732832853459729,-0.059749461120466946,-0.3910819377913427,-6.153824540191435,-3.0019630777388926,-0.22576928883569755,-0.04129232114431628,-0.001143049486448611
0.48,0.4585066845851271,1.7386697575251662,-0.7645292583215539,0.23399982292512164,0.03953662210679497,0.00033851151835767856,1.4824062533738387,0.48907780220328,2.4311175578598636,0.6423383235561714,0.12642655892535404,-2.6290788907163684e-05,0.026198624652081934,-0.3997274280343312,-1.0716324816883147,-0.702023388543259,0.11255247370548283,-0.06309390155202352,-0.4164895899149382,-6.064651935993221,-2.9364159636748592,-0.20152706502194767,-0.043885036596927995,-0.0011196156175991537
0.49,0.4733336688692762,1.743520884981313,-0.740326648396858,0.24036155427564979,0.04080818628829575,0.00033730008350554857,1.4826984284149056,0.4851127456147006,2.4202609924695877,0.6361731350528149,0.12715641815007844,-0.00012114348521299771,-0.11766289879078197,-0.4355333652479413,-1.3175956837012484,-0.7557707633321971,0.10693305034472816,-0.06652468694516592,-0.4374759957711867,-5.9671883209941115,-2.8683018142562116,-0.17723811925122204,-0.04614610727026488,-0.0010914895951246784
0.5,0.4881493392044281,1.7483287737595699,-0.7162569712235224,0.2466560937832601,0.04208628905226466,0.00033509721058589293,1.48156703351519,0.4807888778256754,2.4069677173335635,0.6294539507610316,0.1278102763968907,-0.0002202872919655635,-0.2602327773483558,-0.46793163306190505,-1.5572816523415145,-0.805938908137148,0.10033390969021416,-0.07002703918691261,-0.4540778654599148,-5.862255205757372,-2.7978524008454486,-0.15296616007735767,-0.04806795915712622,-0.0010589980130783921
0.51,0.5029395948720603,1.7530901794214515,-0.6923439644061042,0.252878229295146,0.04337010838707677,0.0003318598852609911,1.4790255667632246,0.4761405661881634,2.3913006817418165,0.6222135511885893,0.12838193348121138,-0.000323732532490187,-0.40146213598542424,-0.49695225514286395,-1.7903731773771057,-0.8525134769933107,0.09261537122039298,-0.07358314627887683,-0.4663897063555884,-5.750684109729112,-2.72529816944401,-0.12877061555327737,-0.04964652346393966,-0.0010224942788536126
0.52,0.5176904755236728,1.7578021981602572,-0.6686107046555669,0.2590230790127572,0.0446587507799888,0.0003275451945469148,1.4750880651612428,0.47120187388056545,2.3733259750537314,0.6144849717611185,0.1288642392912029,-0.00043146907140762664,-0.5413133631950195,-0.5226419521767321,-2.0165842659213804,-0.8955024073623896,0.08363562371519628,-0.07717191712452318,-0.474558412091655,-5.633307402926337,-2.6508666093405147,-0.104706457013829,-0.050881121680021964,-0.0009823529553276448
0.53,0.5323881654852762,1.7624622620901698,-0.6450795795485446,0.2650860920118571,0.045951241525956664,0.0003221105808848418,1.469768996160345,0.46600639299126023,2.3531125107022377,0.6063012999099932,0.12924907459678614,-0.0005434613662072998,-0.679755789448413,-0.545062304604789,-2.235659761791272,-0.9349357842757842,0.0732525215509281,-0.08076875532749773,-0.4787771072423524,-5.510949885634485,-2.574780862819302,-0.08082411221815897,-0.05177430711675928,-0.0009389641709591429
0.54,0.54701899741124,1.767068133049193,-0.621772262407784,0.27106304674365356,0.04724651497865034,0.0003155141507826617,1.4630831925963859,0.46058709590233143,2.3307317140760544,0.5976954731796457,0.1295273452693675,-0.0006596430102180076,-0.8167607871244675,-0.5642879073673681,-2.447374735084779,-0.970865530360677,0.061325832737136654,-0.08434536587487211,-0.47927847574310345,-5.384421183528638,-2.497258566046111,-0.057169457701318094,-0.05233166973915784,-0.0008927281983281325
0.55,0.5615694557787803,1.771617895099335,-0.5987096902417407,0.2769500475431162,0.048543404912248816,0.0003077150428355935,1.4550458367540198,0.4549762050142068,2.306257216604331,0.5887000799462658,0.12968899335984782,-0.0007799107947068243,-0.9522963353383508,-0.5804045563962608,-2.651533683551333,-1.0033649147516934,0.04771999172209007,-0.08786961153917844,-0.47632779450546686,-5.254509010241329,-2.418510906759855,-0.03378387950819772,-0.052561611291644925,-0.0008440502866824649
0.56,0.5760261807669007,1.7761099459038705,-0.5759120446622203,0.28274351918710006,0.049840635201262425,0.0002986738593791697,1.4456724988120502,0.4492050804535388,2.279764557952034,0.579347164398384,0.12972302890136062,-0.0009041183456423752,-1.0863211117415452,-0.5935075041006341,-2.8479695872151076,-1.0325278720125741,0.032307402162879306,-0.09130543867718269,-0.47021587964010975,-5.121973325658912,-2.3387418812449456,-0.010704391298667723,-0.052475097659311326,-0.0007933358182139731
0.5700000000000001,0.5903759731094037,1.780542987154218,-0.553398735684019,0.28844019956216577,0.05113681106790903,0.00028835316512912346,1.4349792342502952,0.44330412503475497,2.251330897820137,0.569668037506572,0.12961758666466058,-0.001032069425004625,-1.2187781966126197,-0.6036998177918235,-3.0365428565126367,-1.0584681207152276,0.01497232150784722,-0.09461289485782588,-0.46125213272422116,-4.9875413966336275,-2.258147731141314,0.01203620095387161,-0.05208539513225577,-0.0007409858417005706
0.58,0.6046058005481959,1.784916014208305,-0.5311883882995876,0.2940371305201733,0.052430411191447986,0.00027671805485132516,1.4229827438792249,0.4373027054086908,2.2210347384431404,0.5596930958007531,0.1293600123538957,-0.0011635110277798289,-1.3495885027632026,-0.6110908709005094,-3.2171402119507997,-1.0813180705290204,-0.00438466087326983,-0.09774826298568143,-0.4497578502481601,-4.8519037476933,-2.1769165398256467,0.034409097881199655,-0.05140779678681644,-0.0006873930214334859
0.59,0.6187028065375789,1.7892283050886832,-0.5092988317146041,0.29953164701890367,0.05371978101978703,0.00026373679031521153,1.4097005989382971,0.4312290880378395,2.1889556584983523,0.5494516498730372,0.1289369828339042,-0.0012981264536113617,-1.478644077963406,-0.6157949919850438,-3.389673530021673,-1.1012275068611874,-0.02584156835356488,-0.1006643379879214,-0.4360599323470615,-4.715710972917035,-2.0952279681904176,0.05638927865283165,-0.050459344599212315,-0.0006329380245336144
0.6,0.6326543218590571,1.7934794089726327,-0.4877470911266342,0.3049213646651272,0.055003127668409715,0.000249381504459618,1.395151532147823,0.42511038839493587,2.1551740587969856,0.5389717646223526,0.1283346648622689,-0.0014355285855593546,-1.6058014642765386,-0.6179302909630789,-3.5540786859050266,-1.1183620434879398,-0.04944945776399745,-0.10331087227931485,-0.4204850986678052,-4.579571366501445,-2.0132531104621925,0.07795525434232696,-0.049258552202357704,-0.0005779863562971621
0.61,0.6464478797955506,1.797669134288604,-0.46654938192837553,0.31020416579855586,0.056278516832285394,0.0002336289678019927,1.3793557936493508,0.4189725315971296,2.119770919825869,0.5282801133428674,0.12753891638756756,-0.001575253665762527,-1.7308753397431706,-0.6176176758036316,-3.710314418440028,-1.1329013364899954,-0.0752264156610769,-0.1056352145685735,-0.4033546910804004,-4.444049318638953,-1.9311544520371653,0.09908881008562107,-0.047825132423821734,-0.0005228856414512954
0.62,0.6600712354795683,1.8017975365142862,-0.4457211062187867,0.3153781842767283,0.05754387216921193,0.00021646140864150422,1.3623355684017582,0.41284022256822395,2.082827570958883,0.5174018478172473,0.12653553369265352,-0.0017167559160488476,-1.8536327103094108,-0.6149800662171208,-3.858361237106243,-1.1450370572902688,-0.10315128491495473,-0.10758316266038642,-0.384980116050049,-4.309664415055022,-1.8490859129759156,0.11977474231071028,-0.04617973294003324,-0.0004679633394106477
0.63,0.6735123899676474,1.8058649057519987,-0.42527685150912775,0.32044178914265564,0.05879697763354946,0.0001978673745754536,1.3441154488079174,0.4067369237712543,2.0444254709658924,0.5063604865927337,0.1253105464337533,-0.0018594034066050631,-1.9737879608212459,-0.6101418038446793,-3.998220384507786,-1.1549706287781891,-0.1331573393034673,-0.10910004416458291,-0.36565895474443444,-4.176891172728456,-1.7671929626133434,0.1400005962770225,-0.044343682585369235,-0.00041352487396623854
0.64,0.6867596194992112,1.809871754137759,-0.40523039151593976,0.3253935673784212,0.06003548324244311,0.00017784261835412755,1.3247229531563733,0.40068483857603676,2.0046459993187966,0.49517782357655565,0.12385056088936439,-0.0020024756221326033,-2.0909991093280977,-0.6032282512950529,-4.129912861354116,-1.1629107363613365,-0.16512619163592568,-0.11013202912944303,-0.34567174702143744,-4.046159340729838,-1.685612792549771,0.15975640820141845,-0.04233875009895822,-0.0003598521523872991
0.65,0.6998015102686518,1.8138188031219764,-0.38559468893862514,0.330232305968135,0.061256914736913665,0.0001563909862962211,1.3041890769440636,0.394704898421751,1.963570257731461,0.48387385897138335,0.12214314944705597,-0.0021451632057906452,-2.20486563385893,-0.5943655653659263,-4.2534785144944305,-1.1690706351310087,-0.19888228927037988,-0.11062766528640677,-0.3252794367505646,-3.9178546935137804,-1.6044745369730675,0.17903445539316076,-0.040186916408107856,-0.0003072024456450364
0.66,0.7126269988728883,1.8177069706429845,-0.36638190012490934,0.3349569735118077,0.062458687552097644,0.00013352528260789036,1.282548860423649,0.388816752100807,1.9212788813715806,0.47246675436726837,0.12017728151839799,-0.0022865703688330747,-2.314928249418118,-0.5836806232162743,-4.3689751825697565,-1.1736652848927633,-0.23418841350635367,-0.11053961001111934,-0.304721450671706,-3.792320244138974,-1.5238995307355985,0.19782901708478118,-0.03791016096260681,-0.000255807600263664
0.67,0.725225418392666,1.8215373582002004,-0.3476033815324822,0.339566701646833,0.06363812542942048,0.0001092680783076652,1.2598419519777675,0.38303875572159607,1.877851859242712,0.4609728135025319,0.1179437877322837,-0.0024257204300225156,-2.4206709989113384,-0.571301074450226,-4.476477888834478,-1.1769083561192666,-0.27074264824419814,-0.10982651372867858,-0.2842143711966487,-3.669857806515332,-1.4440015968414333,0.21613614802582587,-0.03553026217131786,-0.0002058735529565582
0.68,0.737586549826784,1.8253112378221528,-0.3292696978990506,0.34406076654479123,0.06479248388474622,8.365242945002546e-05,1.2361131434118042,0.37738796219523474,1.833368363343163,0.4494064897958254,0.11543584553257487,-0.0025615648857639736,-2.5215259789300792,-0.5573554873508519,-4.576078067496363,-1.1790091613818205,-0.3081773090702655,-0.10845498841038947,-0.2639511550554274,-3.550729838646078,-1.3648873560368975,0.2339534663767345,-0.03306861166797108,-0.0001575801214237338
0.6900000000000001,0.7497006783296394,1.8290300389163803,-0.3113906320355902,0.34843857075713247,0.06591897858869285,5.672246641853092e-05,1.2114128502855412,0.37188010942274885,1.787906586346041,0.4377804212341238,0.11264947039466316,-0.0026929963031494543,-2.6168809446889916,-0.5419735541830611,-4.667882810445484,-1.1801695778040049,-0.34606031650466207,-0.10640157360803038,-0.24410084419239028,-3.4351615027003786,-1.2866565522744375,0.2512799569310326,-0.0305460419557212,-0.00011108104812057339
0.7000000000000001,0.7615586534129076,1.8326953349835684,-0.2939751961588547,0.35269962568295504,0.06701481851928118,2.853381471549202e-05,1.1857975083268297,0.36652960671880563,1.741543587673549,0.42610549258225794,0.10958399305883308,-0.0028188651703038897,-2.7060899248696915,-0.5252863188771411,-4.7520141316172575,-1.1805810358164504,-0.38389944688954314,-0.10365459332273674,-0.22480871244120051,-3.3233428823239852,-1.2094023897835948,0.2681157899906333,-0.027982666948395414,-6.650427814771501e-05
0.71,0.7731519519745277,1.8363088301773454,-0.2770316446802523,0.35684353492465126,0.06807724351745352,-8.461916095752099e-07,1.1593298561620085,0.36134951937768645,1.694355147860237,0.4143909241696216,0.1062424998172341,-0.002938000632506723,-2.7884868267595846,-0.5074263909832054,-4.828608293099222,-1.1804216572265052,-0.42114979379225614,-0.10021578248818397,-0.20619679081727374,-3.2154313022652237,-1.1332118839865073,0.2844621544396141,-0.025397735021374216,-2.3952457848529262e-05
0.72,0.7844727427286967,1.8398723456937862,-0.26056748837371,0.36086997878182103,0.06910356562151926,-3.133853956065607e-05,1.1320790754169083,0.3563515516440823,1.64641563065423,0.4026443857169776,0.10263221040657372,-0.003049234795108086,-2.863401828899095,-0.4885281143376871,-4.897815471941308,-1.1798536307086156,-0.45722461812561965,-0.09610155469211767,-0.18836471536877955,-3.111553697572544,-1.0581662600401167,0.3003210958090242,-0.02280949433195955,1.6496349238969693e-05
0.73,0.7955139503485729,1.8433878059803555,-0.24458950987828118,0.36477870010928554,0.07009121329050191,-6.285283954088951e-05,1.104120761987613,0.351546028656914,1.5977978495428835,0.3908721327464483,0.09876476689826509,-0.003151429998023344,-2.9301801490004116,-0.4687276806257788,-4.95980164559213,-1.179020913055087,-0.49150955853939404,-0.09134378540276789,-0.1713908447035481,-3.011808960170051,-0.98434164763698,0.31569529867577906,-0.020235069926684435,5.4787686579987216e-05
0.74,0.8062693174201708,1.8468572247606578,-0.22910378070931486,0.3685694917251648,0.07103777736632688,-9.528792132025782e-05,1.0755367071597952,0.34694187803023846,1.5485729168966305,0.3790791615879227,0.0946564075824966,-0.00324350817793683,-2.9882026344481667,-0.44816282328552287,-5.014720851280939,-1.1780476479779374,-0.5233799087958482,-0.08598999817597774,-0.15533356929003456,-2.916270697990782,-0.9118058005493574,0.3305888272364197,-0.017690362558828377,9.089033604230042e-05
0.75,0.8167334621561831,1.850282690911581,-0.21411567704036902,0.3722421856063255,0.07194105738692129,-0.0001285327338149173,1.0464144736012282,0.3425466150923123,1.4988103668945845,0.36726938811606846,0.0903280020594413,-0.0033244812494659486,-3.036907092880826,-0.4269734322586833,-5.062789671420071,-1.177035305002498,-0.5522205190923728,-0.08010289857563513,-0.14023289821522344,-2.824988474871385,-0.8406284563934496,0.34500464532568786,-0.015189936065345288,0.0001247929840623918
0.76,0.8269019297797005,1.8536663541457727,-0.19962990156354765,0.3757966438115274,0.07279910668769178,-0.00016246754281285252,1.0168467623517328,0.3383663234191687,1.4485775476821356,0.35544582052018914,0.08580493007704933,-0.0033934808997935226,-3.075809602722171,-0.4053018111480346,-5.104321218798571,-1.1760637012608726,-0.577447222025294,-0.07375911334404583,-0.12611206413172693,-2.7379891206670415,-0.7708863893236076,0.3589433784951669,-0.01274691395201489,0.00015650184166619645
0.77,0.8367712355326389,1.8570104104906306,-0.18565051476785008,0.379232750906401,0.07361027462005591,-0.00019696540617640272,0.986930575293843,0.33440563448578164,1.3979386795697564,0.3436107094873624,0.08111679323641359,-0.0034497863363550205,-3.1042458927868366,-0.38500432725560113,-5.289746484054315,-1.1741757566547637,-0.5985804167851698,-0.06704708812297522,-0.11310320193827901,-2.652586438096949,-0.7227358978941627,0.36763874078459785,-0.010324089147699856,0.000181959159226322
0.78,0.8463389211758197,1.8603169369292136,-0.17219572303497666,0.382549912552252,0.07437326642549588,-0.00023189002429053015,0.9567685643180827,0.3306526438582897,1.3454791732873426,0.3317161645851012,0.07629918054399731,-0.0034924618114127444,-3.1211028372621556,-0.37145153538589226,-6.0397154699605835,-1.1743259183870514,-0.6149417390899257,-0.059932187547979465,-0.10143702123833467,-2.560425075533484,-0.7527659450897787,0.35762452375140197,-0.007761245057320761,0.000189813748960629
0.79,0.8556036481184175,1.8635874244469082,-0.15933925107133462,0.3857451881319584,0.07508726247110636,-0.00026708576950548984,0.9264726942597876,0.32704875176945175,1.285647196364203,0.31952755797063986,0.0713996045610482,-0.003519574521495968,-3.126996218836747,-0.3565234284034582,-6.541324928705899,-1.2027024898490914,-0.6244252788681028,-0.05206345707072435,-0.0900217623342243,-2.4756807950514044,-0.7536841767919484,0.3541366092056727,-0.005224263411384971,0.00020248252670038172
0.8,0.8645651488516992,1.8668234773664227,-0.14713051126105137,0.3888142425327313,0.07575191948614067,-0.0003023972628004413,0.8961500733281775,0.32360529195146204,1.220873981028324,0.30690544007728837,0.0664657015034308,-0.003531149329495141,-3.1214810505960138,-0.340425348014589,-6.8421154853423145,-1.2454451262596429,-0.627255937543574,-0.04391555562207927,-0.0791622501863264,-2.3988025096681427,-0.7315032199521189,0.3558982477147286,-0.002765670825701685,0.00021852309678296473
0.81,0.8732242604619561,1.8700267886329525,-0.13559922515199477,0.39175231549672174,0.07636736193955021,-0.0003376739651074732,0.8659111610256938,0.3203311266529779,1.1531286109056587,0.2938072963990445,0.06154424534095459,-0.0035276702307031915,-3.1045069786668704,-0.3234567693605422,-6.982628994987264,-1.2928125748360912,-0.6236375478822528,-0.03577803130028234,-0.06904925097750002,-2.3298661897525816,-0.6913662111708541,0.36180834846753873,-0.00042346915979175415,0.00023678355254765
0.8200000000000001,0.8815829208399286,1.8731991090197426,-0.12475937312238775,0.39455487765816766,0.0769341715566992,-0.00037277258465653515,0.8358660377972452,0.3172320386790179,1.0839852029607018,0.2802562161445931,0.05668096171489911,-0.0035098619549061953,-3.0763724585805425,-0.3059515214289143,-6.9964000626648515,-1.3381860024346999,-0.6138662248242978,-0.0278779210383866,-0.059786195796683615,-2.268693882435583,-0.6375266271891378,0.3709493407685897,0.001776195301620113,0.00025637735027444076
0.8300000000000001,0.889644132250443,1.8763422150598024,-0.11461246715016922,0.39721805476662814,0.07745336741659763,-0.00040755909897015335,0.8061211410514374,0.3143106040059728,1.014690597221853,0.26631771084604616,0.05191958598984265,-0.003478651431361818,-3.0376692746516,-0.28824413123313786,-6.911129494617519,-1.3772583825210702,-0.5983832381775804,-0.020395881048686726,-0.051412958961566425,-2.21493369111434,-0.573489830839554,0.3825577076092206,0.0038168513632604777,0.000276629659748584
0.84,0.8974118978196546,1.8794578782883595,-0.10515025872868573,0.39973888214152375,0.07792637364766851,-0.0004419105029498934,0.7767765569211601,0.31156632285571656,0.9462208421483489,0.2520827374895644,0.0473006231070886,-0.003435140397974002,-2.9892223270955336,-0.27064673793220545,-6.749658613548216,-1.407421679973286,-0.5777820220255062,-0.013467791965794396,-0.04392478610188026,-2.1681233839428744,-0.5021329645461348,0.3959995775559285,0.005689800148208295,0.00029703327288590364
0.85,0.9048911369119762,1.8825478375018567,-0.09635697527605547,0.4021154361026352,0.07835497493179823,-0.0004757161850075564,0.747923909232165,0.30899592134971765,0.8793283452630265,0.23765539611114767,0.042860128412972445,-0.0033805682057663038,-2.9320279115241434,-0.25343462925664034,-6.530776495264341,-1.4273040550941793,-0.5527854607267968,-0.007186446272165914,-0.03728701340769041,-2.1277391019491154,-0.42580604715025755,0.410750454519071,0.0073924637110581275,0.0003172127632051049
0.86,0.9120875854337723,1.885613775030953,-0.08821116261029793,0.4043468775446937,0.07874126204742522,-0.0005088788552422637,0.7196448521796087,0.3065937529096267,0.8145812665757528,0.2231441442058421,0.03862871156269907,-0.0033162670234707283,-2.8671938636730707,-0.23683851141584272,-6.269888158630861,-1.4364205787355093,-0.5242065082993683,-0.0016051634486875521,-0.03144624332224988,-2.0932313658825548,-0.34641694569442727,0.426378337575123,0.008926964736489486,0.0003368956651787537
0.87,0.919007686825434,1.8886572974798417,-0.08068719786986579,0.40643343408365784,0.0790875707593807,-0.0005413150020102352,0.6920101391661663,0.304352244888867,0.7523964740432137,0.2086556538964178,0.03463087119554731,-0.003243614676797154,-2.795884549235594,-0.2210418467339308,-5.979570942791428,-1.4349097388482264,-0.4929022801593072,0.003256974947738578,-0.02633861742391886,-2.0640506647506407,-0.2655030699672373,0.44252952046087024,0.010298920622491367,0.00035588944613328686
0.88,0.9256584789462835,1.8916799209817303,-0.07375652661564575,0.40837634059559114,0.07939641771056037,-0.0005729548996753153,0.665079212084951,0.30226235018886893,0.6930671254220045,0.1942906511933315,0.030884695117967653,-0.0031639897665080192,-2.719272929183944,-0.20618195588008886,-5.6700512548788655,-1.4233348894170987,-0.45972901504639907,0.007408949573518342,-0.02189577590972658,-2.0396645533548163,-0.18429352044487257,0.45891619793761784,0.011516439308190855,0.00037406291249599357
0.89,0.9320474813036618,1.8946830607290892,-0.0673886702766945,0.410177752925823,0.07967043679379616,-0.0006037422231841222,0.6389002357378297,0.30031397473588634,0.6367856338951247,0.18014123302318338,0.02740190832358004,-0.0030787323508806915,-2.6385010739580936,-0.19235328539538626,-5.349587181338471,-1.402535706573051,-0.42550275985627106,0.01088136308504939,-0.018048977220203342,-2.01956889125535,-0.10375941001353473,0.4753064475507365,0.01258928966253324,0.0003913320051008374
0.9,0.9381825862184693,1.8976680243784387,-0.0615520410363399,0.411840645768747,0.07991231896370936,-0.000633633344803154,0.6135104914807475,0.2984963649349616,0.5836629240354602,0.1662892842924012,0.02418821699131893,-0.0029891121619031735,-2.554649538622658,-0.17961322118814796,-5.024875526467767,-1.373516480006204,-0.39096860413874,0.013720261750062801,-0.014731908905731311,-2.003292398774763,-0.024667807766752925,0.4915129950148615,0.013528262962384756,0.0004076463155346159
0.91,0.9440719566444822,1.9006360087446044,-0.05621460379032583,0.41336870256219926,0.08012475776389634,-0.0006625963933275332,0.5889370426012857,0.2967984366165544,0.5337437246014071,0.15280567934522593,0.02124388001869865,-0.002896304852437921,-2.468704084197343,-0.16823538130815052,-4.720721083633046,-1.337246807179378,-0.3567857395015866,0.01598166591186323,-0.011899880117653864,-1.9899384003052338,0.04980712341870408,0.5067789971090687,0.014351741259692127,0.00042244613686021927
0.92,0.9497239331989442,1.9035880800087461,-0.05134631797662983,0.4147661385410613,0.08031040513479133,-0.0006906096521211672,0.5651976554462048,0.2952071264141768,0.4868285813696,0.13974359788620516,0.018564737089499593,-0.0028013258793633984,-2.3814359208698197,-0.1612151524298122,-4.673345148793833,-1.294145622479375,-0.3235278246912128,0.01773749808564906,-0.009699447495968634,-1.973546210221855,0.08838813445533322,0.5137217230904593,0.015158532232788768,0.0004293371555251111
0.93,0.9551469575477021,1.9065249435148763,-0.04694235946577098,0.41603675678431795,0.0804718720747062,-0.000717654308364416,0.5423024348757906,0.2936863506130106,0.4403958510858847,0.12706182432566376,0.016146693991486553,-0.0027044656243248827,-2.2936803634412133,-0.15557680809406868,-4.635924723416312,-1.2562472486381964,-0.2908777943722871,0.01917425306118592,-0.007781416202048702,-1.959696538932683,0.12331258714037818,0.5198803809520609,0.015897155379026116,0.0004352140255268727
0.9400000000000001,0.9603494994540461,1.9094471683602803,-0.04299890308550276,0.41718388697786263,0.080611702913972,-0.000743719435881097,0.5202541906344111,0.2922224845403848,0.39434563802682193,0.1147130193544699,0.013983083926579851,-0.0026065127516680902,-2.2060364953839846,-0.15115788237653469,-4.592880652621322,-1.2231436104187576,-0.2591884930524217,0.020273187315746566,-0.006096837909674819,-1.948688008877891,0.1566782581255428,0.5257532006254302,0.016568731218682676,0.0004405820406302725
0.9500000000000001,0.9653400017134952,1.912355199100349,-0.0395115895198023,0.4182104791263097,0.08073234755049317,-0.0007688023077508675,0.4990502259449076,0.2908030740068517,0.34873135657004656,0.10265921484470875,0.012064463652117444,-0.0025082871869770576,-2.1190275065498034,-0.1480112855874568,-4.546621750215303,-1.193809569329531,-0.22878365719586594,0.021058023002165416,-0.004620884392160534,-1.9403983906988687,0.18822757866584572,0.5312862992333635,0.017178983266362812,0.0004454444045253225
0.96,0.9701268320525955,1.9152493513979978,-0.0364757580850734,0.41911917995605347,0.0808361396864277,-0.0007929074912931135,0.4786830339100347,0.28941522976489115,0.3035831434728903,0.0908700829743743,0.010379213593451819,-0.0024105183542246075,-2.0331114676065125,-0.14614962160760558,-4.496848422297971,-1.1674905756317155,-0.19990841871392462,0.021565113517435286,-0.0033282816446705906,-1.9347704711448352,0.2180527013176463,0.5365068501526413,0.017732752936639777,0.00044987295662177407
0.97,0.9747182413179397,1.9181298108666096,-0.03388641432304701,0.41991239710617867,0.08092528048712412,-0.0008160458627558673,0.45914092653442246,0.2880459468611747,0.2589343762026386,0.07932171501251797,0.008914080069643025,-0.0023138371462753803,-1.9486810828252839,-0.14558480066418467,-4.443756213664856,-1.1435396860820557,-0.17274463802426915,0.021830676633391777,-0.002196858332454379,-1.931736228885535,0.24617769730118289,0.5414253051471225,0.018234837634018355,0.00045392036533965134
0.98,0.9791223278514457,1.9209966321332768,-0.031738246687740695,0.420592352442913,0.08100182710022336,-0.0008382336404656694,0.44040865335059437,0.2866821266667126,0.21481676353063103,0.06799553367342934,0.007654661309923812,-0.002218777770980201,-1.8660665840271242,-0.14632346634367357,-4.387656407327449,-1.1214207142171695,-0.1474164798861074,0.02188941550785406,-0.0012069021524913938,-1.9312258246882774,0.2726083371955872,0.5460470573901731,0.01868988000687152,0.0004576309451764307
0.99,0.9833470077316699,1.9238497384537578,-0.030025655042656016,0.42116112568273817,0.08106768548557669,-0.0008594914740656783,0.42246798802242613,0.2853106320481007,0.1712591645084681,0.05687732398251725,0.006585838535333368,-0.002125783360000894,-1.7855395588720155,-0.14836177631345263,-4.328528367654982,-1.1006972541874696,-0.12399709957219268,0.02177378674185626,-0.0003405657013087274,-1.9331787719152078,0.2973915957880219,0.5503864712838554,0.019102191396229592,0.00046105333217054894
