tonegas/nnodely-applications/joint_friction_estimation/dataset/train/mpc_mujoco_episode_49.csv
time,q1,q2,q3,q4,q5,q6,dq1,dq2,dq3,dq4,dq5,dq6,ddq1,ddq2,ddq3,ddq4,ddq5,ddq6,tau1,tau2,tau3,tau4,tau5,tau6
0.0,0.0,1.57,-1.57,0.0,0.0,0.0,0.0,0.0,0.0,0.0,0.0,0.0,10.475532815226511,9.9701261272378,9.818924706870018,3.4210618532598716,1.4713007022438802,-6.382733594989531e-06,1.4597145553038702,2.331703735584771,-1.2837877812272933,-0.28083551634241755,0.1319930467035036,0.0015422346134708793
0.01,0.0010418960342190393,1.5709972059418706,-1.5690201905335543,0.0003219845092606598,0.0001255482365560603,1.4584276023790644e-06,0.10418960342190392,0.09972059418705166,0.09798094664457818,0.03219845092606598,0.01255482365560603,0.00014584276023790643,10.411913855040124,9.833123189453293,9.580837815815517,3.1322574191025296,1.2357918290008456,0.014474421451717845,1.467485542692762,2.1966911163446383,-1.344808561422317,-0.2946540879870939,0.1323100231316054,0.001530923484322234
0.02,0.003118603722908905,1.5729779997566624,-1.5670855637708403,0.0009420671504876304,0.0003620792471253616,4.43830855953331e-06,0.20767076886898655,0.19807938147918572,0.19346267627141012,0.06200826412269706,0.023653101056930127,0.00029798809571542463,10.330534009047371,9.680999971392499,9.310387388990623,2.8852556393876156,1.0853399315816716,0.01474653381194102,1.4868539236943088,2.0204404413086525,-1.4128932043613882,-0.3092020505317674,0.13323644591586553,0.0015153476721587644
0.03,0.006221602973807494,1.5759272069473158,-1.5642239871063215,0.0018394085275713864,0.0007000544888808166,8.831403295164053e-06,0.31029992508985893,0.2949207190653321,0.28615766645186974,0.0897341377083756,0.03379752417554549,0.0004393094735630743,10.233408405317446,9.51249805333597,9.011267783218244,2.6686512321073224,0.9831941612083384,0.013047555905929542,1.5170184438909904,1.8042441402274472,-1.4879244422454905,-0.3244664062968511,0.13469985248179853,0.0014950355122083422
0.04,0.010341009051123222,1.5798279812641094,-1.5604659189570347,0.0029953545354344225,0.0011327503565205519,1.4525722129096487e-05,0.4119406077315728,0.39007743167936004,0.37580681492867046,0.1155946007863036,0.043269586763973536,0.0005694318833932433,10.121276072126598,9.326588844649084,8.686468256691253,2.473901915552453,0.9074578134598568,0.011081679080170659,1.557053525115362,1.5496522714218939,-1.5696592201441328,-0.34040271761884533,0.13661258952410407,0.0014694822136813786
0.05,0.015465567071835525,1.5846617100893021,-1.555844174929997,0.004392792517429477,0.001654938987877538,2.1418789748794055e-05,0.5124558020712303,0.48337288251926414,0.4621744027037712,0.13974379819950544,0.05221886313569861,0.0006893067619697569,9.994118050242761,9.122465730527486,8.338489001567627,2.294655740256026,0.8452311973427058,0.009031555728144625,1.6059031788687168,1.2584824282333846,-1.6577296365974945,-0.3569365187885547,0.1388740802229294,0.001438155409460057
0.06,0.021582602035095204,1.5904079403007256,-1.550393727578148,0.0060156747012233645,0.0022621125350225767,2.941281171155215e-05,0.6117034963259678,0.5746230211423592,0.5450447351848852,0.1622882183793887,0.06071735471450388,0.0007994021962758092,9.851489848609528,8.899543321286451,7.969507217428472,2.1262417614317854,0.7890921151225001,0.006908569449116442,1.6623742979352762,0.9328272049781017,-1.751644950190903,-0.37396502533415044,0.14137320721194097,0.0014005175246152917
0.07,0.028677945445096137,1.597044324945779,-1.5441515267702535,0.007848670318271097,0.0029500388766835455,3.8410533363832585e-05,0.7095343410000935,0.6636384645053445,0.6242200807894682,0.18329956170477335,0.06879263416609689,0.0008997721652280435,9.69273927663878,8.657460087829119,7.5815039432612785,1.9652807636556915,0.7349537968371322,0.0047330507341847294,1.7251318798115622,0.5750571770073689,-1.8507953900938565,-0.3913593011781381,0.14399086483879875,0.001356056393751502
0.08,0.03673585278179049,1.6045465912925512,-1.5371563307658078,0.00987691687227396,0.003714519480361963,4.831328940949807e-05,0.8057907336694358,0.7502266346772112,0.6995196004445671,0.2028246554002862,0.07644806036784176,0.0009902756045665486,9.517152963054205,8.396081806660733,7.1763593123050455,1.8093867785908841,0.6807532861035881,0.002543834718402138,1.7926984103271923,0.18781779752337435,-1.9544583451058286,-0.40896699249214774,0.14660270010271553,0.0013043189574374193
0.09,0.045738921826976336,1.612888530829572,-1.529448540591634,0.01208584789991503,0.004551270233273723,5.902060276706752e-05,0.9003069045185847,0.8341939537020869,0.7707790174173829,0.22089310276410704,0.08367507529117596,0.001070731335756945,9.324057636105964,8.115503979581101,6.755922085360579,1.6569375372668986,0.6256437085927473,0.0003881126166103144,1.8634592607035465,-0.22598095717098854,-2.061807341961133,-0.4266156885405603,0.14908203007016066,0.001244944702524032
0.1,0.05566801911573609,1.622042011625967,-1.5210700323888884,0.014461079780334996,0.005455876466371387,7.043068848683416e-05,0.9929097288759758,0.9153480796395161,0.8378508202745681,0.23752318804199665,0.0904606233097664,0.0011410085719766629,9.112891578319477,7.816051926894782,6.322058049438024,1.5068972234225555,0.5694934467301209,-0.0016873466821643035,1.9356754903539126,-0.6631829350010232,-2.1719240514796745,-0.4441169218228749,0.15130289513652787,0.0011776965097387401
0.11,0.06650221990801075,1.631977013188002,-1.5120639841286567,0.016988344093057776,0.006423791891945832,8.244142134099113e-05,1.0834200792274664,0.9935001562035013,0.9006048260231675,0.25272643127227806,0.0967915425574445,0.0012010732854156971,8.88325527587754,7.498277717742734,5.876680974214521,1.358678869027699,0.5125733062910669,-0.003641748379019205,2.007504906165222,-1.120412424828924,-2.283813365540555,-0.46127076899315045,0.153143183914157,0.0011024871650928028
0.12,0.07821876568281283,1.642661683599221,-1.5024746945439746,0.01965345500252203,0.007450362486972053,9.495148551423825e-05,1.171654577480208,1.0684670411219008,0.9589289584682106,0.2665110909464256,0.10265705950262213,0.0012510064173247117,8.63494627188943,7.162953332578894,5.421769113867876,1.212036795477978,0.45535991828389655,-0.005443219779047048,2.0770315645158344,-1.5941089386093443,-2.3964214194921323,-0.4778709714636489,0.154487743114083,0.0010194001555193146
0.13,0.09079304200747028,1.6540624183302608,-1.492347393345786,0.022442303396439756,0.008530863336691027,0.00010786153249523512,1.2574276324657452,1.1400734731039794,1.0127301198188683,0.2788848393917724,0.1080500849718974,0.001291004698099687,8.367981417389979,6.811059948975947,4.959369866609785,1.0669818632589596,0.39841201197288,-0.007069885334009207,2.1423032718766923,-2.0805694992138646,-2.5086561915381544,-0.4937104391134968,0.15523137579381696,0.0009287037519782634
0.14,0.10419857864265292,1.6661439596986731,-1.4817280428018578,0.025340871206945958,0.009660540825638358,0.00012107524454333506,1.3405536635182642,1.208154136841225,1.0619350543928332,0.2898567810506201,0.11296774889473317,0.0013213712048099936,8.082608280796642,6.443773311379158,4.491594790842846,0.9237141042880808,0.34229321674324353,-0.008509655051902598,2.2013759097414844,-2.5759974620290746,-2.619410165930849,-0.5085869695872349,0.1552816199739015,0.0008308576633189654
0.15,0.11840707282771937,1.678869515554223,-1.470663131589934,0.02833526063694964,0.010834655355093158,0.0001345002484880681,1.4208494185066445,1.2725555855549935,1.1064911211923916,0.29943894300036816,0.11741145294548007,0.001342500394473305,7.77930714416569,6.0624454782096215,4.020606991337772,0.782568694701677,0.2875251957327549,-0.009759184533977283,2.252362808203852,-3.076556457845959,-2.7275843540815705,-0.5223089785735093,0.15456120182771244,0.0007265119210459486
0.16,0.13338843585346533,1.6922008953932934,-1.4591994624986302,0.031411734005945574,0.012048521590243954,0.0001480488560951872,1.4981363025745944,1.333137983907029,1.1463669091303732,0.30764733689959306,0.12138662351507955,0.001354860760711908,7.4587847754284375,5.6685833846512566,3.5486026898482788,0.6439722764576814,0.23456095376653252,-0.010822364998419154,2.2934868638752377,-3.578427757403327,-2.8321128447703323,-0.5347010185016556,0.15301006438859804,0.0006164980130501409
0.17,0.1491108622695444,1.7060986617808203,-1.4473839360543312,0.03455676070042515,0.013297544461119432,0.0001616386278030964,1.572242641607908,1.3897766387526849,1.1815526444299,0.31450266944795763,0.12490228708754779,0.0013589771707909206,7.121961156515868,5.263824804027512,3.0777886433817656,0.508407426763199,0.18377176155934905,-0.011708618129915749,2.323132738536952,-4.077869134976652,-2.931986968985175,-0.5456088572168477,0.1505868874256259,0.0005018126573598611
0.18,0.1655409204050997,1.7205222946933876,-1.4352633325091797,0.03775706832449322,0.014577249974541389,0.0001751927695435261,1.643005813555532,1.442363291256733,1.2120603545151576,0.3200307624068073,0.1279705513421957,0.0013554141740429707,6.769950388124764,4.849912387050785,2.6103569293499973,0.37638366293296244,0.13544330834432827,-0.01243119748081245,2.339896311350314,-4.571273191910983,-3.0262781359953914,-0.5549038979845999,0.1472700348982367,0.00038359496213384906
0.19,0.1826436623168977,1.735430366201796,-1.4228840948442365,0.04099969564117483,0.01588331046926421,0.00018864037983000234,1.7102741911797972,1.4908071508408536,1.2379237664943163,0.32426273166816066,0.13060604947228183,0.0013447610286476221,6.404037031355124,4.428666511866199,2.1484584705036234,0.24841380240042454,0.08977803589042566,-0.01300563399066057,2.342628610761434,-5.055223096419775,-3.114158428157702,-0.5624867473442123,0.14305789181488393,0.0002630980334870286
0.2,0.20038275082968637,1.7507807227905419,-1.410292115534363,0.044272045306770105,0.017211564341997967,0.0002019165679250121,1.7739088512788685,1.535035658874573,1.2591979309873407,0.3272349665595277,0.13282538727337595,0.0013276188095009758,6.025649152907914,4.001957690624538,1.6941765176980041,0.12499480931143125,0.04690146951165275,-0.013448408777893661,2.330471721236856,-5.5265438038927055,-3.194918132041235,-0.5682897764563063,0.137968580495491,0.00014165634650351174
0.21,0.21872060100354312,1.7665306725661283,-1.397532529800276,0.047561934752633976,0.01855803053821446,0.00021496246487289533,1.8337850173856738,1.5749949775586483,1.2759585734087067,0.32898894458638706,0.13464661962164917,0.0013045896947883242,5.636329305354072,3.5716792550439274,1.2495011434981338,0.006592479122904393,0.006870947361552027,-0.013775892488451902,2.3028846230178064,-5.98234703425064,-3.267979526842191,-0.5722785719085106,0.1320390751352409,2.065037011488957e-05
0.22,0.2376185331520987,1.7826371746334109,-1.3846495179531038,0.050857643876861,0.01991891827200641,0.00022772514841219764,1.8897932148555558,1.6106502067282644,1.2883011847172308,0.3295709124227024,0.1360887733791954,0.0012762683539302325,5.237704594738765,3.1397209888388,0.816305626041002,-0.1063705361777032,-0.030314429421725464,-0.01400355735130221,2.2596575386833875,-6.4200685845099486,-3.3329064374337714,-0.5744522296734733,0.12532376107934953,-9.85299776507199e-05
0.23,0.2570369344378743,1.7990570280135705,-1.3716861192334895,0.054147958483085235,0.02129063253768177,0.00024015750093825598,1.9418401285775582,1.6419853380159664,1.2963398719614254,0.32903146062242294,0.13717142656753592,0.0012432352526058324,4.8314568703192275,2.70794429602354,0.3963254243980545,-0.21352375906207044,-0.06470348496811695,-0.014145444929805073,2.200914073059363,-6.837496923798154,-3.38940927461313,-0.5748425065543307,0.11789250944972075,-0.00021452147452544288
0.24,0.27693542607619953,1.8157470576308006,-1.3586840592775071,0.05742220865154498,0.022669776020240444,0.0002522180172778325,1.9898491638325255,1.6690029617230016,1.30020599559823,0.32742501684597436,0.13791434825586743,0.0012060516339576512,4.419293933841174,2.278159398738208,-0.00885973113912053,-0.31455530619184113,-0.09638290668520355,-0.014213858273432134,2.127101181842751,-7.232792428415692,-3.437345512793657,-0.5735119022925586,0.10982835730663869,-0.000326021864148605
0.25,0.2972730332744529,1.8326642950977188,-1.3456835930222841,0.06067030145249717,0.024053148016570998,0.00026387057642051584,2.033760719825339,1.6917237466918253,1.300046625522289,0.3248092800952186,0.13833719963305546,0.0011652559142683347,4.002922505823199,1.8521049518040233,-0.39784028234543856,-0.4092159900665364,-0.12546784860042237,-0.014219239761090297,2.038967723011029,-7.604497039178654,-3.4767157788844663,-0.5705507981558895,0.101224897132958,-0.0004318209495787514
0.26,0.31800835520321713,1.8497661522711628,-1.3327233645117809,0.06388274761589939,0.02543774095548395,0.00027508418877251415,2.0735321928764177,1.7101857173444082,1.2960228510503333,0.3212446163402228,0.13845929389129524,0.0011213612351998294,3.5840235250009433,1.4314303518252547,-0.7693876293959789,-0.49732137273424254,-0.1520934618325036,-0.014170193962878885,1.9375329785622364,-7.951534534298157,-3.5076559293822465,-0.5660738205086905,0.09218348670750824,-0.0005308274418474902
0.27,0.3390997325244962,1.8670105858194006,-1.3198402846932404,0.0670506819547362,0.02682073506170966,0.00028583272811142014,2.109137732127909,1.724443354823776,1.288307981854052,0.3167934338836797,0.13829941062257117,0.0010748539338906004,3.1642301975509524,1.017680911163709,-1.1224612154133833,-0.5787520283697754,-0.1764074950647867,-0.014073616434658875,1.8240470357557488,-8.273201984526349,-3.530425662608746,-0.560215627934459,0.08281039129555887,-0.0006220907704637475
0.28,0.36050541027351446,1.8843562513281107,-1.3070694279215842,0.07016587750254344,0.028199491654004264,0.0002960946553137071,2.140567774901827,1.7345665508710013,1.277085677165629,0.3115195547807247,0.13787565922946038,0.0010261927202286987,2.7451090629774346,0.6122859664062694,-1.4562119914662937,-0.6534522631873023,-0.1985640183543822,-0.01393489331844655,1.6999452570240325,-8.569153273395187,-3.5453943398556245,-0.5531263364901328,0.07321396499946514,-0.0007048173584074316
0.29,0.3821836941897793,1.9017626457656718,-1.2944439475248886,0.07322075346842764,0.02957154550619274,0.00030585273913783293,2.167828391626486,1.7406394437561072,1.2625480396695594,0.30548759658842,0.1372053852188479,0.0009758083824125817,2.328144208428536,0.2165499005344088,-1.7699824506097273,-0.7214275343216805,-0.21871825859301985,-0.013758141719295125,1.566799233275969,-8.839375810215842,-3.553024767513117,-0.5449667994851886,0.06350196792309708,-0.0007783811596329942
0.3,0.4040930989064079,1.919190237419304,-1.2819950104394648,0.07620837723506696,0.03093459663662552,0.0003150937778796488,2.1909404716628527,1.7427591653632077,1.2448937085423777,0.2987623766639322,0.13630511304327786,0.0009241038741815863,1.9147246458304545,-0.16835401973888245,-2.0633035041761865,-0.7827408018765913,-0.23702248995086883,-0.013546466397232837,1.4262666102975574,-9.084161729591438,-3.553855720980195,-0.5359039468516704,0.0537791016250333,-0.0008423285341075904
0.31,0.4261924867222868,1.9366005826946562,-1.2697517506062612,0.07912246072690468,0.03228650182926908,0.00032380832455517443,2.2099387815878972,1.741034527535217,1.224325983320355,0.2914083491837724,0.13519051926435566,0.0008714546675525638,1.5061347682141868,-0.541387153745225,-2.3358885365106707,-0.8375080389218716,-0.2536228935519116,-0.01330221371124129,1.2800420206742449,-9.304074957299571,-3.548483973217018,-0.5261063667406256,0.04414482843547921,-0.0008963777790338523
0.32,0.4484411959894908,1.9539564294361782,-1.2577412405374988,0.08195735155739556,0.033625266130680925,0.0003319904173783556,2.224870926720398,1.7355846741522054,1.201051006876235,0.2834890830490883,0.13387643014118436,0.0008182092823181161,1.1035477233485744,-0.9016465553813809,-2.5876250166756205,-0.885893112187361,-0.26865728382515996,-0.013027208820096808,1.129811073226481,-9.499915532911842,-3.5375465324417172,-0.5157402811651093,0.034691521890403455,-0.000940413834470861
0.33,0.47079915844053444,1.9712218066691205,-1.2459884802177676,0.08470801942648096,0.03494903451286713,0.0003396373166495821,2.2357962451043654,1.726537723294236,1.175276031973119,0.2750667869085404,0.13237683821861995,0.000764689927122646,0.7080214836917937,-1.248363847327611,-2.8185640690149363,-0.9281022314846012,-0.28225359128190153,-0.01272296645950649,0.9772089840359454,-9.672682523353483,-3.521703703272566,-0.5049660313798154,0.025502977021064868,-0.0009744788308441913
0.34,0.4932270050504312,1.988362100882768,-1.234516402299527,0.08737003828352545,0.03625608384333545,0.0003467492487161656,2.2427846609896793,1.714029421364755,1.1472077918240704,0.2662018857044496,0.13070493304683264,0.0007111932066583485,0.3204973504113895,-1.580902170164306,-3.0289084110779476,-0.9643781486702068,-0.29452899032689706,-0.012390869400733528,0.8237850156446609,-9.823536750878052,-3.5016234734349347,-0.49393515033912205,0.016653291600232933,-0.0009987592428925274
0.35000000000000003,0.5156861602729245,2.005344119166319,-1.2233458923896692,0.0899395647981269,0.03754481526094853,0.00035332915736905994,2.2459155222493203,1.698201828355101,1.1170509909857724,0.25695265146014534,0.12887314176130796,0.000657990865289432,-0.05819939603629264,-1.8987514861339199,-3.218999059781381,-0.9949942677385408,-0.3055895640397307,-0.012032311729003098,0.670973460200067,-9.953764407537815,-3.47796760410486,-0.4827880618531065,0.00820611354886788,-0.001013570461254201
0.36,0.5381389247060258,2.0221361396726327,-1.2124958231007215,0.0924133136931418,0.03881374701954061,0.00035938246286540437,2.2452764433101327,1.6792020506313783,1.0850069288947632,0.24737488950149006,0.1268931758592076,0.0006053305496344434,-0.4273569976938185,-2.2015225177780535,-3.3893011874743744,-1.020248807036074,-0.3155304041168012,-0.011648806518615551,0.520071489792143,-10.064742450517125,-3.451379675521122,-0.4716524113449224,0.00021423616880702784,-0.0010193395939941934
0.37,0.5605485464279252,2.038707950020856,-1.2019831004554171,0.09478853049275282,0.04006150783055462,0.0003649168286819359,2.2409621721899446,1.6571810348222884,1.0512722645304364,0.23752167996110138,0.12477608110140148,0.0005534365816531526,-0.7863731720705528,-2.488939593853872,-3.540389481442735,-1.0404591332133268,-0.32443605217234905,-0.011242059363653745,0.37222382789346586,-10.157906482323217,-3.422475218817329,-0.4606420031888593,-0.0072804879370452396,-0.00101658727286438
0.38,0.5828792814003794,2.0550308743574903,-1.1918227211839305,0.09706296222536338,0.041286830710897185,0.0003699419360821843,2.2330734972454223,1.632292433663468,1.0160379271486564,0.22744317326105568,0.12253228803425607,0.0005025107400248376,-1.1347498057771148,-2.7608326605716265,-3.67293332584649,-1.0559563650827783,-0.3323811975699478,-0.010814010585304734,0.22841388692280717,-10.234721628891299,-3.391833956494075,-0.4498562956171369,-0.01424695131963648,-0.0010059091711858033
0.39,0.6050964434637387,2.0710777898782458,-1.1820278394355588,0.09923482659848994,0.042488547322410364,0.00037446926659774507,2.2217162063359295,1.6046915520755587,0.9794881748371678,0.21718643731265483,0.12017166115131803,0.0004527330515560756,-1.4720866619789068,-3.0171286969872946,-3.7876820864475533,-1.0670803246137996,-0.3394315563047412,-0.010366849894389851,0.0894607780748693,-10.29665674711564,-3.359994082001789,-0.43938038664080004,-0.020664356672707357,-0.0009879578505866886
0.4,0.6271664445474423,2.086823133671925,-1.1726098414371633,0.1013027801325691,0.04366558277437307,0.0003785118925619804,2.207000108370362,1.5745343793679283,0.9417997998395494,0.2067953534079169,0.11770354519627026,0.00040426259642353124,-1.7980743534900225,-3.2578427508880394,-3.885450737787173,-1.074174892383283,-0.3456448648804358,-0.00990300787569387,-0.043978566714559714,-10.34516212869403,-3.3274484360300973,-0.42928541330039677,-0.026521586992922983,-0.0009634254507994884
0.41000000000000003,0.6490568257942159,2.1022429007849284,-1.1635784266651774,0.10326588570456,0.04481695084978424,0.0003820842758785686,2.1890381246773525,1.5419767113003433,0.9031414771985875,0.19631055719908932,0.11513680754111731,0.00035723833165882444,-2.1124868087718873,-3.4830687870897274,-3.96710603145534,-1.077583806333676,-0.35107193233599254,-0.00942512893075964,-0.17140301763603832,-10.38165072453997,-3.294642384039363,-0.4196292813683846,-0.031816425731957,-0.0009330276279447949
0.42,0.6707362803477904,2.117314634423128,-1.1549416941523218,0.10512357991213613,0.04594174960934268,0.00038520207524672537,2.167945455357455,1.5071733638199931,0.8636732512855627,0.18576942075761357,0.11247987595584423,0.00031177993681567276,-2.4151734318233116,-3.692970514904235,-4.033553364150055,-1.0776469260410693,-0.355757702468555,-0.008936030323474009,-0.2924575065291263,-10.407482796153257,-3.2619731656097883,-0.4104576425748473,-0.03655467004387242,-0.0008974890386879583
0.43,0.6921746685853567,2.132017409209412,-1.1467062326203412,0.10687564062670295,0.0470391573235148,0.00038788196209245824,2.143838823756629,1.4702774786283845,0.8235461531980687,0.17520607145668166,0.10974077141721235,0.0002679886845732889,-2.7060511301900556,-3.8877723365832257,-4.085724466489284,-1.0746969700050606,-0.35974228678231235,-0.008438651812514575,-0.4069207979660213,-10.423953808037947,-3.229790469512128,-0.40180504054000105,-0.0407491770373987,-0.0008575305655345233
0.44,0.7133430265898445,2.146331808402607,-1.138877213212308,0.10852215505984479,0.04810842868236739,0.00039014144546604935,2.1168358004487775,1.4314399193194904,0.7829019408033182,0.16465144331418408,0.10692713588525878,0.000225948337359113,-2.9850963590702633,-4.067750534564335,-4.124565998798189,-1.0690567209433262,-0.36306193666530717,-0.007935999996121712,-0.514691589666349,-10.43228530771349,-3.198397986485192,-0.3936961538163739,-0.044418878695335964,-0.0008138583861396118
0.45,0.7342135686561083,2.1602398959591804,-1.1314584836888455,0.11006348862430271,0.049148891234445644,0.0003919987061583124,2.087054206626383,1.3908087556573456,0.7418729523462456,0.1541333564457912,0.10404625520782484,0.00018572606922630588,-3.2523373044971,-4.2332247929006535,-4.151029108918384,-1.0610366836963046,-0.36574993073622153,-0.00743109103108841,-0.6157736743613987,-10.433618495091965,-3.1680557016198154,-0.38614707373673746,-0.04758779621747716,-0.0007671549093478695
0.46,0.7547596846117088,2.1737251842853063,-1.1244526630488831,0.11150025482821575,0.05015994200942446,0.0003934724402620862,2.054611595560051,1.3485288326125806,0.7005820639962446,0.1436766203913048,0.10110507749788139,0.00014737341037737814,-3.507846305378628,-4.384550127736203,-4.166059979793127,-1.0509331720884987,-0.36783736015712165,-0.0069268948338880865,-0.710260791995294,-10.429010158223267,-3.1389827069908653,-0.37916656518929104,-0.05028407932874246,-0.0007180715340764912
0.47000000000000003,0.7749559327095304,2.1867725984856445,-1.1178612356345425,0.11283328640093157,0.05114104428410479,0.0003945817123626667,2.0196248097821625,1.3047414200338125,0.6591427414340587,0.13330315727158204,0.09811022746803343,0.00011092721005804954,-3.7517325931526435,-4.522109283350716,-4.17059137129681,-1.039026794883835,-0.3693538008847561,-0.006426283319102,-0.7983216899012275,-10.419430644447463,-3.111360339883957,-0.3727572691960849,-0.05253909086438888,-0.0006672231344469797
0.48,0.7947780288180812,2.19936843786834,-1.1116846438791335,0.11406360781082354,0.05209172445715209,0.00039534581848368005,1.9822096108550786,1.2595839382695342,0.617659175540897,0.12303214098919711,0.09506801730472997,7.641061210133263e-05,-3.9841354090881445,-4.646305634234616,-4.1655351414817225,-1.0255813066114996,-0.37032786737656664,-0.0059319845881082855,-0.8801857971210476,-10.40576354151202,-3.0853354800689985,-0.36691681661269093,-0.05438655193065957,-0.000615184135293903
0.49,0.8142028325978566,2.211500335414903,-1.1059223789550812,0.1151924093006853,0.05301156900439936,0.000395784158847388,1.9424803779775357,1.2131897546563186,0.5762264924052269,0.11288014898617543,0.0919844547247266,4.383403637079106e-05,-4.205217543071619,-4.757556619926296,-4.151775716952268,-1.0108427864077072,-0.37078764704435585,-0.005446544431990441,-0.9561298133568178,-10.388806759004224,-3.0610238689236553,-0.3616388319239021,-0.05586175831643975,-0.0005624860153181042
0.5,0.8332083313102432,2.223157215870167,-1.100573068673377,0.1162210225346891,0.05390022149322618,0.00039591612043393654,1.90054987123866,1.165688045526432,0.5349310281704174,0.10286132340038054,0.08886524888268237,1.319615865485471e-05,-4.415159323861352,-4.85628772783995,-4.130164470209981,-0.995039106866038,-0.37076101881880774,-0.004972295942579863,-1.026465417282031,-10.369274723543766,-3.0385133420861052,-0.3569138146655655,-0.05700087471320866,-0.0005096160592715584
0.51,0.8517736218604836,2.234329253052567,-1.0956345620766532,0.11715089792273344,0.054757379641183115,0.0003957609692469056,1.8565290550240314,1.1172037182400172,0.49385065967238895,0.0929875388044329,0.08571581479569339,-1.5515118703092054e-05,-4.614153079290147,-4.942927029939228,-4.101514953240722,-0.9783796550067763,-0.37027586252174416,-0.004511337567483009,-1.091528215689742,-10.347801428996506,-3.0178668944487246,-0.35272989328162263,-0.057840309755056885,-0.00045701717404409055
0.52,0.8698788916293726,2.2450078269294926,-1.0911040102533767,0.11798358366328653,0.055582792410410316,0.0003953377521159228,1.8105269768889078,1.0678573876925597,0.453055182327645,0.08326857405530892,0.08254127692272022,-4.232171309827713e-05,-4.8023980755648426,-5.017900271696679,-4.066598930982967,-0.9610552686914104,-0.36936016831652196,-0.0040655194696551655,-1.1516679854082557,-10.32494411332991,-2.9991255208289913,-0.3490734521681036,-0.05841617194267005,-0.0004050885846497096
0.53,0.887505398600556,2.25518548094717,-1.0869779429803865,0.11872070652447207,0.05637625713530247,0.0003946652077952531,1.7626506971183389,1.0177654017677664,0.4126067272990146,0.07371228611855399,0.07934647248921557,-6.725443206696977e-05,-4.980095937455983,-5.0816265061192825,-4.0261431552796045,-0.9432383538237055,-0.36804205742953044,-0.0036364377700707218,-1.2072402041969252,-10.301187364881258,-2.9823107970644642,-0.34592963729214565,-0.05876380415746979,-0.0003541872332173013
0.54,0.9046354512422827,2.2648558800499874,-1.0832523408747547,0.11936395436497749,0.05713761668614416,0.00039376168705195435,1.713005264172674,0.9670399102817173,0.37256021056317273,0.06432478405054194,0.07613595508416868,-9.03520743298733e-05,-5.147446545588339,-5.134514261511916,-3.980826819074645,-0.9250831504116874,-0.3663497265804203,-0.003225435919032127,-1.258598824276651,-10.27694749140925,-2.9674271843620232,-0.34328274919835333,-0.05891739267256362,-0.0003046297156103972
0.55,0.921252388554804,2.274013769770794,-1.0799227028036698,0.11991506038116297,0.05786675667597317,0.00039264508138158247,1.661693731252124,0.9157889720806526,0.3329638071085001,0.05511060161854818,0.07291399898290163,-0.00011166056703719007,-5.304644403009399,-5.176958228864452,-3.9312796316418313,-0.906726118698657,-0.36431132922528775,-0.002833612287206355,-1.306090211546585,-10.252577014369084,-2.954464054500999,-0.341116534562644,-0.05890964527690753,-0.0002566946048486376
0.56,0.9373405606477047,2.282654936721782,-1.0769841083628149,0.12037578905423746,0.05856360272165655,0.00039133275994448027,1.6088172092900663,0.8641166950988171,0.2938594440854794,0.04607286730744946,0.06968460456833807,-0.00013123214371021916,-5.451875460497888,-5.209336453071111,-3.8780804581403006,-0.888286420066482,-0.36195480688454396,-0.0024618329223790036,-1.3500481533686524,-10.228369177732231,-2.9433974451226863,-0.33941438888273723,-0.05877153228879687,-0.00021062502687722336
0.5700000000000001,0.9528853101655891,2.290776170765215,-1.0744312752898173,0.12074792376123801,0.05922811777305353,0.0003898415142826336,1.5544749517884446,0.8121234043432933,0.25528330729976456,0.03721347070005568,0.06645150513969761,-0.0001491245661846677,-5.589314388458609,-5.232008011397726,-3.8217564704783573,-0.8698664710260253,-0.3593076835395088,-0.0021107483618274525,-1.3907898264087195,-10.204562384965632,-2.934191563119535,-0.33815948356859793,-0.058532083780413524,-0.00016663137144806722
0.58,0.9678729548358778,2.2983752290946238,-1.0722586117301314,0.12103325600547783,0.059860299526193234,0.0003881875103561912,1.4987644670288713,0.7599058329408758,0.21726635596858887,0.028533224423982203,0.06321817531397031,-0.00016540039264423934,-5.71712228250924,-5.245311162499858,-3.762782761006199,-0.8515525522775995,-0.35639683547466916,-0.0017808133803627335,-1.4286126117485403,-10.181344499304497,-2.9268000604112476,-0.3373348307742371,-0.058218236201875384,-0.00012489403815007965
0.59,0.9822907713690887,2.3054508024101334,-1.0704602633186735,0.12123357621578629,0.06046017793763836,0.0003863862474298614,1.4417816533210916,0.7075573315509666,0.1798348411457919,0.02003202103084553,0.05998784114451258,-0.0001801262926329804,-5.835444789796429,-5.249561949660936,-3.7015823756784965,-0.833415458395784,-0.35324824803389276,-0.001472308608286621,-1.4637916457628781,-10.158856961168095,-2.921167110529458,-0.3369232989397333,-0.05785472171889221,-8.556613436809109e-05
0.6,0.996126980899884,2.3120024833262676,-1.0690301550821364,0.1213506660589263,0.06102781285768824,0.0003844525233416295,1.3836209530795314,0.6551680916134197,0.14301082365371864,0.011708984314001903,0.05676349200498834,-0.0001933724088231896,-5.944410643479339,-5.245053242575569,-3.638526728761433,-0.8155111771120698,-0.34988676968881904,-0.0011853629982626068,-1.4965780006817302,-10.13719869256309,-2.9172283167893807,-0.3369075913164762,-0.05746399390522726,-4.87760577388872e-05
0.61,1.0093707361163238,2.318030737106851,-1.0679620282047515,0.12138629220572902,0.061563291799858214,0.00038240040569900144,1.3243755216439768,0.6028253780583285,0.10681268773849548,0.0035626146802720526,0.05354789421699757,-0.00020521176426280735,-6.044130593507106,-5.232054202780909,-3.573936366673238,-0.7978815903473269,-0.34633587261133414,-0.0009199762570043513,-1.5271973971066364,-10.116429771758384,-2.9149114837422405,-0.33727019883607007,-0.05706618390818899,-1.4629910239714262e-05
0.62,1.0220121101851147,2.323536874779398,-1.0672494717348717,0.12134220148844004,0.06206672786323082,0.0003802432085693851,1.2641374068790923,0.5506137672547275,0.07125564698798537,-0.00440907172889868,0.05034360633726064,-0.00021571971296163278,-6.1346967226177584,-5.2108101585703555,-3.508082053932746,-0.7805551920109437,-0.34261742767654724,-0.0006760404527260677,-1.55584936099742,-10.096574872604066,-2.91413728337427,-0.3379933376395377,-0.05667908178743944,1.6786295758717415e-05
0.63,1.0340420875420975,2.3285230286405736,-1.0668859493416674,0.12122011738426117,0.0625382578228886,0.00037799347426011715,1.2029977356982795,0.4986153861175344,0.03635223932043435,-0.012208410417886322,0.047152995965778224,-0.00022497343092679645,-6.2161821372412955,-5.18154287577232,-3.441186159244621,-0.7635478201313948,-0.33875150055385106,-0.0004533601550399391,-1.5827067489584539,-10.07762647183819,-2.914819846401076,-0.339058880473781,-0.05631813837625248,4.54046673643726e-05
0.64,1.0454525565797048,2.3329921301248597,-1.0668648212609693,0.12102173775785963,0.06297804040179049,0.0003756629598181066,1.1410469037607245,0.4469101484286157,0.0021128080698083126,-0.01983796264015411,0.04397825789018886,-0.00023305144420105548,-6.28864102355698,-5.144451211007055,-3.3734243243148674,-0.7468634030219228,-0.33475617429780513,-0.0002516705810253761,-1.6079155773749245,-10.059547834810747,-2.9168673072076046,-0.34044829003358634,-0.05599648369810287,7.117371446326461e-05
0.65,1.0562363042265868,2.336947889970478,-1.0671793615973086,0.12074873379350162,0.06338625473522679,0.0003732626279176466,1.078374764688192,0.3955759845618221,-0.03145403363393599,-0.027300396435800182,0.04082143334362926,-0.00024003319004599802,-6.352109059202409,-5.099712133840431,-3.304927401903022,-0.7304947209395127,-0.3306474026683688,-7.065338049139225e-05,-1.6315951025754023,-10.042275795482032,-2.9201823286684188,-0.34214256121099706,-0.055724958663916045,9.40568948714217e-05
0.66,1.0663870123790204,2.3403947805798526,-1.067822771175892,0.1204027500452851,0.06376309903646173,0.00037080264184550696,1.0150708152433603,0.34468906093744117,-0.06434095785834461,-0.03459837482165257,0.03768443012349459,-0.00024599860721396285,-6.406604170956184,-5.047482103543346,-3.2357836527545256,-0.7144241860156271,-0.32643889730305276,9.00502056581376e-05,-1.6538381103541955,-10.02572335053068,-2.9246626303741614,-0.34412217812745616,-0.05551215745533828,0.00011403142188250459
0.67,1.0758992561091045,2.343338020436592,-1.0687881861639192,0.11998540553156882,0.06410878946942407,0.00036829236433372274,0.951224373008419,0.294323985673938,-0.09654149880272617,-0.0417344513716273,0.03456904329623474,-0.00025102775117842493,-6.452127628021679,-4.9878987848695076,-3.1660411933093666,-0.6986246441238926,-0.3221420508382522,0.00023082893762835233,-1.6747113836033438,-10.009782090122723,-2.930201540779409,-0.3463670907756068,-0.05536447864996572,0.00013108732793266827
0.68,1.0847685035411692,2.3457835604071917,-1.0700686827055288,0.11949829579703712,0.06442355923140697,0.0003657403600306294,0.8869247432064562,0.24455399705995462,-0.12804965416096376,-0.048710973453170034,0.03147697619828944,-0.0002552004303093331,-6.488665459264335,-4.921083085341967,-3.095710687365747,-0.6830602028001849,-0.3177658971674262,0.0003520939489107533,-1.6942563262899522,-9.994324489511518,-2.936688590538593,-0.34885671508703897,-0.055286183752029046,0.0001452267722049052
0.6900000000000001,1.092991117255415,2.3477380717236276,-1.0716572778388707,0.11894299586285371,0.06470765784575494,0.00036315440143845564,0.8222613714245803,0.19545113164359895,-0.15885951333419152,-0.055529993418340945,0.028409861434797862,-0.0002585958592173803,-6.51619018085867,-4.8471414939744095,-3.024768275130848,-0.6676870893549864,-0.31331710915463873,0.0004542738185633888,-1.7124897304369489,-9.979206086300033,-2.9440101608558558,-0.3515699592650099,-0.05527946234557745,0.00015646357488631148
0.7000000000000001,1.1005643570467447,2.3492089354129826,-1.0735469269873767,0.11832106398203858,0.06496135066151142,0.0003605414781797547,0.7573239791329789,0.14708636893550436,-0.18896491485060468,-0.06219318808151331,0.02536928157564696,-0.00026129232587009,-6.534662818270513,-4.7661686981610405,-2.9531587322975756,-0.6524545429003492,-0.3088000333954355,0.0005378121820553694,-1.7294046800340206,-9.964267568021713,-2.952050197075283,-0.354485278269859,-0.05534450357780416,0.00016482295635780807
0.71,1.10748638383729,2.3502042329125152,-1.0757305183401524,0.1176340461135822,0.06518491855403033,0.00035790780948409426,0.692202679054525,0.09952974995327707,-0.21835913527756193,-0.06870178684563745,0.02235678925189206,-0.00026336686956604424,-6.544035203359038,-4.678250451701857,-2.8807988499357826,-0.6373057432296836,-0.3042167609106947,0.000603167649500802,-1.7449715918558193,-9.949336793786399,-2.960690994009304,-0.35758075741198103,-0.055479574100324065,0.00017034145574385112
0.72,1.113756264513602,2.3507327375835505,-1.0782008644583565,0.11688348102496135,0.06537865781767564,0.00035525885980991343,0.6269880676312104,0.05285046710354429,-0.24703461182039954,-0.07505650886208606,0.01937392636453059,-0.000264894967418081,-6.544252523683921,-4.583466662667956,-2.8075810231423217,-0.622178778302322,-0.2995672320467939,0.000650815731666754,-1.7591393979497336,-9.934230772180687,-2.9698140556761263,-0.36083422508653124,-0.05568110293967129,0.00017306699991454384
0.73,1.119373977434224,2.350803906815639,-1.080950691465187,0.11607090592874636,0.06554288023899049,0.0003525993575335082,0.561771292062195,0.0071169232088448275,-0.27498270068305053,-0.08125750962149861,0.01642224213148538,-0.0002659502276405192,-6.535256096937366,-4.481894665179644,-2.733377032619768,-0.6070076505954489,-0.29484937329315386,0.0006812524321920532,-1.7718368780386085,-9.918757615486287,-2.979301028230237,-0.36422339377232965,-0.05594377402968269,0.00017305909117899232
0.74,1.124340418330807,2.350427874394077,-1.0839726261962706,0.11519786255502798,0.06567791333616219,0.0003499333166473517,0.49664408965830575,-0.037603242156199965,-0.3021934731083679,-0.08730433737183842,0.013503309717169364,-0.0002666040886156526,-6.51698633891287,-4.373612634317021,-2.6580419987866772,-0.5917233208104804,-0.2900592632080716,0.0006949991269638578,-1.7829741522346343,-9.902718487656273,-2.9890347009730682,-0.3677260275156775,-0.05626062731337102,0.00017038907953322268
0.75,1.1286574063065353,2.3496154427895832,-1.0872591817044013,0.11426590355760441,0.06578410074828134,0.0003472640614131586,0.43169879757282587,-0.08124316044938601,-0.328655550813068,-0.09319589974235762,0.010618741211915191,-0.0002669255234193101,-6.4893858887314355,-4.25870309850149,-2.581418482818102,-0.576254785436694,-0.2851913241771733,0.0006926083391093907,-1.7924443452573442,-9.88590956043867,-2.998900066488215,-0.37132013323388335,-0.05662316940701878,0.0001651404834541401
0.76,1.132327689619838,2.3483780750191663,-1.0908027415271722,0.11327659914844164,0.06586180275583643,0.0003445942539114364,0.36702833133026835,-0.12373677704169381,-0.3543559822770906,-0.09893044091627715,0.0077702007555090855,-0.0002669807501722196,-6.452402850359201,-4.137256498984874,-2.5033407033841364,-0.5605301825513802,-0.28023853630199724,0.0006746699881327867,-1.800125432778789,-9.868123988630089,-3.0087854272369565,-0.3749841723146413,-0.05702149481249444,0.00015740932191555656
0.77,1.135354950929673,2.3467278857224807,-1.094595543137529,0.11223154385204825,0.0659113969121343,0.00034192592441868296,0.30272613098350765,-0.1650189296685683,-0.3792801610356721,-0.10450552963933818,0.004959415629786475,-0.0002668329492753441,-6.405994104979918,-4.0093747418006895,-2.4236388320267217,-0.5444779180638921,-0.27519266934749353,0.000641817714929882,-1.8058822785864037,-9.849153911755398,-3.0185835324708,-0.37869728817277787,-0.057444418564784334,0.00014730441961760386
0.78,1.1377438116715033,2.3446776310986635,-1.0986296610050552,0.11113236326929415,0.0659332787639272,0.00033926050452670397,0.23888607418303867,-0.20502546238174507,-0.4034117867526174,-0.10991805827540997,0.0021881851792899146,-0.0002665419891979007,-6.350128644759571,-3.875174683909928,-2.342143324370878,-0.528027802461482,-0.2700445283487767,0.0005947348943975417,-1.8095688679848758,-9.828792485584033,-3.0281927261769335,-0.3824395446771902,-0.05787962101210807,0.00013494764745550773
0.79,1.1394998352308618,2.342240697355152,-1.102896989699315,0.10998072073905232,0.06592786263848716,0.0003365988628963872,0.1756023559358448,-0.24369337435112873,-0.42673286942598604,-0.11516425302418375,-0.0005416125440044039,-0.00026616416303167897,-6.284790875191661,-3.734791492561046,-2.258689238974619,-0.5111121861152998,-0.2647842082322249,0.0005341599614804848,-1.8110307383096806,-9.80683594289811,-3.0375180840877727,-0.38619216970399095,-0.05831380514986206,0.00012047406110304786
0.8,1.1406295285844483,2.339431087332568,-1.1073892274652777,0.10877832378604337,0.06589558247372128,0.0003339413435114031,0.11296933535865854,-0.2809610022584132,-0.4492237765962614,-0.12023969530089525,-0.003228016476587032,-0.0002657519384984085,-6.2099838307689055,-3.5883818153129132,-2.1731204908935577,-0.49366707941010013,-0.2594013526290695,0.000460890726669716,-1.810107601692401,-9.783085678916935,-3.04647251567926,-0.38993779753590757,-0.05873286657403033,0.00010403190234122742
0.81,1.141140342087271,2.336263404988564,-1.1120978606942646,0.10752693024458443,0.06583689266768461,0.0003312878062670013,0.05108135028227684,-0.3167682344003882,-0.4708633228986913,-0.12513935414589422,-0.005868980603667242,-0.000265353724440185,-6.12573224740083,-3.436126697947333,-2.0852939832425355,-0.47563324250830874,-0.25388541197173,0.00037578740770372043,-1.8066361484441404,-9.757350352857216,-3.054977805672701,-0.39366070344287374,-0.05912207569481886,8.5782430501301e-05
0.8200000000000001,1.1410406670985602,2.332752837448628,-1.1170141497016175,0.10622835395072676,0.06575226892402823,0.00032863766969662314,-0.009967498871073413,-0.35105675399362335,-0.4916289007352802,-0.12985762938576717,-0.00846237436563754,-0.0002650136570378168,-6.0320854349654205,-3.2782341887971223,-1.995083557460065,-0.4569572284844874,-0.24822589599715528,0.0002797741356812544,-1.800453011802871,-9.729447993371,-3.0629655689493105,-0.3973470235736995,-0.05946627137068534,6.589955516479626e-05
0.8300000000000001,1.1403398311590658,2.328915134363042,-1.122129116204118,0.10488446989961504,0.06564220907051924,0.0003259899556053989,-0.07008359394945254,-0.38377030855862426,-0.5114966502500565,-0.13438840511117117,-0.011005985350899148,-0.0002647714091224222,-5.929119894785469,-3.1149415709536137,-1.9023837018391876,-0.43759236298686766,-0.24241261590373142,0.00017383878701815458,-1.7913978665742603,-9.699208092157665,-3.070378093073181,-0.40098495328987394,-0.05975006460358755,4.456924608847989e-05
0.84,1.1390480904577454,2.3247665843462726,-1.1274335328659992,0.10349721877087412,0.06550723382877482,0.0003233433353465897,-0.12917407013203813,-0.4148550016769456,-0.5304416661881226,-0.13872511287409256,-0.01349752417444115,-0.0002646620258809175,-5.816941629735626,-2.946517168448694,-1.807112958374602,-0.41749964351561175,-0.2364359116882646,5.903103765536599e-05,-1.7793166256895496,-9.66647366698961,-3.0771690438562826,-0.4045649173005281,-0.05995805039821787,2.198870217030994e-05
0.85,1.1371766193564865,2.3203239883175124,-1.1329179152522084,0.10206861073243681,0.06534788751474385,0.0003206961774456807,-0.18714711012588067,-0.4442596028760218,-0.5484382386209076,-0.1428608038437302,-0.01593463140309708,-0.00026471579009090454,-5.695688099138537,-2.77326167882355,-1.7092169702018376,-0.3966485419144661,-0.2302868605753936,-6.354138499253814e-05,-1.764064690266284,-9.631103272815464,-3.0833040116121855,-0.4080797054253946,-0.06007502535392245,-1.634731936579005e-06
0.86,1.1347374967769221,2.3156046296083077,-1.1385725164916525,0.10060072844242693,0.06516473865121239,0.00031804659624856517,-0.24391225795642985,-0.47193587092046496,-0.5654601239444048,-0.14678822900098742,-0.01831488635314627,-0.00026495811971155255,-5.565529776548045,-2.5955089924070216,-1.6086711159252705,-0.3750176947288697,-0.22395746297161878,-0.00019271821303373793,-1.7455102007879288,-9.592972937586982,-3.088760878914517,-0.4115245685234711,-0.06008620805250418,-2.6084905357833953e-05
0.87,1.1317436892930237,2.3106262407543956,-1.1443873249118717,0.09909572917940823,0.06495838047566206,0.0003153925012461705,-0.2993807483898374,-0.4978388853912104,-0.5814808420219215,-0.15049992630186945,-0.020635817555033242,-0.0002654095002394669,-5.426671275827615,-2.413626467971696,-1.5054826829084371,-0.352595467720322,-0.21744080302757496,-0.0003272937970322243,-1.723537229944513,-9.551977998058552,-3.0935299947362807,-0.4148972700709743,-0.05997745885366211,-5.1138452265923345e-05
0.88,1.1282090308162431,2.3054069669431003,-1.1503520648605274,0.09755584604335421,0.06472943132911681,0.000312731646709082,-0.35346584767806427,-0.5219273811295075,-0.5964739948655655,-0.1539883136054014,-0.022894914654524777,-0.00026608545370884756,-5.279352019430347,-2.228014644985928,-1.3996925390320425,-0.3293803829482034,-0.21073118162603777,-0.00046602575036130967,-1.6980488519353172,-9.508034810075229,-3.0976141446842655,-0.41819809003280184,-0.05973549533759529,-7.6566621892351e-05
0.89,1.124148198805687,2.299965326143866,-1.156456200879006,0.09598338818288711,0.0644785349141134,0.000310061681252805,-0.4060832010556087,-0.5441640799234292,-0.6104136018478492,-0.15724578604671047,-0.025089641500340563,-0.00026699654562770174,-5.1238464322275385,-2.0391063841354926,-1.2913762713144838,-0.30538139941431286,-0.20382422045715032,-0.0006076448517284838,-1.6689700190498522,-9.461082307817614,-3.1010283124993157,-0.42142977901435,-0.059348099364878185,-0.0001021373256446479
0.9,1.1195766869831998,2.294320166006572,-1.1626889453402156,0.09438074001843608,0.06420636041255302,0.0003073801969479485,-0.457151182248707,-0.5645160137293981,-0.6232744461209672,-0.16026481644510376,-0.02721745015603772,-0.0002681484304856537,-4.960463654322999,-1.8473654398109434,-1.180644769886408,-0.28061804119774525,-0.19671693671483936,-0.0007508659467903578,-1.6362501744977125,-9.411083387109965,-3.103799233868095,-0.424597462160645,-0.05880431157757622,-0.00012761737129154602
0.91,1.114510774581293,2.2884906176690127,-1.1690392696073006,0.09275035944569829,0.06391360245686327,0.00030468477758991054,-0.5065912401906751,-0.5829548337559235,-0.635032426708511,-0.16303805727377893,-0.029275795568975974,-0.0002695419358037958,-4.789546776697612,-1.653284480464232,-1.0676442467901701,-0.2551203701971989,-0.1894077888629404,-0.0008943995498190138,-1.599865531068378,-9.358026089200914,-3.105964749652485,-0.42770849383256326,-0.058094609158855254,-0.00015277484638043758
0.92,1.108967492199554,2.2824960466700803,-1.1754959187136147,0.09109477501885012,0.06360098095054488,0.0003019730457496904,-0.5543282381738974,-0.5994570998932286,-0.6456649106314056,-0.1655584426848176,-0.03126215063183842,-0.00027117318402201154,-4.611471613904983,-1.4573825847347979,-0.9525556905838082,-0.22892880391962844,-0.18189669480986126,-0.0010369638454020835,-1.5598209484919794,-9.301924563350008,-3.1075729716342457,-0.4307722656727402,-0.05721106281154848,-0.00017738160619395392
0.93,1.1029645843914584,2.2763560012175934,-1.1820474295080339,0.08941658212803222,0.06326924073672266,0.0002992427082406809,-0.6002907808095739,-0.6140045452486914,-0.6551510794419095,-0.16781928908178956,-0.03317402138222234,-0.0002730337509009516,-4.426645038027374,-1.2602022526428405,-0.8355937693727262,-0.2020937820945079,-0.17418502466742325,-0.0011772967735307893,-1.516151348447645,-9.242819789041837,-3.1086812795338146,-0.4337999722093113,-0.05614746921313876,-0.00020121581596350288
0.9400000000000001,1.0965204691473895,2.270090158108212,-1.1886821521547128,0.08771843820040216,0.06291915111569443,0.0002964915996553486,-0.6444115244068904,-0.6265843109381225,-0.6634722646679011,-0.1698143927630059,-0.035008962102822914,-0.00027511085853322765,-4.235502907366253,-1.0623059815662428,-0.7170052062794823,-0.17467528913955732,-0.1662755710163637,-0.0013141679015566399,-1.4689226150001766,-9.180780041625772,-3.109355173137407,-0.4368043395653699,-0.05489945565209955,-0.0002240644930218279
0.9500000000000001,1.0896541944802236,2.2637182666404403,-1.1953882748238303,0.08600305696819711,0.06255150521461508,0.0002937177236496489,-0.6866274667165996,-0.6371891467771593,-0.6706122669117428,-0.17153812322050524,-0.03676459010793468,-0.000277387600569967,-4.03850763157171,-0.8642724658314417,-0.5970666621195484,-0.14674224249873546,-0.1581725002315082,-0.0014463898067667569,-1.4182319396639227,-9.11590108856326,-3.109667007624163,-0.4397993240805689,-0.05346455413762935,-0.0002457259923207391
0.96,1.0823853923562257,2.257260090899415,-1.2021538513608043,0.08427320186048606,0.062167119214310375,0.00029091929168094193,-0.7268802123997928,-0.6458175741025137,-0.6765576536973965,-0.17298551077110555,-0.03843860003047048,-0.00027984319687069726,-3.8361454218534123,-0.6666924862725832,-0.4760821698080595,-0.11837175959650059,-0.149881288874937,-0.001572828738819032,-1.3642075839748495,-9.048306107163965,-3.1096946434283557,-0.44279978865008235,-0.05184224298349546,-0.00026601237841763695
0.97,1.0747342302455454,2.2507353508232786,-1.2089668316768654,0.08253167858734782,0.06176683143975001,0.00028809475893584713,-0.7651162110680323,-0.6524740076136556,-0.681298031606105,-0.1741523273138249,-0.040028777456036474,-0.00028245327450948014,-3.6289232803533586,-0.47016456183609284,-0.35438017349969697,-0.08964831841728471,-0.14140864946800846,-0.001692414358182348,-1.3070080479370259,-8.978145318617717,-3.1095200440541366,-0.445821165297346,-0.050033954672280966,-0.0002847516287079365
0.98,1.0667213605927353,2.2441636624848402,-1.2158150945645851,0.08078132699586216,0.06135150132189421,0.0002852428572170449,-0.8012869652810064,-0.6571688338438232,-0.6848262887719812,-0.17503515914856568,-0.04153301178558011,-0.0002851901718802238,-3.4173657865622027,-0.275290439085893,-0.2323102323879262,-0.060662828571794725,-0.13276245004623988,-0.0018041484080535963,-1.246820649416909,-8.905595337189121,-3.109227856092889,-0.4488791128865439,-0.04804304967873339,-0.0003017896163250762
0.99,1.0583678685280737,2.2375644780385837,-1.222686482608672,0.07902501228635943,0.060922008239453145,0.00028236262459123407,-0.8353492064661447,-0.6599184446256364,-0.6871388044087046,-0.17563147095027357,-0.0429493082441065,-0.00028802326258108534,-3.2020117407615927,-0.08267049723610906,-0.11023945431383642,-0.03151163099070353,-0.12395163180847035,-0.0019071122314622269,-1.183859536815285,-8.830858237551931,-3.1089040052516346,-0.4519891789307973,-0.04587475683617461,-0.00031699182661934803
