tonegas/nnodely-applications/joint_friction_estimation/dataset/train/mpc_mujoco_episode_46 copy.csv
time,q1,q2,q3,q4,q5,q6,dq1,dq2,dq3,dq4,dq5,dq6,ddq1,ddq2,ddq3,ddq4,ddq5,ddq6,tau1,tau2,tau3,tau4,tau5,tau6
0.0,0.0,1.57,-1.57,0.0,0.0,0.0,0.0,0.0,0.0,0.0,0.0,0.0,-8.407291603120267,-2.965660924322083,2.570560443915584,1.2081869335339703,-1.242066849569973,-1.2871585521878615e-06,-1.1720906209311805,-5.578216764914688,-4.6822052610445635,-1.034233618653948,-0.10596315180029214,-0.0017933119389404349
0.01,-0.0008363990523173513,1.5697053264738021,-1.5697449244549802,0.00011215024965482599,-0.00010449490184275377,-1.0040972519689052e-06,-0.08363990523173513,-0.02946735261979902,0.025507554501989084,0.011215024965482599,-0.010449490184275377,-0.00010040972519689052,-8.29233165967207,-2.830364026142149,2.5657488124742924,1.1217406254388378,-1.0389515993106855,-0.010046961190913528,-1.1605250744434712,-5.515237303388441,-4.659344841025113,-1.0294296314397662,-0.1049857671991374,-0.0017785250759170656
0.02,-0.002497111156102527,1.5691295115263955,-1.5692357054996582,0.00032961344171236664,-0.00030078070083651665,-3.049448897555141e-06,-0.16607121037851758,-0.05758149474065595,0.05092189553219016,0.021746319205754063,-0.019628579899376285,-0.00020453516455862356,-8.16649806579684,-2.6884268260340245,2.5567070246985915,1.0530232125192125,-0.9118313240346438,-0.010434172803831743,-1.1460086509600371,-5.448761241385479,-4.635266438130698,-1.0242957287994472,-0.10381379678715572,-0.0017608460301924407
0.03,-0.004969232040892516,1.5682867343499252,-1.568473567336145,0.000646899885781139,-0.000580732490293843,-6.066731586063413e-06,-0.24721208847899884,-0.08427771764703902,0.07621381635133276,0.03172864440687724,-0.027995178945732634,-0.0003017282688508272,-8.032531999314381,-2.540694826002211,2.5445365437271916,0.9977253330989242,-0.8308612531533797,-0.00975810505257968,-1.128806353838722,-5.37923648193886,-4.610174830895538,-1.0188795769835348,-0.10246287731940427,-0.0017404637855866329
0.04,-0.008239207857571394,1.5671917405214357,-1.5674599474682307,0.001059539405955138,-0.0009390070496015416,-9.996206247305706e-06,-0.32699758166788795,-0.10949938284893246,0.10136198679142362,0.041263952017399894,-0.03582745593076986,-0.00039294746612422943,-7.8921273213446925,-2.3879743098881443,2.5300182093657724,0.9525572138049585,-0.778022633081882,-0.009174422722642461,-1.1091935741757815,-5.307112218100123,-4.58427601973642,-1.0132289852513303,-0.1009491952964513,-0.0017175683584930838
0.05,-0.012292941039567011,1.5658597643144478,-1.56619644252162,0.0015638309402495466,-0.0013719547480829217,-1.4795268129236573e-05,-0.4053733181995617,-0.13319762069879254,0.1263504946610807,0.050429153429440876,-0.043294769848138015,-0.00047990618819308665,-7.746349512162441,-2.231045241037251,2.513686621390076,0.9150082254357923,-0.7423901117329876,-0.008754785545753485,-1.087451524706748,-5.2328403044781,-4.557776909259506,-1.0073917946515198,-0.09928924362482966,-0.0016923497481114087
0.06,-0.01711585852748391,1.5643064529627662,-1.5646847729604625,0.0021566512083141375,-0.0018769589892652387,-2.0433298117759393e-05,-0.4822917487916895,-0.1553311351681707,0.1511669561157395,0.05928202680645907,-0.050500424118231704,-0.000563802998852282,-7.5958872525433625,-2.0706692699298106,2.495887634203851,0.8831600514572919,-0.7173143534612123,-0.008444338392850526,-1.0638631502049951,-5.156875301569498,-4.530884518878097,-1.0014156619064605,-0.09749962346515291,-0.001664997157430257
0.07,-0.02269295749124794,1.5625477922452382,-1.562926762321867,0.002835308227895997,-0.0024520337492939105,-2.688702354263918e-05,-0.5577098963764033,-0.17586607175279526,0.17580106385955444,0.06786570195818593,-0.05750747600286719,-0.0006453725424879787,-7.441203679305506,-1.9075944298664487,2.4768226058574134,0.8555441925605445,-0.6987276904656312,-0.00819352559312847,-1.0387094000096715,-5.079673647702441,-4.503804908576336,-0.9953477813400948,-0.09559687274717879,-0.0016356983084353592
0.08,-0.02900883764512531,1.5606000330474457,-1.5609243275899094,0.0035974288769123662,-0.003095577024281156,-3.4137447000045155e-05,-0.6315880153877369,-0.1947759197792601,0.20024347319577002,0.07621206490163693,-0.06435432749872455,-0.0007250423457405975,-7.282627369575184,-1.7425575508819513,2.4565825520681823,0.8310337549917941,-0.6841223126823408,-0.007968568251786934,-1.0122658160597133,-5.001692238559184,-4.476741938272027,-0.9892345725162044,-0.09359731150963298,-0.0016046387584959505
0.09,-0.03604772562166976,1.55847961875258,-1.5586794780885547,0.0044408723064016525,-0.0038062185127082614,-4.216791287434875e-05,-0.7038887976544453,-0.2120414294865728,0.22448495013547062,0.08434434294892866,-0.07106414884271055,-0.0008030465874303594,-7.120407074347402,-1.576285070384957,2.4351746500867484,0.8087613982239183,-0.6719335837495208,-0.007747128894029842,-0.9847994253045533,-4.923386588674902,-4.4498959377715,-0.9831213519331904,-0.09151689915530344,-0.0015720011869554762
0.1,-0.043793494687689186,1.5562031134507046,-1.5561943208465148,0.005363662994969654,-0.004582724303061979,-5.096288792286107e-05,-0.7745769066019426,-0.22765053018754575,0.24851572420399862,0.09227906885680016,-0.07765057903537173,-0.0008794975048512321,-6.954744631050025,-1.4094926989069427,2.4125429519329624,0.7880571836871333,-0.6611678446523115,-0.007514082862071447,-0.956565942617878,-4.845208687260609,-4.423462339291353,-0.977052001446997,-0.0893711015178268,-0.0015379646530984201
0.11,-0.052229681771629226,1.5537871310527702,-1.5534710708209163,0.006363938745121344,-0.005423936096944981,-6.050717630497598e-05,-0.8436187083940041,-0.24159823979343253,0.2723250025598506,0.10002757501516898,-0.08412117938830023,-0.0009544288382114907,-6.785814733556077,-1.2428842601867063,2.388584714678785,0.7684015505404465,-0.6511778746727401,-0.007258752593526374,-0.9278072971897624,-4.7676046252957205,-4.397630309406278,-0.97106864260158,-0.08717476722116466,-0.001502703841168453
0.12,-0.06133950298104471,1.5512482654653699,-1.55051206469479,0.007439910069482152,-0.006328731414335297,-7.078539785751905e-05,-0.9109821209415482,-0.2538865587400376,0.2959006126126256,0.1075971324360808,-0.09047953173903153,-0.0010278221552543064,-6.61377678415451,-1.0771499353156286,2.3631634107392125,0.7493897842532604,-0.6415275714352084,-0.006973239757362748,-0.8987494962805413,-4.691012051480401,-4.3725814080863366,-0.9652113238535628,-0.0849420136892304,-0.0014663883135898623
0.13,-0.07110586831300324,1.5486030220320743,-1.547319777211792,0.008589828286875167,-0.00729599661580922,-8.178162705540522e-05,-0.9766365331958532,-0.26452434332954955,0.3192287482998091,0.11499182173930145,-0.09672652014739239,-0.0010996229197886174,-6.4387819752762585,-0.9129640820385534,2.336119218495423,0.7307052124821913,-0.6319105598077215,-0.006651452174516237,-0.8696008377607792,-4.615857504788748,-4.348488296800487,-0.9595177262536285,-0.08268612362233779,-0.0014291817946115344
0.14,-0.08151139597418983,1.5458677504823275,-1.5438968392000818,0.009811960310376008,-0.008324607833414266,-9.347913191929736e-05,-1.0405527661186587,-0.27352715497468183,0.3422938011710039,0.12221320235008418,-0.10286112176050448,-0.0011697504863892136,-6.260977498814605,-0.75098276116164,2.3072775934330845,0.7120990236336269,-0.6221014072340836,-0.0062885538650618855,-0.8405504785451303,-4.542553667013892,-4.325513514031729,-0.9540228921721452,-0.08041945296380912,-0.0013912415055433308
0.15,-0.09253842655580106,1.5430585796526013,-1.540246056581066,0.011104568611895491,-0.009413416870788425,-0.00010586017734933332,-1.1027030581611232,-0.28091708297261997,0.3650782619015794,0.12926083015194834,-0.10888090373741584,-0.001238104543003595,-6.080509027818713,-0.5918410753422784,2.276456367486782,0.6933751060428719,-0.6119265548646062,-0.005880669448717235,-0.8117673607658684,-4.4714965773864614,-4.303808334094122,-0.9487589809373002,-0.0781533514277792,-0.0013527175706797184
0.16,-0.1041690372056134,1.5401913542590544,-1.5363704297693217,0.012465895228621094,-0.010561240323264755,-0.00011890587249703487,-1.163061064981233,-0.2867225393546959,0.3875626811744368,0.13613266167256025,-0.11478234524763306,-0.001304569514770155,-5.897522161267497,-0.43615040691120266,2.243471708173991,0.6743786878127818,-0.6012471650317011,-0.0054247396473936504,-0.7833994919017199,-4.403062851559878,-4.283511723332252,-0.9437550546739994,-0.07589809660187327,-0.0013137525104041812
0.17,-0.11638505587848204,1.5372815740078256,-1.5322731729562848,0.013894148964737415,-0.011766850887589844,-0.0001325960508207112,-1.2216018672868645,-0.2909780251228741,0.4097256813036748,0.1428253736116322,-0.12056105643250896,-0.0013690178323676348,-5.712163248655337,-0.2844956279775394,2.2081431808599583,0.6549878478949474,-0.5899491602275866,-0.0049184645871322985,-0.7555735694643518,-4.337606948036427,-4.264749406295898,-0.9390368971203084,-0.07366284250801068,-0.0012744808350583442
0.18,-0.12916807571043287,1.5343443353294253,-1.5279577328388974,0.015387495159261657,-0.01302897026426021,-0.00014690917681096818,-1.2783019831950848,-0.2937238678400431,0.4315440117387443,0.14933461945242416,-0.12621193766703653,-0.0014313125990256968,-5.524579845782348,-0.1374323460542649,2.170298090619362,0.6351071900037377,-0.5779375858089075,-0.004360295730447383,-0.7283949355251783,-4.275458525851775,-4.2476330531209365,-0.9346268677133555,-0.0714555833218064,-0.0012350287500451208
0.19,-0.14249946954046122,1.5313942760182702,-1.5234278064104487,0.01694404755432428,-0.01434626331554525,-0.0001618222764736436,-1.3331393830028344,-0.2950059311155043,0.4529926428448685,0.15565523950626242,-0.13172930512850398,-0.001491309966267541,-5.334920953300413,0.0045157593991587835,2.1297752297289403,0.6146631391286341,-0.5651335506242283,-0.0037494518430616353,-0.7019478415257564,-4.216919937649797,-4.232259597991676,-0.9305437927537303,-0.06928313272895617,-0.001195513979355834
0.2,-0.15636040459211173,1.5284455230478993,-1.518687357478141,0.01856186192054775,-0.015717333296819343,-0.0001773108903919157,-1.3860935051650516,-0.2948752970370904,0.4740448932307847,0.1617814366223469,-0.1371069981274095,-0.001548861391827213,-5.143337129386119,0.14085946060441162,2.0864281190708773,0.5936004484877264,-0.5514726780493682,-0.0030859432332439596,-0.676295999615988,-4.162263901906528,-4.218710697137118,-0.9268028949629589,-0.06715111914803194,-0.0011560457113316141
0.21,-0.1707318573202464,1.525511643817328,-1.513740631613285,0.02023893118704209,-0.017140718068868237,-0.000193349049084582,-1.437145272813466,-0.29338792305713857,0.4946725864855882,0.1677069266494336,-0.1423384772048894,-0.0016038158692666291,-4.949980531662485,0.27114632202062766,2.0401278037801176,0.5718796024264936,-0.5369044106045529,-0.002370593987936598,-0.651483393298738,-4.11173139683931,-4.207052333282233,-0.9234157622364245,-0.06506399678213366,-0.001116724667036581
0.22,-0.185594628424922,1.5226056010648619,-1.5085921692776014,0.021973181890357678,-0.018614887249199897,-0.00020990927075341097,-1.4862771104675594,-0.290604275246619,0.5148462335683613,0.1734250703315591,-0.14741691803316606,-0.0016560221668828988,-4.755004921623134,0.3949628198045951,1.990765243130658,0.5494748753177765,-0.5213917608200234,-0.0016050553884427998,-0.6275353174801296,-4.06552981637482,-4.197334571816458,-0.9203903558635044,-0.06302507218488981,-0.0010776432881942333
0.23,-0.20092935803267697,1.5197397116629354,-1.5032468169043371,0.023762471805177866,-0.02013824028617348,-0.0002269625815641251,-1.5334729607754967,-0.2865889401926455,0.5345352373264223,0.17892899148201868,-0.15233530369735812,-0.0017053310810714126,-4.558565651680719,0.5119362071599023,1.938253320232898,0.5263728635893514,-0.5049112535836677,-0.0007918060334506372,-0.6044596161694444,-4.0238314254024825,-4.1895914721473355,-0.9177310579396305,-0.06103654574902002,-0.0010388860383153402
0.24,-0.21671654104498098,1.516925609481636,-1.4977097357468703,0.025604588653939796,-0.021709105450201868,-0.00024447855845486694,-1.5787183012303998,-0.2814102181299433,0.5537081157466818,0.18421168487619288,-0.15708651640283902,-0.0017515976890741817,-4.360819646986664,0.6217360975060022,1.8825284873028498,0.5025713517764636,-0.48745289964486815,6.58641585653541e-05,-0.5822480850214423,-3.9867721474206754,-4.183841155786438,-0.9154387571374564,-0.0590995672551766,-0.0010005298075033647
0.25,-0.23293654265365443,1.5141742124799746,-1.4919864083408099,0.027497249816280586,-0.02332573973711066,-0.00026242539419055037,-1.6220001608673442,-0.2751397001661379,0.5723327406060315,0.1892661162340791,-0.16166342869087902,-0.0017946835735683446,-4.1619253892450185,0.7240757423650495,1.8235520560467953,0.4780784071845181,-0.46902009961112867,0.0009638875585897821,-0.5608780056298228,-3.9544507126412074,-4.180086030684394,-0.9135109714437748,-0.05721430436292495,-0.0009626444085578127
0.26,-0.2495696140234276,1.5114956941531459,-1.4860826424587161,0.029438102974794874,-0.024986329673572626,-0.0002807699840342296,-1.6633071369773151,-0.26785183268288354,0.5903765882093798,0.19408531585142894,-0.1660589936461969,-0.0018344589843679242,-3.962042906565348,0.8187129858907347,1.7613111392729996,0.4529116237969113,-0.4496294166674666,0.0018974704657597208,-0.5403137788971535,-3.926928188741667,-4.178313169218282,-0.9119420059148499,-0.055380022691470986,-0.0009252931494961609
0.27,-0.2665959081422922,1.5088994594314593,-1.4800045724696154,0.0314247276430611,-0.026688993005747178,-0.0002994780330245468,-1.7026294118864647,-0.2596234721686501,0.6078069989100876,0.19866246682662217,-0.17026633321745527,-0.0018708048990317225,-3.7613337711901855,0.9054508830435104,1.6958192485679127,0.42709745626327855,-0.4293101826855903,0.0028611622584522323,-0.5205086258382566,-3.9042279098708863,-4.1784948350733035,-0.9107231429664567,-0.053595175931399335,-0.0008885334655642154
0.28,-0.2839954958407714,1.5063941250928252,-1.4737586580484714,0.0334546375268084,-0.02843178124144701,-0.00031851418245929506,-1.7399587698479175,-0.2505334338634096,0.6245914421143892,0.20299098837473004,-0.17427882356998345,-0.0019036149434748287,-3.559961105229439,0.9841379735281146,1.6271165532339502,0.4006706005678131,-0.4081039212681077,0.0038489406720332298,-0.5014063257213679,-3.8863358123722254,-4.1805891520920735,-0.9098428622078583,-0.05185750425567682,-0.0008524175922727365
0.29,-0.3017483819815894,1.5039875047161269,-1.4673516802135516,0.035525283670680384,-0.030212683004476572,-0.000337842153811793,-1.7752886140818007,-0.24066203766984487,0.6406977834919844,0.20706461438719884,-0.17809017630295604,-0.0019327971352497923,-3.3580895930873074,1.0546682086996058,1.555269807266516,0.37367339031557467,-0.3860635853910619,0.0048543111019325735,-0.4829429634080739,-3.8732011781730344,-4.184540906036602,-0.9092870863637549,-0.05016413916293791,-0.0008169932600397696
0.3,-0.3198345218213723,1.5016865981680267,-1.4607907347019609,0.037634058342274186,-0.032029628148093285,-0.00035742490796684544,-1.8086139839782902,-0.2300906548100017,0.656094551159063,0.21087746715938047,-0.18169451436167117,-0.0019582754155052467,-3.1558854979546442,1.1169805336572545,1.4803719535845896,0.3461551872936415,-0.3632526182311331,0.00587041723357018,-0.4650486600120161,-3.8647377790926543,-4.190282468170103,-0.909039449417177,-0.048511712791949345,-0.0007823043906670791
0.31,-0.33823383754586006,1.4994975855812158,-1.4540832227252183,0.03977829960276358,-0.03388049256349025,-0.00037722481737085915,-1.839931572448776,-0.218901258681101,0.6707511976742598,0.21442412604893926,-0.1850864415396966,-0.0019799909404013714,-2.95351667852362,1.171058131606029,1.4025414177493865,0.3181717526064993,-0.3397438543256559,0.006890159810389651,-0.4476492634553289,-3.860825407654401,-4.1977348276703,-0.9090815827611448,-0.0468964696952832,-0.0007483917761490716
0.32,-0.356926234979581,1.4974258257483066,-1.44723683917725,0.041955296510065784,-0.03576310360929874,-0.0003972038484577624,-1.8692397433720933,-0.2071759832909206,0.6846383547968085,0.2176996907302204,-0.18826110458084905,-0.001997903108690321,-2.7511526009973046,1.2169273422066493,1.321921106730482,0.289784590742177,-0.31561828482346144,0.007906320073479911,-0.43066797807080404,-3.8613117725605237,-4.206808718184891,-0.9093934148784617,-0.045314379053766146,-0.0007152937211952893
0.33,-0.3758916204699504,1.4954758588229682,-1.4402595583962357,0.044162294896674316,-0.03767524607975015,-0.00041732375154621766,-1.89653854903694,-0.19499669253384305,0.6977280781014521,0.22069983866085346,-0.19121424704514126,-0.0020119903088455294,-2.5489643405048015,1.254656269975287,1.2386771317261536,0.26106026365598645,-0.2909637154563445,0.008911684223475547,-0.41402691499190847,-3.86601473001158,-4.217405822382265,-0.9099534798862488,-0.043761245350338776,-0.0006830466323028029
0.34,-0.39510991794423833,1.4936514131889054,-1.4331596176089674,0.046396503660343855,-0.03961466862260285,-0.00043754625530955396,-1.9218297474287962,-0.18244456340629084,0.7099940787268388,0.22342087636695374,-0.1939422542852697,-0.002022250376333631,-2.3471245653553874,1.284353102771354,1.1529972774059507,0.23206967568158454,-0.26587334908502314,0.009899165326065162,-0.3976485476415552,-3.8747248157163106,-4.2294200371807165,-0.9107392301917127,-0.042232815602268645,-0.0006516855382033135
0.35000000000000003,-0.41456108613576004,1.491955416328321,-1.4259454982114501,0.048655101502087725,-0.04157909051341163,-0.0004578332628986844,-1.9451168191521715,-0.16959968605842152,0.7214119397517202,0.22585978417438715,-0.1964421890808785,-0.0020287007589130453,-2.145807497116219,1.3061641639573482,1.0650892430814243,0.2028873329309402,-0.2404443263407412,0.010861919231448525,-0.3814570591148926,-3.8872080369221846,-4.242738781495078,-0.9117273485126149,-0.04072488137035845,-0.0006212445289401493
0.36,-0.43422513597294493,1.4903900094949019,-1.4186259050620145,0.05093524404267543,-0.04356620869028467,-0.00047814704684903247,-1.96640498371849,-0.15654068334191493,0.7319593149435585,0.22801425405877085,-0.19871181768730364,-0.002031378395034802,-1.9451888394036427,1.3202717248734106,0.97517868410449,0.1735905829685338,-0.21477625808942058,0.01179345142446464,-0.36537957063137944,-3.903208879249056,-4.257244327849733,-0.912894054621604,-0.03923337392018868,-0.0005917571036266689
0.37,-0.45408214812163833,1.4889565659724389,-1.4112097439829814,0.053234071246178356,-0.045573704952934946,-0.0004984504400205489,-1.985701214869342,-0.14334435224629796,0.7416161079033201,0.22988272035029292,-0.20074962626502763,-0.0020303393171516395,-1.7454456685376025,1.3268916068030945,0.8835070841165007,0.1442588421069253,-0.18896978231554584,0.012687712181603028,-0.3493472424890115,-3.9224534796459487,-4.272815139090148,-0.9142154023764554,-0.037754451098678074,-0.0005632564199899119
0.38,-0.4741122906671092,1.4876557126792014,-1.403706097683648,0.055548715077242114,-0.047599253231512165,-0.0005187070199983482,-2.003014254547084,-0.13008532932375405,0.750364629933352,0.23146438310637596,-0.20255482785772172,-0.002025657997779935,-1.546756279833237,1.326270603575362,0.790329490583594,0.114972818679548,-0.1631251757373251,0.013539177923743373,-0.333296241087004,-3.9446529144971447,-4.289327191689097,-0.915667562893897,-0.036284574704121456,-0.0005357754420047429
0.39,-0.49429583691783874,1.4864873548602975,-1.3961242003308785,0.05787630731775247,-0.04964052683424944,-0.0005388812846120519,-2.0183546250729574,-0.11683578189038411,0.7581897352769527,0.2327592240510359,-0.2041273602737273,-0.0020174264613703613,-1.3492999842786113,1.3186837573396681,0.695912147271732,0.0858137412429274,-0.13734104721711482,0.01434291729907855,-0.31716856759918777,-3.969506550821087,-4.30665526778451,-0.9172270901054962,-0.034820577363483755,-0.0005093469851593327
0.4,-0.5146131833083388,1.4854507035956357,-1.3884734110037533,0.06021398746846134,-0.05169520558817439,-0.0005589388165037594,-2.0317346390500135,-0.10366512646618137,0.7650789327125077,0.23376801507088701,-0.2054678753924953,-0.002005753189170753,-1.1532568516335195,1.304431520856263,0.6005300579258668,0.05686260087455608,-0.11171313605682176,0.015094641082014082,-0.3009127457908648,-3.9967054086394342,-4.3246741990874344,-0.9188711653897146,-0.0333597181807755,-0.0004840036620517201
0.41000000000000003,-0.5350448673731077,1.4845443058398118,-1.3807631862754968,0.06255891066196882,-0.0537609827937712,-0.000578846434977855,-2.043168406476893,-0.09063977558239822,0.7710224728256572,0.2344923193507475,-0.20657772055968093,-0.0019907618474095637,-0.9588073975241049,1.283836839871159,0.5044645154066552,0.02819941661850578,-0.08633323380025493,0.015790735674075018,-0.28448436829069484,-4.025935483909209,-4.343260047133518,-0.9205778184919382,-0.03189972667822541,-0.000459777733991089
0.42,-0.5555715857585191,1.4837660767023189,-1.3730030521692604,0.06490825551520607,-0.055835571922265695,-0.0005985723336880483,-2.052671838541128,-0.07782291374928527,0.7760134106236273,0.23493448532372457,-0.20745891284944976,-0.0019725898710193325,-0.7661322138288417,1.2572421888160554,0.4080006299114709,-9.746723592130024e-05,-0.06128824343500927,0.016428280467175593,-0.26784650236882945,-4.056880983838312,-4.362291205982134,-0.9223261225093051,-0.030438834811076093,-0.0004367008769742706
0.43,-0.5761742122341066,1.4831133336718696,-1.3652025757343567,0.0672592318521975,-0.05791671299285234,-0.0006180862030487876,-2.060262647558757,-0.0652743030449163,0.780047643490382,0.2350976336991428,-0.20811410705866448,-0.0019513869360739252,-0.5754115434707788,1.225006592216295,0.31142488870773377,-0.02795204398371176,-0.03665938512500677,0.017005049943714212,-0.25096995794138593,-4.089227429840134,-4.381649415346744,-0.9240963613133291,-0.028975797090665417,-0.0004148038727424622
0.44,-0.5968338156595223,1.4825828324872472,-1.357371336486318,0.06960908823134061,-0.06000217857640104,-0.0006373593365876715,-2.065960342541576,-0.05305011846223967,0.78312392480387,0.23498563791431112,-0.20854655835487038,-0.0019273133538883816,-0.386824802564506,1.1875026628511978,0.21502277805382475,-0.055291260148480514,-0.012521552989075868,0.017519501696608056,-0.2338334221219825,-4.122664587695849,-4.401220674214728,-0.9258701683936974,-0.027509899092856453,-0.0003941162375322069
0.45,-0.6175316778585666,1.482170804358833,-1.3495188979478998,0.0719551192156554,-0.0620897793816944,-0.0006563647207754875,-2.069786219904421,-0.04120281284141454,0.785243853841831,0.23460309843147842,-0.20876008052933617,-0.001900538418781597,-0.20055005462906145,1.1451136859366864,0.11907649576621493,-0.08204557760890951,0.01105717684777191,0.017970752030016992,-0.2164234661690313,-4.156889189529676,-4.420896047225169,-0.9276306367141238,-0.0260409548541883,-0.00037466580257152903
0.46,-0.6382493113472862,1.4818729942496107,-1.3416547795190428,0.07429467232933111,-0.06417736938979239,-0.0006750771081710674,-2.0717633488719684,-0.02978101092223525,0.7864118428857032,0.23395531136757164,-0.20875900080979878,-0.0018712387395580015,-0.016763443194502847,1.0982307764518304,0.023862780243356863,-0.10814947688876231,0.034015890556333805,0.018358540885440727,-0.1987344321212691,-4.191607417795055,-4.440572358357748,-0.9293623997592589,-0.024569293861347482,-0.0003564782613085292
0.47000000000000003,-0.658968476859349,1.4816846999318034,-1.333788428892154,0.07662515464933883,-0.06626285051146877,-0.0006934730739954043,-2.07191655120628,-0.01882943178074179,0.7866350626888695,0.2330482320007729,-0.2085481121676376,-0.0018395965824336935,0.1643614094668567,1.0472501342676792,-0.07034912121103742,-0.13354189742841127,0.05630104019412263,0.01868318811253994,-0.18076820775569882,-4.22653712744002,-4.460152768782054,-0.931051684504946,-0.02309573851651718,-0.0003395766987910883
0.48,-0.679671200608858,1.4816008115451225,-1.3259291952151284,0.07894403898677407,-0.0683441767516105,-0.0007115310564966556,-2.0702723749508958,-0.008388838668087322,0.7859233677025572,0.231888433743524,-0.20813262401417287,-0.0018057982501251263,0.3426540286144692,0.9925704190285141,-0.1632993251663637,-0.1581666117827063,0.07786651625126662,0.01894554306804075,-0.1625338997187862,-4.2614097885892095,-4.479547237964296,-0.9326863375489156,-0.021621573108570612,-0.0003239811185517377
0.49,-0.7003397912285804,1.4816158513946143,-1.3180863031886538,0.08124886961883476,-0.07041935787285135,-0.0007292313816829452,-2.066859061972232,0.0015039849491773113,0.7842892026474595,0.23048306320606837,-0.20751811212408455,-0.001770032518628963,0.5179477286114457,0.9345902638450339,-0.2547390097492037,-0.18197253186383788,0.09867360092891397,0.019146929527466272,-0.14404741574742247,-4.29597213827342,-4.498672869271327,-0.9342558260838634,-0.020148505435641853,-0.0003097079818225619
0.5,-0.7209568563202974,1.4817240137399965,-1.3102688282668542,0.08353726753881191,-0.07248646255839367,-0.0007465562731810568,-2.061706509171699,0.01081623453823283,0.7817474921799543,0.228839791997715,-0.20671046855423159,-0.00173248914981115,0.6900802595722565,0.8737059438571415,-0.3444319245456138,-0.20491394646725436,0.11869081544574112,0.01928908778010968,-0.12533096778378414,-4.329987535789555,-4.517454143298925,-0.9357512157706348,-0.01867862230703267,-0.00029676977295452336
0.51,-0.7415053185536904,1.4819192043438898,-1.3024856731115777,0.08580693519806211,-0.07454362108086288,-0.0007634898481260029,-2.054846223339301,0.01951906038933325,0.7783155155276424,0.22696676592502002,-0.20571585224692102,-0.0016933574944946173,0.8588944486692094,0.8103092126710507,-0.4321557035501412,-0.22695069042221125,0.1378936756054987,0.01937411564200675,-0.106412508473497,-4.363237022037703,-4.53582304394102,-0.9371651278699702,-0.01721434020154478,-0.00028517460360104986
0.52,-0.7619684312508762,1.4821950795631458,-1.2947455454309804,0.088055660720534,-0.0765890274900765,-0.0007800181000994959,-2.0463112697185832,0.027587521925607452,0.7740127680597182,0.22487255224718977,-0.20454064092136193,-0.0016528251973492944,1.0242388258071349,0.7447853166362851,-0.517702975451677,-0.24804824671488768,0.15626437028174944,0.019404409885493523,-0.08732511399641477,-4.3955200885257275,-4.553719083772953,-0.9384916782132141,-0.015758352375733677,-0.00027492586661319324
0.53,-0.7823297933953832,1.4825450847852721,-1.2870569373128404,0.0902813215769344,-0.07862094133776337,-0.0007961288702168064,-2.0361362144507025,0.03500052221264317,0.7688608118139969,0.2225660856400406,-0.2031913847686877,-0.0016110770117310513,1.1859682238183733,0.677511193953468,-0.6008822688747835,-0.268177783890288,0.17379137742874562,0.019382609402278983,-0.06810632639621307,-4.426655166551364,-4.571089236621907,-0.9397264007353633,-0.014313573700725155,-0.0002660219487531171
0.54,-0.8025733640069737,1.4829624920304374,-1.279428106142585,0.09248188771194746,-0.08063768896153659,-0.0008118118075131548,-2.0243570611590425,0.04174072451653357,0.762883117025558,0.22005661350130507,-0.20167476237732126,-0.0015682937296348422,1.3439443439638368,0.608853862750075,-0.6815187133523086,-0.2873161318487307,0.19046903179443753,0.019311541160995982,-0.04879746855072839,-4.456479851282726,-4.587887786224997,-0.9408661583595272,-0.01288308446356708,-0.00025845600934565924
0.55,-0.8226834758272089,1.4834404365584366,-1.2718670571756483,0.09465542412398008,-0.08263766435382588,-0.0008270583198058418,-2.011011182023523,0.04779445279991869,0.7561048966936755,0.2173536412032617,-0.19999753922893063,-0.0015246512292686992,1.4980362784889465,0.5391689995636011,-0.759454539709277,-0.30544569991248327,0.20629705775224938,0.01919416977593369,-0.029442944638845704,-4.484850879005596,-4.604076100625414,-0.9419090440150509,-0.011470074299745212,-0.00025221582991620165
0.56,-0.8426448482649318,1.4839719523390313,-1.2643815278137835,0.09680009290262176,-0.08461932964405289,-0.000841861516210157,-1.9961372437722908,0.05315157805947088,0.748552936186478,0.21446687786416785,-0.19816652902269985,-0.0014803196404315183,1.6481209829762387,0.4687997071728174,-0.834549386186163,-0.3225543416239933,0.22128007966392715,0.01903355128851303,-0.010089538448984973,-4.511643878656218,-4.619622342432508,-0.9428542744984411,-0.010077787333939053,-0.00024728373779590564
0.5700000000000001,-0.8624425995558083,1.4845500062630037,-1.2569789736155914,0.09891415473431527,-0.08658121522413967,-0.0008562161424688861,-1.9797751290876484,0.05780539239724363,0.7402554198192152,0.21140618316935042,-0.19618855800867774,-0.0014354626258729106,1.794083692557165,0.39807546844124475,-0.9066804189615603,-0.3386351712419833,0.23542712100086227,0.01883279156517459,0.009214278884073408,-4.536752920904808,-4.634501125284937,-0.943702079755124,-0.008709469496504049,-0.0002436366046521907
0.58,-0.8820622580956046,1.4851675309898493,-1.2496665560530391,0.10099596989158445,-0.0885219195485458,-0.0008701185102201566,-1.9619658539796259,0.06175247268455409,0.7312417562552245,0.20818151572691898,-0.19407043244061348,-0.0013902367751270537,1.9358182772166004,0.327311280806858,-0.9757422777482863,-0.3536863372650383,0.2487511021491553,0.018595009494959958,0.02841902105966684,-4.560089889509217,-4.64869312682515,-0.9444535899800869,-0.007368318862551635,-0.00024124591901302016
0.59,-0.9014897729128649,1.48581745634608,-1.2424511320083202,0.10304399872551687,-0.09044010864050378,-0.0008835664212801826,-1.9427514817260325,0.06499253562306606,0.721542404471889,0.2048028833932411,-0.19181890919579805,-0.001344791106002598,2.0732275328218943,0.2568069642792313,-1.0416468588129155,-0.36771075856452695,0.2612683454664051,0.018323305021461622,0.04747482917877369,-4.581583700454225,-4.662184668243332,-0.9451107227166643,-0.006057439728436497,-0.00024007793011591327
0.6,-0.9207115232529633,1.4864927392054406,-1.2353392449892162,0.10505680168502353,-0.09233451533604704,-0.0008965590879590368,-1.9221750340098431,0.06752828593605567,0.7111887019104116,0.20128029595066615,-0.18944066955432684,-0.0012992666678854118,2.2062234057997303,0.1868466342988864,-1.1043229491090172,-0.38071582884756383,0.27299809478351555,0.018020731921941868,0.06633207641499676,-4.601179394576666,-4.674967270008175,-0.9456760718853658,-0.004779801004386723,-0.0002400938588827473
0.61,-0.9397143272520078,1.487186391798802,-1.2283371180263016,0.10703303888967963,-0.09420393829687805,-0.0009090970503614874,-1.9002803999044429,0.06936525933613917,0.7002126962914571,0.19762372046561025,-0.18694229608310095,-0.0012537962402450655,2.3347271506625935,0.11769832957342061,-1.163715726225528,-0.39271309519494224,0.28396205521031703,0.017690275122640986,0.0849419278507861,-4.6188371290105055,-4.687037192801636,-0.9461528004087845,-0.0035381993644281705,-0.0002412501705231025
0.62,-0.9584854496856539,1.4878915084169688,-1.2214506482019825,0.10897146928568104,-0.09604724082218427,-0.0009211820915539289,-1.8771122433646135,0.07051166181668278,0.6886469824319158,0.19384303960013977,-0.18433025253062205,-0.0012085041192441482,2.45866942078975,0.04961378402468205,-1.2197861395383418,-0.4037179163593505,0.2941839578281922,0.017334832246637344,0.10325684994080574,-4.634531091939524,-4.698394971948553,-0.9465445378239022,-0.002335227459632754,-0.00024349890221548855
0.63,-0.9770126087844231,1.4886012904840218,-1.214685402749538,0.11087094941663578,-0.09786334948825362,-0.0009328171514048471,-1.852715909876924,0.07097820670529555,0.6765245452444469,0.18994801309547416,-0.1816108666069353,-0.0011635059850918185,2.577990293972853,-0.017171668745641775,-1.2725101883474053,-0.41374910634687767,0.3036891526625265,0.01695719907237725,0.12123106547947432,-4.648248363892281,-4.70904495281227,-0.9468552839982911,-0.0011732473712411217,-0.00024678803851922623
0.64,-0.995283982113506,1.4893090699920393,-1.208046616650098,0.11273043184255939,-0.0996512526432386,-0.0009440062398313467,-1.8271373329082856,0.07077795080175843,0.6638786099439903,0.1859482425923605,-0.1787903154984975,-0.001118908842649962,2.69263923522315,-0.0824390705561727,-1.3218781128922414,-0.422828568573995,0.31250423225500334,0.01656005848027764,0.13882095134186428,-4.659987747233111,-4.718994833746357,-0.9470893197995444,-5.436935908911464e-05,-0.00025106192662494357
0.65,-1.0132882115211757,1.4900083313000574,-1.201539191646829,0.11454896324157698,-0.10140999878273534,-0.0009547543501105502,-1.8004229407669718,0.06992613080181871,0.6507425003269128,0.18185313990175955,-0.17587461394967388,-0.0010748110279203463,2.802575000194728,-0.1459857056651394,-1.3678935139966666,-0.4309809256092594,0.320656687192054,0.016145972536689035,0.15598537760171186,-4.669758583670509,-4.728255222279873,-0.9472511253143061,0.0010195641498057777,-0.00025626172325055496
0.66,-1.0310144071657519,1.4906927313109044,-1.195167696588515,0.1163256822294798,-0.10313869483003917,-0.000965067372842015,-1.7726195644576135,0.068440001084698,0.6371495058313937,0.17767189879028158,-0.17286960473038226,-0.001031302273146484,2.9077654832979327,-0.20762487213010924,-1.4105724167380072,-0.43823314913862976,0.3281745941079688,0.015717377273901878,0.17268598787709,-4.677579577595201,-4.736839209296477,-0.9473453059797596,0.0020469894860014083,-0.0002623258649145397
0.67,-1.0484521506364708,1.4913561180490837,-1.188936369009173,0.11805981693247108,-0.10483650434306357,-0.0009749520110780517,-1.7437743470718825,0.06633867381793312,0.6231327579341889,0.17341347029912907,-0.16978095130244067,-0.0009884638236036774,3.008187515155216,-0.2671855698184035,-1.4499422929749206,-0.4446141944232105,0.33508633597672066,0.015276579779673005,0.18888742188842605,-4.683477640943923,-4.744761965069707,-0.9473765267803168,0.0030266278142499076,-0.00026919055344827613
0.68,-1.065591497188582,1.4919925476711846,-1.1828491178462621,0.11975068234820158,-0.10650264566801008,-0.0009844156970729814,-1.7139346552111276,0.06364296221008164,0.6087251162910812,0.16908654157304925,-0.16661413249465035,-0.0009463685994929565,3.103826614492601,-0.3245121171069028,-1.4860410568507223,-0.45015464309816267,0.3414203539113334,0.014825757261312189,0.20455748221597508,-4.6874867731242995,-4.7520403601575145,-0.9473494544781327,0.003957486671544212,-0.0002767902489178065
0.6900000000000001,-1.0824229771174565,1.4925962999473994,-1.1769095271973853,0.12139767752957599,-0.10813639005798965,-0.0009934665110399737,-1.683147992887446,0.06037522762147641,0.5939590648876778,0.16469951813744085,-0.16337443899795753,-0.0009050813966992448,3.1946766998652456,-0.3794637079031047,-1.518916046541318,-0.4548863577129536,0.3472049292250414,0.014366957697081073,0.21966724810124763,-4.689646987387637,-4.758692613355163,-0.9472687076894911,0.00483885733305886,-0.0002850581625856413
0.7000000000000001,-1.0989375963004253,1.493161892258669,-1.1711208610140347,0.12300028262485187,-0.10973705977295395,-0.001002113102246709,-1.6514619182968824,0.05655923112695744,0.5788666183350653,0.16026050952758805,-0.16006697149642954,-0.0008646591206735204,3.2807397667966347,-0.4319139200978632,-1.5486230045544598,-0.45884215098982306,0.35246799414352914,0.013902101798149324,0.23419113984200984,-4.690003292946572,-4.764737968168223,-0.9471388144902932,0.00567030841546139,-0.0002939267431235254
0.71,-1.1151268359384638,1.4936840921588037,-1.1654860686308117,0.12455805580629042,-0.11130402617552053,-0.0010103646127276327,-1.6189239638038482,0.05221999001348799,0.5634792383222947,0.15577731814385504,-0.1566966402566582,-0.0008251510480923787,3.362025535975857,-0.4817501859449862,-1.5752250678623292,-0.4620554723079042,0.3572369692931243,0.013432985985842638,0.2481069378812581,-4.688604740143843,-4.770196398605831,-0.9469641771324034,0.006451676156773644,-0.0003033281499613484
0.72,-1.1309826515326695,1.4941579285547109,-1.1600077910295579,0.1260706301180999,-0.11283670783559044,-0.0010182306038419163,-1.585581559420573,0.047383639590707884,0.54782776012539,0.15125743118094756,-0.1532681660069907,-0.0007865991114283718,3.4385510781178596,-0.5288732341747389,-1.5987917780553191,-0.4645601135128121,0.3615386259191613,0.0129612861575783,0.2613957610900023,-4.685503534116217,-4.775088344512554,-0.9467490433769519,0.007183051829238781,-0.00031319470839384444
0.73,-1.1464974711327742,1.494578701560656,-1.1546883677398458,0.1275377102726756,-0.11433456865507148,-0.0010257209858617704,-1.5514819600104723,0.04207730059452004,0.5319423289712019,0.14670801545756976,-0.14978608194810475,-0.0007490382019854118,3.510340420961955,-0.5731965129057824,-1.6193981205991745,-0.46638993570543175,0.3653989706883145,0.01248856203176274,0.2740420089989473,-4.680754220688484,-4.779434476157998,-0.9464974838990343,0.007864766747603053,-0.000323459341841317
0.74,-1.1616641928966802,1.4949419910843889,-1.1495298442802047,0.12895906942222826,-0.11579711602254628,-0.0010328459507356579,-1.5166721763906037,0.03632895237328367,0.5158523459641206,0.14213591495526548,-0.14625473674747957,-0.0007124964873887437,3.5774241436747913,-0.6146456016395861,-1.6371236011491974,-0.46757861827670233,0.368843150895243,0.012016261884669976,0.28603327285571606,-4.6744129466903175,-4.783255487384893,-0.9462133751880322,0.008497375331095694,-0.00033405597744810297
0.75,-1.1764761820012473,1.4952436642040237,-1.1445339800481587,0.13033454593084282,-0.11722389900636472,-0.0010396159081351634,-1.4811989104566994,0.030167311963478636,0.49958642320460095,0.13754765086145582,-0.1426782983818446,-0.0006769957399505618,3.6398389636500443,-0.6531576198198505,-1.6520513657633042,-0.46815943107792357,0.371895377921895,0.01154572755647143,0.2973602203853892,-4.666536795523404,-4.786571916276681,-0.9459003873564319,0.00908163666455038,-0.0003449199219810869
0.76,-1.1909272669452993,1.4954798813948937,-1.1397022565715538,0.1316640401698585,-0.118614506593398,-0.0010460414248620444,-1.4451084944052104,0.02362171908701768,0.4831723476604914,0.13294942390156694,-0.13906075870332854,-0.0006425516726880849,3.6976273203703034,-0.688680638628887,-1.664267370764717,-0.4681650302632745,0.3745788668587622,0.011078199589676041,0.308016459027713,-4.657183197619979,-4.789403992039038,-0.9455619762745499,0.009618494983936843,-0.00035598820574333877
0.77,-1.2050117352861087,1.4956471016652517,-1.135035886038603,0.13294751135724314,-0.11996856597956378,-0.0010521331676637043,-1.4084468340809357,0.016722027035804422,0.4666370532950777,0.12834711873846516,-0.13540593861657693,-0.0006091742801659992,3.750836960628619,-0.7211731018863833,-1.6738596069531793,-0.46762727802068493,0.3769157903066809,0.010614822415320857,0.31799838223048327,-4.646409414424685,-4.791771506591029,-0.9452013794662156,0.010109059485457723,-0.0003671998929290211
0.78,-1.2187243288504739,1.4957420866587579,-1.1305358200295113,0.13418497445938188,-0.12128574091721608,-0.001057901849480305,-1.371259356436522,0.00949849935062239,0.4500066009091637,0.12374631021387432,-0.13171749376523048,-0.0005768681816600769,3.7995205290101453,-0.7506032611233864,-1.680917381853317,-0.46657708612792703,0.3789272444976639,0.010156649513436866,0.327305003111653,-4.63427209369309,-4.793693709223151,-0.9448216152283504,0.010554583826651188,-0.0003784963575034207
0.79,-1.232060238460991,1.4957619037802663,-1.1262027583783314,0.13537649717143882,-0.12256573012358395,-0.0010633581791248277,-1.3335909610517205,0.001981712150854217,0.4333061651179814,0.11915227120569499,-0.12799892063678597,-0.0005456329644522662,3.8437351671164532,-0.7769486291336429,-1.685530662737901,-0.46504428300726364,0.3806332260266938,0.009704648480900246,0.3359377794788753,-4.620826893222912,-4.795189222594398,-0.944425484472893,0.010956445653887575,-0.0003898215242884333
0.8,-1.2450150982172508,1.4957039283995528,-1.1220371580997646,0.13652219699020868,-0.12380826575363162,-0.0010685128143785411,-1.2954859756259691,-0.005797538071352119,0.4165600278566754,0.11456998187698537,-0.12425356300476703,-0.0005154635253713294,3.8835421245876667,-0.800195455563275,-1.6877894822702089,-0.46305750372889687,0.38205261763767595,0.009259705973890586,0.3439004338298558,-4.606128169605715,-4.796275978300924,-0.9440155748302586,0.011316126454419397,-0.00040112207546272115
0.81,-1.2575849793705283,1.4955658451854095,-1.118039242321865,0.13762223839117319,-0.12501311193999465,-0.001073376318467955,-1.256988115327743,-0.013808321414327366,0.39979157778995456,0.11000414009645172,-0.12048461863630437,-0.00048635040894137813,3.9190063845465994,-0.8203382273928927,-1.6877834077802132,-0.46064410221847396,0.3832031816736077,0.008822632493798999,0.3511987715644498,-4.590228728194016,-4.7969711702473665,-0.9435942665973095,0.011635191993782597,-0.0004123476231444351
0.8200000000000001,-1.2697663838291104,1.4953456486200314,-1.114209009171949,0.1386768301193367,-0.12618006340201016,-0.0010779591198753539,-1.2181404458582212,-0.022019656537802936,0.38302331499161135,0.10545917281635259,-0.11669514620155039,-0.00045828014073988793,3.9501963056625775,-0.8373791964990721,-1.6856010744256806,-0.4578300847625929,0.3841015599627511,0.008394166972196415,0.3578405002327887,-4.573179630206895,-4.797291224081431,-0.9431637401578655,0.01191527356175839,-0.0004234508491123343
0.8300000000000001,-1.2815562373297615,1.4950416427408961,-1.1105462405693758,0.13968622260135108,-0.1273089441252986,-0.0010822714754235305,-1.178985350065118,-0.030400587913523,0.3662768602573122,0.10093924820143697,-0.11288807232884504,-0.0004312355548176559,3.9771832826162874,-0.8513279358559454,-1.6813297817943091,-0.45464006376063093,0.38476327907132024,0.0079749811743135,0.3638350522342809,-4.555030052730643,-4.797251781005999,-0.9427259845484394,0.012158050213076959,-0.00043438761303908683
0.84,-1.2929518823090107,1.4946524401544656,-1.107050510885189,0.1406507054844685,-0.1283996061128606,-0.001086323436565277,-1.1395644979249149,-0.03892025864304906,0.34957296841868407,0.09644828831174371,-0.10906619875619955,-0.0004051961141746328,4.000041426345343,-0.8622009253564523,-1.6750551528725275,-0.4510972305651384,0.3852027600054324,0.007565683877187257,0.36919341297978825,-4.535827197295298,-4.796867694355067,-0.9422828068850735,0.012365232153208429,-0.0004451170308623645
0.85,-1.3039510705059916,1.4941769603630661,-1.1037211954348127,0.1415706053059928,-0.12945192820821566,-0.0010901248188004064,-1.099918819698089,-0.047547979139945004,0.3329315450376083,0.09198998215242865,-0.10523220953550583,-0.0003801382235129584,4.018847265066729,-0.8700211676968663,-1.6668608537406895,-0.44722334616620607,0.3854333315941485,0.00716682482831954,0.37392795614168584,-4.515616242707949,-4.796153037404461,-0.9418358424077115,0.012538545385472475,-0.00045560152510852305
0.86,-1.3145519553265121,1.4936144274432874,-1.1005574787760513,0.1424462832951435,-0.13046581499072474,-0.0010936851741366587,-1.0600884820520613,-0.056253291977864925,0.31637166587614146,0.08756779891507104,-0.10138867825090657,-0.0003560355336252264,4.0336794667122335,-0.8748178342774171,-1.6568283718588845,-0.443038748392957,0.3854672469107747,0.006778898484388174,0.37805228725025086,-4.494440337885836,-4.795121120981253,-0.9413865649359705,0.012679717703689444,-0.0004658068491159196
0.87,-1.324753083995915,1.4929643671112325,-1.097558362790462,0.14327813330761405,-0.13144119574289584,-0.0010970137665057595,-1.0201128669402777,-0.06500603320550181,0.2999115985589218,0.0831850012470558,-0.09753807521710925,-0.0003328592369100784,4.04461858307533,-0.8766259406287894,-1.6450368503610997,-0.4385623742786331,0.38531570221788947,0.006402347512459383,0.381581096554749,-4.472340630543569,-4.793784519532883,-0.9409362975639121,0.012790466084985457,-0.0004757020871859367
0.88,-1.3345533895261434,1.4922266032069889,-1.0947226745317542,0.14406657989159577,-0.1323780234891665,-0.001100119550042288,-0.9800305530228567,-0.073776390424368,0.28356882587077664,0.07884465839817344,-0.09368277462706669,-0.0003105783536528651,4.051746815658145,-0.8754860504750078,-1.6315629754004124,-0.43381179618329124,0.38498885802600746,0.006037566062556454,0.3845300217571711,-4.449356327737387,-4.792155104415015,-0.9404862234512378,0.012872485510338632,-0.00048525963272623266
0.89,-1.3439521825202867,1.4914012536278247,-1.0920490738301358,0.14481207648266256,-0.13327627410538156,-0.0011030111501302998,-0.9398792994143232,-0.08253495791640836,0.26736007016183644,0.07454965910668024,-0.0898250616215082,-0.000289160008801181,4.055147802923347,-0.871444007190091,-1.6164809132599636,-0.42880327026014253,0.3844958619541341,0.005684902810820902,0.3869155209479317,-4.425524784444996,-4.790244083253733,-0.9400373965942517,0.0129274392161146,-0.0004944551464484538
0.9,-1.3529491428357552,1.490488725736865,-1.0895360606464828,0.14551510372366602,-0.1341359454979348,-0.0011056968471208851,-0.8996960315468387,-0.09125278909595408,0.2513013183652967,0.07030272410034741,-0.08596713925532376,-0.000268569699058538,4.05490642840076,-0.8645506910966394,-1.5998622936688003,-0.4235517958532631,0.3838448731633637,0.0053446637569702915,0.3887547558271486,-4.400881616552692,-4.7880620443305615,-0.9395907524819378,0.01295695035822169,-0.0005032674966489436
0.91,-1.3615443111251828,1.4894897112714156,-1.0871819821747974,0.14617616790467994,-0.1349570568513134,-0.001108184562623128,-0.8595168289427524,-0.09990144654494698,0.23540784716852906,0.0661064181013919,-0.08211113533785869,-0.0002487715502242753,4.0511086488719545,-0.8548618007869017,-1.5817762355436173,-0.4180711844036731,0.38304308820595345,0.005017114795862421,0.3900654850825039,-4.375460834824405,-4.785619005026857,-0.9391471185608831,0.012962595051590562,-0.0005116786835411649
0.92,-1.3697380802721624,1.4884051807726943,-1.0849850396956378,0.1467957995170569,-0.1357396479425718,-0.0011104818482705813,-0.8193769146979548,-0.1084530498721197,0.21969424791597109,0.06196316123769512,-0.07825910912583808,-0.00022972856474533826,4.0438413416573615,-0.8424376564224495,-1.5622894111941372,-0.4123741364767062,0.38209676819272254,0.00470248404528939,0.39086596761455566,-4.349294996633451,-4.782924463446327,-0.9387072244477913,0.012945896731381024,-0.0005196737495292971
0.93,-1.377531186737034,1.487236377556531,-1.0829432951870201,0.1473745519148168,-0.13648377852106147,-0.0011125958768658818,-0.7793106464871423,-0.11688032161633373,0.204174450861752,0.05787523977598851,-0.07441305784896755,-0.00021140285953004945,4.03319216986078,-0.8273430227831103,-1.5414661449000815,-0.4064723255365559,0.3810112672310648,0.004400963942091218,0.39117487515159616,-4.322415372441393,-4.77998745241027,-0.9382717118403439,0.012908321768526757,-0.0005272406772185241
0.9400000000000001,-1.384924701826168,1.4859848112426115,-1.081054677702712,0.14791300007587563,-0.13718952775155457,-0.0011145334358069038,-0.7393515089134001,-0.12515663139194644,0.18886174843082248,0.05384481610588315,-0.07057492304931097,-0.0001937558941021898,4.019249464283746,-0.8096469496893121,-1.5193685416755567,-0.4003764871257909,0.37979106212304536,0.004112713104431731,0.39101121367707614,-4.2948521242057005,-4.776816595089642,-0.9378411440865796,0.012851276260823927,-0.0005343702768543044
0.9500000000000001,-1.3919200228965403,1.4846522508581086,-1.0793169895308212,0.1484117394550413,-0.13785699371871857,-0.0011163009226990567,-0.699532107037232,-0.13325603845028863,0.1737688171890729,0.04987393791656582,-0.0667465967164,-0.00017674868921528902,4.0021021206069065,-0.789422627313705,-1.496056641979856,-0.3940965121569482,0.3784397833478117,0.003837857956501378,0.3903942530013104,-4.266634493084935,-4.773420161600929,-0.9374160153801578,0.012776103911596073,-0.0005410560647742463
0.96,-1.3985188645058804,1.483240717530044,-1.0777279121481693,0.14887138492024662,-0.13848629299072557,-0.001117904343059877,-0.6598841609340149,-0.1411533328064649,0.1589077382651862,0.04596454652053363,-0.0629299272006996,-0.000160342036082043,3.9818395103471746,-0.7667472538240874,-1.4715885981238803,-0.387641543047752,0.37696024736853495,0.0035764941331347666,0.3893434637434973,-4.237790993985545,-4.769806125950079,-0.9369967595543174,0.012684084900876677,-0.000547294134346161
0.97,-1.4047232495173163,1.4817524767794932,-1.076285011988076,0.14929256976315727,-0.13907756023961196,-0.0011193493100235792,-0.6204385011435869,-0.14882407505508716,0.14429001600932972,0.04211848429106607,-0.05912672488863949,-0.0001444966963702189,3.958551404035488,-0.7417019127625403,-1.4460208681313325,-0.38102007150399864,0.3753544903238062,0.0033286876522452546,0.38787846094774836,-4.208349614655787,-4.7659822227601,-0.936583758451371,0.012576435648879579,-0.0005530830207571829
0.98,-1.4105355001662268,1.4801900304297673,-1.0749857460409158,0.14967594477507576,-0.13963094791584107,-0.0011206410459550925,-0.5812250648910379,-0.15624463497258073,0.12992659471602366,0.0383375011918478,-0.055338767622912066,-0.0001291735931513356,3.932327905021098,-0.7143714575589891,-1.4194084228746198,-0.374240036783247,0.3736238031707586,0.003094475879036329,0.3860189535355375,-4.1783380171797475,-4.761956003264688,-0.9361773498475893,0.012454309368126859,-0.0005584235609141599
0.99,-1.4159582290959618,1.4785561081399905,-1.0738274673081143,0.15002217737896162,-0.14014662597436303,-0.001121784385884726,-0.5422728929735099,-0.16339222897766617,0.11582787328015584,0.03462326038858587,-0.051567805852195836,-0.00011433399296335479,3.903259392292621,-0.6848444006049884,-1.3918049623820195,-0.3673089233461422,0.371768768347291,0.0028738682767441848,0.3837846987944357,-4.147783739857623,-4.757734890092546,-0.9357778349156625,0.012318797298817359,-0.0005633187496165982
