tonegas/nnodely-applications/joint_friction_estimation/dataset/train/mpc_mujoco_episode_21 copy.csv
time,q1,q2,q3,q4,q5,q6,dq1,dq2,dq3,dq4,dq5,dq6,ddq1,ddq2,ddq3,ddq4,ddq5,ddq6,tau1,tau2,tau3,tau4,tau5,tau6
0.0,0.0,1.57,-1.57,0.0,0.0,0.0,0.0,0.0,0.0,0.0,0.0,0.0,-1.6804716028986686,0.07804567025106401,7.1664806779121255,2.9219351051609443,-0.24511067872300174,-3.206785818665736e-06,-0.23407838521171878,-3.162189502575322,-3.4299710465156226,-0.7386725490402687,-0.02114046266208917,-0.0005876327742472614
0.01,-0.0001671686739531515,1.5700103102360856,-1.5692865863663685,0.00027263141159712776,-2.0713618234353962e-05,-6.045705187846945e-08,-0.01671686739531515,0.0010310236085443044,0.07134136336314442,0.027263141159712775,-0.002071361823435396,-6.045705187846945e-06,-1.6665176500260657,0.07086976512239775,7.108636111202373,2.71827589959754,-0.2062981666275192,-0.0006000402682321271,-0.23349764134315568,-3.186263987921117,-3.440372767804864,-0.7408418355557578,-0.021083609884150353,-0.0005875533444359901
0.02,-0.0004999905634783734,1.5700303065801784,-1.5678666584655983,0.0008016951118745568,-5.97379119179224e-05,-1.7996623515484783e-07,-0.03328218895252219,0.0019996344092669148,0.14199279007703194,0.0529063700277429,-0.003902429368356844,-1.1950918327637838e-05,-1.650809448832277,0.062416139696141196,7.037365930260812,2.5551302192226544,-0.18214258779370063,-0.0005684662504971127,-0.23304163611532955,-3.2158134459910768,-3.452324972201463,-0.743145734294515,-0.02103204127334125,-0.0005868075995293476
0.03,-0.0009968278680147359,1.5700592008482288,-1.5657481545152276,0.001574055089418958,-0.00011555163608898768,-3.530933302045611e-07,-0.04968373045363625,0.002889426805035944,0.21185039503705494,0.07723599775444012,-0.0055813724171065275,-1.7312709504971325e-05,-1.633852324254511,0.052389927169022014,6.955735118622407,2.4225267861403594,-0.16678158067117899,-0.0004800902588550926,-0.2326909072552208,-3.2506032332085026,-3.4657735954467395,-0.7455740801474966,-0.020984357264032836,-0.0005853992451218663
0.04,-0.0016559501299703372,1.5700960198396836,-1.5629398180583067,0.0025788823711472273,-0.00018716173351255216,-5.764549975950926e-07,-0.06591222619556014,0.0036818991454793245,0.2808336456920977,0.10048272817282694,-0.00716100974235645,-2.2336166739053145e-05,-1.6159425166680932,0.04059230286947377,6.866074666575554,2.3128882757373326,-0.1566799843619595,-0.00039462910302945353,-0.23242134756542773,-3.290381920072006,-3.4806551889455855,-0.7481137473421661,-0.02093880157127402,-0.0005833302374742204
0.05,-0.002475551251563907,1.5701395919675736,-1.5594510205086858,0.003807080672392078,-0.00027389002270191754,-8.480821440577741e-07,-0.08196011215935699,0.004357212789003873,0.3488797549620888,0.12281983012448507,-0.008672828918936535,-2.7162714646268156e-05,-1.5972493631752618,0.026899563452453302,6.770152386767633,2.2204610073636175,-0.14970662467680818,-0.00030583796101479876,-0.2322046665344067,-3.3348817700928968,-3.4968973810474537,-0.7507488392868047,-0.020893305855452085,-0.0005805995807704075
0.06,-0.0034537588081946734,1.5701885398695403,-1.5552916267718344,0.0052508503787955345,-0.0003752445990494595,-1.1664679179946902e-06,-0.09782075566307662,0.004894790196671643,0.4159393736851427,0.1443769706403457,-0.010135457634754194,-3.183857739369162e-05,-1.57786515208088,0.01124722549531891,6.669303727455967,2.14087920332609,-0.14457876763549748,-0.00020492133527433287,-0.2320088394644299,-3.3838193139921007,-3.514419398612124,-0.7534608862632017,-0.020845532692090444,-0.0005772031810258604
0.07,-0.004588638674667379,1.5702412777753287,-1.5504718939911477,0.006903357744061844,-0.0004908424458143632,-1.5299823319671407e-06,-0.11348798664727058,0.0052737905788478165,0.48197327806866636,0.16525073652663097,-0.011559784676490369,-3.635144139724503e-05,-1.557835413729359,-0.006382125254379384,6.564531937561359,2.07083254263938,-0.14052665847650836,-8.703996594161545e-05,-0.23179855542185898,-3.4368959895120765,-3.533132631573033,-0.7562290516909549,-0.020792917541792008,-0.0005731342267664001
0.08,-0.005878196801450044,1.570296012693168,-1.5450023957987205,0.008758484054499624,-0.0006203630084577853,-1.936578224744566e-06,-0.12895581267826645,0.005473491783915775,0.5469498192427167,0.1855126310437779,-0.012952056264342218,-4.0659589277742553e-05,-1.537177373798509,-0.025968176382319748,6.45658479249637,2.007812762811511,-0.13709077870143904,4.961030898947838e-05,-0.23153567216728654,-3.4937988341133233,-3.552941229160166,-0.7590303468471962,-0.02073271022447138,-0.0005683838182232543
0.09,-0.007320379264987711,1.5703507486916197,-1.53889396622892,0.01081063552559601,-0.0007635204945032736,-2.3836719246352963e-06,-0.14421824635376665,0.0054735998451628355,0.6108429569800368,0.20521514710963856,-0.014315748604548817,-4.4709369989073e-05,-1.5158912471884227,-0.04746012590004063,6.346013413071921,1.949920672813871,-0.1339992752940775,0.000205059821519471,-0.23117968402244843,-3.554201227674638,-3.5737427203794767,-0.7618398534697379,-0.02066201621216484,-0.0005629417011658356
0.1,-0.008913071285042241,1.570403293713523,-1.5321576588112806,0.013054599289424986,-0.0009200475007381089,-2.868120159521945e-06,-0.15926920200545308,0.0052545021903275,0.6736307417639322,0.2243963763828975,-0.015652700623483527,-4.844482348866489e-05,-1.4939672035551226,-0.0707823401781103,6.2332174160534946,1.8957192918754302,-0.13109383557510146,0.0003784068808961871,-0.23068820696836476,-3.6177636879236177,-3.5954286539223275,-0.7646309534368168,-0.020577837900681427,-0.0005567970318776062
0.11,-0.010654095641597574,1.5704512684782692,-1.524804717395075,0.015485434337330635,-0.0010896854940309925,-3.386246723879401e-06,-0.17410243565553332,0.004797476474619489,0.7352941416205669,0.24308350479056484,-0.016963799329288362,-5.1812656435745596e-05,-1.471389716146703,-0.09583882784007577,6.118479639907923,1.8441221799664405,-0.12828483625174414,0.000568320189560656,-0.2300174838694191,-3.6841347243088785,-3.6178852543184807,-0.7673755646004796,-0.020477115901848964,-0.0005499391358889376
0.12,-0.012541210766501432,1.5704921171179524,-1.516846556047295,0.01809838895584185,-0.0012721794390648526,-3.933892492168773e-06,-0.18871151249038587,0.004084863968331081,0.7958161347779883,0.2612954618511214,-0.018249394503386,-5.476457682893718e-05,-1.4481403274404305,-0.12251682672215407,6.001992925018003,1.7943085997176453,-0.12552418175937596,0.000773329584511262,-0.22912291141702867,-3.752951757346672,-3.6409940921322677,-0.7700443817911861,-0.020356770307364408,-0.0005423582410864044
0.13,-0.01457210868978039,1.5705231192595257,-1.5082947459669402,0.02088883823141368,-0.0014672749339322184,-4.5064741913897385e-06,-0.20308979232789576,0.003100214157323456,0.8551810080354739,0.279044927557183,-0.019509549486736586,-5.725816992209657e-05,-1.4241994544270054,-0.1506897273517608,5.883880841186171,1.74565912318009,-0.12278883263164442,0.000991991970061612,-0.22795958909674133,-3.8238421107065044,-3.6646327665255645,-0.7726071219714765,-0.020213741804319757,-0.0005340461744268565
0.14,-0.016744412962684044,1.570541403314625,-1.4991610078161215,0.023852236751707168,-0.0016747168596854926,-5.099044139428284e-06,-0.21723042729036532,0.0018284055099278176,0.9133738150818759,0.2963398520293487,-0.020744192575327412,-5.9256994803854605e-05,-1.3995476078759568,-0.180219500835857,5.764213805668179,1.6977068082478777,-0.12007079605593596,0.0012229847998095345,-0.22648288916641465,-3.8964240827985623,-3.6886755987081594,-0.7750327724764907,-0.020045032465174337,-0.0005249970153423674
0.15,-0.01905567664399159,1.5705439607754972,-1.4894572082167703,0.026984082812771367,-0.0018942489398910288,-5.706346990794609e-06,-0.23112636813075474,0.00025574608722624646,0.970379959935121,0.31318460610642007,-0.02195320802055361,-6.073028513663239e-05,-1.3741662496557772,-0.21095875700901373,5.643021690639128,1.6501002257340058,-0.11737102533750043,0.0014651576816486767,-0.22464904528530077,-3.9703081036150825,-3.7129943347628562,-0.7772898412290954,-0.01984774598718118,-0.0005152077004801995
0.16,-0.021503380413887958,1.5705276613427057,-1.4791953594268765,0.03027989134063542,-0.0021256138420896716,-6.32287165183373e-06,-0.2447703769896368,-0.0016299432791391634,1.026184878989388,0.32958085278640503,-0.0231364902198643,-6.165246610391217e-05,-1.348038421448033,-0.242752526811803,5.52030375552068,1.6025755016341954,-0.11469568654113704,0.0017175597469694104,-0.22241575606969216,-4.045097981202737,-3.7374588561388187,-0.7793466077540515,-0.019619127115686162,-0.0005046785749546825
0.17,-0.02408493086531953,1.5704892687304566,-1.4683876214121974,0.03373517341963222,-0.002368553595873418,-6.9428976670311905e-06,-0.2581550451431572,-0.0038392612249055274,1.0807738014679265,0.34552820789967986,-0.024293975378374657,-6.200260151974606e-05,-1.3211492235216131,-0.27543983866284827,5.396036538199797,1.5549352137122092,-0.11205386143227614,0.001979452897247491,-0.21974279849887074,-4.120392240503144,-3.7619378958051577,-0.7811713737400667,-0.01935659995122364,-0.0004934138854426511
0.18,-0.026797659012883678,1.5704254570103438,-1.45704630568359,0.037345420839523,-0.002622810188915814,-7.5605359647800296e-06,-0.2712728147564149,-0.0063811720112871536,1.1341315728607193,0.36102474198907797,-0.025425659304239605,-6.17638297748839e-05,-1.2934861894051495,-0.3088551401896802,5.270180185384728,1.5070324961953396,-0.10945612460148446,0.002250316699896393,-0.2165926447922276,-4.195785555463775,-3.7862997576874893,-0.7827327118140067,-0.01905780481171534,-0.00048142221054896163
0.19,-0.02963881905202534,1.5703328273654718,-1.445183880388194,0.04110609446826501,-0.0028881262549977703,-8.169764132660158e-06,-0.284116003914166,-0.009262964487198624,1.1862425295396033,0.3760673628742014,-0.02653160660819561,-6.0922816788012846e-05,-1.2650395827018164,-0.3428296026954961,5.142683585052101,1.4587590987261496,-0.10691365518508267,0.0025298482328814376,-0.2129310751661139,-4.270870273344224,-3.8104130366038333,-0.7839997111024417,-0.018720633298649973,-0.00046871682405080274
0.2,-0.03260558739544309,1.5702079251353571,-1.4328129762335267,0.045012615556852716,-0.0031642458002800024,-8.764456510520037e-06,-0.29667683434177516,-0.012490223011474129,1.2370904154667288,0.3906521088587701,-0.027611954528223195,-5.94692377859879e-05,-1.2358026307142769,-0.3771923351096318,5.013488574589662,1.4100364446364715,-0.10443767782249846,0.002817958781834551,-0.20872777780086424,-4.345238028071148,-3.8341473355006976,-0.7849422180680936,-0.018343261200475126,-0.0004553159869596073
0.21,-0.035695062008468566,1.5700472570385466,-1.4199463928939484,0.04906035930975372,-0.003450914933888812,-9.338409424192492e-06,-0.30894746130254724,-0.016066809681049607,1.28665833395783,0.4047743752901002,-0.028666913360880977,-5.739529136724549e-05,-1.2057717028273536,-0.4117715260989415,4.882533430270136,1.3608089612341203,-0.10203910841468211,0.0031147685209844678,-0.20395692644789712,-4.418481437366849,-3.857373976385774,-0.7855310710279824,-0.017924178858258172,-0.00044124316483427017
0.22,-0.03890426206039351,1.569847308465156,-1.4065971056040254,0.053244650226325775,-0.003747882581187198,-9.885361877361569e-06,-0.3209200051924948,-0.019994857339053658,1.3349287289923033,0.41842909165720515,-0.02969676472983857,-5.469524531690758e-05,-1.1749464378153094,-0.4463955269036627,4.749755792101553,1.3110391280558602,-0.09972832901192419,0.003420599886279463,-0.19859772542520474,-4.4901958762275305,-3.8799667009760244,-0.7857383266910524,-0.017462218618642347,-0.0004265271674348245
0.23,-0.042230127904075015,1.5696045607359792,-1.392778271687004,0.05756075884838381,-0.004054901165841498,-1.0399011997267513e-05,-0.3325865843681507,-0.024274772917695565,1.3818833917021327,0.43161086220580375,-0.030701858465430065,-5.136501199059445e-05,-1.14332982223434,-0.48089388284847995,4.615095138984347,1.2607038208576231,-0.09751504552866219,0.003735970122347082,-0.19263491132384428,-4.559981317204876,-3.9018023567529436,-0.7855374770031412,-0.016956579007762568,-0.00041120220860788834
0.24,-0.04566952139155548,1.5693155082288157,-1.3785032368018433,0.06200389964678492,-0.004371727251737736,-1.0873029503363175e-05,-0.34393934874804627,-0.02890525071633963,1.427503488516086,0.44431407984011095,-0.03168260858962384,-4.740175060956615e-05,-1.1109282211220464,-0.5150983180177212,4.4784948995604665,1.2097916294306508,-0.09540819966726577,0.004061583362055032,-0.1860592006097269,-4.627444225878778,-3.9227615638466675,-0.7849036545591408,-0.016406845277467223,-0.0003953078852233555
0.25,-0.04921922652886,1.5689766752764744,-1.3637855407212713,0.0665692298531226,-0.004698122139019175,-1.1301064442161508e-05,-0.3549705137304522,-0.033883295234129765,1.4717696080572047,0.4565330206337671,-0.03263948872814395,-4.2803493879833226e-05,-1.0777513619217698,-0.548843675012149,4.3399042619013395,1.1583009036439655,-0.09341591708226282,0.004398322531235732,-0.1788676724777217,-4.69219949794368,-3.942729357972473,-0.7838138248411951,-0.015813006002035012,-0.0003788890750129532
0.26,-0.052875950468587694,1.5685846327447153,-1.3486389224778106,0.0712518490971585,-0.005033852410650402,-1.1676752408391083e-05,-0.36567239397276924,-0.03920425317590823,1.5146618243460714,0.4682619244035901,-0.033573027163122604,-3.756879662295744e-05,-1.0438122726159613,-0.5819688098233382,4.199279728483447,1.1062383402044667,-0.09154548023856268,0.004747241325025187,-0.1710640768136029,-4.753872422512409,-3.9615958045325197,-0.7822469635724507,-0.015175465439450964,-0.0003619957542715106
0.27,-0.056636324834425295,1.5681360142023617,-1.3330773247358922,0.07604679975087747,-0.005378690427351342,-1.1993716452678126e-05,-0.37603743658376015,-0.044861854235366865,1.5561597741918238,0.47949506537189807,-0.03448380167009404,-3.16964044287044e-05,-1.0091271753274782,-0.614317440517243,4.05658645050503,1.0536179668764998,-0.08980331829997823,0.005109556474958171,-0.16265905794841756,-4.8121006545984075,-3.979256578969112,-0.7801842175380095,-0.014495051415823287,-0.00034468273754145073
0.28,-0.06049690736732344,1.5676275316000154,-1.3171148972669888,0.08094906790938866,-0.005732414769721533,-1.2245565858912152e-05,-0.38605825328981463,-0.050848260234616055,1.596242746890351,0.4902268158511192,-0.03537243423701907,-2.518494062340258e-05,-0.9737153370289922,-0.6457389474979855,3.911799366425478,1.0004604146352065,-0.08819500874871089,0.005486640495995315,-0.15367028604284802,-4.866536178322163,-3.995613508530263,-0.7776090473227018,-0.01377301854400077,-0.00032700934258481307
0.29,-0.0644541838788351,1.567055990378335,-1.3007659994217975,0.08595358495987471,-0.006094810627033378,-1.2425891959689843e-05,-0.3957276511511664,-0.05715412216804119,1.6348897845191301,0.5004517050486046,-0.036239585731184513,-1.803261007776912e-05,-0.9375988794267992,-0.6760891225357432,3.764904162918154,0.9467923940067529,-0.08672528688973724,0.005880015069743838,-0.1441224893983094,-4.916847241233971,-4.010575070782659,-0.7745073505484257,-0.013011046646965086,-0.0003090389851233428
0.3,-0.0685045704930707,1.5664183039317037,-1.2840452015093997,0.09105522970437258,-0.006465670132600786,-1.2528261145274892e-05,-0.4050386614235593,-0.0637686446631314,1.672079791239767,0.5101644744497865,-0.037085950556740785,-1.02369185585049e-05,-0.9008025505164698,-0.7052308634230612,3.6158980716452263,0.8926463115690026,-0.08539806030666153,0.006291345197812076,-0.134047382727375,-4.962720239286684,-4.024056844480621,-0.7708675643612026,-0.012211234321942472,-0.0002908387089672144
0.31,-0.07264441615492216,1.5657115073583627,-1.266967285008328,0.09624883101185497,-0.006844792645881304,-1.2546205209795554e-05,-0.41398456618514656,-0.07067965733409973,1.707791650107163,0.5193601307482392,-0.03791225132805175,-1.794406452066223e-06,-0.8633534607200075,-0.7330348110180469,3.4647905119150013,0.8380599777400768,-0.0842164259226279,0.006722434222164786,-0.12348348838829187,-5.003861531463816,-4.035981908772936,-0.7666807461186738,-0.011376087651018222,-0.00027247865822727866
0.32,-0.07687000537869315,1.5649327704336893,-1.2495472415488342,0.10152917098102747,-0.007231984981580901,-1.2473209167716314e-05,-0.42255892237709874,-0.07787369246734438,1.742004345949369,0.5280339969172503,-0.03871923356995972,7.299604207923971e-06,-0.8252807868921551,-0.7593799255011507,3.3116035870373555,0.7830763686582989,-0.08318268771267157,0.0071752197758973395,-0.11247584974634448,-5.039999162893793,-4.046281187196168,-0.7619406314592936,-0.010508504136776205,-0.00025403149928504885
0.33,-0.08117756120808392,1.5640794097492634,-1.231800270619503,0.10689098859835654,-0.0076270615860242605,-1.2302696663831004e-05,-0.43075558293907684,-0.08533606844259616,1.7746970929331138,0.5361817617329067,-0.039507660444335964,1.705125038853101e-05,-0.7866154478183894,-0.7841539988796439,3.1563724407762503,0.7277434140136831,-0.0822983733907563,0.007651770699841329,-0.10107563810962894,-5.070884475481117,-4.054893733456147,-0.7566436691911569,-0.009611752015426347,-0.00023557180105308632
0.34,-0.08556324835565315,1.5631488999666519,-1.2137417759647722,0.11232898387679277,-0.008029844660946146,-1.202801309103927e-05,-0.43856871475692394,-0.09305097826114692,1.8058494654730928,0.5437995278436227,-0.04027830749218867,2.7468357279173455e-05,-0.7473897551150854,-0.8072541010970755,2.999145479513423,0.6721137897295018,-0.08156424859532274,0.008154284924183628,-0.08933965703271324,-5.096293585671041,-4.061766956628376,-0.7507890327163493,-0.008689445173245375,-0.0002171753827713293
0.35000000000000003,-0.09002317648744458,1.5621388841414132,-1.19538736065294,0.11783782245999522,-0.008440164234662888,-1.1642406522129318e-05,-0.44599281317914213,-0.10100158252386386,1.8354415311832348,0.5508838583202443,-0.04103195737167419,3.8560656890995236e-05,-0.7076370436811573,-0.8285869575177024,2.839984465411358,0.6162446999406379,-0.08098032725367599,0.00868508827869445,-0.07732975011854998,-5.116028709939913,-4.066856784100546,-0.7443786080001281,-0.007745513963130021,-0.00019891863913199624
0.36,-0.09455340361644898,1.5610471830796377,-1.1767528208068514,0.12341214067502576,-0.008857858180306249,-1.113900655492672e-05,-0.45302271290044055,-0.10917010617755045,1.8634539846088478,0.5574318215030548,-0.04176939456433602,5.033999672025981e-05,-0.667391286042174,-0.84806925604252,2.6789644858817416,0.5601976370843209,-0.08054587692711168,0.009246634168719368,-0.0651121207049071,-5.129919319963314,-4.070127761321587,-0.7374169583968702,-0.006784172284866835,-0.00018087785288954197
0.37,-0.09914993956699279,1.559871803696345,-1.1578541380016276,0.12904655101380852,-0.009282772180451988,-1.0510801164646643e-05,-0.4596535950543805,-0.11753793832927069,1.8898682805223697,0.5634410338782755,-0.04249140001457386,6.282053902800764e-05,-0.6266866950751914,-0.8656278826554592,2.5161738049236786,0.5040381124043698,-0.08025941803753378,0.009841504011199195,-0.05275657392538603,-5.13782311114376,-4.071553088195463,-0.7299112669496239,-0.005809881353662863,-0.0001631285052826964
0.38,-0.10380874947101724,1.558610946352195,-1.1387074703454856,0.13473564802041132,-0.009714759637057873,-9.750611653592253e-06,-0.4658809904024454,-0.12608573441500254,1.9146667656142013,0.5689097006602819,-0.043198745660588476,7.601895110543897e-05,-0.5855573197104925,-0.8812000847814423,2.3517136023117766,0.4478353519791112,-0.08011871595540576,0.010472408302501068,-0.04033569351927546,-5.139626770255158,-4.071114592746803,-0.7218712570802162,-0.004827310634993979,-0.00014574459456351215
0.39,-0.10852575725655052,1.5572630111521772,-1.1193291422708371,0.1404740145576273,-0.010153681525145347,-8.851065786697437e-06,-0.4717007785533273,-0.1347935200017936,1.9378328074648532,0.5738366537215983,-0.04389218880874727,8.995458668948169e-05,-0.5440366382818955,-0.8947335624478806,2.1856976071303906,0.39166195564582473,-0.08012076499074228,0.011142188142502542,-0.02792396736787159,-5.135246530348946,-4.0688026434715185,-0.7133090928751092,-0.0038412964685443033,-0.00012879797269580782
0.4,-0.11329684908848563,1.5558266031971604,-1.0997356330733767,0.14625622842259345,-0.010599406188119151,-7.804569202467605e-06,-0.4771091831935109,-0.14364079550169281,1.9593509197460346,0.5782213864966141,-0.04457246629738037,0.00010464965842298319,-0.5021571542480163,-0.9061864878675759,2.0182516327103848,0.3355935180454983,-0.08026176337884516,0.011853817010806691,-0.015596877004980553,-5.124628503725728,-4.064616002550638,-0.7042392604416511,-0.0028567989387840945,-0.00011235770985325758
0.41000000000000003,-0.11811787672206657,1.5543005367863478,-1.079943564246712,0.1520768692774306,-0.011051809072023048,-6.603275193021868e-06,-0.4821027633580944,-0.15260664108126473,1.9792068826664948,0.5820640854837165,-0.0452402883903898,0.00012012940094457373,-0.45994999904298883,-0.9155274546890748,1.8495130205882155,0.2797082125199468,-0.08053707838780588,0.01261040253929454,-0.0034299672445157747,-5.107748786656153,-4.058561622832363,-0.6946784320536401,-0.0018788575736906378,-9.648949572852467e-05
0.42,-0.12298466073025713,1.5526838385757233,-1.05996968566918,0.15793052585724557,-0.01151077239537976,-5.239052954957501e-06,-0.48667840081905656,-0.16166982106245542,1.9973878577531843,0.5853656579814951,-0.04589633233567103,0.00013642222380643668,-0.41744454684727467,-0.9227353587838049,1.6796300016416663,0.22408633982986537,-0.08094120070259048,0.01341518799350827,0.008502087440663053,-5.084613332580319,-4.050654392159056,-0.6846453150184164,-0.0009125464656702092,-8.125508587220161e-05
0.43,-0.12789299356742526,1.5509757497044343,-1.0398308607077882,0.1638118034144028,-0.01197618475056161,-3.7034544251278574e-06,-0.490833283716813,-0.1708088871289107,2.0138824961391792,0.5881277557157227,-0.046541235518185155,0.00015355985298296434,-0.37466804610993987,-0.9277992130450087,1.5087609830290558,0.16880984467637372,-0.08146768725917108,0.01427155310468304,0.02012640308267899,-5.05525759366505,-4.040916829218221,-0.6741604873751914,3.707059038836162e-05,-6.671180033359213e-05
0.44,-0.13283864243352492,1.5491757269076707,-1.019544050311628,0.1697153313548346,-0.012447940631887254,-1.987679833243136e-06,-0.4945648866099669,-0.18000227967635896,2.0286810396160138,0.5903527940431804,-0.04717558813256437,0.00017157745918847212,-0.3316452727165448,-0.930717899255313,1.3370737699568893,0.1139618038218222,-0.08210909172066305,0.015183013850182024,0.03137277656804614,-5.019745933787795,-4.029378735616033,-0.6632462226720456,0.0009649843577712088,-5.291208080044665e-05
0.45,-0.13781735190520356,1.5472834426409094,-0.9991262961736407,0.17563577101937936,-0.012925939884841472,-8.254212715912158e-08,-0.4978709471678646,-0.1892284266761161,2.0417754137987285,0.5920439664544758,-0.04779992529542179,0.00019051377060840146,-0.28839820979657815,-0.9314998606292602,1.1647447315958648,0.05962589026852916,-0.08285688180423012,0.01615322069712989,0.04217453057152448,-4.978170819179227,-4.016076809299033,-0.6519263061643531,0.001866283255226404,-3.9903111254565735e-05
0.46,-0.14282484630301606,1.5452987842463413,-0.9785947030451813,0.18156782356077508,-0.013410087069972624,2.0215695419054378e-06,-0.5007494397812513,-0.19846583945681842,2.0531593128459398,0.5932052541395728,-0.04841471851311527,0.00021041116690645594,-0.24494575931709303,-0.9301627391483719,0.9919579206560667,0.005885818461685677,-0.08370134269212359,0.01718595475655782,0.052469298610654996,-4.930651796026786,-4.001054224775997,-0.6402258448287002,0.0027361947615422598,-2.772650590709774e-05
0.47000000000000003,-0.14785683176720105,1.5432218521978338,-0.9579664202924473,0.18750623786503048,-0.013900290734139568,4.334727047155205e-06,-0.5031985464184981,-0.2076932048507509,2.0628282752733966,0.5938414304255404,-0.04902036641669443,0.00023131575052497672,-0.2013034908309281,-0.9267329622730847,0.8189041561996082,-0.047175224114233805,-0.08463146580284509,0.018285121181549395,0.0621997372366304,-4.877334267254676,-3.9843601858132716,-0.6281710735934513,0.0035701246405870288,-1.6418066880915686e-05
0.48,-0.15290899801829294,1.5410529574658622,-0.9372586227874817,0.1934458184644821,-0.014396462580862922,6.867500949936961e-06,-0.5052166251091904,-0.21688947319716567,2.0707797504965546,0.5939580599451629,-0.049617184672335404,0.0002532773902781756,-0.15748343305720428,-0.9212452840354826,0.6457800792186168,-0.09947515330038725,-0.08563482225914709,0.019454739059415672,0.07131415414926108,-4.818388083391594,-3.966049456391209,-0.6157891601508799,0.004363693551117828,-6.007612797540276e-06
0.49,-0.1579770197832345,1.5387926180484093,-0.9164884912291381,0.199381433388947,-0.01489851653059234,9.630998260921909e-06,-0.5068021764941557,-0.22603394174529712,2.077013155834367,0.5935614924464896,-0.05020539497294168,0.0002763497310984948,-0.11349391438519311,-0.9137422858831373,0.4727871903296531,-0.15093356674583658,-0.08669742049159301,0.020698926892123076,0.07976704303059629,-4.754005964860628,-3.9461818757177434,-0.603108010638334,0.005112770664101861,3.4811218651926496e-06
0.5,-0.16305655787265708,1.536441554717871,-0.8956731919911235,0.2053080219010117,-0.01540636766074376,1.2636899885201927e-05,-0.5079538089422572,-0.2351063330538424,2.0815299238014666,0.5926588512064684,-0.0507851130151421,0.0003005901624280019,-0.06933945892850624,-0.9042738429580574,0.3001308786398116,-0.20147231855879286,-0.08780354756437231,0.022021882635739037,0.08751951806919886,-4.684401775128946,-3.9248218630018754,-0.5901560783604431,0.005813503974547926,1.2030518023589334e-05
0.51,-0.16814325990066334,1.5340006860374613,-0.8748298565950441,0.21122060206166907,-0.015919931014404424,1.5897497247268057e-05,-0.5086702028006258,-0.2440868680409532,2.0843335396079414,0.5912580160657371,-0.05135633536606618,0.000326059736206613,-0.025020745431643194,-0.8928965617504013,0.12801945042507057,-0.2510160841290345,-0.08893559402608364,0.02342785709668548,0.09453964342750792,-4.609808665897821,-3.9020379175009556,-0.5769621775749284,0.006462347063335245,1.9629036396791042e-05
0.52,-0.1732327606448409,1.5314711227034745,-0.8539755609063063,0.21711427807322858,-0.01643912026567059,1.9425727483561718e-05,-0.5089500744177544,-0.2529563333986892,2.085429568873774,0.5893676011559507,-0.05191892512661678,0.000352823023629366,0.019465362840036752,-0.879673195265674,-0.04333683425539703,-0.2994929091522557,-0.09007386239408163,0.024921119288350276,0.10080265521966898,-4.53047711686681,-3.877902119080459,-0.5635553041860245,0.00705608213561521,2.6271118697947318e-05
0.53,-0.17832068205143523,1.5288541612719961,-0.8331273041498303,0.22298424734767935,-0.01696384622870305,2.323520646160905e-05,-0.5087921406594345,-0.2616961431478418,2.0848256756476107,0.5869969274450766,-0.05247259630324607,0.0003809478978047331,0.06412570810009785,-0.8646720419830859,-0.21372670950451333,-0.34683473694424016,-0.09119635979996424,0.026505912152058067,0.10629107584975422,-4.446672893548768,-3.852489634173787,-0.5499644649872937,0.007591839234400881,3.195703018817847e-05
0.54,-0.18340263289870928,1.526151277330272,-0.8123019878408715,0.22882580725047574,-0.01749401519679712,2.7340258733130707e-05,-0.5081950847274045,-0.2702883941724344,2.082531630895874,0.5841559902796395,-0.05301689680940666,0.0004105052271521658,0.10897063763350667,-0.8479663349627914,-0.382938829283775,-0.3929779082561162,-0.09227857588454563,0.028186396818533133,0.11099472274753946,-4.358674947135343,-3.8258782316149067,-0.5362185168754292,0.008067111599339807,3.6692648996246223e-05
0.55,-0.18847420814062257,1.5233641181738975,-0.791516394723897,0.23463436147202985,-0.018029527097117606,3.175594335118813e-05,-0.5071575241913298,-0.2787159156374426,2.078559311697444,0.5808554221554098,-0.053551190032048675,0.00044156846180574234,0.15401370134056602,-0.8296336274763614,-0.5507626648236914,-0.4378636279327053,-0.09329324778173026,0.029966583326896057,0.11491061557410069,-4.266773280516367,-3.7981478123516084,-0.5223460172245474,0.008479767209846674,4.0489208281965945e-05
0.56,-0.19353098796320106,1.5204944950513204,-0.7707871678094917,0.2404054259820244,-0.018570273446310213,3.649807427536013e-05,-0.5056779822578502,-0.2869623122576993,2.0729226914405285,0.5771064509994562,-0.05407463491926061,0.00047421309241720005,0.19927123408009348,-0.8097551814910784,-0.716989368526654,-0.4814383929462762,-0.094210114992125,0.031850245484106865,0.11804278780331615,-4.171266804251461,-3.7693799565456367,-0.5083750863723228,0.008828056617318095,4.336299784206289e-05
0.5700000000000001,-0.19856853659747373,1.517544375036821,-0.7501307895957777,0.24613463452498788,-0.019116135092050835,4.1583233851828145e-05,-0.5037548634272673,-0.2950120014499377,2.065637821371399,0.5729208542963466,-0.054586164574062325,0.0005085159576468013,0.2447618080079083,-0.7884153652270989,-0.8814125999931869,-0.5236543765365615,-0.09499566819543792,0.03384081726708191,0.12040201017786849,-4.07246120559864,-3.739657491041944,-0.4943332829308787,0.00911061723175297,4.533503211826257e-05
0.58,-0.203582400945774,1.5145158725921932,-0.7295635615568875,0.2518177436193832,-0.019666979725837138,4.702877758442103e-05,-0.5013864348300293,-0.30285024446277187,2.0567228038890235,0.5683109094395316,-0.0550844633786303,0.0005445543732592884,0.29050553835500514,-0.7657010658293517,-1.0438293106671983,-0.564469763426839,-0.0956128976151448,0.0359412679412284,0.12200543485932894,-3.970666852651066,-3.7090640796566046,-0.48024749240195935,0.009326474282590012,4.6430691768572534e-05
0.59,-0.20856810909269455,1.511411240875789,-0.7091015839767356,0.257450637026736,-0.020222659153089646,5.2852828106759714e-05,-0.4985708146920543,-0.3104631716404398,2.0461977580151838,0.5632893407352776,-0.05556794272525076,0.0005824050522338685,0.33652322430807285,-0.7417011229470334,-1.2040404844482722,-0.6038490313655789,-0.09602104850638804,0.038153952854832945,0.12287617012147671,-3.8661967542553914,-3.6776838382043895,-0.46614382935236465,0.009475038720927564,4.667934600619544e-05
0.6,-0.21352116878819302,1.5082328628554431,-0.6887607362017707,0.26302932966204207,-0.020783006308069042,5.907425592406834e-05,-0.4953059695498486,-0.31783780203458734,2.0340847774964876,0.5578692635306074,-0.056034715497939834,0.0006221427817308622,0.3828353049470959,-0.7165057886896009,-1.3618518324497342,-0.6417631745490922,-0.09617539374578643,0.04048043671544896,0.12304279616450049,-3.7593645947251684,-3.645600975674757,-0.4520475531961575,0.009556102369634362,4.611396280272147e-05
0.61,-0.2184370660084126,1.5049832422791085,-0.6685566573816402,0.2685499709218256,-0.021347832003420775,6.571264411703783e-05,-0.49158972202195644,-0.32496205763346614,2.0204078820130498,0.5520641259783532,-0.05648256953517323,0.0006638388192969491,0.4294606087076441,-0.690206219025922,-1.5170744408558934,-0.6781898648590947,-0.09602703642043853,0.04292128612344248,0.12253883305530422,-3.6504828604671946,-3.6128994624800277,-0.43798299743830876,0.009569830658446205,4.477071379961145e-05
0.62,-0.22331126371980792,1.50166499455382,-0.6485047277618498,0.27400884741173603,-0.02191692140755174,7.278823379311271e-05,-0.48741977113953205,-0.33182477252883846,2.0051929619790356,0.5458876489910474,-0.056908940413096486,0.0007075589676074874,0.4764148737747706,-0.6628940012076311,-1.6695253715198164,-0.7131135472857482,-0.09552275880025674,0.04547582824331553,0.12140217193505543,-3.539861073556417,-3.579662726247763,-0.42397351206216943,0.00951675330234655,4.268858038525083e-05
0.63,-0.22813920099421442,1.4982808375799526,-0.6286200505876135,0.2794023850614408,-0.02249003024778945,8.032184663955818e-05,-0.48279372744064936,-0.33841569738675165,1.9884677174236292,0.539353764970479,-0.057310884023770735,0.0007533612846445469,0.5237090164564806,-0.6346607212257023,-1.8190282155691744,-0.7465254664253482,-0.09460493817688476,0.04814187284210536,0.11967448049669184,-3.427804145078749,-3.54597337522526,-0.41004141859406806,0.00939775329280152,3.990896688338775e-05
0.64,-0.23291629264653815,1.4948335825836698,-0.6089174346732343,0.2847271506207471,-0.023066880743673215,8.833478048932704e-05,-0.4777091652323738,-0.3447254996282632,1.970261591437919,0.5324765559306299,-0.05768504958837643,0.0008012933849768871,0.5713471252877041,-0.6055975746485107,-1.9654136008214766,-0.7784236215611822,-0.09321155476940413,0.05091539557568853,0.11740059334653503,-3.3146108587609966,-3.5119129490110184,-0.3962079772530558,0.00921405457228415,3.6475326173247766e-05
0.65,-0.2376379295926381,1.4913261249860774,-0.5894113776865882,0.28997985253732195,-0.023647157283118597,9.684867337262875e-05,-0.47216369460999447,-0.3507457597592466,1.9506056986646116,0.5252701916574862,-0.058027653944538175,0.0008513892883301704,0.6193241608416677,-0.575795023438595,-2.108519654080176,-0.8088126485730429,-0.09127632220132953,0.053790181483534594,0.11462789725518993,-3.200572493069933,-3.477561696008694,-0.38249336548764684,0.008967208752544972,3.2432802335572164e-05
0.66,-0.24229948015241715,1.487761435342941,-0.5701160501936282,0.29515734122301135,-0.024230501864949874,0.00010588533111960918,-0.4661550559779057,-0.35646896431364883,1.929532749295999,0.517748868568939,-0.0583344581831276,0.0009036657746980426,0.6676233455495534,-0.5453425005080902,-2.248192419727792,-0.8377036277708987,-0.08872897684317427,0.05675742927983968,0.11140572050769863,-3.085971587644573,-3.442998376762054,-0.36891666712533044,0.008659081215816156,2.782789409794369e-05
0.67,-0.24689629255161255,1.4841425503840295,-0.5510452805033232,0.3002566087225166,-0.024816509344798888,0.00011546651323774311,-0.4596812399195406,-0.36188849589113176,1.9070769690304918,0.5099267499505253,-0.058600747984901266,0.0009581182118133931,0.7162132349457607,-0.514328162853635,-2.3842862360704395,-0.8651138177350939,-0.08549576837742312,0.05980531935156297,0.10778473461832301,-2.9710808576608003,-3.408300092124198,-0.35549587130149474,0.008291836905158749,2.270814195145562e-05
0.68,-0.25142369890447147,1.4804725641762586,-0.5322125403490998,0.30527478780498624,-0.025404722538007313,0.00012561367155825506,-0.4527406352858946,-0.36699862077708184,1.8832740154223409,0.5018179082469649,-0.05882131932084272,0.0010147158320511949,0.7650444724817328,-0.48283869312190775,-2.5166640708446604,-0.8910663163552597,-0.08150019993857449,0.06291855154716275,0.10381637562030178,-2.856162257561609,-3.373542135069157,-0.3422478802980152,0.00786792606504477,1.712184083679203e-05
0.6900000000000001,-0.2558770209872437,1.4767546194299603,-0.513630931438663,0.3102091505058277,-0.025994627253293403,0.00013634763608970723,-0.4453322082772215,-0.37179447462982146,1.858160891043677,0.4934362700841472,-0.058990471528609104,0.001073396453145219,0.8140462453020437,-0.45095914841258244,-2.6451978171027917,-0.9155896514811541,-0.07666407157441335,0.06607786304047614,0.09955229101503452,-2.7414661935520916,-3.338797864854881,-0.32918852540357363,0.007390070135621594,1.1117779261115195e-05
0.7000000000000001,-0.26025157813760086,1.4729918989629005,-0.4953131729000205,0.3150571061526314,-0.026585647354821527,0.00014768824271018207,-0.43745571503571923,-0.3762720467059882,1.8317758538642455,0.48479556468036833,-0.059102010152812225,0.0011340606620474825,0.863122479128521,-0.4187728540485245,-2.7697685503757135,-0.9387173048913198,-0.07090888479710555,0.06925954189165795,0.09504381730798431,-2.627230882385354,-3.3041386021897714,-0.3163325899057398,0.006861247933651283,4.745004618876136e-06
0.71,-0.264542697635552,1.4691876173321987,-0.4772715896475867,0.31981619891541585,-0.027177139978064323,0.00015965389786488717,-0.42911194979511474,-0.3804281630701883,1.8041583252433824,0.47590927627844937,-0.05914926232427959,0.0011965655154705097,0.9121478376055319,-0.38636133896144226,-2.8902667475822996,-0.9604871746298205,-0.06415766759426189,0.07243495852431758,0.09034149190902621,-2.5136818522773487,-3.2696335440328115,-0.30369383833614516,0.006284682169791079,-1.9473866367073644e-06
0.72,-0.2687457279343999,1.4653450126402066,-0.4595181016883665,0.32448410492732865,-0.027768391056361218,0.00017226107642261408,-0.4203030298847888,-0.3842604691992052,1.7753487959220189,0.4667906011912819,-0.05912510782968925,0.0012607178557726907,0.960963625926742,-0.3538043082889669,-3.0065924676547118,-0.9809409820674455,-0.05633727706667924,0.0755701451719083,0.08549460207070887,-2.4010315803032394,-3.2353496966621313,-0.2912850511117798,0.0056638262560159474,-8.91043647188729e-06
0.73,-0.27285605511234445,1.4614673385167603,-0.4420642143843614,0.3290586290273532,-0.028358611349900916,0.00018552375040499906,-0.41103271779445966,-0.38776741234464107,1.7453887304005102,0.4574524100024583,-0.059022029353969795,0.0013262673982384976,1.009373740752435,-0.3211796477952593,-3.1186554933043213,-1.0001236312620998,-0.04738122913002729,0.07862546225812284,0.08055077251505738,-2.2894792593573445,-3.2013518256685303,-0.2791180637443776,0.005002351249554063,-1.6095494044487565e-05
0.74,-0.2768691229023625,1.4575578562771434,-0.42492100968344776,0.3335377011813676,-0.028946933206066627,0.0001994527485675329,-0.40130677900180506,-0.39094822396168244,1.7143204700913615,0.4479072154014375,-0.05883218561657106,0.0013928998162533856,1.0571408581931352,-0.288563453856553,-3.226375432810347,-1.0180825292351017,-0.0372330894335382,0.08155540028496322,0.07555559249233407,-2.1792106867097023,-3.1677024215589507,-0.26720380982291614,0.004304132662643329,-2.3454370520523472e-05
0.75,-0.2807804566252245,1.453619827252674,-0.40809913832700273,0.33791937264197114,-0.029532408318141867,0.00021405504990905404,-0.39113337228619915,-0.39380290244695737,1.6821871356445048,0.43816714606035306,-0.058547511207524126,0.0014602301341521129,1.103983107882186,-0.25603008203750477,-3.329681780218444,-1.0348668765676514,-0.025850434561170754,0.08430857539748826,0.07055228225536933,-2.070398265365869,-3.134461679679071,-0.25555236700834566,0.003573236744000274,-3.093948570994223e-05
0.76,-0.284585691292711,1.4496565052891053,-0.3916088130384398,0.3422018119107596,-0.03011400678597514,0.00022933301822703638,-0.38052346674865173,-0.3963321963568652,1.6490325288562944,0.4282439268788448,-0.05815984678332743,0.0015277968317982335,1.149571541429179,-0.22365220677133443,-3.42851393193757,-1.050526938177697,-0.013209355457974858,0.08682798526052515,0.06558139834931874,-1.9632011088285517,-3.101687493173351,-0.24417300531190667,0.0028139057131855135,-3.85040131765278e-05
0.77,-0.28828060405983014,1.445671129407091,-0.3754598026925296,0.34638330056912464,-0.030690617814132157,0.0002452835898881522,-0.3694912767119114,-0.3985375882014416,1.6149010345910213,0.418148865836502,-0.057661102815701706,0.0015950571661115822,1.193528763566205,-0.19150088438364596,-3.52282115746128,-1.0651133042421588,0.0006905760161377561,0.08905159764025727,0.06068057673325228,-1.8577652394607582,-3.0694354576848224,-0.2330742369563124,0.002030541310346771,-4.6102031136612596e-05
0.78,-0.2918611510809641,1.4416669166187883,-0.35966142746088636,0.35046222904514485,-0.031261052406118206,0.00026189743304491544,-0.35805470211339496,-0.4004212788302583,1.5798375231643236,0.4078928476020197,-0.05704345919860496,0.001661384315676325,1.2354291475752412,-0.15964561170254946,-3.612562521861166,-1.0786761509552587,0.015821022445651645,0.09091334505719995,0.055884312584877034,-1.754223870445789,-3.0377588864475342,-0.22226386714070995,0.001227685921023557,-5.368868680512241e-05
0.79,-0.2953235086611949,1.4376470548952998,-0.3442225549242888,0.35443709238470983,-0.03182404842222667,0.0002791581034893718,-0.3462357580230758,-0.4019861723488578,1.5438872536597539,0.39748633395650096,-0.056299601610846246,0.0017260670444456346,1.2748010941232606,-0.12815437279387962,-3.6977067578238993,-1.0912645102562397,0.03211950340483871,0.09234459252670457,0.0512237757020939,-1.6526977613101952,-3.0067088343364716,-0.21174904504462586,0.0004100004615150036,-6.122038176679525e-05
0.8,-0.29866411838824647,1.4336146962810024,-0.3291515971375769,0.35830648609468096,-0.03237827835740207,0.0002970412299343647,-0.3340609727051582,-0.4032358614297411,1.5070957786711905,0.3869393709971109,-0.05542299351754008,0.0017883126444992895,1.3111318029747556,-0.09709366696104929,-3.77823208535561,-1.1029255569129255,0.049484241908098525,0.09327612901925408,0.046726660701777556,-1.553295637097628,-2.9763341293124226,-0.20153631441307485,-0.0004177618198787915,-6.865498532727135e-05
0.81,-0.30187973568318255,1.4295729501528627,-0.3144565086277504,0.3620691021246547,-0.032922360157626424,0.0003155137693041826,-0.3215617294936094,-0.40417461281397854,1.4695088509826553,0.37626160299737565,-0.05440818002243536,0.0018472539369817906,1.3438749968158894,-0.06652851204134352,-3.85412597783872,-1.1137039206748032,0.06776964771068772,0.09364070424558202,0.04241707170742333,-1.4561146615261538,-2.946681409537921,-0.1916316630661326,-0.0012507864392374015,-7.59520815193847e-05
0.8200000000000001,-0.30496748092406817,1.4255248766254531,-0.30014478530063565,0.3657237250517608,-0.033454871322271915,0.0003345333799330405,-0.3087745240885635,-0.40480735274095864,1.4311723327114734,0.36546229271060987,-0.05325111646454911,0.001901961062885792,1.37246195156735,-0.03652241818643086,-3.9253848738921366,-1.1236410308154134,0.08678294085397753,0.09337608890430649,0.03831544187244034,-1.3612409547975204,-2.9177951642582522,-0.18204057067475168,-0.0020842343738970504,-8.307325341103496e-05
0.8300000000000001,-0.3079248919865344,1.4214734801054814,-0.28622346422614997,0.36926922852986777,-0.03397436643014306,0.0003540479665187462,-0.29574110624662125,-0.40513965199718427,1.3921321074485686,0.3545503478106948,-0.05194951078711437,0.0019514586585705669,1.3963160355315294,-0.007137328685661101,-3.9920138353938626,-1.132774500641137,0.10628248856496048,0.09242857838985641,0.034438488839441395,-1.2687501471214502,-2.889717776360179,-0.1727680541454848,-0.002913284856185047,-8.9982405533607e-05
0.84,-0.3107499767252784,1.417421703003057,-0.272699124266856,0.37270457206051444,-0.03447939807529612,0.0003739954541677976,-0.28250847387439704,-0.4051777102424436,1.3524339959293954,0.3435343530646681,-0.050503164515305676,0.001994748764905144,1.4148707325473309,0.021566474088641173,-4.054026153033365,-1.1411375606694119,0.12597845874042268,0.09075678943185639,0.030799207995589536,-1.178707959439161,-2.8624895643708825,-0.16381870996697234,-0.003733184446226617,-9.664612164738639e-05
0.85,-0.3134412636145327,1.413372419610511,-0.25957788750926464,0.3760287981376985,-0.034968541005536515,0.00039430384868396266,-0.26912868892543135,-0.4049283392545804,1.312123675759135,0.3324226077184068,-0.04891429302403984,0.0020308394516165024,1.427590822428859,0.04953049794372157,-4.11144290179487,-1.148758551365109,0.14553636281108662,0.08833552188812677,0.027406906032084864,-1.091170803250454,-2.836148821578168,-0.15519675289884982,-0.004539302141141001,-0.00010303405080665754
0.86,-0.3159978485033586,1.4093284301631792,-0.2468654214523111,0.37924102981213614,-0.03544041902720253,0.0004148916352007269,-0.2556584888825938,-0.40439894473318405,1.2712466056953522,0.3212231674437624,-0.04718780216660148,0.0020587786516764236,1.4339960281098527,0.07669820408994968,-4.1642924497719305,-1.1556604895188478,0.16458394995893832,0.08515938344238227,0.024267277715190435,-1.0061863918479435,-2.810731849981561,-0.14690605043806748,-0.005327189752028052,-0.00010911931003047218
0.87,-0.3184194352578289,1.4052924551000017,-0.23456694190271454,0.38234046871251987,-0.03589373398619045,0.0004356685563642591,-0.24215867544703165,-0.4035975063177581,1.2298479549596555,0.30994389003836986,-0.0453314958987918,0.002077692116353219,1.4336860413472508,0.1030152015982568,-4.212609924632506,-1.1618607262073652,0.18272170958637846,0.08124581640178752,0.02138252878332571,-0.9237943556319929,-2.7862729869615204,-0.1389501525866088,-0.006092646179578631,-0.00011487888720842644
0.88,-0.32070636799282637,1.4012671295449366,-0.2226872165226477,0.38532639355139686,-0.03632729587580247,0.00045653679403115556,-0.22869327349974858,-0.40253255550651595,1.1879725380066846,0.29859248388770154,-0.04335618896120118,0.002086823766689646,1.4263654522938285,0.12842946905473784,-4.256436642868781,-1.1673707181127497,0.19953693738749867,0.07663713844805264,0.018751547369367932,-0.8440268545267151,-2.762804622910157,-0.1313323165739536,-0.006831783589155447,-0.00012029402368067237
0.89,-0.3228596526742518,1.3972549980328728,-0.21123056897140927,0.38819815913138767,-0.03674005288200612,0.0004773925550731363,-0.21532846814254483,-0.40121315120638823,1.1456647551238426,0.28717655799908154,-0.04127570062036542,0.002085576104198076,1.4118667914619076,0.15289159828510743,-4.295819507693264,-1.1721959367647727,0.21462093740744237,0.07140122802594173,0.016370125217401634,-0.7669091808621066,-2.740357208611772,-0.12405552635841141,-0.007541092890326234,-0.0001253505528172364
0.9,-0.3248809661221111,1.3932585095058616,-0.2002008835797235,0.3909551958535304,-0.037131119985839636,0.0004981280335354612,-0.202131344785926,-0.39964885270112055,1.1029685391685788,0.2757036722142705,-0.03910671038335161,0.0020735478462324897,1.390169711335155,0.1763550541779259,-4.330810382121087,-1.176335940774619,0.22758850395276908,0.06563056079780849,0.014231228192594498,-0.6924603464644574,-2.7189592518786645,-0.11712250693843512,-0.008217505441464852,-0.0001300391694835034
0.91,-0.32677265087577295,1.3892800126069604,-0.18960161049300434,0.3935970097137798,-0.037499804632066876,0.0005186336902645578,-0.1891684753661852,-0.3978496898901117,1.059927308671914,0.26418138602493935,-0.03686846462272422,0.0020505656729096562,1.3614143505036949,0.19877644403517283,-4.36146544446292,-1.1797846331400912,0.23809840947655625,0.05943943875373581,0.01232531323545049,-0.6206936481487279,-2.6986373037878764,-0.11053573373541048,-0.008858447609453757,-0.00013435560602682384
0.92,-0.32853769498451507,1.385321751299727,-0.17943577121852697,0.3961231827566344,-0.03784562797055127,0.0005388007603314029,-0.17650441087421098,-0.39582613072336015,1.016583927447738,0.2526173042854557,-0.034582333848439256,0.0020167070066845075,1.3259071782376595,0.2201157895018453,-4.38784453419561,-1.1825307183415141,0.24587328843869793,0.0529594389507837,0.010640686154845648,-0.5516172063738398,-2.679415935748668,-0.10429743754350765,-0.009461884792014316,-0.00013830069366237044
0.93,-0.3301796965266973,1.3813858608413776,-0.1697059645110448,0.39853337393738314,-0.038168340301298,0.0005585238718830925,-0.16420015421822692,-0.39358904583493903,0.9729806707482153,0.24101911807487664,-0.03227123307467306,0.001972311155168972,1.2841181212761141,0.24033679393256666,-4.410010497037007,-1.1845583620132096,0.2507171260776673,0.04633332242525068,0.009163891755329069,-0.4852344725337305,-2.661317709461905,-0.09840960575635739,-0.010026351806984427,-0.00014188029388009364
0.9400000000000001,-0.33170281348508157,1.3774743641368146,-0.16041437253206675,0.4008273203277512,-0.038467929611157595,0.0005777036413005281,-0.15231169583842763,-0.39114967045630705,0.9291591978978051,0.22939463903680563,-0.029958930985959212,0.001917976941743562,1.2366684935433583,0.2594070980184048,-4.4280285391406276,-1.1858480402127167,0.2525285948077107,0.039707852782104425,0.007880125094856498,-0.421544701218455,-2.6443631425234386,-0.09287398075323859,-0.010550967182916532,-0.00014510509238009514
0.9500000000000001,-0.3331117004423816,1.3735891684991248,-0.1515627672198374,0.4030048385851802,-0.038744622468116455,0.0005962491019889362,-0.14088869573000137,-0.3885195637689654,0.8851605312229326,0.21775182574290017,-0.027669285695886118,0.001854546068840798,1.1843101050402147,0.27729851659692806,-4.441965601870602,-1.1863775474595641,0.25130875873915953,0.033226140535879356,0.006773650538402559,-0.36054338476274855,-2.628570672924328,-0.08769205644701741,-0.011035429815809922,-0.00014799025735030111
0.96,-0.334411434329914,1.3697320628398137,-0.14315251681013516,0.40506582659504414,-0.03899887700837247,0.0006140798297842369,-0.12997338875323908,-0.38571056593109726,0.8410250409702262,0.2060988009863906,-0.025425454025601396,0.0017830727795300734,1.1278968044303104,0.2939872498152938,-4.45188977084635,-1.1861231153598375,0.24716217454266526,0.02702021913142505,0.005828214045249493,-0.3022226484451839,-2.6139566260050078,-0.08286507406049394,-0.01147999760634828,-0.00015055497362394154
0.97,-0.3356074320856369,1.3659047153089896,-0.13518459245243897,0.4070102651890088,-0.03923136826720955,0.0006311276470511262,-0.11959977557229491,-0.3827347530824194,0.7967924357696181,0.19444385939646538,-0.023249125883707793,0.0017047817266889274,1.068350481279472,0.30945406224239613,-4.457869735532919,-1.1850605797218297,0.240291093783419,0.021204549766747016,0.005027434038810231,-0.24657160573720457,-2.6005351875021403,-0.07839401820110499,-0.011885448939312872,-0.0001528218732506996
0.98,-0.33670536349260083,1.362108671402059,-0.12765957487196222,0.40883821984231494,-0.03944296661290049,0.0006473378183309592,-0.10979314069639305,-0.3796043906930591,0.7525017580476736,0.18279546533061544,-0.02115983456909404,0.0016210171279832958,1.0066240992119468,0.3236844241916665,-4.459974316916608,-1.1831665262785496,0.23098321886723597,0.01587104173764997,0.004355157343044671,-0.1935766739777191,-2.58831838603044,-0.07427961420984572,-0.012253029067991986,-0.00015481639018282055
0.99,-0.3377110626357253,1.3583453525453262,-0.12057766103552008,0.410549842258224,-0.03963471048818933,0.0006626696893433138,-0.100569914312451,-0.3763318856732789,0.7081913836442147,0.1711622415909058,-0.01917438752888427,0.001533187101235467,0.9436645669921482,0.33666861048578,-4.45827207779922,-1.1804193452104794,0.21959416374951388,0.011085980981011545,0.0037957689399404975,-0.14322185175505328,-2.577316087377919,-0.07052232750178243,-0.012584384478819405,-0.00015656607124976365
