tonegas/nnodely-applications/joint_friction_estimation/dataset/train/mpc_mujoco_episode_30.csv
time,q1,q2,q3,q4,q5,q6,dq1,dq2,dq3,dq4,dq5,dq6,ddq1,ddq2,ddq3,ddq4,ddq5,ddq6,tau1,tau2,tau3,tau4,tau5,tau6
0.0,0.0,1.57,-1.57,0.0,0.0,0.0,0.0,0.0,0.0,0.0,0.0,0.0,12.897569517227325,-2.038631671725374,0.36227980298125617,0.24463672062001152,1.8985710691043707,-5.313284599850476e-06,1.7982676086534721,-5.535271652808312,-4.865034489863897,-1.09188459454388,0.16241729988014975,0.0014786946205860975
0.01,0.001283094116768392,1.5697969492894415,-1.5699645639122326,2.2593629216488776e-05,0.00015985567754008231,1.6461590868244615e-06,0.1283094116768392,-0.020305071055857514,0.003543608776741545,0.0022593629216488774,0.01598556775400823,0.00016461590868244614,12.695306897841666,-1.7900209741641122,0.3947118453535321,0.22873821117163118,1.582261837542518,0.01647332409971547,1.7774802216833996,-5.40760106875852,-4.81683670184047,-1.0817153456550852,0.16062403687380075,0.0014626058662293101
0.02,0.003828163207061536,1.5694156468473732,-1.5698904945975012,6.659301574629262e-05,0.0004596986904126546,4.998732673312745e-06,0.2545069090293144,-0.03813024420681636,0.007406931473135954,0.004399938652980384,0.029984301287257223,0.00033525735864882835,12.475068565040253,-1.530994567713796,0.42726479117462635,0.21644198127631276,1.3825056475678679,0.017114876674416024,1.752994290898199,-5.278719207341198,-4.767244150284027,-1.0711136666105332,0.15857267140356143,0.0014443136026425383
0.03,0.007612706728976624,1.5688819275320363,-1.569774554441425,0.0001310842041007304,0.0008866731135054608,9.94091345943826e-06,0.37845435219150875,-0.05337193153369208,0.011594015607624915,0.006449118835443777,0.04269744230928062,0.0004942180786125516,12.241091715037992,-1.2634651359086577,0.4596361421473676,0.20674959541676374,1.2531502271746717,0.01600444556364522,1.7254149093708158,-5.1495798857623685,-4.716707195075327,-1.0601835726034958,0.15629934358559136,0.0014239804954600018
0.04,0.012613103827822636,1.5682224718460842,-1.5696135020387785,0.00021534941692029412,0.001432155598473562,1.637011435442901e-05,0.5000397098846011,-0.06594556859519522,0.01610524026465031,0.00842652128195637,0.0545482484968101,0.000642920089499075,11.995981172733128,-0.9893454315155984,0.49143768679953337,0.1988743289090551,1.1662940994077644,0.015046365874280099,1.6953492475794099,-5.0211452473196365,-4.665677749309248,-1.0490294002941123,0.1538405536238629,0.001401761224240503
0.05,0.018804775754248867,1.5674646155290177,-1.5694041358596122,0.0003188045823353368,0.0020900698599890335,2.4211015381179422e-05,0.6191671926426232,-0.07578563170665303,0.020936617916624555,0.010345516541504268,0.06579142615154715,0.0007840901026750413,11.741352909573605,-0.7105553429558245,0.5222143347172414,0.19218426311760994,1.104977505747236,0.01436215013307951,1.6633953468447367,-4.894389367833972,-4.614607461888084,-1.0377551986796847,0.15123250797235507,0.001377804086952711
0.06,0.026162288231341604,1.5666361583290296,-1.5691433434700806,0.0004409484309615076,0.002855860620113817,3.340738450276426e-05,0.7357512477092735,-0.0828457199988211,0.026079238953176508,0.012214384862617078,0.07657907601247835,0.0009196369121584836,11.478220505502804,-0.42902160688673147,0.5514600462522141,0.18616540367053958,1.0588363266014866,0.013860847831557166,1.6301321941911853,-4.770297798493697,-4.563944714742946,-1.0264638889364457,0.14851055092724125,0.0013522510797487123
0.07,0.03465941696899055,1.5657651720112193,-1.5688281549878267,0.0005813204654905474,0.0037258656716674687,4.391448370177406e-05,0.8497128737648951,-0.08709863178102095,0.031518848225379065,0.014037203452903982,0.08700050515536517,0.0010507099199009806,11.207227673240597,-0.14667284576546083,0.5786324044600449,0.1803949237063729,1.0214905541095405,0.01345742935386518,1.5961109049539515,-4.6498641847383535,-4.51413092273014,-1.0152563020783583,0.14570864946301354,0.0013252372188577257
0.08,0.04426919028458212,1.5648798081159307,-1.5684557995140864,0.0007394658104238009,0.004696928576713108,5.569391537316621e-05,0.960977331559157,-0.08853638952885873,0.03723554737402868,0.01581453449332535,0.09710629050456397,0.0011779431671392149,10.928788481401604,0.13456851650356974,0.6031663142783246,0.17452148466422246,0.9889710435788004,0.013091561125705198,1.561846951572018,-4.53408468587725,-4.465596457177111,-1.004230167075737,0.1428589164963339,0.0012968894751379423
0.09,0.054963917255242425,1.5640081062882163,-1.5680237633256053,0.0009149054870569123,0.005766157058153297,6.871027642369121e-05,1.06947269706603,-0.08717018277145357,0.04320361884809929,0.017543967663311136,0.10692284814401894,0.0013016361050524994,10.643172261105835,0.41279649229878046,0.6244870627415106,0.16825091113439594,0.9587716264082715,0.0127214862769911,1.5278134291926797,-4.4239506810266,-4.418756413302274,-0.9934790999047731,0.13999116786982063,0.0012673255316748779
0.1,0.06671520651927342,1.5631778042118334,-1.5675298486390559,0.0011071110718763673,0.006930769876555375,8.29289683907265e-05,1.1751289264030989,-0.0830302076382831,0.04939146865493988,0.019220558481945493,0.11646128184020774,0.001421869196703529,10.350555430100114,0.6861332733335662,0.6420228601500997,0.1613359455379455,0.92927858714868,0.012317716213892993,1.4944353667516008,-4.320440116334966,-4.374006380592581,-0.9830916301945866,0.13713251418825223,0.001236652500609546
0.11,0.07949397887617692,1.5624161503295901,-1.5669722317861856,0.0013154830114186563,0.00818799776704202,9.831473070513634e-05,1.2778772356903496,-0.07616538822432385,0.05576168528702359,0.02083719395422889,0.12572278904866457,0.0015385762314409845,10.05105361565222,0.952742009140646,0.6552169009216324,0.15356908349016773,0.8994279963773479,0.011858917805810165,1.4620850909714527,-4.224507783473811,-4.3317183376794794,-0.9731502932523302,0.13430699191403767,0.001204965699697304
0.12,0.09327047567278879,1.5617497206336908,-1.566349519665602,0.001539332103627072,0.00953501777029583,0.00011483063226592284,1.377649679661187,-0.06664296958994441,0.06227121205834195,0.02238490922084157,0.13470200032538088,0.0016515901560786505,9.744742133158478,1.210840249711494,0.6635389179715361,0.1447776998357284,0.8685006295422255,0.011329485004010209,1.4310786392490882,-4.1370747929846585,-4.292236769676671,-0.9637308092370278,0.13153523980706475,0.0011723475710942151
0.13,0.10801426428658487,1.5612042408747033,-1.5656608033720054,0.0017778638308669466,0.010968908600308497,0.00013243736354733913,1.4743788613796072,-0.05454797589874574,0.06887162935965709,0.02385317272398745,0.14338908300126654,0.0017606731281416277,9.431669668510759,1.4587137348634482,0.6664961533527913,0.13482084013528262,0.8359999085812717,0.010718175949785191,1.4016732013215247,-4.059017501254943,-4.255875090491397,-0.9549013669030488,0.12883422743027048,0.0011388668139635304
0.14,0.12369424163236878,1.560804415571193,-1.5649057079498836,0.0020301653556927734,0.01248661970461678,0.00015109273680276357,1.567997734578391,-0.03998253035102641,0.0755095422121901,0.025230152482582664,0.15177111043082842,0.0018655373255424457,9.111868073378682,1.6947302420571595,0.6636436298219683,0.12358718269893565,0.801579843595654,0.010017386401697692,1.3740655525383192,-3.9911561557542377,-4.222912441708858,-0.9467220259125012,0.12621704235414477,0.0011045777931760676
0.15,0.14027863640787702,1.5605737652068252,-1.564084437279162,0.0022951950771918674,0.014084949690980241,0.00017075134116665056,1.6584394775508233,-0.0230650364367927,0.0821270670721601,0.02650297214990938,0.15983299863634598,0.0019658604363886976,8.785360009089919,1.9173532208325965,0.654593582534706,0.11099377943437005,0.765002953734033,0.009222784937183981,1.34839142618238,-3.9342435325298926,-4.193590931007668,-0.9392442487717642,0.12369274209521952,0.0010695202762421102
0.16,0.15773501068603202,1.5605344729794632,-1.5631978131769417,0.002571774701172408,0.01576053160296287,0.00019136432263526417,1.7456374278155002,-0.003929222736206984,0.08866241022203297,0.027657962398054084,0.16755819119826285,0.0020612981468613608,8.452165457478102,2.125154952685117,0.639023896522692,0.09698526611408553,0.7261160001773632,0.008333135932569569,1.3247257594173385,-3.888953848248315,-4.16811336531223,-0.9325105707185197,0.12126627577427111,0.0010337195377649656
0.17,0.1760302614126734,1.5607072424185187,-1.5622473078931103,0.002858583807962134,0.017509823600028222,0.0002128792722137817,1.829525072664137,0.017276943905533183,0.09505052838314207,0.02868091067897259,0.1749291997065353,0.0021514949578517514,8.112307682807772,2.3168289850904156,0.6166853932650191,0.08153329921685426,0.6848361141657264,0.007350199390963041,1.3030837392839316,-3.8558722327312855,-4.146641525971889,-0.9265544131811634,0.11893847918208168,0.0009971868564140514
0.18,0.19513062235193968,1.5611111671135227,-1.56123506928812,0.003154156912310281,0.019329104222479302,0.00023524021272927336,1.9100360939266288,0.040392469500415765,0.10122386049902941,0.02955731043481471,0.18192806224510782,0.0022360940515491665,7.765818957695409,2.491201599710212,0.5874078175736415,0.06463603117217254,0.6411427832499612,0.006278636808325189,1.2834225707453144,-3.8354850451482925,-4.129295024680824,-0.9214000436771835,0.11670614534481588,0.0009599204125509352
0.19,0.21500166702010387,1.5617636136997164,-1.5601639381074945,0.0034568830051458724,0.021214471771856258,0.0002583876782456908,1.9871044668164186,0.06524465861937677,0.10711311806255717,0.03027260928355913,0.18853675493769573,0.0023147465516417417,7.412746198769453,2.6472420896949487,0.5511043931583322,0.04631748158463189,0.5950729134174395,0.005125878796588879,1.2656438889470638,-3.828171306188445,-4.116150769155379,-0.9170626821452978,0.11456217093811019,0.0009219065769834858
0.2,0.2356083131520579,1.5626801191268698,-1.5590374569077194,0.0037650075504058154,0.023161847519242797,0.0002822588811230225,2.0606646131954034,0.0916505427153343,0.11264811997750922,0.03081245452599429,0.1947375747386539,0.0023871202877331675,7.053156552329921,2.784071640261998,0.5077748403608249,0.026626701005824316,0.5467172622621916,0.0039019286865267233,1.2495967417817104,-3.8341954990626403,-4.107243056612469,-0.9135487507143966,0.11249577704315467,0.0008831215633914925
0.21,0.2569148292460569,1.5638743030974795,-1.5578598703394098,0.004076636884993689,0.025166982532433723,0.0003067879614586301,2.130651609399901,0.11941839706096756,0.11775865683097275,0.031162933458787342,0.20051350131909265,0.00245290803356076,6.687142903907213,2.9009706308371546,0.45750678127206523,0.005636657484451746,0.4962172090442003,0.0026190901357940888,1.235081075882033,-3.853701963967241,-4.102564300814656,-0.9108562608223716,0.11049280085031668,0.0008435333999292862
0.22,0.27888484372751404,1.5653577964023555,-1.5566361166527334,0.00438974493897669,0.027225467928623022,0.000331906312541678,2.197001448145714,0.1483493304875938,0.12237536866762802,0.031310805398300105,0.2058485396189299,0.002511835108304792,6.314829245759562,2.997384206012346,0.40047549419737205,-0.01655719457887983,0.44376125339932315,0.001291617547743762,1.221851668469769,-3.8867110741281206,-4.102066384996368,-0.9089753284621716,0.10853605308195709,0.0008031041605655662
0.23,0.30148135725911146,1.5671401857082972,-1.555371810453255,0.004702182158876038,0.029332748337958757,0.00035754297445767067,2.259651353159744,0.17823893059416054,0.12643061994784802,0.031243721989934872,0.2107280409335736,0.0025636661915992677,5.936375817311395,3.0729259960373136,0.33694201949928093,-0.03983867819681919,0.38958091236859005,-6.470332073416074e-05,1.2096224582429231,-3.9331173376950916,-4.105662618637267,-0.9078888052289337,0.10660573422567503,0.0007617923851375852
0.24,0.3246667587013442,1.569228975167425,-1.5540732168995686,0.0050116864815849555,0.03148413832184181,0.00038362508639487196,2.318540144223274,0.20887894591278458,0.1298593553686385,0.030950432270891726,0.21513899838830555,0.002608211193720127,5.551983933506391,3.127379904812866,0.26724966045220366,-0.06407298308724307,0.3339458726624187,-0.0014330303359182395,1.1980712399440498,-3.9926895200072225,-4.1132302612182965,-0.9075730098717889,0.10467990124612997,0.0007195556100395535
0.25,0.3484028451954909,1.5716295650244967,-1.5527472176931363,0.005315896172021235,0.033674841439649654,0.00041007838674452375,2.3736086494146726,0.24005898570715603,0.13259992064322293,0.030420969043627934,0.21907031178078393,0.002645330034965179,5.16190043222143,3.1606999232541955,0.19181896404025878,-0.08910905472145281,0.27715838524419567,-0.0027959764505922635,1.1868446983888523,-4.065072827000383,-4.124613561335789,-0.907998542338128,0.10273497534282851,0.0006763529294333242
0.26,0.3726508468019612,1.5743452472011845,-1.551401269361467,0.005612364305788349,0.03589997160666726,0.0004368277489066339,2.424800160647028,0.27156821766878225,0.1345948331669284,0.029646813376711465,0.22251301670176063,0.002674936216211015,4.766421689337659,3.1730079667276803,0.11114130585178472,-0.11478224198509857,0.2195469818733642,-0.004136135267559737,1.1755637659055826,-4.149793135128936,-4.139627245551047,-0.9091311599777927,0.10074628044058134,0.0006321475081762212
0.27,0.3973714560830401,1.57737721763891,-1.5500433544742456,0.005898574650308684,0.03815457634015158,0.00046379773992196626,2.472060928107888,0.3031970437725602,0.1357914887221442,0.028621034452033435,0.22546047334843194,0.0026969991015332343,4.365897158035743,3.164589775517758,0.025771238789395134,-0.1409171502470521,0.16145965865908707,-0.005436597227777451,1.1638292903110783,-4.246263198316816,-4.158060378762025,-0.9109326937751205,0.09868860136373897,0.0005869089709141707
0.28,0.422524862971237,1.5807246049884245,-1.5486819265546834,0.006171958675252243,0.0404336614537096,0.0004909131887094108,2.5153406888196876,0.334738734951445,0.13614279195621592,0.027338402494355925,0.22790851135580165,0.0027115448787444546,3.9608315592987133,3.1358912398905177,-0.06368216639166846,-0.16733075660285301,0.10325567997044871,-0.0066814333840903295,1.1512421398292172,-4.353789622961227,-4.17968011328516,-0.913361900997471,0.09653797405423387,0.0005406300550430168
0.29,0.44807080502859026,1.5843845152767955,-1.5473258495479987,0.006429913395421696,0.042732217006919856,0.0005180997534448683,2.5545942057353286,0.36599102883709017,0.13560770066847228,0.025795472016945264,0.22985555532102575,0.0027186564735457467,3.5515188053531728,3.087502411167515,-0.15656503220580387,-0.19383506312369736,0.04530558471550705,-0.007856105202508346,1.137357380255134,-4.4715875319915614,-4.204237563759872,-0.9163756770885202,0.09426773084597934,0.0004932749853722653
0.3,0.4739685968673329,1.5883520909529596,-1.5459843328150866,0.0066698197894413495,0.0450452432312482,0.0005452844681512025,2.5897791838742643,0.3967575676164117,0.13415167329119695,0.023990639401965372,0.2313026224328343,0.0027184714706334277,3.1385502149777933,3.020159200094881,-0.2521885039089433,-0.22024071491003205,-0.012032123208486567,-0.00894788449011985,1.1217616771397887,-4.598783946588878,-4.231469999327155,-0.9199295755755109,0.0918552141644011,0.0004448544726945871
0.31,0.5001771889862534,1.5926205844800212,-1.5446668626281737,0.006889061444544662,0.0473677766951761,0.0005723962632151843,2.6208592118920464,0.4268493527061547,0.1317470186912915,0.021924165510331217,0.23225334639278974,0.0027111795063981792,2.722500064691678,2.934726137348578,-0.349839428980502,-0.2463597001112312,-0.06840325783878143,-0.009946082799624278,1.10403599225873,-4.734435565092624,-4.261106638590608,-0.9239788704157683,0.08927847093954719,0.00039538141598410685
0.32,0.5266552249332856,1.5971814447506492,-1.5433831312320194,0.007085043162202276,0.04969491606887036,0.000599366448790706,2.6478035947032246,0.4560860270627874,0.12837313961541325,0.019598171765761393,0.23271393736942625,0.002697018557552168,2.3039971082951043,2.832185883273397,-0.4487909032358317,-0.27200829924291714,-0.12346939866536566,-0.010842244252059041,1.0837721119780375,-4.877540705183422,-4.2928725700019195,-0.9284792761796583,0.08651758604036033,0.0003448820292156566
0.33,0.5533611038526012,1.6020244152770269,-1.5421429645199758,0.007255209233511232,0.05202184699436227,0.0006261291519076533,2.6705878919315578,0.4842970526377798,0.12401667120436065,0.017016607130895634,0.23269309254919127,0.002676270311694733,1.8837218524490869,2.7136263117390405,-0.5483127401065442,-0.2970097770901017,-0.17691363299309337,-0.011630248857421144,1.0605790298317475,-5.027053226934806,-4.326492778707926,-0.9333876244336464,0.08355508170322815,0.0002933960098418784
0.34,0.580253048142968,1.6071376428647288,-1.5409562493666404,0.0073970611162482176,0.05434386566354479,0.0006526217004767074,2.689194429036675,0.5113227587701876,0.1186715153335316,0.014185188273698511,0.23220186691825193,0.0026492548569054075,1.462402855805178,2.5802268497500633,-0.6476815900117163,-0.3211968307542099,-0.22844550876515513,-0.01230632183851088,1.0340892090960025,-5.1818967535118325,-4.361695852858084,-0.938662433113557,0.08037625688387326,0.00024097629494468115
0.35000000000000003,0.6072891758592605,1.6125077954059681,-1.5398328616240087,0.007508174267441692,0.05665640075364202,0.000678784949360335,2.703612771629245,0.5370152541239348,0.11233877426317926,0.011111315119347506,0.23125350900972294,0.002616324888362758,1.0408121387727998,2.433244315446711,-0.7461905041044927,-0.3444137493661579,-0.27780508690883554,-0.012868961424974401,1.0039646255663297,-5.340978878771134,-4.398217289864876,-0.9442643577896163,0.07696946087858732,0.00018768843601807292
0.36,0.6344275774027076,1.6181201873779683,-1.5387825957327461,0.0075862139118975935,0.058955033425053344,0.0007045635455893449,2.713840154344719,0.5612391972000251,0.10502658912626116,0.007803964445590098,0.22986326714113245,0.0025778596229009934,0.6197598030130682,2.273998495960795,-0.8431577611412173,-0.3665182507357829,-0.3247660254835889,-0.013318796748843897,0.9699024821276879,-5.503205062488262,-4.435802337655008,-0.9501565179076107,0.07332629735917859,0.00013360963489786082
0.37,0.6616263959688052,1.6239589116066067,-1.5378150968269195,0.007628949557395066,0.06123551514697549,0.0007299061316271331,2.7198818566097627,0.5838724228638319,0.09674989058265714,0.004273564549747287,0.22804817219221457,0.0025342586037788222,0.19998710275322792,2.103857234814019,-0.9379347894446233,-0.3873829375098099,-0.36913660363466644,-0.013658389375084151,0.9316243698332572,-5.66749208227934,-4.474208397097093,-0.9563047130206437,0.06944045526818074,7.881314962109639e-05
0.38,0.6888439011603071,1.6300069758063835,-1.5369397961204039,0.007634268103883084,0.06349378293001058,0.0007547654855974551,2.7217505191501905,0.6048064199776977,0.08753007065155743,0.000531854648801745,0.2258267783035087,0.002485935397032191,-0.21740572740268846,1.9242241969904563,-1.0299131542671272,-0.406896563729251,-0.4107686745584096,-0.013892004614296155,0.8889498293722128,-5.832778757480348,-4.51320639851316,-0.9626774389120484,0.06531334068354028,2.3428374368694905e-05
0.39,0.716038598154214,1.636246442678269,-1.5361658502710904,0.00760018540946515,0.06572597273473173,0.0007790986055015162,2.719469699390688,0.6239466871885408,0.07739458493135083,-0.003408269441793431,0.22321898047211436,0.0024333119904061153,-0.6316709131989949,1.7365217343796373,-1.118530298652067,-0.4249645828359079,-0.4495383089196081,-0.014025312328164397,0.8416898057580444,-5.998042001722215,-4.5525828465250475,-0.9692459042163643,0.06094509723371304,-3.246025076773904e-05
0.4,0.7431693019690869,1.6426585718514213,-1.5355020852930183,0.0075248562519010485,0.06792842999962771,0.0008028667370969787,2.713070381487295,0.6412129173152293,0.06637649780721733,-0.007532915756410109,0.22024572648959886,0.0023768131595462484,-1.041911648107118,1.5421800004661443,-1.203274269568793,-0.4415096929220408,-0.4853661197225243,-0.014065122563024834,0.7897290200164028,-6.162302231275703,-4.592139787235166,-0.9759838482362903,0.05634096104533561,-8.874342187580159e-05
0.41000000000000003,0.7701952264799319,1.6492239625869107,-1.5349569454882608,0.007406582616945126,0.07009771761113474,0.0008260353482542539,2.7025924510844974,0.6565390735489415,0.05451398047575351,-0.011827363495592238,0.21692876115070317,0.0023168611157275286,-1.4472264634625456,1.3426237826413494,-1.2836872070415775,-0.4564718637446139,-0.5182071839275011,-0.014019129073106651,0.733007457233758,-6.324633829160581,-4.631695200175369,-0.9828672913896699,0.05150941122701199,-0.0001453079197398079
0.42,0.7970760739042407,1.6559226959291011,-1.5345384477458046,0.007243820300702513,0.07223062147491141,0.0008485740566601839,2.688084742430887,0.6698733342190466,0.04184977424560906,-0.016276231624261308,0.21329038637766623,0.0022538708405929926,-1.84671728846786,1.139260849039118,-1.3593676762830267,-0.4698080719530051,-0.548049143609985,-0.013895621975721584,0.6715218772552772,-6.484172474100011,-4.671082677805451,-0.9898742031785759,0.04646197251980551,-0.0002020384453979579
0.43,0.8237721239646904,1.6627344751429198,-1.5342541414400652,0.007035183840871851,0.07432415378290474,0.0008704565165953056,2.6696050060449594,0.6811779213818755,0.028430630573935127,-0.020863645983066184,0.20935323079933338,0.002188245993512174,-2.239497070922766,0.9334712788269885,-1.429971870796659,-0.48149174307295395,-0.5749097697848082,-0.013703236154354759,0.6053264450001697,-6.640120942037813,-4.710150677436522,-0.9969841085761877,0.041212974825269456,-0.0002588193320073631
0.44,0.8502443219768748,1.6696387633735623,-1.5341110740494561,0.006779449821114215,0.07637555411063672,0.000891660270557071,2.6472198012184447,0.6904288230642469,0.014306739060900943,-0.025573401975763643,0.20514003277319778,0.0021203753961765276,-2.6246968228088754,0.7265978492674632,-1.495213748648937,-0.4915119339887557,-0.5988341197479006,-0.013450727502793303,0.5345324762665727,-6.791753377380818,-4.748761412866132,-1.0041776525085,0.035779278255556976,-0.0003155360846339193
0.45,0.8764543651666036,1.6766149175707785,-1.5341157625094022,0.006475558619039753,0.07838228851097392,0.0009121665715627207,2.6210043189728767,0.6976154197216269,-0.0004688459945945637,-0.03038912020744622,0.20067344003372037,0.002050630100564974,-3.0014720524252456,0.5199375252501378,-1.55486418515089,-0.499872293378965,-0.6198914129451545,-0.013146778926729663,0.4593073050945112,-6.93841807062942,-4.786789461074369,-1.0114361425616976,0.030179971652079623,-0.0003720767197941845
0.46,0.90236478658114,1.6836423178300113,-1.5342741702164326,0.006122614691033534,0.08034204679435329,0.0009319601818849293,2.5910421414536526,0.7027400259232761,-0.015840770703053317,-0.035294392800621806,0.19597582833793667,0.0019793610322208664,-3.3690085691071707,0.31473407104252676,-1.6087492422020464,-0.5065898400029494,-0.6381717438545635,-0.012799837756351184,0.37987229935822914,-7.07953881345712,-4.8241201640569065,-1.0187410897423774,0.024436052446467998,-0.000428332886916854
0.47000000000000003,0.9279390360199297,1.6907004914147152,-1.5345916895122187,0.005719885506074429,0.08225273820125767,0.0009510291537544612,2.557424943878957,0.7058173584703993,-0.03175192957861566,-0.04027291849591052,0.191069140690438,0.0019068971869531902,-3.7265276397140443,0.11217177976039117,-1.6567476673702295,-0.5116935999201893,-0.6537827400507759,-0.012417984857651998,0.2965000756104636,-7.214614931842835,-4.860647907426523,-1.0260737661219301,0.01857009581104173,-0.0004842007599055316
0.48,0.9531415574736055,1.6977692308357677,-1.5350731293998818,0.005266799255684883,0.08411248568125546,0.0009693645972326395,2.520252145367588,0.7068739421052368,-0.048143988766308994,-0.04530862503895459,0.18597474799977892,0.001833544347817827,-4.073290470067906,-0.08662970602394304,-1.698787744459574,-0.5152231436690116,-0.6668462596128357,-0.01200883429101518,0.20951098635187493,-7.343220122341597,-4.896274355967971,-1.0334147965876523,0.01260592088454568,-0.0005395816928036943
0.49,0.9779378626260179,1.7048287054727764,-1.535722708180482,0.004762941478157022,0.08591961899497796,0.0009869604400434494,2.4796305152412383,0.7059474637008636,-0.06495787806003164,-0.05038577775278609,0.18071333137225148,0.0017595842810809836,-4.408601988904752,-0.28061952851286887,-1.7348436219924541,-0.5172270633552083,-0.6774952059740258,-0.011579461359102261,0.11926897027800798,-7.465000235596842,-4.9309067221199205,-1.040743799802573,0.0065682613610622415,-0.0005943826402463374
0.5,1.0022946000423116,1.7118595663263765,-1.536544050645744,0.004208050742307171,0.08767266685196895,0.0010038131836877034,2.435673741629364,0.7030860853599976,-0.08213424652618789,-0.05548907358498516,0.17530478569909919,0.0016852743644254031,-4.731813924673507,-0.46881876604284056,-1.764931247032453,-0.5177614275613829,-0.6858705217810162,-0.011136356127844138,0.026176868182977153,-7.579670164486512,-4.964456136725435,-1.0480390909631287,0.0004824469481650995,-0.0006485163504597154
0.51,1.0261796197354516,1.718843043588648,-1.5375401894238927,0.003602013539388534,0.08937034828939763,0.0010199216596647861,2.388501969313997,0.6983477262271538,-0.09961387781488198,-0.06060372029186367,0.16976814374286897,0.0016108475977082736,-5.042327182013537,-0.6503226768828189,-1.7891040294396847,-0.5168882492482494,-0.6921184075263582,-0.010685399055858191,-0.0693286856051325,-7.687010001855817,-4.996836182772665,-1.0552774561674652,-0.005625898770308516,-0.0007019013452768431
0.52,1.049562032872446,1.7257610368092962,-1.5387135700487349,0.002944858531685368,0.09101156348514491,0.0010352867891217496,2.338241313699446,0.6917993220648295,-0.11733806248421114,-0.06571550077031663,0.16412151957472856,0.0015365129456963488,-5.339593541329299,-0.8243021204543067,-1.807448356441395,-0.5146739984347022,-0.696387796262357,-0.010231855226335185,-0.16678268361884918,-7.786860634885602,-5.027961642732471,-1.062434005295941,-0.011731139603702478,-0.0007544617074250084
0.53,1.0724122664482023,1.7325961975172413,-1.5400660593072835,0.0022367503030317408,0.09259538418465517,0.0010499113487507834,2.2850233575756356,0.6835160707945069,-0.1352489258548538,-0.07081082286536272,0.15838206995102483,0.0014624559629033884,-5.623116719526583,-0.9900042473454576,-1.8200790697503089,-0.51118818767101,-0.6988281029708006,-0.00978038362653244,-0.2656973659952264,-7.879118940244627,-5.057747499001366,-1.0694821073801375,-0.017807883798589483,-0.0008061266999330274
0.54,1.094702112818023,1.7393320042301397,-1.5415989564175592,0.001477982750396744,0.0941210439050119,0.0010637997452780585,2.2289846369820756,0.6735806712898516,-0.15328971102756986,-0.07587675526349968,0.15256597203567276,0.0013888396527275105,-5.8924528417984465,-1.1467525527543472,-1.8271350078507895,-0.5065020542350407,-0.6995872562828467,-0.00933505817444047,-0.36556793463738846,-7.963732736890121,-5.086108215378173,-1.076393409604718,-0.023831214587015682,-0.0008568302458335198
0.55,1.1164047740380167,1.7459528298477773,-1.543313006594718,0.0006689722471418277,0.09558792806266733,0.0010769578004376213,2.1702661219993726,0.6620825617637706,-0.17140501771588407,-0.08090105032549162,0.14668841576554298,0.0013158055159562731,-6.147210383109955,-1.2939463883605309,-1.8287747049521692,-0.5006873587456777,-0.6988100112509699,-0.008899397414923627,-0.46587826122984444,-8.040695642414754,-5.112957315905859,-1.0831379384379258,-0.0297768929977374,-0.0009065102984390558
0.56,1.1374949010152822,1.7524440014791962,-1.5452084165792692,-0.00018974930201087444,0.0969955641537533,0.0010893925479105407,2.109012697726544,0.6491171631418938,-0.1895409984551162,-0.08587215491527021,0.14076360910859628,0.001243474747291955,-6.387049643801747,-1.431060025373562,-1.825172325906406,-0.4938153156319416,-0.6966365346915353,-0.008476400184101784,-0.5661064991124625,-8.110041964938155,-5.138207266207439,-1.089684278992445,-0.03562153262987344,-0.0009551081334629222
0.5700000000000001,1.1579486275160282,1.7587918527980824,-1.5472848717246324,-0.001097541406448237,0.09834361209844135,0.0011011120433351692,2.045372650074599,0.6347851318886221,-0.20764551453631305,-0.09077921044373626,0.13480479446880525,0.0011719495424628468,-6.611681826735003,-1.557641356966109,-1.8165139035120617,-0.4859556666938545,-0.6932012491390793,-0.00806858493499707,-0.6657305201442786,-8.171841746460696,-5.16176965198059,-1.0959998266297706,-0.0413427469175986,-0.0010025675942658316
0.58,1.1777435991194998,1.7649837690567924,-1.5495415542713606,-0.002053661841124743,0.09963185484381937,0.0011121251881606258,1.979497160347146,0.6191916258710081,-0.22566825467283605,-0.09561204346765055,0.12882427453780124,0.0011013144825456668,-6.820867783926725,-1.6733103218190422,-1.8029939314319927,-0.47717590494272955,-0.6886319174998405,-0.007678030751592679,-0.7642331097315598,-8.226196056067351,-5.183555639861966,-1.102051103070325,-0.04691927011638074,-0.0010488343206844595
0.59,1.1968589972386174,1.7710082249170898,-1.5519771624707128,-0.0030572733237821817,0.10086018930353277,0.0011224415678233446,1.9115398119117761,0.6024455860297325,-0.24356081993520903,-0.10036114826574391,0.12283344597134095,0.0010316379662718756,-7.014416499006546,-1.777757122450914,-1.7848123527614113,-0.4675406520737866,-0.6830489478775945,-0.007306418534972714,-0.8611068655486455,-8.273232613071432,-5.203476697626969,-1.1078041278728368,-0.05233105380642657,-0.0010938549903743212
0.6,1.2152755583547479,1.7768548152759998,-1.5545899302595767,-0.00410744995236733,0.10202861769723823,0.001132071304473271,1.8416561116130428,0.5846590358910078,-0.26127677888638484,-0.10501766285851481,0.11684283937054607,0.0009629736649926258,-7.192183368411662,-1.8707403027503342,-1.7621719713592383,-0.45711118937351713,-0.676564896567065,-0.0069550710839081376,-0.9558587575988806,-8.313101801738796,-5.221445543782751,-1.1132248350999059,-0.0575593411339505,-0.0011375765995079966
0.61,1.2329755886343179,1.7825142792791033,-1.5573776472307521,-0.005203183351841913,0.10313723933889778,0.0011410249242616714,1.7700030279570034,0.565946400310347,-0.27877169711754124,-0.10957333994745838,0.11086216416595486,0.0008953619788400415,-7.35406833938139,-1.9520847390354286,-1.7352763006554173,-0.44594513858683094,-0.669284146680134,-0.006624991225109511,-1.0480143186818318,-8.345973121167226,-5.237377291105318,-1.1182795242797707,-0.0625867212974182,-0.0011799458071232068
0.62,1.2499429741095485,1.7879785177220748,-1.5603376786860428,-0.0063433884941045005,0.10418624291019973,0.0011493132390219727,1.6967385475230656,0.546423844297147,-0.2960031455290704,-0.11402051422625877,0.10490035713019576,0.0008288314760301231,-7.500013956869556,-2.021679588393535,-1.7043278529320878,-0.434096286359118,-0.6613027400689333,-0.00631689728405771,-1.1371214446816278,-8.372032096665997,-5.251190744575997,-1.1229353343859394,-0.06739716694033707,-0.0012209083645134714
0.63,1.2661631866149718,1.7932406040454019,-1.5634669856033374,-0.0075269091687457735,0.10517589924397323,0.0011569472420276388,1.6220212505423341,0.5262086323326955,-0.3129306917294593,-0.1183520674641273,0.09896563337735041,0.0007634003005666125,-7.630003364799259,-2.0794762273381506,-1.6695268612390515,-0.42161454328669734,-0.6527083410041925,-0.006031255533565982,-1.2227537931013772,-8.39147766295028,-5.2628098114536535,-1.1271607294593502,-0.07197605714450042,-0.0012604086478782439
0.64,1.2816232856762768,1.7982947891280516,-1.5667621443917874,-0.00875252309557716,0.10610655463236619,0.0011639380173918074,1.546009906130502,0.505418508264975,-0.3295158788450069,-0.12256139268313865,0.09306553883929528,0.0006990775364168569,-7.744058299960299,-2.1254862032718096,-1.631070416254608,-0.4085460263851637,-0.6435803112752865,-0.005768309360656865,-1.3045137757748089,-8.404520014911462,-5.272164979806301,-1.130925984661181,-0.07631018864082562,-0.001298389309069218
0.65,1.2963119165490977,1.8031365000844497,-1.5702193663503439,-0.010018946682082116,0.10697862466574812,0.0011702966625803189,1.4688630872820936,0.4841710956397965,-0.3457221958556501,-0.12664235865049545,0.08720700333819316,0.0006358645188511527,-7.8422371095889005,-2.159779211157597,-1.5891519916470447,-0.39493325194204054,-0.6339898778743915,-0.005528105096956892,-1.382035147621691,-8.411378908848693,-5.279194821626154,-1.134203661936886,-0.08038777768419662,-0.0013347910557417663
0.66,1.310219304603329,1.8077623332664972,-1.573834516783419,-0.0113248394399497,0.10779258860072076,0.001176034223438899,1.3907388054231364,0.4625833182047554,-0.3615150433074985,-0.1305892757867584,0.08139639349726369,0.0005737560858580151,-7.924632816531755,-2.1824810984241156,-1.5439613239199659,-0.380815424221721,-0.6240003761280377,-0.005310514536285282,-1.4549851977029298,-8.412282385973365,-5.283847477553718,-1.1369690650618363,-0.08419845479071908,-0.0013695525685958015
0.67,1.3233372462441297,1.8121700416694289,-1.577603133762547,-0.0126688080845055,0.10854898424919114,0.0011811616410841626,1.3117941640800783,0.4407708402931664,-0.37686169791279417,-0.13439686445557994,0.07563956484703854,0.0005127417645263501,-7.991371249114357,-2.1937718926925895,-1.4956846063835716,-0.36622880437215777,-0.6136675529125881,-0.005115254294333127,-1.523066551778006,-8.407465880791396,-5.286082082119537,-1.1392006645966597,-0.0877332542280436,-0.00140261055971513
0.68,1.3356590965546362,1.81635851693793,-1.5815204465539991,-0.014049410349035582,0.10924840337509478,0.0011856897099733078,1.2321850310506388,0.41884752685010673,-0.3917312791452215,-0.13806022645300817,0.06994191259036373,0.00045280688891451897,-8.042609246592205,-2.1938838395994984,-1.4445049518343378,-0.35120714311005585,-0.6030399164149927,-0.004941902202274306,-1.5860185972415188,-8.397171669636073,-5.285870091151903,-1.140880484178513,-0.09098459979978792,-0.001433899972334073
0.6900000000000001,1.3471797538381565,1.8203277661678379,-1.5855813937588545,-0.015465158552619455,0.10989148758095062,0.0011896290464466443,1.1520657283520215,0.3969249229907828,-0.4060947204855475,-0.14157482035838728,0.06430842058558371,0.0003939336473336555,-8.078532945519813,-2.18309943194801,-1.3906030747668963,-0.335782160356791,-0.5921591206918606,-0.004789910981205736,-1.6436185419377214,-8.38164860913193,-5.283196476470369,-1.1419944405881346,-0.09394628809131601,-0.0014633543187243972
0.7000000000000001,1.3578956412298235,1.8240788836995367,-1.5897806412336792,-0.0169145229650977,0.11047892466288352,0.0011929900670278547,1.0715887391667136,0.3751117531698935,-0.4199247474824739,-0.14493644124782473,0.05874370819328976,0.00033610205812104196,-8.099356147636732,-2.161749406763983,-1.334158141496589,-0.3199840549138493,-0.5810603750020178,-0.0046586194972979555,-1.6956821181773964,-8.361152110645557,-5.278060757065163,-1.1425326311389794,-0.0966134699633304,-0.0014909061493572284
0.71,1.3678046855398036,1.8276140181022937,-1.5941125998764731,-0.018395935016181,0.11101144540996097,0.0011957829757665624,0.990904430997999,0.3535134402756886,-0.43319586427939577,-0.1481412051083298,0.05325207470774496,0.00027929087387077475,-8.105318766013925,-2.1302106836263475,-1.2753487354179773,-0.3038420275480611,-0.569772869537573,-0.004547261875623043,-1.7420639425842253,-8.335944294722516,-5.270477840530726,-1.1424895631128793,-0.09898263070805734,-0.0015164876431132696
0.72,1.3769062934825798,1.8309363345545888,-1.5985714433737972,-0.01990779039747669,0.11148982082155814,0.001198017759914945,0.9101607942776064,0.33223164522951143,-0.4458843497323958,-0.15118553812956903,0.04783754115971713,0.00022347841483826545,-8.096685343265781,-2.0889042159166586,-1.2143538847461066,-0.2873848014259881,-0.558320210696138,-0.004454974820916391,-1.7826575414551145,-8.306294269001075,-5.260478653460504,-1.141864321196883,-0.10105156893509093,-0.0015400313051560372
0.73,1.3852013254398552,1.8340499728341486,-1.6031511260110065,-0.02144845210641319,0.1119148597148925,0.0011997041932420292,0.8295031957275338,0.311363827955975,-0.45796826372093186,-0.1540661708936503,0.04250388933343568,0.00016864333270840724,-8.073743633608002,-2.038292726373559,-1.1513541014260564,-0.2706411247369651,-0.5467208604404092,-0.0043808034350343306,-1.8173950503955179,-8.272478473997023,-5.24811054470486,-1.1406606701387645,-0.1028193739433757,-0.0015614707562170368
0.74,1.3926920668984346,1.8369600011429077,-1.607845400648431,-0.02301625347975972,0.11228740669376519,0.0012008518463052307,0.7490741458579392,0.29100283087590506,-0.4694274637424488,-0.15678013733465296,0.037254697887269074,0.00011476530632015734,-8.036803239392796,-1.9788782994921374,-1.0865323823900228,-0.25364024148936615,-0.5349885755615063,-0.004323705880729278,-1.84624659632553,-8.234781043323482,-5.233437450731443,-1.1388870911147504,-0.10428640107357821,-0.0015807415945421292
0.75,1.3993821976991783,1.8396723660064043,-1.6126478369624013,-0.02460950126177262,0.11260834044882631,0.001201470103016249,0.6690130800743718,0.27123648634966224,-0.4802436313970354,-0.1593247782012903,0.032093375506112125,6.182567110182534e-05,-7.986194292415715,-1.9111998057873805,-1.0200751278862823,-0.23641231790614547,-0.5231328437824345,-0.004282557196516379,-1.8692193697477273,-8.193494128195127,-5.216539817697801,-1.1365567515726505,-0.10545424433026444,-0.0015977823096880528
0.76,1.4052767592288027,1.8421938385038963,-1.6175518400415887,-0.026226478748082583,0.11287857235926824,0.0012015681828568968,0.5894561529624472,0.25214724974919134,-0.4904003079187436,-0.16169774863099645,0.0270231910441922,9.807984064782768e-06,-7.922266170666724,-1.8358301366141199,-0.9521729361189806,-0.21898881344711363,-0.5111593146202509,-0.004256152580460082,-1.8863563955774925,-8.148918140310432,-5.197514280140187,-1.1336874095559828,-0.10632570542243072,-0.0016125352258061548
0.77,1.4103821196828947,1.844531957104408,-1.6225506694166476,-0.027865449041418903,0.11309904536567682,0.0012011551681184378,0.5105360454092044,0.23381186005118812,-0.49988293750589313,-0.16389702933363204,0.022047300640858462,-4.130147384590023e-05,-7.845386242177828,-1.7533732329556737,-0.8830212387472001,-0.20140278734570494,-0.4990702237591833,-0.004243210454699664,-1.897735011961765,-8.101361872255653,-5.1764731012956515,-1.1303012547090439,-0.10690475829802387,-0.0016249474510681562
0.78,1.414705937525913,1.8466949674045148,-1.627637458585163,-0.029524658449322595,0.11327073308377425,0.0012002400355544814,0.43238178430182994,0.2163010300106661,-0.5086789168515364,-0.165920940790369,0.01716877180974353,-9.151325639563636e-05,-7.755938629071032,-1.6644608971674995,-0.8128207478090621,-0.1836891334529449,-0.4868648103612827,-0.004242375606522408,-1.9034650683951815,-8.05114246027383,-5.153543384904965,-1.1264246892874765,-0.10719650824440248,-0.0016349718095253099
0.79,1.4182571232720278,1.8486917590853686,-1.632805235075005,-0.031202340047311393,0.1133946391289194,0.0011988316918517994,0.3551185746114799,0.19967916808538175,-0.5167776489842139,-0.16776815979887974,0.012390604514514035,-0.00014083437026820325,-7.654322986690935,-1.5697493829005789,-0.7417776911334064,-0.16588473828458916,-0.47453972727444693,-0.004252222692761265,-1.9036868570659122,-7.998585160441825,-5.128866072797204,-1.1220880535326916,-0.10720714469072298,-0.0016425677319800984
0.8,1.4210457997092205,1.8505318004286726,-1.638046941068035,-0.03289671742372678,0.11347179662145082,0.0011969390123349037,0.27886764371926503,0.18400413433039642,-0.524170599302996,-0.16943773764153885,0.007715749253143283,-0.00018926795168957536,-7.540953294675762,-1.469915765107942,-0.6701038201688321,-0.14802855922526792,-0.4620894444730439,-0.004271260382319397,-1.8985687946532657,-7.944022915850457,-5.102594746546368,-1.1173253006910642,-0.10694388697582687,-0.0016477020834017757
0.81,1.4230832606879327,1.8522250707533134,-1.6433554545833666,-0.034606008614915106,0.11350326784323334,0.0011945708823284486,0.20374609787122355,0.16932703246408534,-0.5308513515331621,-0.17092911911883218,0.003147122178250886,-0.00023681300064551017,-7.416256658836732,-1.3656540989425054,-0.5980161811698381,-0.1301616219646311,-0.4495066462834103,-0.004297936381406409,-1.8883048756276493,-7.88779569914499,-5.074894254940924,-1.1121736277516376,-0.10641492252960333,-0.001650349906023589
0.8200000000000001,1.4243819285945205,1.8537819911555122,-1.648723611195778,-0.03632843023167648,0.11349014401607994,0.0011917362406064834,0.12986679065878692,0.1556920402198792,-0.5368156612411292,-0.172242161676137,-0.0013123827153396052,-0.00028346417219651446,-7.280672124648574,-1.2576713832602717,-0.5257366476850196,-0.11232693827206397,-0.43678262303259885,-0.004330643576055948,-1.8731119222999442,-7.830249621620835,-5.045939191857616,-1.1066730686231843,-0.10562933714800275,-0.0016504950594868055
0.8300000000000001,1.4249553106286375,1.8552133539549314,-1.6541442262410708,-0.03806220177025476,0.11343354517305759,0.0011884441243591322,0.05733820341169096,0.14313627994190772,-0.5420615045292934,-0.17337715385782812,-0.005659884302234712,-0.00032921162473511037,-7.134649504889403,-1.146683351139888,-0.45349121909680434,-0.09456934716629828,-0.42390765767678573,-0.004367727485536932,-1.8532266612255632,-7.771735806851581,-5.015912251335165,-1.1008660569603537,-0.10459703731091785,-0.0016481307421860709
0.84,1.424817954002272,1.8565302512665272,-1.6596101174368831,-0.03980555009373031,0.11333462009404488,0.0011847037151058977,-0.013735662636540219,0.13168973115957652,-0.5465891195812296,-0.1743348323475554,-0.009892507901270602,-0.0003740409253234486,-6.978648225407867,-1.0334101161150981,-0.38150909641003405,-0.07693528433350405,-0.410871407767992,-0.004407495191081523,-1.8289026598610487,-7.712609033433043,-4.985002488174814,-1.0947969661710533,-0.1033286647856028,-0.001643259881240293
0.85,1.4239854001763566,1.8577440031324275,-1.6651141278252992,-0.04155671406269203,0.11319454627730259,0.0011805243849809057,-0.08325538259155466,0.12137518659004298,-0.5504010388416192,-0.1751163968961718,-0.01400738167422838,-0.0004179330124991961,-6.813136194068094,-0.9185717085111126,-0.31002155241773344,-0.05947248626792856,-0.3976632827843787,-0.004448225855787413,-1.8004071613611383,-7.653226157742255,-4.953403513243852,-1.0885116342894212,-0.10183550406272403,-0.0016358953821597423
0.86,1.4224741382485326,1.858866085659172,-1.6706491489231805,-0.043313949287667394,0.11301452991925981,0.001175915742809896,-0.15112619278238537,0.11220825267445628,-0.5535021097881204,-0.1757235224975368,-0.018001635804278077,-0.0004608642171009732,-6.638588698581369,-0.8028835412229725,-0.23926061865349424,-0.042229637005323006,-0.3842728164074032,-0.004488182892275816,-1.768017858861039,-7.593944333530403,-4.921311652836956,-1.0820568813823597,-0.10012938347375538,-0.00162606023318313
0.87,1.4203015576027525,1.8599080596127835,-1.6762081439479573,-0.04507553297011926,0.11279580587523404,0.0011708876793927586,-0.21725806457801727,0.10419739536114808,-0.555899502477668,-0.17615836824518633,-0.02187240440257658,-0.0005028063417137537,-6.455487339154193,-0.6870518483399719,-0.16945761606079035,-0.02525596646694961,-0.37069003280241475,-0.004525627811637456,-1.7320196532987826,-7.535119050594583,-4.888924100987283,-1.0754800269788278,-0.09822257112359226,-0.001613787463284335
0.88,1.417485899927874,1.8608814999269385,-1.6817841709711547,-0.04683976879399249,0.11253963757442409,0.001165450411399598,-0.28156576748782774,0.09734403141550045,-0.5576027023197383,-0.17642358238732306,-0.02561683008099494,-0.0005437267993160785,-6.264319001674298,-0.5717691431117123,-0.10084155997084387,-0.008600810333419862,-0.3569058053609666,-0.004558835662901828,-1.6927014406146668,-7.477102019620281,-4.856437092562852,-1.0688284146815046,-0.09612766702817295,-0.0015991199568574522
0.89,1.4140462107083176,1.8617979265776556,-1.6873704058395087,-0.04860499182590593,0.11224731686327412,0.0011596145232849737,-0.34396892195565715,0.09164266507171215,-0.5586234868353926,-0.17652230319134415,-0.029232071114997222,-0.0005835888114624207,-6.065574876543288,-0.457709743791438,-0.03363747273854134,0.007686858040046207,-0.3429122057303573,-0.004586111969199003,-1.6503529748769517,-7.420238934474572,-4.824044123394967,-1.0621489506553468,-0.09385749306206226,-0.0015821101319395884
0.9,1.410002290285225,1.862668737271222,-1.692960164694452,-0.0503695733791989,0.11192016375224464,0.0011533910066245975,-0.40439204230927117,0.08708106935663987,-0.558975885494339,-0.1764581553292976,-0.03271531110294725,-0.0006223516660376323,-5.859749527301877,-0.345525416851197,0.03193536081390558,0.023558912807663868,-0.32870284031693586,-0.0046058109531630365,-1.6052618534336494,-7.364867146695021,-4.791934241639359,-1.0554876621064233,-0.09142498248576755,-0.001562819492388652
0.91,1.4053746445815327,1.8635051423804332,-1.6985469259151853,-0.052131925795196925,0.11155952604217872,0.001146791296283536,-0.46276457036923035,0.0836405109211187,-0.5586761220733264,-0.17623524159980247,-0.0360637710065921,-0.0006599710341061433,-5.647340011944988,-0.23584118692892164,0.09566515913855117,0.03896856702356766,-0.3142731708338502,-0.0046163547739084265,-1.557710668539397,-7.311313289604505,-4.7602904321497075,-1.048889281188921,-0.08884307092962657,-0.0015413180675746996
0.92,1.4001844355790245,1.8643181025476392,-1.70412435130857,-0.053890507094267945,0.11116677880785583,0.0011398273028364015,-0.5190209002508162,0.0812960167205995,-0.5577425393384615,-0.17585812990710234,-0.039274723432289896,-0.0006963993447134505,-5.428845058370746,-0.12925136166789047,0.1573493949687857,0.05387085954449435,-0.29962081491866144,-0.004616253452864427,-1.5079743670701875,-7.2598908913464975,-4.729288112935387,-1.0423968590321118,-0.08612459075559771,-0.0015176837557631603
0.93,1.3944534316299484,1.8651182693516917,-1.7096863063706915,-0.055643825449484985,0.11074332371801363,0.0011325114406791157,-0.5731003949076124,0.08001668040524074,-0.5561955062121449,-0.1753318355217039,-0.04234550898422041,-0.000731586215728572,-5.204764293836711,-0.02631581738753165,0.21679649663794495,0.06822312721290702,-0.2847458223919652,-0.004604125076822285,-1.4563178559853511,-7.210898017148366,-4.699093759869465,-1.0360514137864643,-0.083282170698061,-0.001492001589382742
0.9400000000000001,1.3882039576803042,1.8659159294098915,-1.7152268794500265,-0.057390443436954146,0.11029058817311413,0.0011248566513002963,-0.6249473949644233,0.07976600581998529,-0.5540573079335087,-0.174661798746916,-0.04527355448995008,-0.0007654789378819367,-4.97559752669794,0.07244341163777326,0.27382746654256157,0.0819854527890147,-0.2696509224090846,-0.004578715822145085,-1.4029938862427485,-7.16461498126941,-4.669863672796326,-1.0298916157729214,-0.08032814260041533,-0.001464362941723683
0.9500000000000001,1.381458845476603,1.8667209522557622,-1.7207403996505397,-0.059128982019046344,0.10981002424445163,0.0011168764212189542,-0.6745112203701283,0.08050228458705946,-0.5513520200513299,-0.17385385820921972,-0.04805639286625036,-0.0007980230081342162,-4.741844077161105,0.16654520152971763,0.3282773861096191,0.09512107995841967,-0.25434173660228865,-0.0045389193048261944,-1.3482412420773124,-7.121302168375723,-4.641742893142153,-1.023953512004156,-0.07727445691908522,-0.0014348646952733893
0.96,1.3742413838229188,1.8675427422993152,-1.7262214533244706,-0.06085812421980726,0.10930310740085074,0.0011085847941446495,-0.721746165368417,0.082179004355293,-0.548105367393083,-0.17291422007609172,-0.0506916843600896,-0.0008291627074304705,-4.504002152386366,0.2555520307780434,0.37999677978127133,0.10759678779397253,-0.2388269533395153,-0.004483794714661649,-1.292283256104564,-7.081198002523013,-4.614864280129092,-1.0182702915516888,-0.07413260846620638,-0.0014036083918669258
0.97,1.3665752689505442,1.868390195138916,-1.731664899018739,-0.06257661845561512,0.10877133501217598,0.001099996376977116,-0.7666114872374767,0.08474528396007695,-0.5443445694268504,-0.1718494235807854,-0.05317723886747574,-0.0008588417167533454,-4.262568260071974,0.33907226719072336,0.42885281420001164,0.11938321822352504,-0.2231184584584618,-0.004412583215532173,-1.235326663820499,-7.044517099558504,-4.589347749800332,-1.0128720924761134,-0.07091357361453104,-0.001370699384137292
0.98,1.358484555058637,1.869271658453424,-1.7370658807554302,-0.06428328148859894,0.10821622462214915,0.0010911263393339748,-0.8090713891907072,0.08814633145080082,-0.540098173669121,-0.17066630329838262,-0.055511039002682186,-0.0008870037643141323,-4.018036653719183,0.4167620270283663,0.47473031285108724,0.13045515131202068,-0.20723141828816694,-0.004324722077742926,-1.1775608039584562,-7.011448635622928,-4.565299678330186,-1.0077858503335324,-0.06762775990245593,-0.001336246006448397
0.99,1.3499936050810173,1.8701948976605647,-1.7424198395453014,-0.06597700097530144,0.10763931198651108,0.0010819904063773082,-0.8490949977619862,0.09232392071408538,-0.5353958789871166,-0.1693719486702502,-0.05769126356380719,-0.0009135932956666445,-3.7708988021339698,0.48832658971627013,0.5175325707641794,0.14079172447815136,-0.19118431142548076,-0.0042198560376447425,-1.1191571640526428,-6.982154960616605,-4.5428124685639855,-1.003035187631383,-0.06428496866420451,-0.00130035878165961
