tonegas/nnodely-applications/joint_friction_estimation/dataset/train/mpc_mujoco_episode_26.csv
time,q1,q2,q3,q4,q5,q6,dq1,dq2,dq3,dq4,dq5,dq6,ddq1,ddq2,ddq3,ddq4,ddq5,ddq6,tau1,tau2,tau3,tau4,tau5,tau6
0.0,0.0,1.57,-1.57,0.0,0.0,0.0,0.0,0.0,0.0,0.0,0.0,0.0,14.423179559872583,2.7584214062255117,7.236848517841878,2.7910532973166866,2.0812276250726427,-6.5184039197419e-06,2.010542354219564,-1.7982086057027873,-2.9495319832381544,-0.641165584361059,0.18163984095777772,0.0019609769183484872
0.01,0.0014347224245764426,1.5702774929669887,-1.5692789452448035,0.00026117687620840293,0.00017621452505969516,1.945034139603097e-06,0.14347224245764426,0.02774929669885882,0.07210547551965772,0.026117687620840293,0.017621452505969516,0.0001945034139603097,14.314023829783569,2.931763150083681,7.163725205480653,2.5817945295644655,1.747269800171054,0.019382407036298233,2.0099171106236886,-1.7390890504007062,-2.9313418646449367,-0.6376129303764861,0.1814079993945491,0.001954150653961576
0.02,0.004292220421040135,1.570849833579816,-1.5678451404479468,0.0007666835078491822,0.0005079859395285439,5.919855632913907e-06,0.28574979964636926,0.057234061282726095,0.14338047968566828,0.05055066316407793,0.03317714144688488,0.000397482149331081,14.187599647789158,3.1085512774370616,7.069558965714324,2.4079122060867846,1.5373258432548624,0.01999275170558512,2.014640833939708,-1.6971380376739145,-2.916661103719189,-0.6343749848986364,0.18144652281596105,0.0019417821503399518
0.03,0.00855928034131995,1.571734682384538,-1.5657086990946236,0.0015022837572572123,0.000982079896313278,1.1790631861887137e-05,0.42670599202798154,0.08848488047219558,0.21364413533231696,0.073560024940803,0.047409395678473416,0.000587077622897323,14.047282439291445,3.286048099255245,6.95599311999111,2.259618024151905,1.4004821792261168,0.018213633335262713,2.024687095286802,-1.6737119118381751,-2.9059978841480776,-0.6315603716083222,0.1817446924385748,0.001923758950471175
0.04,0.014221580403435529,1.5729497404050579,-1.5628814482134674,0.002455603947810315,0.0015896168428911933,1.94285010989175e-05,0.566230006211558,0.1215058020519813,0.2827250881156175,0.09533201905531023,0.06075369465779154,0.000763786923703036,13.89456300305018,3.4615809484433298,6.824000400733604,2.1294350879819746,1.3060170288151198,0.016274196810293518,2.039946474050556,-1.670105670507081,-2.8998039561362114,-0.6292607363136009,0.1822841059497464,0.001899952847183103
0.05,0.021263731605382877,1.5745124884034813,-1.5593768836828519,0.0036155593012351253,0.0023242147618730297,2.872566208667549e-05,0.7042151201947349,0.15627479984234152,0.3504564530615565,0.11599553534248103,0.07345979189818365,0.0009297160987757991,13.729763278108505,3.632531390758152,6.674073157106403,2.0116549111388267,1.2353613548353053,0.01434460962602202,2.0602206262556533,-1.6875243430539242,-2.8984667107560576,-0.6275494874613432,0.18303852907561813,0.0018702081637655792
0.06,0.029669244672061456,1.5764399301922483,-1.5552101610564497,0.0049719149299614325,0.0031808645791304956,3.958683151811138e-05,0.8405513066678578,0.192744178876688,0.41667226264021745,0.13563556287263073,0.0856649817257466,0.001086116943143589,13.552481177467705,3.796339243680732,6.506377017869658,1.9019319450373509,1.1773071376521145,0.01235858497023834,2.085216279438061,-1.7270489968887617,-2.9022996694285803,-0.6264802743647583,0.18397384724234142,0.0018343429469377826
0.07,0.039420450642052796,1.578748340744745,-1.5503981095227553,0.0065149508510987005,0.004155249985853371,5.192145806055149e-05,0.9751205969991336,0.23084105524965542,0.4812051533694379,0.15430359211372677,0.09743854067228752,0.0012334626542440108,13.361872388827482,3.950516837785242,6.320877040924545,1.7969770754835679,1.1251212402553605,0.010264067896425644,2.1145397115682925,-1.7895997365105072,-2.911532345840323,-0.6260854381379699,0.18504816203918625,0.001792157753860028
0.08,0.05049839301956791,1.5814530207867712,-1.5449592586562348,0.008235207946006682,0.005243337668166589,6.563885676561117e-05,1.1077942377515115,0.27046800420263517,0.5438850866520384,0.17202570949079815,0.10880876823132182,0.001371739870505968,13.156834153947297,4.092670370182734,6.117442193116323,1.6943256597785314,1.0748026200026572,0.00804283632074565,2.1476922331900528,-1.8758977879219625,-2.9263003205849074,-0.6263746361143816,0.18621206941148738,0.001743449025650537
0.09,0.06288270363702797,1.584568060196664,-1.5389138692525712,0.010123297452837346,0.0064411328743528805,8.064553172143825e-05,1.2384310617460064,0.31150394098928147,0.6045389403663614,0.18880895068306627,0.1197795206186292,0.0015006674955827081,12.936130603746042,4.220526010870434,5.895932249597173,1.5921619944793335,1.0240289023148748,0.005701637727369757,2.1840672678207946,-1.986428583392335,-2.9466362836834,-0.6273338135659174,0.18740915498212454,0.0016880253365206175
0.1,0.0765514709710873,1.5881061129692546,-1.5322839608915724,0.012169760863814136,0.007744536861751372,9.684392553555089e-05,1.3668767334059337,0.35380527725904654,0.6629908360998908,0.20464634109767915,0.1303403987398492,0.0016198393814112633,12.698482976027245,4.331958790649226,5.656269899240108,1.4891863190999182,0.9715186193260124,0.0032632241083287994,2.2229495758796496,-2.1214077116825805,-2.9724627618533597,-0.6289246792811469,0.18857672778263937,0.0016257253342010524
0.11,0.09148110762455226,1.592078186740276,-1.5250933300384162,0.014364970317035276,0.009149267852759713,0.00011413207971301353,1.492963665346496,0.39720737710214055,0.719063085315618,0.21952094532211394,0.1404730991008341,0.0017288154177462634,12.44263857452118,4.4250225672639365,5.39849992050697,1.3845136478711773,0.9166436874989472,0.0007599131357238775,2.2635171878320084,-2.280751503379057,-3.0035871840769275,-0.631084817916442,0.18964680562796243,0.0015564364695124571
0.12,0.10764622245901334,1.5964934499472185,-1.5173675535470676,0.01669906196698382,0.010650822222518872,0.00013240387700492304,1.616511483446107,0.4415263206942486,0.7725776491348464,0.2334091649948543,0.15015543697591593,0.0018271797291909508,12.167426297788165,4.497979515570823,5.122836610295952,1.277596189934254,0.8591921775807734,-0.0017709314557095013,2.304846555933172,-2.464053909556186,-3.039699865450534,-0.6337285453097297,0.19054735171213155,0.0014801136744647648
0.13,0.12501950206504991,1.601359059632913,-1.509133973420222,0.01916189657757765,0.012244461694126145,0.00015154965468362885,1.7373279606036565,0.48656096856944453,0.8233580126845592,0.24628346105938295,0.1593639471607273,0.00191457776787058,11.871802906854208,4.54932772040422,4.829700196130011,1.168163046632941,0.7992210929192893,-0.004290164978273836,2.3459213426079746,-2.6705711482348633,-3.0803753834215373,-0.6367485787166516,0.19120374759521477,0.0013967971448606157
0.14,0.14357160566245122,1.606680012691203,-1.500421659640248,0.021743042854491128,0.013925217726441237,0.00017145704933110517,1.855210359740132,0.5320953058290127,0.8712313779974131,0.2581146276913476,0.1680756032315092,0.001990739464747633,11.554891870343678,4.577825587624957,4.519742697861441,1.0561723877921203,0.7369629091090886,-0.0067592877788342776,2.3856451070876545,-2.8992153319846214,-3.1250776821591666,-0.6400185528069072,0.19154047111116837,0.0013066283504245453
0.15,0.1632710769839805,1.612459023022595,-1.491261348831774,0.024431779936232953,0.015687907496478533,0.00019201197732319832,1.969947132152927,0.5779010331392028,0.9160310808473873,0.26887370817418244,0.17626897700372968,0.0020554927992093154,11.216014773469812,4.582511936757,4.193863601344935,0.9417725045766296,0.6727641949911956,-0.009142262410771096,2.422857876968512,-3.1485579539871495,-3.173169072631844,-0.6433963656256156,0.19148292548630447,0.0012098633289728189
0.16,0.1840842760793566,1.6186964266257926,-1.481685357451514,0.027217116088808363,0.01752715778173145,0.00021309968232187612,2.0813199095376103,0.6237403603197509,0.9575991380259887,0.2785336152575411,0.18392502852529152,0.0021087704998677802,10.85471218645252,4.562720757244628,3.853215751316979,0.8252690975088122,0.6070434581527167,-0.011406844776670866,2.456355968966709,-3.4168437231378603,-3.2239231086099727,-0.6467282896994154,0.19095932079534517,0.0011068820740628535
0.17,0.20597533300514625,1.6253901161098412,-1.471727469114352,0.030087821072057964,0.01943743416418294,0.000234605798702696,2.1891056925789645,0.6693689484048675,0.9957888337162073,0.28707049832496023,0.19102763824514943,0.002150611638081987,10.470856369206425,4.518093817051519,3.499200717983058,0.7070961087588863,0.5402596745603176,-0.013525497091004368,2.4849311811596757,-3.7020131220517705,-3.276540676557682,-0.6498536631510988,0.18990386393477787,0.0009982063842146219
0.18,0.22890613451311717,1.632535505889961,-1.461422796666467,0.03303246985301896,0.021413073895675323,0.00025641739252792867,2.2930801507970906,0.7145389780119967,1.030467244788498,0.2944648780960997,0.19756397314923801,0.0021811593825232676,10.064411760581487,4.448574395123562,3.1334591703565797,0.5877919789324864,0.4728942131684519,-0.015475937625700986,2.5073581220204195,-4.001740762326701,-3.330170684790611,-0.6526102667702245,0.188255482799506,0.0008844687772021995
0.19,0.2528363199818039,1.640125527443286,-1.450807620079633,0.036039495743249744,0.023448320475474713,0.0002784239506149701,2.3930185468686704,0.7590021553324823,1.0615176586834127,0.3007025890230779,0.203524657979939,0.002200655808704146,9.635730887123666,4.354413793735599,2.7578477585754477,0.46797420724882244,0.40542385204599185,-0.017241323232223493,2.5224690481021166,-4.313472521443506,-3.3839310424678355,-0.6548396856374386,0.18596334940317527,0.0007664462409408797
0.2,0.2777233158852373,1.6481506552696379,-1.43991920255632,0.03909725080792747,0.025537359104806777,0.00030051829359208033,2.488699590343343,0.8025127826351908,1.0888417523312868,0.3057755064677725,0.2089038629332065,0.0022094342977110213,9.185315240587649,4.236153970708139,2.3744145108891654,0.3483191062112141,0.33831390758753344,-0.018810210546146067,2.5291460008086175,-4.6344796456002495,-3.436933351357503,-0.6563929521933102,0.182985465083262,0.0006450217066288465
0.21,0.3035223851143261,1.656598961819315,-1.4287955873637503,0.042194071806316125,0.02767435175604885,0.0003225973992794463,2.579906922908881,0.8448306549677304,1.1123615192569676,0.30968209983886547,0.2136992651242073,0.0022079105687365995,8.712030706067484,4.094563727507461,1.9853914838711306,0.22955508739960706,0.2720201111350491,-0.020176202470048032,2.5260413737117062,-4.961930477650954,-3.4883108504457763,-0.6571363095809912,0.17926642579846996,0.0005209685000380642
0.22,0.3301865141525349,1.6654561950208104,-1.4174753761834777,0.04531835111999257,0.029853466676132763,0.00034456313756801236,2.666412903820881,0.8857233201495265,1.1320211180272488,0.3124279313676444,0.2179114920083913,0.0021965738288566047,8.212935229717765,3.9306235931098747,1.5931682740403348,0.11244626995810414,0.20692856577376517,-0.021337088034355745,2.511541120889775,-5.29292582974645,-3.537241025154251,-0.6569565931865858,0.1747351484906883,0.00039494661058170496
0.23,0.3576661207193832,1.6747058768940608,-1.405997491657228,0.04845861121243514,0.032068898423720384,0.00036632290453060995,2.7479606566848265,0.9249681873250452,1.1477884526249822,0.3140260092442569,0.22154317475876234,0.0021759766962597613,7.37870359525508,3.7385346394786763,1.2046333197547856,7.48071228375835e-05,0.14646136958736378,-0.022294219933714388,2.4292105733565896,-5.626844168598927,-3.5833271323500533,-0.655791498608144,0.16522845119614266,0.00023461390339821436
0.24,0.3858783665172497,1.6843287266846902,-1.3944004919028719,0.051603793034471296,0.034314205345603234,0.0003877939887927918,2.821224579786654,0.9622849790629541,1.1596999754356234,0.3145181822036156,0.22453069218828497,0.0021471084262181823,6.40808911746898,3.5247312122147663,0.8201263358206807,-0.1082429430165579,0.07973758700837408,-0.022974967817729564,2.3100155225665695,-5.955752607488984,-3.625784656347673,-0.6537549034745838,0.15326210730900547,6.532870158831915e-05
0.25,0.41472683709411395,1.694303303312928,-1.3827225378418244,0.05474319981859043,0.03658223628699668,0.000408897735748823,2.884847057686422,0.9974576628237651,1.1677954061047433,0.3139406784119137,0.2268030941393446,0.0021103746956031228,5.455981395883757,3.2943420048061287,0.4399907699160561,-0.21298299005001375,0.006056000605070722,-0.023445392153809586,2.180340497672612,-6.274368398568867,-3.664230296167116,-0.6509706121592259,0.14088881933139719,-9.468917206838766e-05
0.26,0.4441169100506547,1.7046065172555507,-1.3710013595252708,0.05786645839967744,0.03886552958542437,0.0004295572720613745,2.9390072956540707,1.0303213942622664,1.172117831655357,0.31232585810870095,0.22832932984276877,0.002065953631255151,4.547413676145621,3.049749831772205,0.06604248111595457,-0.3137411235450447,-0.0696088725727364,-0.02375651992339778,2.0449475010396436,-6.580212535611047,-3.6985151523362756,-0.647517897341809,0.12849277494229738,-0.00024221116839295452
0.27,0.4739582563072432,1.715213868486217,-1.35927407532251,0.06096356068874606,0.041156685224536464,0.0004496998565037231,2.9841346256588537,1.0607351230666258,1.1727284202760786,0.3097102289068619,0.22911556391120955,0.002014258444234861,3.6981784593008986,2.793126536981841,-0.2998749200651716,-0.41008861810099795,-0.14358156383874032,-0.02391221663280696,1.9074374876246005,-6.87149560103238,-3.728596324771819,-0.6434781030627582,0.11635225180475364,-0.00037535615145572554
0.28,0.5041664210347793,1.7260996633395111,-1.3475770083060363,0.06402490726213497,0.04344862898842784,0.00046925903224588703,3.020816472753609,1.0885794853294195,1.1697067016473757,0.3061346573388905,0.22919437638913784,0.0019559175742163916,2.9259416336690625,2.526566817656211,-0.6559931246797364,-0.5016285602220947,-0.21334193995392425,-0.023916153213287883,1.7722094621766116,-7.146978485848354,-3.754501069032113,-0.6389288573631455,0.10478393008969417,-0.000492433397997547
0.29,0.5346645878073691,1.7372372236538507,-1.335945510132223,0.06704134790239927,0.04573480836084921,0.00048817584397724316,3.0498166772589923,1.1137560314339614,1.163149817381336,0.30164406402643,0.228617937242137,0.0018916811731356144,2.2235367152351557,2.252007455632095,-1.000570280983481,-0.587969315914624,-0.27700913359490187,-0.02377934135923887,1.6391872675457062,-7.4059869933049205,-3.776290047248415,-0.633932664728466,0.09377307777225717,-0.0005943241668186459
0.3,0.5653828752405529,1.7485990800644913,-1.3244137875651616,0.07000422159064472,0.04800928219928149,0.0005063998304981474,3.071828743318374,1.136185641064057,1.1531722567061458,0.2962873688245456,0.2274473838432272,0.0018223986520904255,1.6261882915113357,1.9714490829209026,-1.332104695685832,-0.6688287573849601,-0.3339201036792483,-0.02351051099503032,1.5167868937304334,-7.6480787013878855,-3.7940655882171535,-0.6285518461539371,0.08388733127396122,-0.0006783814238959433
0.31,0.5962618403415826,1.7601571717464113,-1.313014752939375,0.07290538616441299,0.05026684496891876,0.0005238883750036572,3.087896510102971,1.1558091681920075,1.1399034625786515,0.29011645737682645,0.22575627696372735,0.0017488544505509806,1.1301213075554346,1.68667668123262,-1.6491080890760985,-0.7439149550633557,-0.3828853296080741,-0.02313490197096607,1.4061208390699416,-7.8735031159865025,-3.8078648270456026,-0.6227989546535319,0.0751654685015266,-0.0007457648731282912
0.32,0.6272521103278331,1.7718830244704402,-1.3017798759600507,0.07573724882623448,0.05250308070214259,0.0005406068440612267,3.0990269986250496,1.1725852724028931,1.1234876979324155,0.2831862661821494,0.22362357332238222,0.0016718469057569602,0.7523881632283393,1.3994459097255343,-1.9502927114913313,-0.813017433072496,-0.4235591218563899,-0.022665732851371696,1.3125534224814837,-8.082714669020005,-3.817704445933573,-0.6166698761056878,0.06792810630072008,-0.0007961019830600673
0.33,0.6583160809387232,1.783747925769029,-1.2907390554960574,0.078492788893871,0.05471441740926542,0.0005565278325786494,3.1063970610890035,1.1864901298588837,1.1040820463993364,0.27555400676365266,0.22113367071228365,0.0015920988517422626,0.45618444888597187,1.1113454901607807,-2.2344421416673965,-0.8759399500985525,-0.45546099567547627,-0.022123497859933783,1.2304277174169997,-8.27655182536775,-3.8235216988564096,-0.6101216867011129,0.06174478638305339,-0.0008333141605078678
0.34,0.6894242641755945,1.7957230832213955,-1.2799204985092645,0.081165579123191,0.0568980559620761,0.0005716316848223472,3.110818323687141,1.1975157452366634,1.0818556986792838,0.2672790229319996,0.21836385528106814,0.0015103852243697887,0.2463914488783414,0.8238940922203075,-2.5005236326528655,-0.9325529999806239,-0.47943541476433504,-0.02151011342329573,1.1623118952514266,-8.45565378217712,-3.8253094124593945,-0.603134499315985,0.05674677301847007,-0.0008579301012526421
0.35000000000000003,0.7205557733323782,1.8077797759125314,-1.269350617276645,0.08374980047360644,0.05905192233620755,0.0005859053835425423,3.11315091567836,1.2056692691135813,1.0569881232619482,0.2584221350415438,0.21538663741314432,0.0014273698720195119,0.10089410721120694,0.5384894381921572,-2.7476360501518147,-0.9827668754100687,-0.4960329601897501,-0.020842670474710667,1.1050027099208335,-8.620849318908054,-3.823017870114209,-0.5956683259899298,0.0526824692235711,-0.0008723940480395225
0.36,0.7516961258996588,1.819889493676288,-1.259053939752425,0.0862402530193324,0.06117457331863301,0.0005993421788036991,3.114035256728069,1.2109717763756591,1.0296677524220035,0.24904525457259516,0.21226509824254627,0.0013436795261156762,-0.015617111558432052,0.2564078337831437,-2.975008860396638,-1.0265291203858427,-0.5062315155024288,-0.020127960644597764,1.0520542122515413,-8.772863306300492,-3.8166468911167186,-0.5877022661115063,0.04910333895006398,-0.0008796738275209324
0.37,0.7828337331258177,1.8320240641682386,-1.2490530329613008,0.08863236312892268,0.06326504717687424,0.0006119415476373978,3.1137607226158885,1.2134570491950722,1.0000906791124233,0.23921101095902883,0.20904738582412347,0.0012599368833698826,-0.11116533298155595,-0.021176417521033553,-3.1820282827202395,-1.0638357325014187,-0.5115670952534974,-0.019366628709294287,1.0024613223961858,-8.912190464037334,-3.8063112566529704,-0.5792561733714463,0.04592905185198839,-0.0008806296662847206
0.38,0.8139590992758414,1.8441557698730016,-1.2393684419950168,0.09092218581613302,0.06532274671700203,0.0006237081137722576,3.1125366150023694,1.2131705704763016,0.968459096628389,0.22898226872103367,0.20576995401277928,0.0011766566134859776,-0.22259259891337776,-0.2932119123472418,-3.3682051866439395,-1.0947152655888335,-0.5130543816474629,-0.01856950501454102,0.9486886710726712,-9.039342320619692,-3.7921759727153455,-0.5703635867574101,0.04267098400144925,-0.0008776409928769408
0.39,0.8450611571867448,1.8562574526805797,-1.230018641464403,0.09310640389124566,0.06734728968308261,0.0006346517888164734,3.110205791090332,1.2101682807578136,0.9349800530613905,0.21842180751126405,0.20245429660805844,0.0010943675044215772,-0.634627457573494,-0.5588053359588206,-3.53322372006657,-1.1192433452575745,-0.5098868452339063,-0.01773377416169264,0.8272921326330811,-9.154508013965692,-3.7747043178226356,-0.5611707951168879,0.03537181312225038,-0.0008855180061801637
0.4,0.8760989635616593,1.8683026014729087,-1.2210200045446304,0.09518232277255016,0.06933791719844398,0.0006447981302120985,3.1037806374914503,1.2045148792329041,0.8998636919772477,0.20759188813044993,0.19906275153613678,0.0010146341395625184,-1.1487879053901988,-0.8167010579135692,-3.6778482245982826,-1.1379460577260776,-0.5111109731659775,-0.016741121048194696,0.6804848245958346,-9.255475576651385,-3.7556595374491106,-0.5522592182222578,0.026787433431170456,-0.0008914680018287658
0.41000000000000003,0.9070214052669971,1.8802654783972554,-1.2123868791688752,0.09714782186179718,0.07129338828778782,0.0006541765377451113,3.092244170533791,1.1962876924346775,0.8633125375755187,0.19654990892470178,0.19554710893438443,0.0009378407533012793,-1.6430688445000987,-1.0659960511077988,-3.8025322538707518,-1.151165889684144,-0.5178533331951076,-0.0157105663501953,0.5355814347999153,-9.34209563405608,-3.7360439980966826,-0.5439015028234007,0.01863493719830768,-0.0008892055416880253
0.42,0.9377793263204102,1.892121209194482,-1.2041316331742418,0.09900132334741768,0.07321218315929355,0.0006628132218452462,3.0757921053413058,1.1855730797226516,0.8255245994633562,0.18535014856204993,0.19187948715057357,0.0008636684100134963,-2.132102019896177,-1.3059470228981083,-3.9078360012487323,-1.1592525959928999,-0.5270937267238676,-0.014719241882355849,0.3898925076985038,-9.415393267989305,-3.7163498899045964,-0.536181734419583,0.01073332857371257,-0.0008800677086284138
0.43,0.9683240809722132,1.9038458566646774,-1.196264710240445,0.10074176055869916,0.07509265926017092,0.0006707328863551008,3.054475465180309,1.1724647470195624,0.7866922933796909,0.17404372112814795,0.1880476100877365,0.0007919664509854567,-2.604162460705561,-1.535944332309653,-3.9943941906161946,-1.1625482387015609,-0.5375438164144466,-0.013754925156916897,0.2465814998410571,-9.476310061694914,-3.697086684853438,-0.5291880121336864,0.00326046993091679,-0.0008641719140290348
0.44,0.998608703187856,1.9154164810424954,-1.1887946931265863,0.10236854645824126,0.07693315640164472,0.0006779594214665598,3.0284622215642716,1.1570624377817866,0.7470017113858538,0.1626785899542098,0.18404971414738006,0.0007226535111459016,-3.0629090193952404,-1.7554763778913354,-4.0629973496827745,-1.1614276791725064,-0.5480578544161432,-0.012814986916060533,0.10526872962211664,-9.52590514643591,-3.678675699559405,-0.5229783906789653,-0.003825639438478117,-0.0008423852097700448
0.45,1.0285875460427398,1.926811190511953,-1.1817283824184126,0.10388153876926158,0.0787320593689335,0.0006845168960249199,2.9978842854883894,1.1394709469457536,0.7066310708173739,0.1512992311020331,0.17989029672887777,0.0006557474558360067,-3.5065865917530075,-1.964141684196683,-4.114513409557015,-1.1562658054242938,-0.5580847923497068,-0.011892987370864416,-0.033269383246099515,-9.565206365734447,-3.6615053066180527,-0.5176015584518711,-0.010497887502090915,-0.0008153497204521987
0.46,1.0582164580241316,1.9380091808087774,-1.1750708829166356,0.10528100471923041,0.0804878347258143,0.0006904299137446835,2.962891198139165,1.1197990296824347,0.6657499501776971,0.13994659499688278,0.1755775356880809,0.0005913017719763664,-3.9344776980398994,-2.161634741276629,-4.149891487963635,-1.14744295975067,-0.5672749186158441,-0.010988449430429537,-0.16855633404072234,-9.595239368369278,-3.645905900244468,-0.5130898256355986,-0.01674882270925983,-0.0007837614977849927
0.47000000000000003,1.0874528556417529,1.9489907652636382,-1.168825698071036,0.1065675849894655,0.08219905266620896,0.0006957237502516518,2.9236397617621352,1.0981584454860884,0.6245184845599635,0.12865802702350887,0.1711217940394655,0.0005293836506968237,-4.346197316133185,-2.3477385581835737,-4.170144021727032,-1.1353399229243823,-0.5754299245506971,-0.010102708218401535,-0.3002543924258967,-9.617004981186556,-3.6321531966462004,-0.509461536362743,-0.02258028927861589,-0.0007483241076222643
0.48,1.116255762588561,1.9597373960337174,-1.1629948306814628,0.10774225737091603,0.08386439860760471,0.0007004243518239116,2.8802906946808178,1.0746630770079286,0.5830867389573381,0.11746723814505271,0.1665345941395752,0.00047006015722597894,-4.741305101593071,-2.522317152524386,-4.176327682278236,-1.1203325516944371,-0.5824547228724981,-0.009238127892505332,-0.4280688959887748,-9.631465385765377,-3.6204692750304592,-0.5067224195556607,-0.027997414471816424,-0.0007097245332579345
0.49,1.1445858541357292,1.9702316772743929,-1.1575788879659994,0.10880630065921773,0.0854826783875893,0.000704558234038559,2.833009154716835,1.049428124067539,0.5415942715463331,0.10640432883017076,0.16182797799845972,0.0004133882214647434,-5.119643511272317,-2.6853063283230316,-4.169531526897968,-1.1027896164640048,-0.5883129000655458,-0.008397735509465543,-0.551822294606058,-9.639535774112563,-3.611023859905376,-0.5048667837237371,-0.03301263930875007,-0.0006686352677130524
0.5,1.172405473235821,1.9804573711680271,-1.152577189821093,0.10976125902580627,0.08705281919845148,0.0007081523381235376,2.7819619100091613,1.0225693893634233,0.5001698144906253,0.09549583665885379,0.15701408108621748,0.00035941040849786065,-5.4810190062977915,-2.8367059426979004,-4.1508596828301805,-1.0830682313941011,-0.593011504022499,-0.007584639570258123,-0.6713724962990494,-9.642075661322552,-3.603937196848147,-0.503878997875516,-0.037640670834513404,-0.000625697265948763
0.51,1.1996786500814243,1.9903993975846404,-1.1479878785500046,0.11060890731925223,0.0885738678832236,0.0007112338547639233,2.7273176845603433,0.9942026416613254,0.45893112710884393,0.08476482934459524,0.1521048684772122,0.00030815166403857076,-5.825317023062391,-2.9765713188038645,-4.121419158889396,-1.0615115525040917,-0.5965814593466874,-0.006801934933229337,-0.7866333182094419,-9.639884602158137,-3.5992826014971633,-0.5037346689901478,-0.04189945038703523,-0.0005815182475766972
0.52,1.2263711137302244,2.0000438282304165,-1.1438080288495884,0.11135121754180542,0.09004498760755152,0.0007138300387740088,2.669246364880018,0.9644430645776357,0.4179849700416185,0.07423102225531926,0.1471119724327911,0.00025961840100855187,-6.152484445341969,-3.1050051576647437,-4.082307664627746,-1.0384463906882857,-0.5990686977093489,-0.006052468991834203,-0.897563945729735,-9.633698765692564,-3.5970899504052336,-0.5044019411268069,-0.045809324961808985,-0.0005366680418823112
0.53,1.252450297562166,2.0093778760915284,-1.1400337568453989,0.11199032675091261,0.09146545351236068,0.0007159680255738872,2.607918383194171,0.9334047861111825,0.37742720041896616,0.06391092091071869,0.1420465904809174,0.000213798679987839,-6.462519907279795,-3.2221497497287994,-4.034602671180061,-1.0141812793761442,-0.6005282090251924,-0.005338737322385434,-1.0041604740599999,-9.624189145924843,-3.5973494348514525,-0.5058427190302429,-0.04939236760522068,-0.0004916754884793528
0.54,1.2778853395487277,2.0183898809506275,-1.1366603270890014,0.11252850659165241,0.09283464774983927,0.0007176746560786166,2.543504198656156,0.9012004859098948,0.337342975639753,0.05381798407397988,0.13691942374785881,0.00017066305047294742,-6.755465997100796,-3.3281795773150233,-3.9793516818630197,-0.9890049491125765,-0.6010201185428627,-0.004662828070965297,-1.1064482980253014,-9.61196110924206,-3.6000154676063123,-0.5080138043285517,-0.05267177165468649,-0.00044702653766314545
0.55,1.3026470781205846,2.0270692917141506,-1.1336822565519917,0.11296813462653854,0.09415205417171575,0.0007189763140547353,2.476173857185673,0.8679410763522879,0.29780705370096455,0.0439628034886132,0.13174064218764914,0.00013016579761186434,-7.031402136419383,-3.4232943756116434,-3.9175636901246733,-0.9631851710838344,-0.600607074581184,-0.004026397529098391,-1.204475160470854,-9.597555039740737,-3.605010629986522,-0.5108679313949706,-0.05567130614223865,-0.00040316335764831635
0.56,1.3267080443496844,2.035406646242644,-1.1310934147695535,0.1133116675930995,0.0954172528531893,0.0007198987782895504,2.406096622909984,0.8337354528493321,0.25888417824381277,0.034353296656095975,0.12651986814735472,9.224642348151083e-05,-7.290437913064586,-3.507712704438616,-3.8502017936880346,-0.9369679327533849,-0.5993524681377451,-0.0034306680324620586,-1.2983048652845433,-9.581447870487198,-3.6122295647688487,-0.5143546950092014,-0.058414831306245196,-0.00036048428652029203
0.5700000000000001,1.3500424511146563,2.0433935493251716,-1.1288871194015546,0.113561616686955,0.09662991458119675,0.000720467090762995,2.3334406764971902,0.7986903082527647,0.22062953679989067,0.024994909385548977,0.12126617280074448,5.683124734446723e-05,-7.532706854693773,-3.581666070612761,-3.7781769232184947,-0.9105769091542371,-0.5973191803393263,-0.002876441882744718,-1.3880116778060123,-9.564055311033046,-3.6215427420333044,-0.5184213674501601,-0.06092587412491975,-0.0003193444756481801
0.58,1.3726261798733033,2.051022649383779,-1.1270562265901423,0.11372052493875645,0.09778979540048366,0.0007207054412315485,2.2583728758646986,0.7629100058607111,0.18308928114123801,0.01589082518014607,0.11598808192868992,2.3835046855349012e-05,-7.7583606692455485,-3.6453936302406187,-3.70234263547398,-0.8842131945703109,-0.5945686689062342,-0.0023641265370870634,-1.473675418092401,-9.54573460372933,-3.632800045499815,-0.523013607370324,-0.06322726273521466,-0.0002800570795320446
0.59,1.3944367656185832,2.058287614435996,-1.1255932155987247,0.11379094672725026,0.09889673128779485,0.0007206370681080774,2.1810585745279956,0.7264965052217054,0.1463010991417548,0.007042178849381157,0.11069358873111897,-6.8373123471064675e-06,-7.967563980230543,-3.699137491245766,-3.6234909152763777,-0.8580552614713532,-0.5911602781004675,-0.0018937673800056842,-1.5553772325406654,-9.526787663734865,-3.6458341451834744,-0.5280760665169556,-0.0653408173890141,-0.00024289485778367561
0.6,1.4154533805445992,2.0651831077833815,-1.1244902673175619,0.11377542944768214,0.09995063300874282,0.0007202841751703216,2.1016614926016053,0.6895493347385714,0.110294828116281,-0.001551727956812153,0.10539017209479822,-3.528929377558152e-05,-8.16048957946591,-3.7431386287168245,-3.5423489275843476,-0.8322591164142601,-0.5871507024795122,-0.00146508523203992,-1.6331960133492713,-9.5074644794568,-3.6604636378179825,-0.5335529030954745,-0.06728709462184354,-0.00020809206792436405
0.61,1.4356568168971475,2.071704763832891,-1.1237393363156396,0.1136764973345478,0.10095148120063265,0.0007196678634001332,2.0203436352548354,0.6521656049509761,0.07509310019221782,-0.009893211313434661,0.1000848191889826,-6.163117701884256e-05,-8.337314213759598,-3.777633419052898,-3.4595766600592803,-0.8069586259479422,-0.582593563085986,-0.0010775162930738436,-1.707205424245084,-9.487966670878516,-3.676495949388905,-0.5393882124062392,-0.06908518063340112,-0.00017584654211588876
0.62,1.4550294694298527,2.0778491643960764,-1.1233322162069885,0.11349663742002032,0.10189932171591955,0.0007188080771107469,1.937265253270509,0.6144400563185227,0.0407120108651169,-0.017985991452746715,0.09478405152868978,-8.597862893863705e-05,-8.498214916634877,-3.802850793198929,-3.3757653973659245,-0.7822659891227417,-0.5775390718917635,-0.0007302527350958599,-1.7774714844227293,-9.468451122375665,-3.693730004345312,-0.5455263864450159,-0.0707525294880791,-0.00014632185604327949
0.63,1.4735553178323613,2.083613815749333,-1.1232605981822195,0.11323828759393649,0.10279426125395674,0.000717723563435423,1.8525848402508585,0.5764651353256911,0.007161802476909507,-0.0258349826083829,0.08949395380371966,-0.00010845136753238465,-8.64336589158447,-3.8190100043026822,-3.291436970605176,-0.7582723368286057,-0.5720337704825056,-0.00042228248333264773,-1.844050660000381,-9.449033623912099,-3.711958673784671,-0.5519124145629605,-0.07230484159902,-0.00011964951329354655
0.64,1.4912199094419059,2.0889971266771177,-1.1235161226330153,0.11290382671768065,0.10363646330260942,0.0007164318442118816,1.7664591609544542,0.5383310927784681,-0.025552445079588454,-0.033446087625583765,0.08422020486526824,-0.00012917192235413477,-8.772935949392268,-3.8263190006967474,-3.2070437283235256,-0.7350484417048797,-0.5661203347664667,-0.0001524270846233744,-1.9069884126788132,-9.42979246980356,-3.730971020354642,-0.5584921371540593,-0.07375597801737567,-9.593108324174434e-05
0.65,1.508010342494164,2.0939983876596657,-1.124090423868939,0.11249556673235239,0.10442614440579859,0.0007149491992904166,1.6790433052258193,0.5001260982548085,-0.05743012359237304,-0.04082599853282567,0.07896811031891707,-0.0001482644921465025,-8.887086498532499,-3.824973391016825,-3.122969179108134,-0.7126455256244775,-0.559837440589412,8.062316260692981e-05,-1.9663181579225277,-9.410771977502293,-3.750554361039381,-0.5652124637870524,-0.07511790626562481,-7.524024431412402e-05
0.66,1.5239152501140796,2.098617751307703,-1.1249751679925677,0.11201574669094733,0.10516357076790031,0.000713290660310585,1.5904907619915565,0.46193636480375116,-0.08847441236285794,-0.04798200414050595,0.07374263621017248,-0.0001658538979831627,-8.985970084334971,-3.815155984343672,-3.0395292594835945,-0.6910961547122874,-0.5532196866090686,0.00027827742354458174,-2.0220605891617627,-9.391985900135637,-3.7704961706594933,-0.5720215663224058,-0.07640067378897812,-5.762469732441684e-05
0.67,1.5389247851924954,2.1028562140892975,-1.1261620840610056,0.11146652863465185,0.10584905520106984,0.0007114700140254486,1.5009535078415905,0.42384627815944353,-0.11869160684378367,-0.054921805629547585,0.06854844331695309,-0.00018206462851363698,-9.069729469296359,-3.797036884334757,-2.9569741843825614,-0.6704152143645512,-0.5462975713190872,0.0004420162302631869,-2.0742233296310766,-9.373420715921357,-3.7905858490708275,-0.5788690564360712,-0.07761240551461471,-4.3107925241223826e-05
0.68,1.5530306062404111,2.106715599338762,-1.1276429887196289,0.11084999522452212,0.10648295441695482,0.0007094998142973288,1.4105821047915608,0.38593852494646963,-0.14809046586231622,-0.0616533410129735,0.06338992158849832,-0.00019701997281197525,-9.138497243461785,-3.7707741122690615,-2.87549084057889,-0.6506009587705215,-0.5390975211345008,0.0005733673015777541,-2.12280087899856,-9.355038785214752,-3.8106163739426413,-0.5857061556797463,-0.07875932247150724,-3.169078618728196e-05
0.6900000000000001,1.5662258642597515,2.110198541484792,-1.1294098045477792,0.11016814903159734,0.10706566665990845,0.0007073914019416885,1.319525801934037,0.3482942146030096,-0.17668158281503202,-0.06818461929247711,0.05827122429536301,-0.00021084123556403228,-9.19239595007028,-3.736514729659368,-2.795205685914726,-0.6316361309722538,-0.5316419662266867,0.0006738852847938404,-2.167774827474268,-9.336781371965424,-3.8303858588565545,-0.5924858647983231,-0.07984577890484337,-2.3352935690564502e-05
0.7000000000000001,1.5785051906181002,2.1133084713851997,-1.1314545724063072,0.10942291338074442,0.10759762967472934,0.0007051549316515445,1.2279326358348628,0.31099299004075515,-0.20447678585279744,-0.0745235650852924,0.053196301482088926,-0.00022364702901440204,-9.23153870756481,-3.694396426527426,-2.7161881187529096,-0.6134891504551234,-0.5239494604937676,0.0007451353460117272,-2.2091143152767487,-9.318571530933491,-3.8496990335032644,-0.5991631375445816,-0.08087431579365345,-1.805408223425574e-05
0.71,1.5898646858653023,2.116049602609181,-1.1337694581235156,0.10861613463615365,0.1080793189981623,0.0007027994052917283,1.135949524720197,0.27411312239812335,-0.23148857172083462,-0.08067787445907772,0.048168932343296035,-0.00023555263598162225,-9.256030304564788,-3.644549536565528,-2.63845428269003,-0.5961153657148124,-0.5160348417474268,0.0007886804084658028,-2.246776719915434,-9.30031686529341,-3.868368659156,-0.605695062715603,-0.08184572912710236,-1.5735087036596203e-05
0.72,1.6003019093826405,2.1184269184654743,-1.136346753899241,0.10774958580935956,0.10851124655991613,0.0007003327109077559,1.0437223517338317,0.23773158562931385,-0.2577295775725319,-0.08665488267940846,0.043192756175383366,-0.00024666943839724665,-9.26596873948266,-3.5870994352423025,-2.5619712711163007,-0.5794583691311548,-0.5079094279452079,0.0008060717758249236,-2.280708557513194,-9.281912161393581,-3.8862168885472315,-0.6120410566154635,-0.08275915169651307,-1.6318924788179603e-05
0.73,1.609815869710913,2.1204461595365656,-1.139178874846483,0.10682497136395296,0.10889395957581066,0.0006977616668466069,0.9513960328272504,0.20192410710912986,-0.28321209472420594,-0.09246144454066092,0.0382713015894535,-0.00025710440611489266,-9.261447171177403,-3.522169271516054,-2.4866616946780606,-0.563451370873377,-0.4995812451200905,0.0007988428072793763,-2.310846587202766,-9.263241908589166,-3.903076574936863,-0.6181630666511846,-0.08361214750234601,-1.9711526835418174e-05
0.74,1.618407015362717,2.122113811445811,-1.1422583511259954,0.10584393308483303,0.1092280397128709,0.0006950920704349084,0.8591145651803863,0.1667651909245678,-0.30794762795122554,-0.09810382791199213,0.033408013706023414,-0.0002669596411698504,-9.24255624146357,-3.449882978311907,-2.4124085721276662,-0.54801862750233,-0.4910552825426322,0.0007685052649522017,-2.3371191093885195,-9.24418271236671,-3.918792530699104,-0.6240257853186825,-0.08440081814695019,-2.580253206704207e-05
0.75,1.6260772258871372,2.1234370925565127,-1.1455778161613277,0.10480805687401752,0.10951410250375344,0.0006923287507028977,0.7670210524420181,0.13232811107015124,-0.3319465035332396,-0.1035876210815515,0.028606279088253986,-0.0002763319732010593,-9.209386724566954,-3.3703685014537297,-2.3390605015487065,-0.5330769194614238,-0.4823337706067292,0.0007165479701063404,-2.3594474493217965,-9.224605608567172,-3.9332227313310018,-0.6295968724574624,-0.08511992077679516,-3.44659735647868e-05
0.76,1.6328298029224049,2.1244239412801575,-1.1491299914496123,0.10371888032981644,0.10975279698582675,0.0006894756246802235,0.675257703526755,0.09868487236448545,-0.35521752882845786,-0.10891765442010909,0.02386944820733119,-0.00028531260226741755,-9.1620324530545,-3.283761181463349,-2.266437064167685,-0.5185370697580254,-0.4734164769332452,0.000644437329240688,-2.3777476170257676,-9.20437828544472,-3.9462394564757175,-0.6348471823531276,-0.08576299724917044,-4.5560930915330164e-05
0.77,1.638669460944495,2.125083002655745,-1.152907668506425,0.10257790096175741,0.1099448055385371,0.0006865357568209063,0.5839658022089983,0.06590613755873513,-0.37776770568126916,-0.11409793680590281,0.01920085527103444,-0.0002939867859317176,-9.100593463163033,-3.1902072182767545,-2.1943344116845127,-0.5043054949100352,-0.46430101626648934,0.00055361935975351,-2.391932132775469,-9.183367219356905,-3.957730356237258,-0.6397509912521873,-0.08632251420413778,-5.8932179130769446e-05
0.78,1.64360231739773,2.12542361385379,-1.1569036885012103,0.10138658489012983,0.11009084389137815,0.0006835114211406425,0.49328564532351216,0.034061119804500994,-0.39960199947851754,-0.11913160716275767,0.01460383528410459,-0.00030243356802638554,-9.025179301025956,-3.0898671438038057,-2.1225309724161674,-0.490285774795149,-0.4549831697277327,0.00044552280585308246,-2.4019120057759156,-9.161439726582225,-3.9675994260257434,-0.6442862194421838,-0.08679001371449133,-7.441086467143606e-05
0.79,1.6476358818773877,2.125455788257759,-1.1611109201514653,0.10014637587683019,0.11019166127384404,0.0006804041656699019,0.4033564479657741,0.003217440396892913,-0.42072316502549706,-0.12402090132996411,0.010081738246589523,-0.00031072554707405905,-8.935912420536235,-2.9829192260278283,-2.050793223964887,-0.47638022972043714,-0.44545720928717003,0.00032156298278529505,-2.4075988485273974,-9.138465934220957,-3.975767873208678,-0.6484346419220453,-0.0871562739467372,-9.181523875780929e-05
0.8,1.650779044025148,2.1251901977824486,-1.1655222364503712,0.09885870453314133,0.11024804067817992,0.0006772148788413202,0.31431621477602056,-0.02655904753106875,-0.44113162989059074,-0.12876713436888593,0.005637940433588596,-0.00031892868285816574,-8.83293160711722,-2.8695627248974973,-1.9788814580655254,-0.4624914872615111,-0.43571622326450665,0.0001831460007830632,-2.40890710704603,-9.114320668586643,-3.9821748541908146,-0.6521820804149048,-0.08741147915028313,-0.00011095147551985128
0.81,1.6530420597956144,2.1246381531035365,-1.1701304908016388,0.09752499755074556,0.11026079920554627,0.0006739438574407115,0.22630157704662976,-0.055204467891186146,-0.4608254351267467,-0.13337069823957598,0.0012758527366342623,-0.0003271021400608722,-8.716395355088899,-2.7500209210228523,-1.90655546965555,-0.44852402188163865,-0.4257524389808296,3.167305007623078e-05,-2.4057563812126737,-9.08888525880093,-3.986778061152962,-0.6555185695301884,-0.08754539794648394,-0.0001316146000386484
0.8200000000000001,1.6544365357567528,2.1238115814951306,-1.1749284931276385,0.09614668680458786,0.1102307884663747,0.0006705908757579776,0.13944759611384752,-0.08265716084058403,-0.47980023259996474,-0.1378310746157699,-0.003001073917157357,-0.00033529816827339125,-8.586485127149924,-2.6245438393957423,-1.8335800958675557,-0.43438564821323133,-0.4155575388440269,-0.00013145552558091467,-2.398073804904497,-9.062049250808071,-3.9895541371357672,-0.6584384896702513,-0.0875475685815546,-0.0001535895473769462
0.8300000000000001,1.6549754110988333,2.1227230020024863,-1.1799089865017782,0.09472521818037997,0.11015889500620232,0.0006671552555783535,0.05388753420805954,-0.10885794926443731,-0.4980493374139827,-0.14214686242078844,-0.007189346017237186,-0.0003435620179624162,-8.443408425101794,-2.4934105938122113,-1.759730529603782,-0.41998894802477693,-0.40512296641137624,-0.0003048366173465933,-2.385796450400551,-9.033712025246365,-3.990498899290136,-0.6609406595075498,-0.08740748944075756,-0.0001766523690292772
0.84,1.654672937045274,2.1213854977148525,-1.1850646248334682,0.09326205998565064,0.11004604072911284,0.0006636359366563557,-0.0302474053559377,-0.1337504287634002,-0.5155638331689905,-0.14631581947293412,-0.011285427708949115,-0.0003519318921997812,-8.287401603497377,-2.356931283088825,-1.684797332453047,-0.40525261054325945,-0.3944402192675085,-0.00048706140096776984,-2.3688737166781944,-9.003784311031971,-3.9896273522665626,-0.6630283813704947,-0.08711481274471983,-0.00020057159776318555
0.85,1.6535446533844205,2.1198126849480534,-1.1903879521038883,0.09175871081133671,0.10989318329206543,0.0006600315473154616,-0.11282836608534809,-0.15728127667991437,-0.5323327270420096,-0.1503349174313932,-0.01528574370474027,-0.0003604389340894134,-8.118732362213702,-2.2154483775898113,-1.6085910736871387,-0.39010266600559085,-0.38350112589800744,-0.0006767132095168993,-2.347269656870857,-8.97218958525491,-3.9869734769348386,-0.6647094336887952,-0.08665953898007325,-0.0002251097757155881
0.86,1.651607361873318,2.118018679197223,-1.195871383613351,0.09021670672095917,0.10970131644483187,0.0006563404748166539,-0.1937291511102468,-0.17940057508303867,-0.5483431509462838,-0.15420040903775395,-0.019186684723355378,-0.0003691072498807587,-7.937701860005531,-2.0693375439561357,-1.53094652601574,-0.3744735932342138,-0.3722981041336766,-0.0008723663556338135,-2.320965196647925,-8.938865349107258,-3.982589783840589,-0.6659960057498812,-0.08603220927822072,-0.00025002514401616967
0.87,1.648879096302337,2.1160180577761216,-1.2015071896567144,0.08863762765635252,0.10947147029195596,0.0006525609351391054,-0.2728265570981112,-0.20006214211013146,-0.5635806043363446,-0.15790790646066452,-0.022984615287591142,-0.0003779539677548557,-7.744646398793083,-1.9190078670878474,-1.4517263547581418,-0.3583092835801507,-0.3608243991761384,-0.0010725859798546011,-2.289960192903399,-8.903764269091349,-3.976546625892498,-0.6669045713812835,-0.08522409267042286,-0.0002750734853329679
0.88,1.6453790890523436,2.1138258191195867,-1.2072874819926613,0.08702310296257401,0.10920471145506354,0.0006486910418171919,-0.35000072499933843,-0.21922386565348306,-0.5780292335946903,-0.16145246937785074,-0.02667588368924166,-0.00038698933219134444,-7.539938637593343,-1.7649014411320705,-1.3708242450330719,-0.3415638457939698,-0.349074299700149,-0.0012759289809085583,-2.254275281174861,-8.866855172706863,-3.9689312705607254,-0.6674556997602237,-0.08422736493606214,-0.0003000101038055492
0.89,1.6411277340230386,2.111457338788624,-1.2132042034165103,0.08537481594980385,0.10890214311594355,0.0006447288734799158,-0.4251355029304977,-0.23684803309625574,-0.5916721423848854,-0.16482870127701582,-0.03025683391199868,-0.0003962168337276119,-7.3239883053722075,-1.6074923151401357,-1.288167421332982,-0.32420223915959223,-0.3370433310362131,-0.0014809460264872953,-2.2139534608890563,-8.828123888188319,-3.959846738134761,-0.667673803308428,-0.08303527564316329,-0.0003245919201041437
0.9,1.6361465458610895,2.108928322282054,-1.2192491206855356,0.08369450742649963,0.1085649049230474,0.0006406725397423744,-0.49811881619489784,-0.25290165065696973,-0.6044917269025284,-0.16803085233042286,-0.033723819289615396,-0.00040563337375413975,-7.097242393359134,-1.4472847937831206,-1.2037185251735187,-0.3062007255483161,-0.3247284249663238,-0.0016861846493649857,-2.1690613700156525,-8.787573918642385,-3.949410419084403,-0.6675868244932831,-0.08164229997183996,-0.00034857965309756817
0.91,1.6304581154686368,2.1062547548230195,-1.225413820981691,0.08198397815547535,0.10819417274636854,0.0006365202451037673,-0.5688430392452783,-0.26735674590346725,-0.6164700296155287,-0.1710529271024278,-0.03707321766788683,-0.0004152294638607164,-6.86018481917071,-1.2848111086004996,-1.1174768290934207,-0.2875471346913212,-0.31212806618668765,-0.0018901933577428753,-2.1196902051023874,-8.745226942086317,-3.9377524900114573,-0.6672258652524261,-0.08004427202361844,-0.0003717400540973856
0.92,1.624086061825472,2.103452848351525,-1.231689712030401,0.0802450902025938,0.10779115826801863,0.0006322703505134609,-0.6372053643164804,-0.2801906471494513,-0.6275891048709895,-0.17388879528815546,-0.040301447834990914,-0.0004249894590306332,-6.613335567041859,-1.1206284902249437,-1.0294787786968809,-0.2682409409290436,-0.2992424159997995,-0.0020915267296774953,-2.0659562489694654,-8.701123130374892,-3.925014153783928,-0.6666247646088974,-0.07823849655829694,-0.00039384815512566294
0.93,1.6170549802104885,2.1005389860140427,-1.2380680259270609,0.07847976716601399,0.10735710839816405,0.0006279214322748421,-0.7031081614983388,-0.2913862337482371,-0.6378313896659998,-0.17653230365798028,-0.04340498698545796,-0.00043489182386187447,-6.357249320169248,-0.9553156863838888,-0.9397978682654553,-0.24829315371780591,-0.2860734142414003,-0.0022887513845200047,-2.008000976469516,-8.655321281772869,-3.9113457349244607,-0.6658196317672607,-0.07622383646476158,-0.00041468948935294574
0.9400000000000001,1.6093903869587054,2.09752966449661,-1.2445398266564398,0.07668999329204049,0.10689330450828308,0.0006234723379669506,-0.7664593251783162,-0.30093215174325266,-0.6471800729378846,-0.17897738739734967,-0.04638038898809699,-0.00044490943078915896,-6.0925136122370205,-0.7894689837509223,-0.8485438692387157,-0.22772602817860133,-0.2726248608446511,-0.002480452770923458,-1.945990718480686,-8.60789876393068,-3.8969046659192688,-0.6648483434998751,-0.07400077375603396,-0.00043406223995362964
0.9500000000000001,1.6011186609381731,2.0944414345974867,-1.2510960212256923,0.07487781150119269,0.1064010614759103,0.0006189222390751436,-0.8271726020532386,-0.3088229899123268,-0.6556194569252519,-0.1812181790847805,-0.04922430323727762,-0.00045500988918069466,-5.819746535267634,-0.6236978034721737,-0.7558614441133065,-0.20657260577908376,-0.2589024787330345,-0.0026652426463804613,-1.8801158754071925,-8.558951266196116,-3.881853403597308,-0.6637500158760526,-0.07157144246835713,-0.00045177927325116223
0.96,1.5922669819753734,2.0912908404781088,-1.2577273742704844,0.0730453203647834,0.10588172653711751,0.0006142706800350517,-0.8851678962799714,-0.31505941193780346,-0.6631353044792022,-0.1832491136409293,-0.0519334938792793,-0.0004651559040091962,-5.539594049705893,-0.458619950044555,-0.6619281905937525,-0.18487609871871413,-0.24491395992095022,-0.0028417671830966995,-1.8105896835370714,-8.508592362489681,-3.8663573169290752,-0.6625644612962376,-0.06893963251986286,-0.00046767001323400135
0.97,1.5828632664974436,2.0880943580658275,-1.2644245259370304,0.07119467008772748,0.10533667794491522,0.0006095176234077083,-0.940371547792992,-0.3196482412281209,-0.6697151666545867,-0.18506502770559086,-0.05450485922022884,-0.0004753056627343318,-5.252726949854061,-0.29485660087360865,-0.5669521717476843,-0.1626891346324877,-0.23066899677914776,-0.0030087155722449133,-1.7376465502017253,-8.456952888333097,-3.8505825883980846,-0.6613316423247549,-0.06611076432164129,-0.0004815821172988957
0.98,1.5729361006939733,2.0848683331079596,-1.2711780127917354,0.06932805756719351,0.1047673234335292,0.0006046634909188505,-0.9927165803470298,-0.32260249578677613,-0.6753486854705069,-0.18666125205339718,-0.0569354511386023,-0.00048541324888578256,-4.959837543254427,-0.13302712907258096,-0.4711689971392746,-0.14007288071292323,-0.2161793003597765,-0.0031648290423267333,-1.6615399862962903,-8.404180137999537,-3.8346941704632145,-0.6600911339422704,-0.06309183470424437,-0.000493382917332886
0.99,1.5625146715296934,2.0816289193934847,-1.2779782914655382,0.06744772060881615,0.10417509849010609,0.0005997092001112885,-1.0421429164279812,-0.3239413714474823,-0.6800278673802815,-0.18803369583773538,-0.059222494342310715,-0.0004954290807562044,-4.6616361062613745,0.02625614523286615,-0.37483852717262356,-0.11709606825761454,-0.2014586075053728,-0.003308910188655645,-1.5825401768279483,-8.350436890106657,-3.818853836586234,-0.6588816055569694,-0.05989133549467214,-0.0005029605958174644
