tonegas/nnodely-applications/joint_friction_estimation/dataset/train/mpc_mujoco_episode_24.csv
time,q1,q2,q3,q4,q5,q6,dq1,dq2,dq3,dq4,dq5,dq6,ddq1,ddq2,ddq3,ddq4,ddq5,ddq6,tau1,tau2,tau3,tau4,tau5,tau6
0.0,0.0,1.57,-1.57,0.0,0.0,0.0,0.0,0.0,0.0,0.0,0.0,0.0,8.624996734055346,-13.146662856602143,0.7137054704024735,1.0375537527415162,1.3318407481512153,-3.895651598639915e-06,1.2035787703964724,-11.066126630280454,-6.754165528906542,-1.4700065592283846,0.1085385732910111,0.0006167802053750006
0.01,0.0008582635741696047,1.5686899228693816,-1.5699322611807842,9.352663778840125e-05,0.00011063996770696569,1.1862934239329159e-06,0.08582635741696047,-0.13100771306185155,0.006773881921588654,0.009352663778840125,0.011063996770696569,0.0001186293423932916,8.455189359679384,-12.874897965358974,0.6816768615739761,0.9267365813103439,1.1135023381955875,0.011926501905455744,1.1777263007317607,-10.939763603550064,-6.709827569508894,-1.4609963847417047,0.10657270401567477,0.0006003416288339501
0.02,0.0025572043817192022,1.5660968955071481,-1.5698004249397204,0.0002715902554107938,0.00031815172553165745,3.603178042327493e-06,0.16989408075495976,-0.2593027362233536,0.013183624106385707,0.017806361762239258,0.020751175782469176,0.0002416884618394577,8.266253194434565,-12.583299486811226,0.6496748592240635,0.8374333308573227,0.9788321838880165,0.012575032064590985,1.1382526309209886,-10.791958111685961,-6.654850400177491,-1.4496202198989887,0.10374974462528215,0.0005790502502704631
0.03,0.005077606745076393,1.562250007442783,-1.5696079817080275,0.0005268630874641054,0.0006138298681923899,7.171688209371152e-06,0.25204023633571904,-0.3846888064365168,0.019244323169287512,0.025527283205331167,0.02956781426607325,0.0003568510167043659,8.060354923742945,-12.272107482752446,0.6199610966644471,0.7651314930939677,0.896799351466754,0.012143728409412802,1.0862039915771762,-10.622700838401595,-6.589482571106204,-1.435948136380917,0.10011085403571579,0.000553146593735922
0.04,0.008398734649112102,1.5571802911062693,-1.569358080354591,0.0008533430268396214,0.0009921576930121748,1.1829199864561302e-05,0.3321127904035709,-0.5069716336513715,0.024990135343643836,0.032647993937551585,0.037832782481978494,0.000465751165519015,7.838616889512999,-11.941597200983216,0.5944230677867317,0.7064496650987522,0.8486346822620803,0.01204079223938237,1.022793108966037,-10.431983712997582,-6.514001120694054,-1.4200582740942234,0.09569968005192912,0.0005228170647938713
0.05,0.012498380555853757,1.5509206976508272,-1.5690533667182334,0.0012461025660642122,0.0014496667545581005,1.7539823050953606e-05,0.40996459067416546,-0.625959345544203,0.030471363635769712,0.03927595392245909,0.04575090615459257,0.0005710623186392306,7.601566972754424,-11.592110762142372,0.5746406817483951,0.6588566005229737,0.8229260442826458,0.012385396310980568,0.9493811568964724,-10.21981742132657,-6.428714962724193,-1.402037450609769,0.09056263842653713,0.00048821616353639577
0.06,0.017352881291143474,1.5435060653947854,-1.5686958466359442,0.0017011019370239268,0.001984239205112423,2.4289141220035683e-05,0.48545007352897174,-0.7414632256041864,0.03575200822892047,0.045499937095971464,0.05345724505543224,0.0006749318169082076,7.349405555543867,-11.224082326216566,0.5619330696829401,0.6204601883593632,0.8127097175344673,0.013144697060470278,0.8674592209028851,-9.986247899050541,-6.3339672547397985,-1.3819814868453606,0.08474932746946184,0.0004494833830158303
0.07,0.022937117254686987,1.5349730785349291,-1.5682867702738146,0.002215050395465709,0.0025946782199256654,3.2079223384476345e-05,0.558423596354351,-0.8532986859856259,0.04090763621296734,0.05139484584417822,0.06104390148132421,0.000779008216444066,7.082164509140663,-10.838058061127763,0.5573912318254948,0.5898461520030054,0.8137199625602172,0.014294065888946328,0.7786281142266271,-9.731372166349121,-6.23013691475599,-1.35999528791344,0.07831297427354743,0.0004067571282295086
0.08,0.029224504674745955,1.5253602142603846,-1.5678265356214882,0.002785303320860306,0.0032804408921524608,4.09253522204243e-05,0.628738742005897,-0.9612864274544461,0.04602346523263855,0.05702529253945972,0.06857626722267952,0.0008846128835947953,6.799801905812178,-10.434711465959913,0.56190042051049,0.5659543549721704,0.8233271696890512,0.01583223677732981,0.6845757866647806,-9.455353581104543,-6.1176393766569035,-1.3361927027882807,0.07131084096288975,0.0003601867833922754
0.09,0.03618698671749789,1.5147076768293855,-1.5673146097676667,0.003409785656842395,0.004041469376308046,5.085406171506638e-05,0.6962482042751934,-1.0652537430999214,0.05119258538215466,0.06244823359820888,0.07610284841555853,0.0009928709494642074,6.502258272161045,-10.014854534821891,0.5761552338401899,0.5479839395686632,0.8398877502456692,0.01777782141145945,0.5870518994246164,-9.158436575362582,-5.996926698200757,-1.3106961924409237,0.06380453935889396,0.00030994341127377927
0.1,0.043795026903533735,1.503057317563795,-1.5667494670980338,0.004086934413841871,0.004878080891541018,6.190203055683616e-05,0.7608040186035846,-1.1650359265590462,0.05651426696330028,0.06771487569994761,0.08366115152329716,0.0011047968841769785,6.189489875295396,-9.579444865544822,0.6006697596955526,0.5353206654419012,0.8623396860755896,0.02016523074253307,0.48783943258001994,-8.840960724541771,-5.868487085413454,-1.2836363273431095,0.05586021492998148,0.00025622921110802566
0.11,0.05201760686438611,1.4904525401039768,-1.5661285438953627,0.0048156546503409425,0.005790892051351909,7.411551349759773e-05,0.8222579960852381,-1.260477745981805,0.062092320267099474,0.07287202364990712,0.09128111598108905,0.0012213482940761568,5.861488688086202,-9.129588891313663,0.6357845944600662,0.5274813905076599,0.8899431020474928,0.023041769412435187,0.38872347965711035,-8.503373996723756,-5.732843921678848,-1.2551511421587902,0.0475485706591378,0.000199285666173502
0.12,0.060822229646509116,1.4769381906407972,-1.56544820901472,0.0055952846614170295,0.00678076179506746,8.755009781726592e-05,0.8804622782123006,-1.3514349463179631,0.06803348806428403,0.07796300110760868,0.09898697437155515,0.0013434584319668187,5.5182954455799,-8.666541361164652,0.6816721566160133,0.5240718358548939,0.9221041914427346,0.02646543816212965,0.29145765957730785,-8.146244949897971,-5.59055438134619,-1.2253853755511122,0.03894470952647309,0.00013940021424165287
0.13,0.07017492935248418,1.4625604332064652,-1.564703750386318,0.006425567123737156,0.007848742312063985,0.0001022706342637507,0.9352699705975057,-1.4377757434331973,0.07444586284019003,0.0830282462320126,0.10679805169965248,0.001472053644648478,5.160010575065733,-8.191701220774721,0.738341384372168,0.5247546904201847,0.9582440708987292,0.030502763191823767,0.19772883718656797,-7.770273600802305,-5.442207705203156,-1.1944896241788934,0.03012778194832607,7.691123708130992e-05
0.14,0.08004028781161351,1.447366610458343,-1.5638893770911828,0.007306623744088327,0.008996030185802171,0.00011835122242274477,0.9865358459129341,-1.5193822748122385,0.0814373295135151,0.08810566203511712,0.11472878737381856,0.001608058815899407,4.786807148123738,-7.7066040760442025,0.8056426363828493,0.5292258086672312,0.9976880719502219,0.03522595358727987,0.10912107713144581,-7.376300649089737,-5.288423205973561,-1.1626194393116485,0.021180431980723426,1.2211167764750153e-05
0.15,0.09038145916830419,1.4314050907261837,-1.5629982366822663,0.008238931586393505,0.010223911396114218,0.000135875138407655,1.0341171356690675,-1.5961519732159233,0.08911404089164901,0.09323078423051769,0.12278812103120466,0.0017523915984910222,4.398949996572027,-7.2129114520491635,0.8832733943471531,0.5371967873847261,1.0395595256844423,0.04070861685750149,0.027079948316373725,-6.965314707133457,-5.129848056016153,-1.1299343918905205,0.012188043381681855,-5.425245682391081e-05
0.16,0.10116020377996891,1.4147251024101486,-1.5620224473040716,0.009223299749895745,0.011533694335355433,0.00015493458347855683,1.0778744611664728,-1.6679988316035232,0.09757893781948047,0.09843681635022407,0.13097829392412155,0.001905944507090182,3.9968254900877143,-6.712397079161535,0.9707851887720675,0.5483826167217511,1.082667829082899,0.04701912624313076,-0.04712156551323937,-6.538457158466441,-4.967154886323499,-1.0965971271534172,0.0032377935242618797,-0.00012197812578397256
0.17,0.11233693366292717,1.3973765571122174,-1.5609531440119437,0.01026084546923052,0.012926624972375426,0.0001756301088120997,1.1176729882958258,-1.7348545297931244,0.10693032921278106,0.10375457193347742,0.13929306370199923,0.0020695525333542892,3.5809869268768697,-6.206930439076905,1.0675920297540902,0.5624934169636919,1.1253853622690464,0.054210569459979485,-0.11241421969945892,-6.097024246386343,-4.801039196250554,-1.0627724232154083,-0.005582470631020221,-0.00019041374032684123
0.18,0.12387077295799294,1.3794098631569833,-1.5597805385194832,0.011352969028818749,0.014403778021136574,0.00019806953640899255,1.1533839295065764,-1.7966693955234063,0.11726054924606684,0.10921235595882292,0.14771530487611478,0.002243942759689284,3.1522206806006743,-5.698457781368755,1.1729805197013654,0.5792295192528805,1.165513241499891,0.06230609582463709,-0.16795939419575512,-5.642465978504204,-4.632216538374405,-1.0286262595697355,-0.014185515021897147,-0.0002589622758481956
0.19,0.1357196385342226,1.3608757314112718,-1.5584939914176335,0.01250132714753211,0.015965917729531622,0.00022236615201539966,1.1848865576229632,-1.8534131745711577,0.12865471018497388,0.11483581187133612,0.15621397083950495,0.0024296615606407106,2.7116376258848107,-5.18898077705603,1.2861217507278884,0.5982793400840052,1.2001434600415042,0.0712785629556234,-0.21317044448301792,-5.176381424620459,-4.461419404886881,-0.9943248919816078,-0.0224861357229482,-0.00032698969115595264
0.2,0.14784034788618702,1.341824975549653,-1.5570820957177551,0.013707804709074676,0.017613322066666867,0.0002486358985724276,1.2120709351964427,-1.9050755861618784,0.1411895699878323,0.12064775615425671,0.16474043371352443,0.0026269746557027926,2.260792113504708,-4.680532910113881,1.4060850403741574,0.6193196415643669,1.2255360805261137,0.08102390857840813,-0.24772738247641896,-4.700509985002647,-4.289393703293689,-0.9600339203698657,-0.030402683865318025,-0.0003938350191838634
0.21,0.16018876378053576,1.3223083091406767,-1.555532770376979,0.014974484899919174,0.019345565156686933,0.000276993258843363,1.2348415894348725,-1.9516666408976227,0.15493253407760219,0.12666801908444983,0.17322430900200647,0.00283573602709354,1.801825813307096,-4.175153646805451,1.5318535263820001,0.642017857324352,1.2370455833815752,0.09132898841633885,-0.27158393550867377,-4.216718227495223,-4.116894676727005,-0.9259173276160042,-0.037858667999390874,-0.000458822551013903
0.22,0.17271998736960267,1.302376142151634,-1.5538333622695277,0.016303617977748014,0.02116125545422525,0.00030754550226314747,1.2531223589066902,-1.993216698904258,0.16994081074513387,0.13291330778288404,0.18156902975383205,0.003055224341978446,1.3376250092280055,-3.6748603807983766,1.6623416098671262,0.6660361823804184,1.229149288316795,0.10183712473147066,-0.28496625351962274,-3.7269819442279237,-3.9446821027393835,-0.892136460987872,-0.044784399429804916,-0.0005212760132426437
0.23,0.18538861315306182,1.2820783796904645,-1.5519707548747284,0.017697589033343567,0.0230577321858082,0.0003403850129342152,1.2668625783459155,-2.029776246116947,0.1862607394799319,0.13939710555955542,0.1896476731582949,0.003283951067106771,0.8719670008926255,-3.1816181916213715,1.7964141856710771,0.6910370528026379,1.195648375281949,0.1120185250633754,-0.2883627832630215,-3.2333631977673534,-3.7735146074896013,-0.858848926808694,-0.051118638865771025,-0.0005805346250683578
0.24,0.19814905935097665,1.2614642260160382,-1.5499314817657068,0.019158885227153522,0.025030730772536994,0.0003755795526597087,1.276044619791484,-2.061415367442627,0.20392731090216204,0.1461296193809954,0.19729985867287922,0.0035194539725493528,0.40961562504095544,-2.697307630326371,1.9329075019566928,0.7166894642921022,1.1301181957721538,0.12115764731927792,-0.28250510068072154,-2.737982347664019,-3.6041429722129332,-0.8262073754963764,-0.05681019034986893,-0.0006359708792015111
0.25,0.2109559847696278,1.2405819970327467,-1.5477018428121392,0.02069006307165415,0.027074039689529362,0.0004131605885725018,1.2806925418651147,-2.088222898329152,0.2229638953567651,0.15311778445006258,0.20433089169923666,0.0037581035912793077,-0.04368753949928249,-2.223691137371997,2.0706513199209624,0.7426753190205369,1.0266630811457453,0.1283738131756926,-0.2683398020944213,-2.242985420278189,-3.437302402547708,-0.7943581710319902,-0.06181936909939463,-0.0006870097786739911
0.26,0.2237647968142883,1.2194789446021141,-1.545268020874382,0.022293716378848923,0.02917918588984336,0.00045311025951561506,1.280881204466049,-2.1103052430632636,0.2433821937756997,0.16036533071947742,0.21051462003139979,0.003994967094311324,-0.48139201429047396,-1.7623793546580255,2.208491778959841,0.7686947373852839,0.8809645737438838,0.13269151547865032,-0.2469919354931733,-1.7505077415878172,-3.2737038906972673,-0.7634399678636432,-0.06611924393253503,-0.0007331490301274277
0.27,0.23653224403581724,1.1982010959893783,-1.5426161966938217,0.023972445480701068,0.03133520115145612,0.0004953481547379884,1.276744722152896,-2.1277848612735837,0.2651824180560321,0.16787291018521436,0.215601526161276,0.004223789522237342,-0.8965035203603818,-1.314799483831769,2.345314018354747,0.7944691970403439,0.6914962862932295,0.13316858567130718,-0.21972095270723274,-1.2626354804766782,-3.114025022716303,-0.7335822576086776,-0.06969652694208295,-0.0007739793051904113
0.28,0.24921707074423216,1.1767931115343142,-1.5397326597138825,0.02572882824215886,0.03352853286092385,0.000539719735931606,1.2684826708414907,-2.140798445506416,0.2883536979939072,0.1756382761457794,0.21933317094677357,0.004437158119361759,-1.2821348117033964,-0.8821687810875193,2.480063215913399,0.8197416650448606,0.46064004218827437,0.12907126940371738,-0.1878708176616825,-0.7813675456412116,-2.958900837875985,-0.7049039908023919,-0.07255196368983613,-0.0008092031463375366
0.29,0.26178069298311285,1.1552981631100108,-1.5366039127388904,0.02756539321659484,0.03574316336639505,0.000585988746541264,1.2563622238880714,-2.1494948424303515,0.31287469749920566,0.1836564974435979,0.22146305054711915,0.0046269010609657985,-1.632166921984236,-0.4654768862372779,2.611762391533094,0.8442736543163889,0.19534294487111792,0.12005923257393414,-0.15281669354783586,-0.30858092243946705,-2.808915566479628,-0.6775124121172532,-0.07470008254753979,-0.0008386505178991893
0.3,0.2741878389649977,1.1337578350611575,-1.5332167686837985,0.029484595060369028,0.03796098588286002,0.0006338360409048105,1.240714598188484,-2.1540328048853326,0.3387144055091869,0.19192018437741867,0.22178225164649673,0.004784729436354648,-1.9418895082248715,-0.06548047291292397,2.7395252561600554,0.8678401699291713,-0.09301431358741485,0.10632311465144018,-0.1159114242092903,0.1539972779838464,-2.664596161275067,-0.6515022539823276,-0.07616820809724709,-0.000862288609399737
0.31,0.2864070886990824,1.1122120481199589,-1.5295584381873668,0.03148879207412439,0.04016244958223252,0.0006828666818035875,1.2219249734084678,-2.154578694119864,0.36583304964317687,0.20041970137553636,0.22014636993725037,0.0049030640898777055,-2.2084745106475365,0.3172876738616396,2.862562726076839,0.8902243373648773,-0.38967300756470724,0.08861853604285974,-0.07843557549416291,0.604808325753597,-2.5264084088685985,-0.6269554000360638,-0.07699473673231444,-0.0008802235808889176
0.32,0.2984112519018853,1.0906990054129608,-1.525616607511488,0.033580225539848275,0.042327436802097045,0.0007326258459141336,1.2004163202802909,-2.1513042706997973,0.39418306758788246,0.20914334657238878,0.21649872198645256,0.0049759164110546195,-2.431179348284419,0.6824954961195807,2.9801825239761195,0.9112136293659852,-0.6783114834562562,0.06817069120111019,-0.041554815508309355,1.0424695289035082,-2.3947560380683823,-0.6039410563817703,-0.07722679829926717,-0.0008926927253364861
0.33,0.3101775416945141,1.0692551583217578,-1.5213795068418503,0.035761000434637175,0.04443628401966992,0.0007826223080006768,1.1766289792628857,-2.144384709120308,0.4237100669637771,0.21807748947889025,0.21088472175728745,0.004999646208654317,-2.6112562022092916,1.029977591805691,3.091782407780795,0.9305989049424763,-0.9431928887785679,0.04647135545175285,-0.0062876956075861475,1.4657714638859678,-2.2699827119190634,-0.5825163739786464,-0.07691754945985402,-0.000900046992341715
0.34,0.3216875303332434,1.0479151889075093,-1.5168359697262186,0.03803306714789497,0.04647082192469143,0.0008323565892384684,1.150998863872924,-2.133996941424848,0.4543537115631634,0.22720667132577937,0.20345379050215115,0.0049734281237791625,-2.75162252012011,1.3596955961941288,3.196838670056066,0.9481763255081574,-1.1711252628730309,0.025029879210888062,0.02651449311606664,1.8736669847330651,-2.1523762668012925,-0.5627273817395064,-0.07612341778894298,-0.0009027256126465273
0.35000000000000003,0.33292690460156155,1.0267120050615908,-1.5119754848316547,0.04039820398095684,0.04841530148650335,0.0008813498403800747,1.1239374268318147,-2.1203183845918674,0.48604848945638646,0.23651368330618652,0.19444795618119223,0.004899325114160636,-2.85639179854106,1.6716991009531583,3.294892255380082,0.9637512290287855,-1.3528208573199283,0.0051503401885253375,0.05617582555905745,2.26525536392632,-2.0421742232948734,-0.5446100467417816,-0.0749016106808412,-0.0009012260963926956
0.36,0.3438850641134422,1.0056767445779107,-1.5067882414100044,0.042858000401699306,0.05025709521980254,0.0009291695240363654,1.0958159511880692,-2.1035260483680145,0.5187243421650232,0.24597964207424655,0.1841793733299187,0.0047819683656290645,-2.930366459569606,1.9660922834797543,3.3855349292901735,0.9771426274071242,-1.4834701019816228,-0.012213386596326536,0.08219339851919491,2.6397651210057678,-1.9395695368249126,-0.5281912871741299,-0.07330812215895166,-0.0008960736136314706
0.37,0.35455462000520277,0.9848387848772406,-1.501265169831635,0.04541384119120631,0.05198710767673568,0.0009754488915875572,1.066955589176057,-2.083795970067006,0.5523071578369467,0.25558407895070073,0.17300124569331396,0.004627936755119186,-2.9785710332108857,2.2430093835933205,3.4683974460518963,0.9881871507267643,-1.5625770428820935,-0.0265083851393062,0.10422711301691359,2.9965384387494303,-1.844715756723836,-0.5134898146011718,-0.07139634614215262,-0.0008877934921651263
0.38,0.3649308531422085,0.9642257559596459,-1.4953979783333122,0.04806689171011212,0.0535998817855865,0.0010198987170674811,1.037623313700573,-2.0613028917594787,0.5867191498322821,0.26530505189058107,0.16127741088508188,0.004444982547992388,-3.005872631791268,2.50259984451124,3.543140855755813,0.9967417360214412,-1.5932550719104244,-0.03755407357236673,0.12208443874164918,3.335018930815929,-1.7577311053266367,-0.5005167505054268,-0.069216280562012,-0.0008768894774775491
0.39,0.3750111826680658,0.9438635550944251,-1.489179186807767,0.050818084521271754,0.05509343361989577,0.0010623112502121423,1.0080329525857286,-2.036220086522074,0.6218791525545199,0.2751192811159631,0.1493551834309267,0.004241253314466117,-3.0167082788332724,2.745022053192862,3.6094512638270393,1.0026848657184253,-1.581234169659031,-0.04546473030303044,0.13570270206941362,3.6547433490962744,-1.6787013403329965,-0.4892760237966753,-0.06681421700376913,-0.0008638289415344878
0.4,0.3847946819330801,0.9237763625933898,-1.4826021581202,0.053668107554468845,0.05646887850279204,0.001102557501030481,0.9783499265014242,-2.0087192501035247,0.6577028687567152,0.2850023033197089,0.1375444882896265,0.0040246250818338795,-3.01491861613333,2.9704435279883836,3.6670377199758573,1.0059165338547444,-1.5338069763924285,-0.05055431818827483,0.1451307917394363,3.9553369129534737,-1.6076815303283603,-0.47976459687953954,-0.06423276851346851,-0.0008490348677155503
0.41000000000000003,0.39428166385674246,0.9039866586445358,-1.4756611271314077,0.05661739392091112,0.057729923761261924,0.0011405796048701829,0.9486981923662401,-1.978970394885408,0.6941030988792389,0.2949286366442277,0.1261045258469886,0.0038022103839701824,-3.003674649741055,3.179045100100997,3.715632548117661,1.006357310936604,-1.4588776903200293,-0.05324651383191337,0.15051146127492873,4.236511421152214,-1.5446970211546147,-0.4719725852608509,-0.06151108836970628,-0.0008328834822048219
0.42,0.4034733446082831,0.8845152415778028,-1.4683512273724573,0.05966611340914109,0.05888230082279408,0.00117638017022375,0.9191680751540626,-1.9471417066732937,0.730989975895038,0.3048719488229972,0.1152377061532157,0.003580056535356697,-2.9854773993363604,3.3710268942749306,3.754993309123358,1.0039469184000502,-1.3642061363223519,-0.0540023803713614,0.1520648058517688,4.498065133873609,-1.4897439123964347,-0.465883334546403,-0.058685159721888175,-0.0008157059398513846
0.43,0.4123715845937903,0.8653812481166152,-1.460668515162015,0.06281416563686179,0.059933197001119036,0.0012100103198614469,0.8898239985507198,-1.9133993461187575,0.768271221044234,0.3148052227720704,0.10508961783249533,0.0033630149637697048,-2.9622083752605466,3.546614455414038,3.7849056402312753,0.9986426648483224,-1.2568781916027731,-0.05326950243587292,0.15007308057747748,4.7398834781462345,-1.4427893330131172,-0.46147350666390585,-0.055788073938954734,-0.0007977924350536138
0.44,0.4209786993631899,0.8466021761901392,-1.4526099908781303,0.06606117480026304,0.060890730653230564,0.0012415577614745582,0.860711476939958,-1.877907192647596,0.8058524283884666,0.32470091634012443,0.09575336521115298,0.003154744161311145,-2.935210379849198,3.7060639659520906,3.8051863588562638,0.9904179914273357,-1.1429908489691676,-0.051450994316522114,0.14486680443898164,4.96193982018237,-1.4037717390630935,-0.45871321107077345,-0.05285025239387139,-0.000779397349828642
0.45,0.42929732971734197,0.828193910799315,-1.444173617076389,0.0694064859507368,0.06176349657654958,0.0012711358004599905,0.8318630354152076,-1.8408265390824163,0.8436373801741122,0.3345311150473766,0.08727659233190171,0.0029578038985432157,-2.90538178790339,3.8496660170626527,3.8156863918779598,0.9792612628432025,-1.0275158468631376,-0.048890284569710896,0.13681201510345017,5.164295774490174,-1.3726013817260556,-0.45756620113129143,-0.04989959578936333,-0.0007607444218213834
0.46,0.43733035923468927,0.8101707532946597,-1.4353583331682647,0.07284916273164294,0.06256019409524352,0.0012988738210404937,0.8033029517347305,-1.8023157504655287,0.8815283908124363,0.34426767809061426,0.07966975186939396,0.002773802058050335,-2.8732719170697174,3.9777477788528195,3.816293254757352,0.9651748477366517,-0.9142964294469818,-0.0458670427022867,0.12629854921314976,5.347100729016558,-1.349161026584365,-0.457990143106647,-0.046961565022132605,-0.0007420312996107813
0.47000000000000003,0.44508086786855144,0.7925454542724403,-1.4261640664209845,0.07638798651791526,0.06328933936402303,0.001324909454650529,0.7750508633862192,-1.762529902221938,0.9194266747280093,0.35388237862723254,0.07291452687795118,0.0026035633610035254,-2.839169402956534,4.090673657975627,3.8069329383285524,0.9481744674664547,-0.806132611523406,-0.04260013446372213,0.11372927312943608,5.5105904335485265,-1.3333069524878691,-0.45993695599815304,-0.04405920874155608,-0.0007234331821645727
0.48,0.45255211154172653,0.7753292501516101,-1.4165917391002532,0.0800214569131471,0.06395905609258148,0.0013493824366346266,0.7471243673175099,-1.721620412083009,0.9572327320731212,0.36334703952318403,0.06697167285584452,0.002447298198409756,-2.803179097751719,4.188844660334739,3.7875711589677366,0.9282887558913586,-0.7049168381790634,-0.03925441891199977,0.09951024689101617,5.655084619684114,-1.324870221519664,-0.463353214587958,-0.04121315717104864,-0.0007051054842265297
0.49,0.4597475193101465,0.7585319033695188,-1.406643271640377,0.08374779356877408,0.06457693468670388,0.0013724300154296669,0.7195407768419971,-1.6797346782091305,0.9948467459876111,0.37263366556269817,0.06178785941223916,0.0023047578795040266,-2.7652857099431554,4.272696724672827,3.7582139922868247,0.9055589590944493,-0.6117907222957695,-0.03594915450648617,0.08404185036488321,5.780983699568875,-1.3236581887366181,-0.4681806047924125,-0.03844160163928769,-0.0006871856275323381
0.5,0.4666707013707606,0.7421617460347321,-1.3963215817867265,0.08756493929634644,0.06514994799974673,0.0013941837059552045,0.6923182060614101,-1.6370157334786792,1.0321689853650544,0.3817145727572355,0.05730133130428488,0.002175369052553765,-2.725404222373158,4.342698290289334,3.71890794760232,0.8800387058564674,-0.527302375297015,-0.03276658825301282,0.06771092721712456,5.888764636066556,-1.329456208432641,-0.4743564191560249,-0.035760276531887104,-0.000669794141746611
0.51,0.47332546276925286,0.7262257268003754,-1.3856305797097292,0.09147056444626601,0.06568441175981216,0.001414767152797666,0.6654761398492222,-1.5936019234356595,1.0691002076997271,0.39056251499195666,0.05344637600654226,0.0020583446842461542,-2.683418212546904,4.399347332517867,3.6697395573044123,0.8517937902568349,-0.45155149572252995,-0.02975991029894287,0.05088400876235005,5.978976098430771,-1.342029489542806,-0.48181408032185385,-0.03318245645682217,-0.0006530352873684216
0.52,0.47971581903190236,0.7107294606686616,-1.3745751591363211,0.09546207252517266,0.06618597865068383,0.0014342948728275828,0.6390356262649477,-1.5496266131713874,1.1055420573408155,0.3991508078906643,0.050156689087167076,0.0019527720029916922,-2.6392077378540475,4.443168059037992,3.6108345585033144,0.8209019218332898,-0.38431536129273214,-0.0269601776054888,0.03390166934166852,6.052233023044218,-1.3611250537877935,-0.4904836811084171,-0.030718977274293787,-0.000636997404082696
0.53,0.4858460110743451,0.695677281403001,-1.3631611845838782,0.09953660702019237,0.06665965648766384,0.0014528716684197966,0.6130192042442765,-1.5052179265660655,1.1413974552442971,0.4074534495019713,0.04736778369800001,0.0018576795592213768,-2.5926686143499924,4.474707418423278,3.5423567393753004,0.7874524128262976,-0.3251531592143255,-0.024382080488046964,0.01707404265889967,6.109210694801857,-1.3864737541673857,-0.5002925310362837,-0.028378285836301052,-0.0006217531577980564
0.54,0.49172051763518615,0.6810722962044957,-1.3513954748137258,0.10369105939237656,0.06710984259512993,0.0014705925322857714,0.5874506560841068,-1.4604985198505256,1.176570977015256,0.41544523721841875,0.045018610746610094,0.0017720863865974706,-2.5437248541555335,4.494531534748625,3.464506513505917,0.7515457843061668,-0.2734889057676373,-0.022028584707257437,0.0006774996519017251,6.1506384558696965,-1.4177923169462703,-0.5111657005319244,-0.026166520090226693,-0.0006073598197175756
0.55,0.4973440641696664,0.666916442301163,-1.3392857826473357,0.10792207819465839,0.06754036813598989,0.0014875428969875308,0.5623546534480275,-1.4155853903332698,1.2109692166390131,0.4231018802281821,0.0430525540859958,0.0016950364701759319,-2.4923358391314663,4.503222150777769,3.3775192749973044,0.7132932826965188,-0.22867486231424006,-0.019894564714094398,-0.015047542497625216,6.177293137962705,-1.4547853763193668,-0.5230265554363835,-0.024087618713652753,-0.0005938596693053812
0.56,0.502721627650503,0.6532105450979839,-1.3268407713093457,0.1122260792621647,0.06795454763443731,0.00150379911279692,0.5377563480836526,-1.370589720317903,1.2445011337989929,0.43040010675063123,0.04141794984474213,0.0016256215809389214,-2.4384995690807827,4.501373137609292,3.2816635769045597,0.6728163053514855,-0.19003816725299716,-0.01796957765108792,-0.029897740208099197,6.189992303873489,-1.4971474768545348,-0.5357972757713523,-0.02214345764206206,-0.0005812805748861205
0.5700000000000001,0.5078584370929021,0.6399543775414738,-1.3140699874785577,0.11659925691522546,0.06835523021066273,0.0015194290647350139,0.51368094423991,-1.3256167556510203,1.2770783830788077,0.4373177653060759,0.04006825762254196,0.0015629951938093925,-2.3822530761367804,4.489587110112098,3.1772391666603417,0.6302457387315528,-0.15691364717829592,-0.01623993257622519,-0.043706957976514374,6.189587374789392,-1.5445650242159465,-0.5493993539186315,-0.020334009646705547,-0.0005696367734421952
0.58,0.5127599698791291,0.6271467203621272,-1.3009838312419564,0.12103759610824485,0.06874485009252755,0.0015344928625758817,0.4901532786226963,-1.2807657179346648,1.308615623660145,0.44383391930193955,0.038961988186482104,0.0015063797840867959,-2.3236708684032625,4.468472174073102,3.0645749049376487,0.5857212158800316,-0.1286656625984619,-0.014690198280359557,-0.05634552379199252,6.176956712394189,-1.5967181693859491,-0.5637540684320578,-0.018657522413424173,-0.0005589298459245276
0.59,0.5174319441311372,0.6147854228704986,-1.287593523158215,0.12553688545095687,0.06912547479493003,0.0015490435562493415,0.4671974252008116,-1.2361297491628511,1.3390308083741387,0.4499289342712007,0.03806247024024745,0.0014550693673459623,-2.2628620672786632,4.438638821652128,2.9440265889744035,0.5393903017659838,-0.10470154302105317,-0.0133042746457053,-0.06771872637038653,6.152998718894881,-1.6532826155648832,-0.5787829306219858,-0.01711071025928713,-0.0005491498660025009
0.6,0.5218803074891691,0.6028674639968993,-1.2739110686466169,0.13009273102261604,0.06949884998739779,0.0015631278437567427,0.44483633580318954,-1.1917958873599361,1.3682454511598086,0.4555845571659178,0.037337519246775926,0.001408428750740134,-2.1999667378762435,4.400696985518114,2.8159746975834263,0.49140761608051164,-0.08447878183406599,-0.012066131789511464,-0.07776468368746814,6.1186250137353,-1.7139313401522265,-0.594408101839073,-0.015688954606401392,-0.0005402766879950855
0.61,0.5261112227170831,0.5913890132800976,-1.25994921992517,0.1347005708944529,0.06986644053497523,0.0015767867499450962,0.4230915227913926,-1.1478450716801654,1.3961848721446888,0.46078398718368424,0.036759054757744526,0.0013658906188353497,-2.1351517794231865,4.355253258082728,2.6808220726649816,0.441933903526774,-0.06750776252591639,-0.010960301297464281,-0.08645171525606382,6.0747537425170375,-1.778336226759205,-0.6105527800489673,-0.014386508529127194,-0.0005322813328155995
0.62,0.5301310505846992,0.5803454915265911,-1.2457214357281365,0.1393556902712968,0.0702294675280043,0.0015900562628494495,0.40198278676161286,-1.1043521753506589,1.4227784197033524,0.46551193768438964,0.03630269930290585,0.0013269512904353366,-2.0686066389424655,4.302908279877155,2.5389915507207013,0.391135061804329,-0.053351414706129585,-0.009972185947076995,-0.0937753485846689,6.022303071153557,-1.8461696041571156,-0.6271415548469516,-0.013196701035417176,-0.0005251274281141325
0.63,0.5339463304837613,0.569731630878703,-1.2312418390383417,0.14405323715966575,0.07058894134181751,0.0016029679203757297,0.381527989906205,-1.0613860647888027,1.447959668979478,0.4697546888368967,0.0359473813813206,0.001291165752628019,-2.000539032409571,4.2442542997968955,2.390923557368323,0.3391811374407272,-0.041622871359218605,-0.009088239155051053,-0.09975508407596592,5.962184916146037,-1.9171056905205797,-0.6441007305262104,-0.012112137182649071,-0.0005187726594388982
0.64,0.5375637592246364,0.5595415340468131,-1.2165251730735012,0.14878823846685385,0.07094569091275552,0.0016155493443606934,0.3617428740875095,-1.0190096831890016,1.4716665964840614,0.47350013071881025,0.035674957093800655,0.0012581423984963714,-1.931170798376453,4.179872909271735,2.2370736778944007,0.2862452995110836,-0.03198192502395081,-0.008296052922702385,-0.10443103314154954,5.895298959738005,-1.9908219423743556,-0.661358617198804,-0.011124890623174717,-0.0005131701922845949
0.65,0.540990168441079,0.54976873247835,-1.2015867557683886,0.15355561643362342,0.07130038950310853,0.00162782472194121,0.34264092164425863,-0.9772801568463074,1.493841730511256,0.47673779667695704,0.03546985903530152,0.0012275377580516715,-1.8607339655917814,4.110332952102043,2.077910217238279,0.23250280110855748,-0.024130859515285152,-0.007584383084387414,-0.10786053238906049,5.822526996284973,-2.067000308384187,-0.6788457902870682,-0.010226685695153448,-0.0005082700296009804
0.66,0.5442325010041658,0.5404062432537318,-1.1864424329959191,0.15835020530203225,0.0716535772712546,0.001639815236043279,0.32423325630868594,-0.9362489224618209,1.514432277246956,0.4794588868408823,0.0353187768146067,0.0011990514102069086,-1.789467084825208,4.0361886115300365,1.913911763286384,0.17812993821572398,-0.017810060509860337,-0.006943132899818016,-0.11011482319575941,5.744727653240782,-2.1453283886252086,-0.6964953189657253,-0.009409066698492131,-0.0005040202750751941
0.67,0.5472977868166131,0.5314466245171792,-1.1711085307700733,0.16316676811969358,0.07200568097742298,0.001651539447940744,0.3065285812447311,-0.8959618736552641,1.533390222584584,0.4816562817661325,0.03521037061683853,0.0011724211897464899,-1.7176118529576907,3.957977675940689,1.7455647678152983,0.12330301538918675,-0.01279367602212833,-0.006363310054304044,-0.11127587155596907,5.662731526562798,-2.225500500283648,-0.7142429643506301,-0.008663552508498575,-0.0005003682787737264
0.68,0.5501931183270046,0.522882029268244,-1.155601806672002,0.16800001358237215,0.07235703115000588,0.0016630136354509318,0.2895331510391456,-0.8564595248935112,1.5506724098071276,0.4833245462678576,0.03513501725829111,0.0011474187510187729,-1.6454100420583522,3.8762199843202993,1.573361159752742,0.06819732737451112,-0.008885499284438492,-0.00583696762536709,-0.11143338842143935,5.577336765994496,-2.3072186509559542,-0.7320273484064785,-0.007981775170403983,-0.0004972616481372105
0.6900000000000001,0.5529256260712655,0.5147042573579357,-1.1399394007375736,0.17284461281824784,0.0727078770194712,0.001674252090593251,0.27325077442608936,-0.8177771910308347,1.566240593442829,0.4844599235875672,0.03508458694653245,0.0011238455142319127,-1.57310073578159,3.791416052186611,1.3977960055468275,0.01298616541723252,-0.005915174985148597,-0.00535713626028908,-0.11068209638403256,5.48930514058515,-2.3901934208497857,-0.7497900946891837,-0.007355601578789126,-0.0004946491135571101
0.7000000000000001,0.5555024545168459,0.506904805551451,-1.1241387860400558,0.17769521601940746,0.07305839950195837,0.0016852673805581692,0.2576828445580363,-0.779945180648465,1.5800614697517763,0.485060320115962,0.03505224824871697,0.001101528996491829,-1.500917868574633,3.7040458781243952,1.2193652312948027,-0.04216014336993812,-0.003734779201860494,-0.004917752334580389,-0.10911927491661425,5.399358609001938,-2.4741447552985507,-0.7674759421539488,-0.006777237772082767,-0.0004924812435981424
0.71,0.5579307384540539,0.4994749155376584,-1.1082177191955624,0.18254646882912617,0.07340872248626813,0.001696070575706699,0.24282839372080472,-0.7429890013792608,1.5921066844493412,0.4851252809718713,0.03503229843097655,0.0010803195148529788,-1.429088058826168,3.6145679303106406,1.0385634208651249,-0.09707515571344771,-0.002215788631112048,-0.004513585170560358,-0.10684260382858253,5.308176412778529,-2.558802669101998,-0.7850328333514742,-0.006239315760251352,-0.0004907110101978432
0.72,0.5602175801491274,0.49240561978356423,-1.0921941910113924,0.18739302839723126,0.07375892264870391,0.0017066714481062122,0.22868416950733744,-0.7069295754094149,1.6023528184170002,0.4846559568105095,0.03502001624357865,0.0010600872399513254,-1.35782872443249,3.523418311511288,0.8558817035496107,-0.15159718365054875,-0.0012464317643567924,-0.004140165147200503,-0.10394831335209695,5.216392703766397,-2.6439078643168163,-0.8024119784052512,-0.005734963151274054,-0.0004892942087619767
0.73,0.5623700274451227,0.48568778514991834,-1.0760863774885048,0.19222957902025792,0.0741090379917357,0.0017170786438506429,0.21524472959952304,-0.6717834633645905,1.6107813522887593,0.4836550623026646,0.03501153430317883,0.001040719574443078,-1.2873464677431332,3.4310101000065334,0.6718057438104479,-0.2055701110780186,-0.0007294002595663596,-0.003793713734758619,-0.10052963951392119,5.124594709878976,-2.7292122632545484,-0.8195678962150993,-0.005257856147523931,-0.0004881897419128134
0.74,0.5643950529696314,0.47931215420177997,-1.0599125913792113,0.19705084728815145,0.0744590752757568,0.0017272998321401908,0.20250255245087495,-0.637563094813838,1.6173786109293322,0.4821268267893533,0.03500372840211068,0.0010221188289548017,-1.2178357160717155,3.337732862783012,0.4868138444814951,-0.2588441493935201,-0.000579890432330088,-0.003471075955860048,-0.09667557525055577,5.033321435929727,-2.8144794586042385,-0.8364584343680125,-0.004802256745910489,-0.00048735977870482684
0.75,0.5662995345827287,0.4732693841651605,-1.0436912344898512,0.201851616664882,0.07480901648886533,0.0017373418338256855,0.1904481613097327,-0.6042770036619456,1.6221356889360192,0.48007693767305437,0.034994121310852125,0.0010042001685494624,-1.1494776036388648,3.2439523361627836,0.3013751733673491,-0.3112765269836375,-0.000723940671593426,-0.0031696554654573883,-0.0924699011099842,4.9430628891569635,-2.899485082784407,-0.8530447692585161,-0.004363035195274772,-0.0004867698033984983
0.76,0.568090237174425,0.46755008349766075,-1.0274407509058736,0.20662674143644616,0.07515882447789546,0.0017472107318663227,0.17907025916962502,-0.571930066749974,1.625048358397772,0.4775124771564157,0.034980798903012957,0.0009868898040637163,-1.0824390807611397,3.1500102678548516,0.11594812160978973,-0.3627321081109596,-0.0010970293121999042,-0.0028873522570456722,-0.08799047431499485,4.8542598120893015,-2.9840170988404635,-0.8692913879286123,-0.00393567894126355,-0.00048638856940284354
0.77,0.569773795898214,0.4621448460572135,-1.011179581303568,0.21137115996626346,0.07550844784491403,0.0017569119659122546,0.16835587237890456,-0.5405237440447244,1.6261169602305587,0.47444185298173097,0.034962336701857874,0.0009701234045931836,-1.0168722361861888,3.056224413257124,-0.06902119950252628,-0.4130839375653097,-0.0016428980788967262,-0.0026225029717575066,-0.08330875135810963,4.767303898914758,-3.0678760154337232,-0.8851660531330914,-0.0035162894234551383,-0.0004861879748076169
0.78,0.5713567009060647,0.4570442828685086,-0.9949261184988013,0.21607990720485626,0.07585782519701617,0.001766450413006912,0.15829050078507553,-0.5100563188704876,1.6253462804766707,0.4708747238592787,0.03493773521021408,0.0009538447094657355,-0.9529138186191256,2.962888677738978,-0.2531003183662146,-0.46221370828422437,-0.0023125679715981784,-0.0023738237633577075,-0.07848951703789066,4.682538465631738,-3.1508750287100202,-0.9006397531207195,-0.0031015681831111927,-0.00048614287609069636
0.79,0.572845283630368,0.45223905150130866,-0.9786986643687381,0.22074812640785177,0.07620688882334922,0.0017758304562080752,0.14885827243033367,-0.4805231367199953,1.6227454130063195,0.46682192029955194,0.034906362633305495,0.0009380043201163208,-0.8906849436408079,2.870273395628246,-0.43587161640624306,-0.5100121499861634,-0.0030635169089187064,-0.00214035573020252,-0.07359079178548025,4.600259539115454,-3.232840094081359,-0.9156866375965717,-0.0026887937943818946,-0.00048623085618166597
0.8,0.5742457046399077,0.4477198830885578,-0.9625153882678128,0.2253710800236864,0.07655556786166709,0.0017850560427497058,0.1400421009539677,-0.4519168412750835,1.6183276100925243,0.46229536158346307,0.03486790383178638,0.0009225586541630589,-0.830290972360226,2.7786257357410156,-0.6169333935656258,-0.5563793376840858,-0.0038589912737231336,-0.001921412982430093,-0.06866388910553249,4.520717325933795,-3.313609931195205,-0.9302839412966929,-0.0022757911494529336,-0.0004864319621754311
0.81,0.5755639430798558,0.443477607024858,-0.9463942870443623,0.2299441597198454,0.07690379100714179,0.001794130733206179,0.1318238439948121,-0.4242276063699819,1.6121101223450482,0.45730796961590076,0.03482231454746937,0.0009074690456473185,-0.771821548261643,2.688170222546686,-0.7959007862818277,-0.6012249197563269,-0.004667426498680571,-0.0017165334752658468,-0.06375359579458292,4.444118018365211,-3.3930359655951987,-0.944411896564357,-0.0018608946118819632,-0.0004867284267113639
0.8200000000000001,0.5768057876900884,0.43950317339745887,-0.9303531467494961,0.23446289552396238,0.07725148880840127,0.0018030577429743384,0.12418446102325581,-0.3974433627399121,1.6041140294866223,0.45187358041169967,0.03476978012594872,0.0008927009768159304,-0.7153507788038939,2.599109361473423,-0.9724065398994601,-0.6444682660317134,-0.005461954860290774,-0.0015254327982039406,-0.058898449127730006,4.370625892649792,-3.4709822107870205,-0.9580536362685691,-0.0014429065056212472,-0.0004871043854578412
0.8300000000000001,0.5779768293817653,0.4357876732123265,-0.9144095061151376,0.23892296406355665,0.07759859558958584,0.001811839977254295,0.11710416916768754,-0.3715500185132414,1.5943640634358502,0.44600685395942763,0.03471067811845817,0.0008782234279956778,-0.6609375484130358,2.5116243564394343,-1.1461016389577043,-0.6860385370772026,-0.006219981628504567,-0.00134796114951663,-0.054131087251094785,4.300365653052653,-3.547325094608143,-0.9711950883511917,-0.0010210523337767171,-0.0004875456013614553
0.84,0.5790824553391136,0.43232235648707557,-0.8985806218638653,0.24332019589553522,0.07794505103239056,0.0018204800605850406,0.11056259573483333,-0.34653167252508876,1.5828884251272284,0.43972318319785797,0.034645544280472146,0.0008640083330745615,-0.6086259495930997,2.425875907449435,-1.3166558001268083,-0.7258746765807214,-0.0069228135910927024,-0.0011840637264719511,-0.04947865142269576,4.2334249748163995,-3.6219532339552605,-0.9838248632302907,-0.0005949340251620865,-0.00048803920442288195
0.85,0.5801278446016856,0.4290986482905528,-0.8828834358993536,0.24765058192376382,0.07829080144836822,0.0018289803618743463,0.10453892625720129,-0.3223708196522793,1.569718596451178,0.4330386028228599,0.03457504159776563,0.0008500301289305546,-0.558445818978086,2.34200507602342,-1.483757833743684,-0.7639253293629107,-0.00755532669632708,-0.0010337447916795028,-0.04496322136230023,4.169857199480251,-3.6947671620449003,-0.9959341352250417,-0.00016448239254529973,-0.0004885734538286748
0.86,0.5811179650720216,0.42610816281563135,-0.8673345444129786,0.25191027890995676,0.07863580076900024,0.001837343015752376,0.09901204703359308,-0.29904854749214416,1.5548891486374992,0.42596969861929196,0.034499932063201434,0.0008362653878029692,-0.5104133652772606,2.2601342063221583,-1.6471158808890356,-0.8001486881601307,-0.008105662107594225,-0.0008970356119228917,-0.040602267673195885,4.109684137277896,-3.765679012468702,-1.007516519102867,0.00027009014137023253,-0.000489137527372594
0.87,0.5820575718846217,0.42334271557733966,-0.8519501689296182,0.2560956140897934,0.07898001127900957,0.001845569940974777,0.0939606812600112,-0.2765447238291669,1.5384375483360466,0.41853351798366434,0.03442105100093243,0.0008226925222401092,-0.46453187623999664,2.1803678900915893,-1.8064575337603233,-0.8345122728664043,-0.008564942310806956,-0.0007739664398920265,-0.036409107976994905,4.052898933306373,-3.834612164354331,-1.0185679427833518,0.000708335631282782,-0.0004897213413032999
0.88,0.5829512070643994,0.4207943338328169,-0.8367461293039128,0.2602030889124878,0.07932340411691666,0.0018536628565030812,0.08936351797777012,-0.25483817445227874,1.5204039625705377,0.4107474822694367,0.03433928379070861,0.000809291552830411,-0.42079249199947144,2.1027939639563535,-1.961529847720227,-0.8669926464267892,-0.008927001042466243,-0.0006645426593303583,-0.03239335596842578,3.999468956782217,-3.9015008529559543,-1.0290865171668324,0.0011496147330339723,-0.0004903154020878433
0.89,0.583803200396325,0.41845526532281485,-0.8217378186673416,0.26422938192797013,0.07966595956577073,0.0018616232957978556,0.08519933319256144,-0.23390685100020384,1.5008310636571105,0.4026293015482373,0.03425554488540733,0.0007960439294774415,-0.3791750324566288,2.0274845281330083,-2.112099253839953,-0.8975750720341837,-0.009188122693797651,-0.0005687250970248248,-0.02856135498296984,3.9493386758572844,-3.9662897499759056,-1.0390724039891714,0.0015931382297732003,-0.0004909106901207133
0.9,0.584617671422744,0.4163179854366015,-0.8069401803164374,0.2681713508513449,0.08000766715618804,0.0018694526197740786,0.08144710264189106,-0.21372798862133485,1.479763835090423,0.39419689233747873,0.034170759041730954,0.0007829323976223019,-0.3396488667449214,1.9544969762925362,-2.2579513810256304,-0.9262531166857508,-0.009346788479533963,-0.0004864144970079809,-0.0249165898282127,3.902432484039442,-4.028933517863427,-1.0485276825387457,0.002038005466720726,-0.000491498574162675
0.91,0.585398532480823,0.4143752029032315,-0.7923676865233529,0.27202603383932805,0.08034852560318088,0.0018771520287879438,0.07808610580789421,-0.19427825333700044,1.4572493793084558,0.38546829879831246,0.03408584469928442,0.0007699409013865275,-0.3021738132760894,1.8838750270574283,-2.3988907969161577,-0.9530282065253033,-0.009403428033148531,-0.00041743998533266824,-0.021460072529943884,3.8586574481353897,-4.089396342250029,-1.057456216007797,0.0024832393348640696,-0.0004920707542773789
0.92,0.5861494926896952,0.4126198641123143,-0.7780343192418083,0.27579065001790765,0.08068854259767119,0.0018847225739514904,0.07509602088721856,-0.17553387909171736,1.4333367281544576,0.37646161785795706,0.03400169944903032,0.0007570545163546548,-0.2667010594079171,1.8156497484535115,-2.5347406766940814,-0.9779091397158179,-0.009360176198551007,-0.00036155137252213976,-0.018190699272348117,3.8179059516916998,-4.147651446566916,-1.0658635181883094,0.002927817569364322,-0.0004926192302511143
0.93,0.5868740627950815,0.4110451561667111,-0.7639535526741871,0.2794625993044841,0.0810277344729759,0.0018921651680050306,0.0724570105386339,-0.15747079456032204,1.4080766567621268,0.36719492865764286,0.03391918753047105,0.0007442594053540235,-0.23317409039314654,1.7498405675277966,-2.6653424087661923,-1.0009115628660883,-0.00922063563927078,-0.0003184149832328176,-0.015105577167543103,3.780058212047889,-4.203680592751519,-1.0737566211629404,0.00337070024300302,-0.0004931362919274274
0.9400000000000001,0.5875755607783967,0.40964450876811903,-0.7501383376591915,0.2830394615712051,0.08136612576587396,0.001899480595918999,0.07014979833151891,-0.14006473985920986,1.3815215014995663,0.35768622667209826,0.033839129289805515,0.0007315427913968592,-0.20152961795770663,1.6864562582722744,-2.7905551459722826,-1.0220574172631816,-0.00898964648932521,-0.0002876127146459462,-0.012200320583563441,3.7449846532347437,-4.257473571790994,-1.0811439445843753,0.003810853437052375,-0.0004936145275509169
0.9500000000000001,0.5882571181375338,0.4084115950343499,-0.7366010878339925,0.2865189951990966,0.08170374869107992,0.001906669525345671,0.06815573591371121,-0.12329137337691803,1.353724982519904,0.34795336278915245,0.03376229252059692,0.0007188929426671819,-0.17169849960639913,1.625495901938637,-2.910255310582336,-1.0413743613482387,-0.008673064647750195,-0.0002686439391667017,-0.009469317610238857,3.7125481209648017,-4.30902768767401,-1.0880351670819577,0.004247269160439939,-0.0004940468460744998
0.96,0.5889216867475819,0.4073403313443716,-0.7233536675201647,0.28989913507488696,0.0820406425470382,0.0019137325169978556,0.06645686100481776,-0.10712636899783082,1.3247420313827774,0.3380139875790309,0.03368938559582758,0.0007062991652184547,-0.14360664055326822,1.5669498147709546,-3.024336060867998,-1.0588951760007808,-0.008277550492830216,-0.0002609298548917893,-0.006905967873601381,3.682605929795516,-4.358347238131676,-1.0944411002825492,0.004678981662463305,-0.0004944265094182585
0.97,0.5895720462115872,0.4064248763039524,-0.710407381278846,0.2931779900841151,0.08237685306990879,0.001920670034995732,0.06503594640052435,-0.09154550404191986,1.29462862413188,0.3278855009228165,0.033621052287058736,0.0006937517997876458,-0.11717587100847408,1.5108004391039611,-3.132706726498539,-1.07465715927664,-0.007810369795204046,-0.0002638198635174227,-0.0045028933492818534,3.6550117361372614,-4.405442995347168,-1.1003735658832765,0.005105080344530448,-0.0004947471708490369
0.98,0.5902108116140313,0.40565962892111845,-0.6977729650774449,0.29635384015520283,0.08271243175144824,0.0019274824571942413,0.06387654024441626,-0.07652473828339493,1.2634416201401013,0.3175850071087732,0.03355786815394592,0.0006812422198509267,-0.09232479240907289,1.4570231946593832,-3.235292219442357,-1.0887015172446795,-0.0072792084710738,-0.0002765995561209156,-0.0022521241031303835,3.62961723408008,-4.450331689604601,-1.105845276167018,0.005524719522818513,-0.000495002915950077
0.99,0.5908404415928931,0.4050392260766953,-0.6854605790077869,0.29942513290964784,0.08304743513521348,0.0019341700854813822,0.06296299788617037,-0.06204028444231901,1.231238606965797,0.3071292754445037,0.03350033837652484,0.0006687628287140914,-0.06896958704326808,1.4055872877028968,-3.332032426454774,-1.1010727575303534,-0.006692002572488219,-0.00029849989812269495,-0.0001452610322070415,3.6062736739890857,-4.493035498633351,-1.1108697183070182,0.0059371253270755035,-0.0004951883030407905
