tonegas/nnodely-applications/joint_friction_estimation/dataset/train/mpc_mujoco_episode_42 copy.csv
time,q1,q2,q3,q4,q5,q6,dq1,dq2,dq3,dq4,dq5,dq6,ddq1,ddq2,ddq3,ddq4,ddq5,ddq6,tau1,tau2,tau3,tau4,tau5,tau6
0.0,0.0,1.57,-1.57,0.0,0.0,0.0,0.0,0.0,0.0,0.0,0.0,0.0,-10.162893904584513,-3.8611714516364803,12.247433511634227,5.256352924842851,-1.5051428343867954,-1.7984435114470898e-06,-1.4166405606937482,-4.171653506131233,-3.3238460738510285,-0.6698041234768277,-0.12808105536670542,-0.0018620103726943087
0.01,-0.0010110648172981806,1.569619459875963,-1.5687815651830754,0.0004889015626249165,-0.000126568963147097,-1.0189837089912724e-06,-0.10110648172981805,-0.03805401240370652,0.12184348169245757,0.04889015626249165,-0.012656896314709698,-0.00010189837089912724,-10.139130560977529,-3.6153303442361557,12.274762982034947,4.920266672374442,-1.2762101277381248,-0.010169033545608386,-1.4190955059189423,-4.0607624961349975,-3.2764686874818034,-0.6590429184680969,-0.1283694230178959,-0.0018554239226070686
0.02,-0.00303004449794729,1.5688830948399632,-1.5663440096004018,0.0014405892392976038,-0.0003657550971816868,-3.100056341260782e-06,-0.20189796806491095,-0.07363650359996574,0.24375555826737333,0.09516876766726874,-0.02391861340345898,-0.00020810726322695094,-10.109284228723425,-3.353210956248422,12.28458965853727,4.657787392923687,-1.137589989716922,-0.010496008898669196,-1.4196640804143288,-3.948228730586007,-3.226603781941478,-0.6473293089185864,-0.1285531636314178,-0.0018404261436910313
0.03,-0.006053494829680546,1.5678171753222965,-1.5626878456792648,0.0028345436910878,-0.0007090714024792256,-6.1807980573084905e-06,-0.30234503317332556,-0.10659195176667641,0.3656163921136994,0.1393954451790196,-0.03433163052975388,-0.0003080741716047708,-10.075877774716684,-3.0764440858248565,12.281253300219209,4.4504651011507015,-1.053956460007008,-0.009638182449963395,-1.4186099559422738,-3.8354938740049587,-3.1748353452230225,-0.6347929514266013,-0.12864423131319794,-0.001817137214699538
0.04,-0.010077805525013472,1.5664493793606609,-1.5578144818006245,0.00465443303168438,-0.0011513644935181875,-1.0207779144138797e-05,-0.4024310695332927,-0.13677959616355423,0.4873363878640299,0.18198893405965805,-0.04422930910389617,-0.00040269810868303056,-10.04009339406989,-2.786627557521294,12.267590458514572,4.284055952858349,-1.0038839158881885,-0.008713865352631522,-1.4161614773076099,-3.7241437559212383,-3.1217887370714057,-0.6215674370935872,-0.1286510169970949,-0.0017856377754333509
0.05,-0.015099243680955478,1.5648086446292988,-1.5517260394526704,0.006887022935672274,-0.0016895176149875285,-1.5142183133434075e-05,-0.5021438155942006,-0.16407347313620482,0.6088442347954091,0.22325899039878938,-0.05381531214693411,-0.0004934403989295277,-10.00226222139422,-2.485379286587238,12.245228414992877,4.147529142691962,-0.9743034686877508,-0.007761492302284623,-1.4125029144101349,-3.6158981329221005,-3.0681275044413363,-0.6077895382034697,-0.1285778016881996,-0.001745956185233316
0.06,-0.021113941901375163,1.562925015691021,-1.544425267606653,0.009521329415753413,-0.0023216571389565645,-2.0953413118136966e-05,-0.6014698220419684,-0.18836289382777005,0.7300771846017484,0.263430648008114,-0.06321395239690361,-0.0005811229984702892,-9.962157245741011,-2.174376488870782,12.214814538058288,4.03230082413544,-0.957192202402048,-0.006703733190587258,-1.4077654544870062,-3.512594373882087,-3.0145483572805554,-0.593597971370899,-0.1284241908685357,-0.00169806400068405
0.07,-0.028117848600234023,1.5608294832227942,-1.5359155368564426,0.012547955909094606,-0.0030466632908941246,-2.761370349949981e-05,-0.7003906698858858,-0.20955324682267945,0.850973075021055,0.3026626493341194,-0.072500615193756,-0.0006660290381362843,-9.91916898987238,-1.8553838884443634,12.1761969710859,3.9316478416935965,-0.9475793096946958,-0.005475667462458311,-1.402018114432442,-3.4161646072660803,-2.961774164650323,-0.5791316941235063,-0.12818453948867664,-0.0016418762080633999
0.08,-0.03610665096055736,1.5585538129039298,-1.526200899478602,0.015958570125645038,-0.0038638648229630465,-3.509458037932085e-05,-0.7988802360323338,-0.22756703188645447,0.971463737784058,0.3410614216550433,-0.0817201532068922,-0.0007480876879821042,-9.872411850068493,-1.5302725918481253,12.128569605453283,3.8402613994739703,-0.9423434337994934,-0.0040324161052547325,-1.3952588587745196,-3.3286058579928923,-2.9105448324936707,-0.5645277498771732,-0.1278473898714392,-0.0015772546769316788
0.09,-0.04507567690639999,1.556130362468921,-1.5152862041676145,0.019745486827243967,-0.004772845041501409,-4.3364610845469164e-05,-0.896902594584263,-0.24234504350089062,1.091469531098745,0.3786916701598928,-0.09089802185383619,-0.0008270030466148316,-9.820790172143836,-1.2010305350029147,12.070591581215107,3.753909238412774,-0.9394878778078493,-0.0023433343105381255,-1.387406302557915,-3.2519428209439636,-2.8616059720983467,-0.549918687900585,-0.1273949542938263,-0.0015040143252344164
0.1,-0.055019780115694215,1.5535918861794566,-1.5031772559956018,0.023901331016653777,-0.005773315445846854,-5.238795123788746e-05,-0.9944103209294223,-0.2538476289464269,1.2108948172012721,0.41558441894098097,-0.10004704043454454,-0.00090233403924183,-9.763041831112147,-0.8697649451566032,12.000489322706336,3.669181903515973,-0.9377049277912732,-0.0003871479986816695,-1.3782924673945969,-3.188183161696311,-2.8156953571756924,-0.5354296073779685,-0.12680268159743338,-0.0014219320018555202
0.11,-0.06593321087541736,1.5509713267003178,-1.4898810133120117,0.02841876246434911,-0.006865030705672987,-6.212338539833716e-05,-1.0913430759723146,-0.2620559479138808,1.3296242683590092,0.4517431447695335,-0.1091715259826134,-0.0009735434160449696,-9.697770238126688,-0.5386970135599877,11.916147276041134,3.583304175212099,-0.9361151939161232,0.0018510475762827383,-1.3676571442996632,-3.13926559392246,-2.7735272925744043,-0.5211749055635193,-0.1260389533401141,-0.0013307583191952883
0.12,-0.07780947504011844,1.5483015950906,-1.4754058139815764,0.03329024750874045,-0.00804772928908464,-7.252367222870094e-05,-1.187626416470108,-0.26697316097177975,1.4475199330435213,0.4871485044391339,-0.11826985834116528,-0.001040028683036378,-9.623471504507835,-0.2101488948691294,11.815191969073714,3.4939969713919794,-0.9341128668069274,0.004381568023134719,-1.3551444947336604,-3.1070014446577465,-2.7357751730923363,-0.5072548466371564,-0.12506495956767283,-0.0012302327207729502
0.13,-0.09064118324206384,1.5456153403487662,-1.4597616236827269,0.03850786795469557,-0.009321090467375295,-8.353510028877219e-05,-1.2831708201945404,-0.2686254741833735,1.564419029884955,0.5217620445955118,-0.12733611782906548,-0.0011011428060071248,-9.53856086327723,0.11347679596362022,11.695072677993243,3.39937825863435,-0.9312749432942908,0.007211270312518003,-1.3403025836574574,-3.0930109637103005,-2.70305268875562,-0.49375210714777307,-0.12383480672518377,-0.001120102005492491
0.14,-0.10441989265016421,1.5429447106688416,-1.4429602990637356,0.04406315991028727,-0.010684702302995642,-9.509719272365991e-05,-1.3778709408100367,-0.26706296799246027,1.6801324618991311,0.5555291955591699,-0.13636118356203455,-0.0011562092434887715,-9.441400735722596,0.4297246545593623,11.553140786603372,3.297893961690683,-0.9273088760042256,0.010344407457710147,-1.322586574193577,-3.098656233555052,-2.6758943237061974,-0.4807284924810957,-0.12229590982673778,-0.0010001423812510955
0.15,-0.11913594387273178,1.5403211092569211,-1.4250158584816994,0.049946977726618,-0.012138037564145478,-0.00010714253110497308,-1.4716051222567563,-0.26236014119205053,1.7944440582036192,0.5883817816330729,-0.14533352611498368,-0.0012045338381313174,-9.330331652487123,0.7361207422394258,11.38672876709272,3.1882717086487773,-0.9220230129546465,0.013783434585417531,-1.3013663090289962,-3.124973157460373,-2.654735992960318,-0.46822205421018004,-0.12038971699899173,-0.0008701849045255527
0.16,-0.13477829596369062,1.5377749481954557,-1.4059447529314146,0.05614937997735704,-0.013680435899874352,-0.00011959667972882108,-1.5642352090958824,-0.2546161061465348,1.907110555028489,0.6202402250739043,-0.15423983357288742,-0.0012454148623848003,-9.203706381295323,1.0302125359205767,11.193228305293074,3.0694916405520516,-0.9153101955236096,0.01752989525834625,-1.2759389444779194,-3.172605629357814,-2.6398968848595814,-0.4562448750764725,-0.11805280628542973,-0.0007301438986175234
0.17,-0.15133436285899116,1.5353354043954432,-1.3857661297356954,0.06265953573302988,-0.01531109141492672,-0.00013237819742118479,-1.655606689530052,-0.24395438000124786,2.017862319571937,0.6510155755672838,-0.16306555150523694,-0.0012781517692363707,-9.059926987746445,1.3096133543155883,10.970164121570566,2.9407695666680027,-0.9071385360211508,0.021585449332611084,-1.2455471780999847,-3.241745728307784,-2.6315639920152356,-0.4447818680648352,-0.11521838208459197,-0.000580047672452535
0.18,-0.1687898548903002,1.5330301821088184,-1.3645020818988,0.06946565031405771,-0.017029045223326388,-0.00014539872501475036,-1.7455492031309054,-0.230522228662488,2.126404783689524,0.6806114581027837,-0.17179538083996687,-0.0013020527593565576,-8.897483027156499,1.5720497866397785,10.715343664730923,2.8015473937270485,-0.8975456151629757,0.025953054623945704,-1.209403264753151,-3.3320721735824126,-2.6297690099640345,-0.43378796021260047,-0.11181816503766855,-0.0004200690435258185
0.19,-0.18712862915273856,1.5308852868035965,-1.3421778685878778,0.07655491072340816,-0.018833182763895978,-0.00015856313496332886,-1.833877426243836,-0.21448953052219447,2.232421331092233,0.7089260409350447,-0.180413754056959,-0.001316440994857849,-8.714992588670947,1.8154101669791538,10.426732108441595,2.651496354898491,-0.8866338482019316,0.030638298943726827,-1.166719233278678,-3.4427407446770792,-2.634407501005391,-0.42319601563215525,-0.10778470964573797,-0.0002505600931643851
0.2,-0.20633255279673154,1.5289248151521553,-1.3188221188384197,0.08391345028633936,-0.020722235730594736,-0.0001717697277515221,-1.9203923643992986,-0.19604716514411905,2.335574974945819,0.7358539562931202,-0.18890529666987585,-0.0013206592788193236,-8.511240021029863,2.037791918700228,10.102743089901853,2.490505219717704,-0.8745654512389223,0.035650771550001625,-1.1167422949389685,-3.5723302866798594,-2.6452047611778995,-0.4129115913692206,-0.10305402868089295,-7.207843298044278e-05
0.21,-0.2263813829906076,1.5271707659957257,-1.2944669902284454,0.09152633335812387,-0.022694788427472967,-0.00018491045627989014,-2.004883019387605,-0.17540491564297037,2.435512860997445,0.7612883071784514,-0.19725526968782306,-0.0013140728528368026,-8.285215170894162,2.2375470998112292,9.74206047464175,2.318689931724869,-0.8615563790867853,0.04100550550620108,-1.0587954978263237,-3.7188729430886536,-2.6617515646751944,-0.40282502099418527,-0.09756856663976465,0.00011458315765515805
0.22,-0.2472526674541575,1.525642876708549,-1.2691482997573043,0.09937755979808986,-0.02474928828752334,-0.00019787115798450565,-2.0871284463549906,-0.15278892871765412,2.531869047114114,0.7851226439965999,-0.2054499860050374,-0.0012960701704615527,-8.03613489801276,2.413319308909038,9.344163525081935,2.1363758987747943,-0.8478685916282345,0.04672430854765386,-0.9923200261542944,-3.8798129758919404,-2.683447499130782,-0.39280028920938737,-0.0912801667868499,0.00030838438993426303
0.23,-0.2689216677100169,1.5243584888920838,-1.2429055758482206,0.10745009093915317,-0.026884060122521616,-0.00021053176901300222,-2.166900025585942,-0.12843878164651362,2.624272390908368,0.80725311410633,-0.21347718349982744,-0.0012660611028496574,-7.765208443367012,2.564632399889499,8.848626345168034,1.9452107857422938,-0.8338182004268688,0.05283711387664303,-0.9171370777631671,-4.058970289649756,-2.717934555695523,-0.38477881526203594,-0.08417770268413383,0.0005070015105704452
0.24,-0.29136147975793014,1.5233324726158584,-1.215787940511098,0.11572563097146397,-0.02909733096730727,-0.00022276710460954205,-2.2439812047913246,-0.10260162762254513,2.7117635337122534,0.8275540032310803,-0.22132708447856542,-0.001223533559653981,-7.485704518698323,2.6955380153623674,7.833733533008289,1.7506562405389623,-0.819895309487805,0.05936167823385441,-0.8347715115802733,-4.297224831393459,-2.8228975123317066,-0.3932121609336659,-0.07643672415873783,0.0007016646674320965
0.25,-0.31454434810293974,1.5225774346884133,-1.1878952013023014,0.12418263510771724,-0.0313873110560308,-0.00023445222231690426,-2.318286834500959,-0.07550379274451174,2.7892739208796558,0.8457004136253263,-0.22899800887235305,-0.0011685117707362226,-7.18697250812963,2.800849369131078,6.8062308732350925,1.518387215102333,-0.8067483471219816,0.06616386626908999,-0.7445270919295384,-4.527082206961502,-2.9286424496747356,-0.4010681805201139,-0.06796034708847364,0.0008964320797610301
0.26,-0.3384406144626088,1.5221034704655834,-1.1593286824672964,0.13279658270801598,-0.0337521959889063,-0.0002454605523048746,-2.3896266359669047,-0.04739642228300006,2.8566518835005095,0.8613947600298734,-0.2364884932875504,-0.0011008329987970357,-6.868338460445759,2.8808649140925255,5.807644400362673,1.2575383531803297,-0.7945501007195901,0.07330581816925608,-0.6470198535571879,-4.7400821749659645,-3.028326854454687,-0.4068148007282838,-0.058791264412577225,0.0010894245340494755
0.27,-0.36301865241293274,1.5219182067303514,-1.1301871163295398,0.1415409291579293,-0.03619017573088795,-0.0002556626631458051,-2.4578037950323943,-0.018526373523189744,2.9141566137756643,0.8744346449913317,-0.24379797419816507,-0.0010202110840930507,-6.529845637055448,2.936363674830623,4.852040808186998,0.9781075176160634,-0.7834045726664627,0.08085601915265972,-0.5431721592606905,-4.9319000064658045,-3.1189868471507975,-0.40988546340701804,-0.04899739373732109,0.001278390786221605
0.28,-0.3882448731656759,1.5220268781078765,-1.1005652046775458,0.15038796508809915,-0.038699441576992705,-0.0002649252974274421,-2.5226220752743145,0.010867137752512909,2.9621911651993944,0.8847035930169875,-0.2509265846104755,-0.0009262634281636992,-6.17164015227194,2.9682613207263064,3.9585219210057128,0.6887524355257195,-0.7733638454651057,0.08888551172955184,-0.43411862908272214,-5.098658719123315,-3.197137085407521,-0.4095903838820762,-0.0386614007130027,0.0014611794911529188
0.29,-0.41408374179941343,1.5224324193688668,-1.070551695271556,0.1593095968901363,-0.04127818957004746,-0.0002731103572726066,-2.583886863373755,0.04055412609902856,3.0013509405989915,0.892163180203714,-0.2578747993054759,-0.0008185059845164484,-5.794041226329578,2.9776574701700445,3.1482611137842684,0.39735296975771206,-0.7644243150548853,0.09747273917670907,-0.3211570372997109,-5.237376402244866,-3.2591684962439906,-0.4052075234850965,-0.02787695466403766,0.001635803790821318
0.3,-0.4404978109135403,1.5231355764986103,-1.0402272588806238,0.16827807483570106,-0.04392462026731158,-0.0002800737696928137,-2.641406911412686,0.070315712974363,3.032443639093216,0.8968477945564769,-0.2646430697264118,-0.000696341242020711,-5.3977784642317275,2.965951047403623,2.407967058441839,0.1113733207837111,-0.7565325706991537,0.1067062087821552,-0.20570123148354613,-5.349009718412476,-3.3064151845839924,-0.3972275210142971,-0.01675066811715993,0.0018000849891796763
0.31,-0.46744779514747237,1.5241350330900048,-1.009665735026922,0.17726649863068966,-0.04663693710856236,-0.0002856648725610333,-2.694998423393209,0.0999456591394499,3.056152385370191,0.8988423794988591,-0.27123168412507775,-0.0005591102868219572,-4.983194219523647,2.9343357798604903,1.786245760704717,-0.16441218564037197,-0.7496011960590465,0.11666719491229396,-0.08921607788262065,-5.42994769299646,-3.3318717071410093,-0.38408377025194773,-0.005383931920260099,0.0019527281106359688
0.32,-0.4948926079255655,1.525427542692655,-0.97892934499802,0.18624944633345406,-0.049413338579129114,-0.00028972477188134453,-2.7444812778093146,0.12925096026501404,3.0736390028902094,0.8982947702764382,-0.2776401470566759,-0.0004059899320311228,-4.5512504691235485,2.884527534077397,1.2480382933152923,-0.423444185295736,-0.7434895170532947,0.12747024851751276,0.02688209613272008,-5.484355862544936,-3.3401819689765126,-0.36704898302204597,0.006114567398805518,0.0020919675207949624
0.33,-0.5227894596839233,1.5270080781727022,-0.9480720717390971,0.19520329219578444,-0.05225201151423663,-0.0002920859300582472,-2.7896851758357806,0.15805354800473503,3.0857273258922864,0.89538458623304,-0.2838672935107521,-0.0002361158176902642,-4.102397551097509,2.8179206979944205,0.8345133000934073,-0.6628495640730399,-0.7380527181474932,0.1392120307500313,0.14118827383856214,-5.510748461906526,-3.3256992781382078,-0.34486516289593017,0.01764826905865234,0.0022170018578717495
0.34,-0.5510939062765633,1.5288699809989734,-0.9171356087940057,0.20410664010029386,-0.05515111843645954,-0.0002925704628135432,-2.830444659263996,0.18619028262711518,3.093646294509145,0.8903347904509422,-0.2899106922222907,-4.845327552960101e-05,-3.635549513585928,2.7362178426266683,0.5146656520367556,-0.8781944633764243,-0.7331101425028272,0.15203097262721246,0.252655512317461,-5.513540957748942,-3.292795570551443,-0.31869899730256424,0.02914148189179115,0.0023267622153196155
0.35000000000000003,-0.5797597462336388,1.5310051126349717,-0.8861523600710149,0.2129405001743179,-0.058108779743687514,-0.00029098973688395226,-2.866583995707554,0.2135131635998432,3.0983248722990773,0.883386007402404,-0.2957661307227971,0.0001580725929590974,-3.0975773150016326,2.6404298886385194,0.2661690739840257,-1.066858636082177,-0.7286100861699758,0.16605413909103944,0.36529883245848704,-5.496124395790001,-3.2448519984441515,-0.28946803009537486,0.0410208568978771,0.0024193282334927387
0.36,-0.6087337873477822,1.5334039423442438,-0.8551476058232342,0.22168837480858664,-0.06112286979178044,-0.0002871505799664463,-2.8974041114143363,0.23988297092721264,3.1004754247780735,0.8747874634268735,-0.30140900480929317,0.0003839156917505961,-2.4981501387046894,2.532270017609649,0.07124824648495443,-1.2289310671063924,-0.7222572374500764,0.1813103469230245,0.47645475048309793,-5.460748410121094,-3.1848911671254,-0.2580235761846823,0.05305258449658634,0.00249239854884099
0.37,-0.6379568049552405,1.5360557098401548,-0.8241412403139746,0.23033615687793382,-0.06419090255205248,-0.00028085468394212785,-2.922301760745837,0.2651767495910921,3.100636550925963,0.864778206934719,-0.3068032760272043,0.0006295896024318445,-1.9303426179883962,2.4142412699318063,-0.08994534362857887,-1.3668880535049,-0.7124330916098431,0.19790508747237145,0.5760761593788801,-5.409298153809722,-3.1162793075421216,-0.22528547150149064,0.06423585778714938,0.0025470812172744737
0.38,-0.6673727205010132,1.5389486689415541,-0.7931497265136435,0.238871830706387,-0.06731027299912622,-0.00027188539802921064,-2.9415915545772573,0.2892959101399343,3.099151380033111,0.8535673828453187,-0.3119370447073729,0.000896928591291719,-1.4022842086866076,2.28813685530707,-0.2621239038866916,-1.4823531373888412,-0.701643235780927,0.21614221869637917,0.6630370297971495,-5.344862205757387,-3.045563978142124,-0.19289609473540398,0.07444104316995834,0.0025846537696228708
0.39,-0.6969294139909886,1.5420702525874534,-0.7621904864563948,0.24728512543826206,-0.07047844628705899,-0.0002600057035459314,-2.955669348997549,0.31215836458994195,3.095924005724875,0.8413294731875048,-0.3168173287932772,0.0011879694483279198,-0.9145289683484912,2.160657256114585,-0.7430483417193052,-1.5732537733644014,-0.6915208124967926,0.23620864448487852,0.7371272230326804,-5.278059533880287,-3.0137449697978727,-0.17092430774788486,0.08354450717580238,0.002604058508427321
0.4,-0.7265787840278288,1.5454076527703033,-0.7313110848572705,0.2555662592049709,-0.07369309496582752,-0.00024496625984830493,-2.9649370036840246,0.33374001828498195,3.0879401599124283,0.8281133766708811,-0.32146486787685213,0.0015039443697626468,-0.4641081354568538,2.032620414755581,-1.4437007780122781,-1.6571395848029056,-0.6829878647557357,0.25795986666447124,0.7973142036180723,-5.200153067478295,-3.0096905402537373,-0.1568944253086796,0.0914145986036708,0.0026054864572683393
0.41000000000000003,-0.7562764601148289,1.5489479515466253,-0.7005806152820959,0.26370501279622505,-0.07695214378748487,-0.00022650550920744477,-2.9697676086999967,0.35402987763220095,3.0730469575174517,0.8138753591254145,-0.3259048821657352,0.0018460750640860158,-0.02458853664800914,1.9017324006733016,-2.127779645984985,-1.7463556115053098,-0.6761257180763517,0.28131044263427535,0.844602575491905,-5.101530006567948,-3.0020182293686886,-0.14335200767568068,0.09817678859745994,0.0025892951419756744
0.42,-0.7859792079027992,1.5526779726381683,-0.6700665985863121,0.2716908788896455,-0.0802536493347713,-0.00020434762320774904,-2.970274778797037,0.37300210915430176,3.051401669578381,0.798586609342043,-0.3301505547286441,0.0022157885999695716,0.45623014398453615,1.7693724367232901,-2.790175389790113,-1.8357903328020342,-0.6694357039587281,0.3063017035015265,0.8825700012631864,-4.983999683326186,-2.9903658587339885,-0.13024403820254243,0.10417203468622262,0.00255292742938233
0.43,-0.8156398048446241,1.5565844163822875,-0.6398344533266421,0.27951349122694946,-0.08359549982659412,-0.00017821218963247028,-2.966059694182488,0.3906443744119218,3.023214525967001,0.7822612337303994,-0.33418504918228065,0.002613543357527875,0.967983537353867,1.6371412997101813,-3.429072953338417,-1.9221987191847703,-0.6591933358182644,0.3327721391713669,0.9099430483258438,-4.849540811258273,-2.9750285084306585,-0.11766581726174732,0.10920415168318608,0.002496953546054973
0.44,-0.8452080634640723,1.5606540176481019,-0.609947297953456,0.28716288814313595,-0.0869752126168958,-0.0001478135821393369,-2.956825861944826,0.4069601265814452,2.9887155373186083,0.7649396916186502,-0.3379712790301675,0.0030398607493133368,1.502353889020719,1.5064613774745574,-4.042863090890592,-2.003185947548083,-0.64284016738433,0.3606257973610457,0.9260486432517663,-4.700369331821395,-2.956296551455837,-0.10568175195870458,0.11312466058037274,0.0024224951239426493
0.45,-0.8746316574674811,1.5648736863153454,-0.5804657778839368,0.29462970711887204,-0.0903897966482094,-0.00011286065886273766,-2.9423594003408713,0.421966866724364,2.9481520069519163,0.746681897573607,-0.3414584031313609,0.003495292327659924,2.0452239459106756,1.37860705776207,-4.6303369909706396,-2.077140292043227,-0.6184046877204601,0.38971449833639205,0.9302985233311966,-4.538843667651439,-2.93446214776195,-0.09432971168809598,0.11577817795756411,0.0023317827627086377
0.46,-0.9038575170743206,1.5692306333598625,-0.5514479358821381,0.3019053145721886,-0.09383567549667242,-7.30560342094646e-05,-2.9225859606839535,0.43569470445171277,2.901784200179871,0.7275607453316569,-0.34458788484630193,0.003980462465327306,2.587924218129161,1.2546634438567374,-5.190327561028112,-2.142963865936572,-0.5845553626892777,0.41984440824347047,0.9229168575436784,-4.367397413604095,-2.909736194348161,-0.08360470704500265,0.11709063231520335,0.0022272455558845048
0.47000000000000003,-0.9328326901572068,1.5737124782092535,-0.5229490893410803,0.3089818939783397,-0.09730863062770734,-2.8097490065755296e-05,-2.8975173082886245,0.44818448493910384,2.849884654105779,0.7076579406151081,-0.3472955131034919,0.004495854414370931,3.135004255527722,1.1355093922910586,-5.721437638236991,-2.199874420748664,-0.5402145364677837,0.4507365533840324,0.9051910012511627,-4.188457697060409,-2.8822297673308857,-0.07346192923334079,0.11710836942898453,0.00211040758365829
0.48,-0.9615039109940702,1.5783073355088377,-0.49502168691826864,0.31585250908549717,-0.10080370804680755,2.2315469985919356e-05,-2.8671220836863345,0.45948572995842496,2.7927402422811656,0.687061510715748,-0.34950774191002126,0.005041296005167465,3.684695840959688,1.0218938867826326,-6.222655730010137,-2.24756426573817,-0.4838708202502664,0.4819694886903556,0.8782020205618739,-4.004361994954,-2.8520764161699126,-0.06385043226490619,0.11585424403642682,0.001983378065355348
0.49,-0.9898177871622648,1.583003889117369,-0.4677152051687857,0.322511126561495,-0.10431512257588714,7.847495227019353e-05,-2.831387616819454,0.4696553608531288,2.7306481749482945,0.6658617475997827,-0.3511414529079588,0.0056159482284274176,4.2358587094926285,0.9144218724497432,-6.693152558250336,-2.28605290886183,-0.4140630082323895,0.5130284044821543,0.8432190532454413,-3.817328564690198,-2.8193837510602675,-0.05470416749754162,0.11337827881882949,0.0018482566084319064
0.5,-1.0177209260234632,1.5877914517329839,-0.4410760646704586,0.32895261089106215,-0.10783616328871191,0.00014065630381630427,-2.790313886119839,0.4787562615614841,2.663914049832704,0.6441484329567131,-0.3521040712824775,0.006218135154611074,4.787084264978572,0.8135657393208282,-7.132303985530929,-2.3156417189388456,-0.3294153063835097,0.543281134180579,0.8015983633735788,-3.629420245550775,-2.784241571030483,-0.045947266613689586,0.10974982477713223,0.0017071409280674352
0.51,-1.0451600882756362,1.5926600112466798,-0.4151475676509333,0.3351726951420771,-0.11135910647189405,0.00020910792527557105,-2.743916225217305,0.4868559513695929,2.592849701952531,0.6220084251014926,-0.352294318318214,0.006845162145926676,5.336530636764002,0.719674744394628,-7.539690904223447,-2.3368676740638428,-0.22874270305799627,0.5719737782940619,0.7547313116160959,-3.442519431168419,-2.7467260614507785,-0.03749801915022008,0.1050549667902731,0.0015620828136158151
0.52,-1.0720823844528697,1.5976002647083938,-0.3899698569078045,0.34116793147164126,-0.11487514423483049,0.0002840392123642145,-2.692229617723348,0.494025346171392,2.5177710743128774,0.5995236329564158,-0.35160377629364414,0.0074931287088643465,5.881200907316826,0.6329855759987397,-7.915106210175433,-2.3504681157025615,-0.11117318807387733,0.5982329003255273,0.7039768815256832,-3.258311687314621,-2.7069055594896687,-0.02927277754815391,0.09939120986546027,0.0014151193651694798
0.53,-1.0984355838693927,1.602603640922296,-0.3655798965632398,0.3469356244177688,-0.11837434048197745,0.00036560695205077484,-2.6353199416522983,0.5003376213902115,2.438996034456471,0.5767692946127563,-0.3499196247146972,0.008156773968656031,6.417815035594107,0.5536291863284624,-8.258530180533668,-2.3573320883228917,0.0236793126809971,0.6210808641359331,0.6506640383774885,-3.0782786155116226,-2.6648422697247662,-0.021188765881941435,0.09287039818564832,0.001268126355443273
0.54,-1.1241684505902305,1.6076623122935072,-0.342011472105721,0.3524737512711523,-0.12184562281118307,0.00045390004985765227,-2.5732866720837815,0.5058671371211196,2.3568424457518753,0.5538126853383479,-0.34712823292056105,0.008829309780687744,6.941860516943491,0.48164106587489236,-8.57013581343961,-2.3584724277437026,0.1755911860931576,0.639455271326768,0.5960243937214793,-2.903695595098866,-2.6206002384753417,-0.013167739529266476,0.08561172435274803,0.0011228846155641595
0.55,-1.1492311970752,1.612769196939971,-0.3192952101555997,0.3577808721221129,-0.1252768232538087,0.0005489233999492961,-2.5062746484969423,0.5106884646463595,2.271626195012135,0.5307120850960553,-0.3431200442625649,0.009502335009164378,7.44785263720758,0.4169691956891996,-8.850291085484072,-2.3549862711813034,0.343552797879072,0.6522517074807697,0.5411802264264864,-2.735636700959369,-2.5742513161361584,-0.0051388875010962565,0.07774107899068954,0.000981021883214326
0.56,-1.1735760284237533,1.6179179518379767,-0.29745861809514357,0.36285603316520953,-0.12865477914770077,0.0006505815796641571,-2.434483134855317,0.5148754898005874,2.1836592060456144,0.5075161043096651,-0.33779558938920634,0.010165817971486095,7.929280169451686,0.3594820434218252,-9.099505863520415,-2.3480199458858486,0.5256278635110441,0.6583778986290474,0.48712348789746873,-2.574984198314988,-2.5258744760497267,0.002960276935277173,0.06938837021689094,0.0008439998395044678
0.5700000000000001,-1.197157780079233,1.6231029577995757,-0.27652613826858635,0.3676986667462257,-0.1319655041106046,0.0007586634576942977,-2.358175165547962,0.5185005961599053,2.093247982655723,0.48426335810161536,-0.3310724962903819,0.010808187803014072,8.378719757584395,0.3089774974221665,-9.318530255772446,-2.338728174767642,0.7188442820545582,0.6568249937509218,0.4347045743442441,-2.422439908208367,-2.4755751666642345,0.011178669437469646,0.06068517877716609,0.000713094503557889
0.58,-1.2199346351344227,1.6283192971879208,-0.25651922632380064,0.37230849150624834,-0.13519443589486854,0.0008728290503992955,-2.2776855055189626,0.5216339388345111,2.0006911944785726,0.46098247600226144,-0.32289317842639403,0.011416559270499775,8.787997719096065,0.2651934934777312,-9.508679396746153,-2.3282341137267615,0.9191457777838234,0.646750990085236,0.3846255871045929,-2.278533894882278,-2.4235349443281518,0.01953953235226885,0.05176198707675499,0.0005893864484806257
0.59,-1.2418689025542582,1.6335627254915237,-0.2374564855213909,0.3766854150046037,-0.1383267630973897,0.00099260017627045,-2.1934267419835565,0.524342830360295,1.906274080240975,0.4376923498355327,-0.31323272025211635,0.011977112587115446,9.141198721921537,0.2297976314510407,-9.992539907724318,-2.3144687257736862,1.1218800179426385,0.6275699605077545,0.3377632273359561,-2.1381029104203826,-2.412962144468369,0.017868730449073722,0.04252887302465083,0.0004748421595727819
0.6,-1.262928502758548,1.6388298580401672,-0.21938538172663913,0.3808284609899257,-0.1413479286287556,0.001117348478850866,-2.1059600204289715,0.52671325486436,1.8071103794751764,0.41430459853219764,-0.3021165531365887,0.012474830258041615,9.434666957873228,0.2009665093352699,-10.429776900658322,-2.3139685623421187,1.3191441966586739,0.5977461238930681,0.29365320440115034,-2.005802781999984,-2.399006515521549,0.016652923298237865,0.033195509847195825,0.0003682759098204884
0.61,-1.283087293847269,1.6441179733215645,-0.2023488427055068,0.3847357228299975,-0.1442440855934701,0.0012462913878162724,-2.0158791088721175,0.5288115281397386,1.7036539021132335,0.39072618400718195,-0.2896156964714524,0.012894290896540634,9.663263004971824,0.1773543982066645,-10.623438964283938,-2.326605407276997,1.503979382992643,0.5573085582053778,0.25251388376740913,-1.8862157976566345,-2.355404826261719,0.02217516988808127,0.0240389303400365,0.0002696122245977737
0.62,-1.3023255148261763,1.6494248513952963,-0.186365891317796,0.3884051358688218,-0.14700253511973205,0.001378507561163372,-1.9238220978907303,0.5306878073731732,1.5982951387710804,0.36694130388242735,-0.275844952626194,0.013221617334709947,9.819234016766641,0.15848328963417302,-10.623913839366578,-2.3427492713984996,1.670097124879181,0.5077523416222078,0.2149540885610083,-1.779861278762472,-2.288569594891236,0.0330924666470267,0.01523645673300864,0.0001798327066884151
0.63,-1.3206304501455535,1.6547487172905366,-0.171436565619834,0.39183509024164576,-0.14961220435528394,0.001512967177355987,-1.830493531937721,0.5323865895240472,1.492932569796199,0.3429954372823927,-0.26096692355518925,0.013445961619261492,9.89735825237328,0.14375422817256653,-10.473968031978451,-2.3561175192610406,1.8111336960890974,0.45107937782382024,0.18126701179793211,-1.6866259796521763,-2.203975485298032,0.04823615688451399,0.006923319793825921,9.941279197667489e-05
0.64,-1.3379968429711822,1.6600881772341336,-0.15754610352974993,0.3950247999305549,-0.15206410759865904,0.0016485702596690938,-1.7366392825628736,0.5339459943596858,1.3890462090084073,0.31897096889091353,-0.24519032433751134,0.013560308231310695,9.895298525712272,0.13251677320527275,-10.209108750968635,-2.3628025714904695,1.9215718782400666,0.38960427100478956,0.15150583739513307,-1.6059812708075123,-2.1061877578446286,0.06661314037214172,-0.0008037204498655293,2.841517635502823e-05
0.65,-1.3544270285132034,1.6654421532117698,-0.14466842291975027,0.3979745040388324,-0.15435172563244415,0.001784189579862117,-1.6430185542021343,0.5353975977636126,1.2877680609999675,0.2949704108277484,-0.22876180337850924,0.013561932019302317,9.810234402710995,0.12481107870072566,-10.02598399874008,-2.3590694481746297,1.997663590321514,0.3257720743878787,0.12578343589942342,-1.5334237456065665,-2.0212917934440062,0.0821331389189841,-0.0080056290403018,-3.2519167098556744e-05
0.66,-1.3699311000412568,1.6708099176043398,-0.13278544675392281,0.40068503806882594,-0.15647131178593868,0.0019187106771560874,-1.550407152805348,0.5367764392570136,1.1882976165827464,0.27105340299935576,-0.21195861534945404,0.013452109729397043,9.642812411578483,0.1207144170295036,-10.024409436313823,-2.3494327899908534,2.0364260102594915,0.26131453381734726,0.10381961096580178,-1.4657968633157896,-1.96286930409427,0.09155961537753543,-0.014762793657361762,-8.357713020358765e-05
0.67,-1.3845267534587435,1.676191123657598,-0.12189693658339025,0.40315708554780044,-0.15842208714178657,0.0020510638926318006,-1.4595653417486687,0.5381206053258032,1.0888510170532568,0.2472047478974519,-0.19507753558478969,0.0132353215475713,9.401104269444424,0.11953395494004054,-10.005444576320127,-2.343545927722129,2.0358546764884893,0.19749914379924416,0.08483205369505505,-1.406724277433435,-1.9049716864885933,0.10092138698423336,-0.02097133413394482,-0.0001267445569540187
0.68,-1.3982384583761398,1.6815857029984842,-0.11200096907764312,0.4053911375030612,-0.16020622713227048,0.0021802560031767295,-1.3711704917396266,0.5394579340886384,0.9895967505747132,0.2234051955260767,-0.17841399904839153,0.012919211054492894,9.09216597462646,0.12088908874318141,-9.969987748716044,-2.340302900233027,1.9973612698734944,0.13622594796981335,0.06853505060893249,-1.3559461520765175,-1.8478449647767152,0.110181291863921,-0.02661936827459939,-0.00016266898302545063
0.6900000000000001,-1.4110967286189173,1.686993827577693,-0.10309402070524,0.4073875841011004,-0.1618286873601424,0.002305401965996801,-1.2858270242777594,0.5408124579208732,0.8906948372403124,0.19964465980391718,-0.16224602278719003,0.01251459628200715,8.724967896207545,0.12442538797745806,-9.919171649770943,-2.3385608096111383,1.9241500428154947,0.07918043769167227,0.054630360302085866,-1.3131799600238323,-1.7917683477548327,0.11929349945483492,-0.03170908913344714,-0.00019204303293552915
0.7000000000000001,-1.4231372347564832,1.6924158747100688,-0.0951710746984581,0.4091468053888219,-0.16329690158824228,0.0024257499093550093,-1.2040506137565996,0.5422047132375828,0.7922946006781896,0.17592212877215474,-0.14682142280998983,0.012034794335820841,8.309816125016926,0.1298188325720089,-9.854152043694631,-2.3372032017150275,1.8209493133362655,0.027684869873162654,0.04281850342292923,-1.2781309400179743,-1.7370209802810728,0.12821126926599452,-0.03625508218561738,-0.00021557962117531765
0.71,-1.4343998153201634,1.6978523955194,-0.08822572979940387,0.41066925676625793,-0.16462037701492238,0.0025406972325262224,-1.126258056368005,0.543652080933123,0.6945344899054235,0.15224513774359852,-0.13234754266800944,0.011494732317121312,7.8577057912491295,0.13677903142219655,-9.776110262800854,-2.3351919123402425,1.6935996103217945,-0.017365487831797033,0.03280840644395916,-1.2504977904214565,-1.6838773707719987,0.13688791675242573,-0.04028236816959729,-0.00023398861268132394
0.72,-1.4449274469975717,1.703304087013016,-0.0822503113241069,0.41195554527945827,-0.16581022110235227,0.002649797298896402,-1.0527631677408285,0.5451691493615923,0.5975418475296971,0.12862885132003143,-0.11898440874298855,0.010910006637017959,7.379686278767859,0.14505065713647222,-9.68604130281174,-2.3316138302076084,1.548562494504224,-0.055511965500796734,0.024324383684244447,-1.2299831529805794,-1.632575280566042,0.14528413063657308,-0.04382407194362978,-0.00024795898817396605
0.73,-1.4547652305013181,1.7087717677754104,-0.07723596402578406,0.41300649429814873,-0.1668786380979766,0.0027527572895688765,-0.9837783503746317,0.5467680762394266,0.5014347298322834,0.10509490186904494,-0.10684169956243333,0.010295999067247425,6.886293764769327,0.1544138116250577,-9.584826853857813,-2.3257056589021907,1.3924213938431687,-0.08669791014606965,0.01711139598938697,-1.216296800809032,-1.583322027239245,0.15336627322483276,-0.04691922146700455,-0.00025814373442875795
0.74,-1.4639594406735799,1.714256357235596,-0.07317273418834164,0.41382319501167175,-0.16783843218188368,0.002849428586297198,-0.9194210172261672,0.5484589460185509,0.4063229837442428,0.08167007135230428,-0.09597940839070888,0.009667129672832177,6.387102092575981,0.16468328578495406,-9.473253503531758,-2.3168689458947327,1.2314329478333172,-0.11120286483645625,0.010938050067822998,-1.2091591455032813,-1.5362947033239427,0.16110604636464498,-0.049610631991159795,-0.0002651498470634657
0.75,-1.472556677376517,1.7197588583569412,-0.07004964295023698,0.4144070441990868,-0.16870254877538163,0.0029397915448722825,-0.8597236702937229,0.5502501121345271,0.31230912381046533,0.058384918741503464,-0.08641165934979324,0.009036295857508439,5.890414922941387,0.1757068577199556,-9.352000805804694,-2.304672363829937,1.0711728028195684,-0.12955920997558135,0.005597729186557323,-1.2083046340444055,-1.491637403946355,0.16848085841513183,-0.05194298626861733,-0.0002695328261028774
0.76,-1.4806031404312852,1.7252803435154083,-0.06785474982651261,0.41475976881271154,-0.1694836774172111,0.0030239366967935903,-0.8046463054767987,0.5521485158467139,0.21948931237243632,0.035272461362475416,-0.07811286418294719,0.008414515192130803,5.403100134515781,0.187362855979669,-9.221659534652737,-2.288841297235024,0.9162985813019648,-0.14246452075404026,0.0009083298573054639,-1.2134835769024677,-1.4494632596428714,0.17547310200262278,-0.053961223640536675,-0.00027179455526147765
0.77,-1.4881440391900254,1.7308219432885685,-0.0665752082831225,0.41488343869929406,-0.17019393041161887,0.0031020443177032187,-0.7540898758740292,0.5541599773160245,0.12795415433901164,0.01236698865825215,-0.0710252994407771,0.007810762090962844,4.930551854842913,0.19955721679935254,-9.082744339751534,-2.269239242186007,0.7704319977382829,-0.15070043554126578,-0.0032890963062297655,-1.2244632913660358,-1.4098564227907537,0.1820694909992679,-0.05570924957782171,-0.0002723839922158933
0.78,-1.4952231364611532,1.736384837846286,-0.06619731459883887,0.41478046930153384,-0.17084460261874734,0.0031743640057000874,-0.7079097271127873,0.5562894557717549,0.03778936842836193,-0.010296939776019549,-0.06506722071284801,0.007231968799686867,4.476754135203902,0.21222023263023118,-8.93570720607244,-2.2458441563728826,0.6361465676833438,-0.155065031943725,-0.0071324299140036514,-1.2410284761821537,-1.3728746689905065,0.1882603143732774,-0.05722896948923918,-0.0002716997953447419
0.79,-1.5018824182496004,1.7419702506200974,-0.0667065512741061,0.41445361642056566,-0.17144601032782608,0.0032411955128459993,-0.6659281788447136,0.5585412773811346,-0.050923667526722755,-0.0326852880968178,-0.060140770907872475,0.006683150714591201,4.044416040762204,0.22530317031460179,-8.780950574589776,-2.2187230903694406,0.5150375972072845,-0.1563219751905418,-0.010740997225452003,-1.2629809284324445,-1.3385523010714344,0.1940386831409892,-0.05855962137217174,-0.0002700941555414995
0.8,-1.5081618752947494,1.7475794439273555,-0.0680876261764513,0.4139059651124999,-0.17200740168210166,0.003302871651204614,-0.6279457045148937,0.5609193307258259,-0.1381074902345194,-0.05476513080657608,-0.05613913542755877,0.006167613835861474,3.6351487768764437,0.23877490363673318,-8.618839404311222,-2.1880077960487156,0.40784749290988187,-0.15516660860332676,-0.014218263586070779,-1.2901387148812031,-1.306903120820719,0.19939982319754435,-0.059737366286902904,-0.00026787723733639405
0.81,-1.5140993794627784,1.7532137162349213,-0.07032450848980776,0.413140914602167,-0.17253692772824278,0.0033597437111113687,-0.5937504168028859,0.5634272307565649,-0.22368823133564597,-0.07650505103328681,-0.05295260461411199,0.005687205990675461,3.2496597754226606,0.2526186699290522,-8.44971174330058,-2.1538731868864396,0.3146206148370452,-0.15220704940640495,-0.017654520381076816,-1.3223349066214114,-1.277923298079757,0.204340448235393,-0.06079508834140682,-0.00026532178520815897
0.8200000000000001,-1.5197306372052815,1.7588744007627732,-0.07340046238585193,0.4121621607943484,-0.17304166163832077,0.003412169519090563,-0.5631257742503092,0.566068452785201,-0.3075953896044172,-0.09787538078185692,-0.05047339100779953,0.005242580797919446,2.887944643680177,0.2668290281736517,-8.27388760931712,-2.1165196995150737,0.23486616952979644,-0.14795724660459797,-0.021129434069180515,-1.3594159777155908,-1.2515940245298705,0.20885823164040895,-0.061762355177077705,-0.0002626675929984112
0.8300000000000001,-1.5250892029671763,1.764562865148177,-0.07729807917804371,0.41097367761038983,-0.17352765361195482,0.0034605040383689084,-0.5358565761894843,0.5688464385403833,-0.3897616792191783,-0.11884831839586087,-0.04859919736340628,0.004833451927834511,2.5494641024830456,0.28140906912099917,-8.09167616089993,-2.0761599005011995,0.16771330943323925,-0.14283866443556414,-0.024714372396733915,-1.4012399577173884,-1.2278838878243583,0.21295138437123168,-0.0626654937757647,-0.00026012565263005584
0.84,-1.5302065370672149,1.7702805119143388,-0.0819993085669155,0.40957969802621913,-0.1740000099604066,0.0035050922723818614,-0.5117334100038613,0.5717646766161767,-0.4701229388871787,-0.13939795841706998,-0.047235634845177656,0.004458823401295286,2.2332985692385945,0.29636790715270916,-7.903381265068056,-2.033009156944658,0.11204833935250091,-0.13718751035041699,-0.028474459418169333,-1.4476744164074846,-1.2067509391433773,0.21661833733226277,-0.06352774281744179,-0.000257881887844884
0.85,-1.5351120947219463,1.776028779512638,-0.0874854894467945,0.4079846953706939,-0.174462986479565,0.003546264157631589,-0.4905557654731454,0.5748267598299129,-0.5486180879879013,-0.15950026555252678,-0.046297651915840565,0.004117188524972749,1.9382774038976216,0.3117184684602747,-7.709305642661995,-1.9872798528174442,0.06662888951005108,-0.13126497568402118,-0.03247033770683738,-1.4985943481529405,-1.1881444539619617,0.21985752123474173,-0.06436945024138567,-0.00025610044053913603
0.86,-1.5398334351892722,1.78180914373375,-0.09373738062398143,0.406193365180373,-0.17492008808685613,0.0035843311096214344,-0.47213404673258313,0.5780364221112148,-0.6251891177186931,-0.17913301903208392,-0.04571016072911157,0.0038066951989845425,1.6630829223802175,0.3274755794045064,-7.509753806178196,-1.9391784611332845,0.030173708070135863,-0.12526860146346042,-0.03675963439227318,-1.5538800137616435,-1.1720064032502455,0.22266723379565423,-0.06520829200435085,-0.00025492651596671634
0.87,-1.544396342233817,1.787623119309645,-0.10073519169578216,0.40421060770582085,-0.17537416857425536,0.003619583897547861,-0.45629070445447106,0.5813975575895068,-0.699781107180073,-0.19827574745521545,-0.04540804873992265,0.003525278792642679,1.406331211737899,0.34365435124071236,-7.3050340091929895,-1.8889047362336981,0.0014293000351919272,-0.11934349186651794,-0.041398139108485464,-1.6134147898178517,-1.158272662422734,0.22504558270747432,-0.06605949462560717,-0.0002544888142638061
0.88,-1.54882494912278,1.7934722615550658,-0.10845861425798721,0.4020415110244983,-0.1758275260526342,0.0036522915557115005,-0.44286068889629726,0.5849142245420779,-0.7723422562205059,-0.216909668132256,-0.045335747837881794,0.003270765816363916,1.1666327858196013,0.3602688514593936,-7.095459412041235,-1.8366523296977775,-0.02078385542118011,-0.11359260607928867,-0.04644070833428465,-1.677083069177219,-1.146873990110607,0.22699049254830211,-0.06693604964694409,-0.00025490158489394
0.89,-1.5531418630814326,1.7993581679231703,-0.11688685354354478,0.39969133463001527,-0.17628199114392312,0.003682701081363937,-0.4316913958652838,0.5885906368104591,-0.8428239285557563,-0.2350176394483022,-0.04544650912889225,0.00304095256524362,0.9426364580180374,0.3773310468498584,-6.881348644215648,-1.782610222066122,-0.037542099140859264,-0.10808574339039495,-0.05194191352326752,-1.7447682513026734,-1.1377368099911163,0.22849976423396023,-0.06784891254473725,-0.0002562663422825738
0.9,-1.5573682855570832,1.8052824793750377,-0.12599866054491637,0.39716549332814427,-0.17673900618511107,0.003711037712466561,-0.4226422475650419,0.5924311451867511,-0.9111807001371599,-0.25258413018709996,-0.04570150411879601,0.002833663110262419,0.7330597139179071,0.3948499984823438,-6.663025916372915,-1.7269644737208125,-0.04980288268440525,-0.10286710196842466,-0.057956451149967975,-1.8163508570875022,-1.1307838278501754,0.22957117640867386,-0.0688071819876492,-0.00025867327853936823
0.91,-1.5615241257761463,1.8112468814861353,-0.13577236463453163,0.3944695412667973,-0.17719969464695468,0.003737505620000714,-0.415584021906319,0.5964402111097523,-0.9773704089615239,-0.2695952061346982,-0.04606884618436102,0.002646790753415278,0.5367085295103285,0.4128312839399822,-6.440820807870517,-1.6698999136596875,-0.05839928701297947,-0.09796145852687518,-0.06453933233194535,-1.8917067993848753,-1.1259345137847323,0.23020261910813788,-0.06981825778814203,-0.000262202405120645
0.92,-1.5656281059648358,1.8172531052340481,-0.14618590666966141,0.3916091559506766,-0.1776649206667966,0.003762288885617667,-0.41039801886894417,0.6006223747912779,-1.0413542035129777,-0.2860385316120725,-0.0465226019841918,0.002478326561695279,0.35248913621179534,0.4312766174197315,-6.215067831467769,-1.6116014937233771,-0.06404192809238074,-0.09337910794083948,-0.0717458687422518,-1.9707058373300066,-1.1231054766506172,0.23039225097547886,-0.07088797762247159,-0.0002669244510507193
0.93,-1.569697857280187,1.8233029274302228,-0.15721687254800326,0.3885901221329277,-0.17813533908529455,0.003785552665652576,-0.40697513153512027,0.6049822196174601,-1.1030965878341852,-0.3019033817748872,-0.04704184184979533,0.0023263780034909463,0.1794137715627801,0.4501836340789934,-5.9861058558912585,-1.5522551326722134,-0.06732589905864028,-0.08911974154712138,-0.07963147058852145,-2.053210239450163,-1.1222107549532319,0.23013867219799422,-0.07202073375835434,-0.00027290154172904095
0.9400000000000001,-1.5737500060046883,1.829398170773667,-0.1688425271667205,0.3854183155283821,-0.17861143669957913,0.0038074444669033806,-0.4052148724501342,0.6095243343444161,-1.1625654618717218,-0.3171806604545582,-0.04760976142845729,0.0021891801250804557,0.016602026340768617,0.4695458016434956,-5.754277449253733,-1.4920479574272019,-0.06874087962793207,-0.085175449132285,-0.0882512718054316,-2.1390736773261283,-1.1231620455988895,0.2294411061340006,-0.07321957177504612,-0.0002801876797734944
0.9500000000000001,-1.5778002499308021,1.8355407035161044,-0.1810398487292648,0.3820996863495716,-0.17909356563658768,0.0038280954786783653,-0.4050243926113931,0.6142532742437381,-1.2197321562544294,-0.3318629178810525,-0.048212893700855505,0.0020651011774984558,-0.13672096977402956,0.4893524202431603,-5.519928191277653,-1.4311679178267607,-0.06868297583070926,-0.08153301669572754,-0.09765959744658245,-2.228140368080519,-1.1258688893821487,0.22829958331360858,-0.07448627370167601,-0.00028882904786457385
0.96,-1.5818634251316461,1.8417324387357712,-0.19378556333990477,0.3786402427224329,-0.17958196984181835,0.0038476219202629057,-0.4063175200844082,0.6191735219666709,-1.274571461063997,-0.345944362713869,-0.04884042052306773,0.0019526441584540428,-0.28122858327819705,0.5095886710730282,-5.283405989297252,-1.369802807211446,-0.06746722092899948,-0.07817566986106111,-0.1079092886240328,-2.3202444801662416,-1.1302388298059876,0.22671512213705844,-0.07582142822319249,-0.00029886415305644006
0.97,-1.5859535635057365,1.8479753332208309,-0.20705617982448185,0.3750460340893191,-0.18007680569709653,0.0038661263740093522,-0.40901383740903424,0.6242894485059685,-1.3270616484577098,-0.3594208633113842,-0.04948358552781769,0.0018504453746446558,-0.41749822916561347,0.5302356760279786,-5.045060421572223,-1.3081387650565368,-0.06533996959162702,-0.07508438769034176,-0.11905090120525064,-2.4152098128050974,-1.1361775597965897,0.2246899011770398,-0.07722449067227301,-0.000310323832305902
0.98,-1.5900839416162431,1.8542713859634574,-0.22082802471661844,0.3713231347493576,-0.18057815774769106,0.0038836990825128932,-0.41303781105067144,0.6296052742626508,-1.3771844892136602,-0.3722899339961508,-0.050135205059453854,0.0017572708503541072,-0.5460179182432882,0.5512705340193298,-4.805242121225521,-1.2463583705578465,-0.06249065748879712,-0.07223888738331508,-0.13113179575918354,-2.512849755012674,-1.1435890690376747,0.22222741853529054,-0.07869383548428563,-0.0003232311397921003
0.99,-1.5942671214333455,1.8606226362623857,-0.23507727735057762,0.36747762771799725,-0.18108605045130896,0.0039004191944834207,-0.418317981710235,0.6351250298928188,-1.4249252633959189,-0.38455070313603273,-0.05078927036178955,0.0016720111970527328,-0.6671934127626872,0.5726663051484017,-4.564302205010345,-1.1846384581656757,-0.05906258594777092,-0.06961835881216105,-0.14419513782899213,-2.6129675255015634,-1.152375802956787,0.21933263422471636,-0.08022680367126225,-0.00033760113770341376
