tonegas/nnodely-applications/joint_friction_estimation/dataset/train/mpc_mujoco_episode_39.csv
time,q1,q2,q3,q4,q5,q6,dq1,dq2,dq3,dq4,dq5,dq6,ddq1,ddq2,ddq3,ddq4,ddq5,ddq6,tau1,tau2,tau3,tau4,tau5,tau6
0.0,0.0,1.57,-1.57,0.0,0.0,0.0,0.0,0.0,0.0,0.0,0.0,0.0,11.859135807395258,5.629125570208254,11.639320378382317,4.427322884747696,1.6926140799912872,-6.584996064873394e-06,1.652976577547952,0.4933793410004066,-1.7584003492579194,-0.35970861977467306,0.1493839403561198,0.0017171985816552893
0.01,0.001179604619579311,1.5705651704891275,-1.5688399652177754,0.0004145298832051445,0.00014375029333147965,1.6975437666869598e-06,0.1179604619579311,0.056517048912737934,0.11600347822247464,0.04145298832051445,0.014375029333147965,0.00016975437666869598,11.824844455844424,5.724475889011897,11.529029039647803,4.106683770425242,1.4279172675559622,0.01687678952915128,1.6633577576910719,0.4969589985087186,-1.7599288062342282,-0.36022739384289304,0.1500434242341421,0.0017168532539063397
0.02,0.003534523832541965,1.5717051392865238,-1.5665325508561474,0.0012178914121593644,0.00041503582304653654,5.174536558648769e-06,0.2354919212962654,0.11399687973963224,0.23074143616278797,0.08033615289542198,0.027128552971505685,0.00034769927919618086,11.777312744372733,5.818263231971917,11.387184938527659,3.8420635404719405,1.262250258654106,0.0173556140214135,1.682848815749249,0.46962655828935773,-1.7671120053237446,-0.3612730964495565,0.15119587971220524,0.0017100828379916257
0.03,0.0070595205737124505,1.573429317344582,-1.563093103541272,0.002388533246472504,0.0008035472931024949,1.0316985873310381e-05,0.3524996741170485,0.17241780580581695,0.3439447314875224,0.11706418343131397,0.03885114700559583,0.0005142449314661612,11.718736321798511,5.907701332353954,11.216788384031739,3.61805886258675,1.1540776063097766,0.015599336760718785,1.7110932647161703,0.410425781685956,-1.7803791131798494,-0.3629324283861656,0.15280095543351352,0.00169644322021789
0.04,0.01174848453275443,1.5757466332873415,-1.5585394706044304,0.003907873995377382,0.0013023773710668658,1.700923329106323e-05,0.46889639590419807,0.23173159427597112,0.4553632936841636,0.15193407489048788,0.04988300779643708,0.000669224741775285,11.649759079786499,5.990130034109837,11.019769388863285,3.4229072984142093,1.078417876416637,0.013556286612914192,1.747585526575983,0.3185458656541069,-1.800065159576984,-0.3652635735518005,0.15480297365899565,0.0016754214775024775
0.05,0.017594408239302337,1.578665277634186,-1.5528918904928293,0.005759401522819939,0.0019065103233559242,2.514882055934755e-05,0.5845923706547907,0.29186443468444756,0.5647580111601157,0.1851527527442557,0.06041329522890585,0.0008139587268284321,11.570060908259736,6.063008263239591,10.797280391950686,3.247641075194231,1.020290015939473,0.011404254933058411,1.7916627491812995,0.19337242956370648,-1.826397892615086,-0.36829432948642293,0.15713155914170515,0.0016464332113562984
0.06,0.024589301830058807,1.5821924567377557,-1.5461729411635312,0.007927984927947202,0.0026119149502514096,3.464003025937068e-05,0.6994893590756468,0.35271791035696,0.6718949329298101,0.21685834051272634,0.07054046268954856,0.000949120970002313,11.478732140063157,6.123922089676138,10.549932516971477,3.0854479342004026,0.9707966054744759,0.009121217731811626,1.8424953532212687,0.03454210419488035,-1.8594838287762414,-0.37202021523259,0.15970243059130781,0.00160883925930023
0.07,0.032724070234279236,1.5863341577824754,-1.5384075274771343,0.010399350919448672,0.003415005155409232,4.538806596855449e-05,0.8134768404220428,0.41417010447198244,0.7765413686396854,0.24713659915014685,0.08030902051578223,0.0010748035709183812,11.374519256444367,6.170603214322224,10.277988417504329,2.9311854969263678,0.9247550262776443,0.006698745014091401,1.8990781616343373,-0.15800231616118943,-1.8992946358711809,-0.3764028584043515,0.16241845407858038,0.0015619740143975212
0.08,0.04198836894878249,1.5910949270983248,-1.5296228918690051,0.013159687949754171,0.0043123253354409915,5.729574597935958e-05,0.9264298714503251,0.47607693158492853,0.8784635608129046,0.2760337030305499,0.08973201800317596,0.0011907680010805088,11.255993094579384,6.200954341558572,9.981520668443176,2.781012215473595,0.8792584522658444,0.004156232800028192,1.9602240027771394,-0.38395921364786467,-1.9456549830480396,-0.3813689429949245,0.1651710391609455,0.0015051808385627067
0.09,0.0523704500751338,1.5964776646332184,-1.5198486351968687,0.016195350351497145,0.005300373857675764,7.026206541411504e-05,1.038208112635131,0.5382737534893541,0.9774256672136385,0.3035662401742974,0.09880485222347729,0.0012966319434755456,11.121670238273257,6.213078515468811,9.660542062701886,2.6321069130345336,0.8327981465731185,0.001530941647972739,2.0245616999183094,-0.6426210449838852,-1.9982329791097206,-0.38680997731498445,0.1678419364535183,0.0014378516678038894
0.1,0.06385700760029865,1.602483437747887,-1.5091167368382743,0.019492641451279706,0.006375511770608088,8.4181946029468e-05,1.1486557525164856,0.6005773114668561,1.073189835859448,0.3297291099782562,0.10751379129323232,0.0013919880615352962,10.970105530707146,6.205309878758592,9.315112272234318,2.482455313819642,0.7847247890550335,-0.0011316075614917764,2.090540307038145,-0.9328358037070865,-2.056534271694993,-0.39258311015194614,0.1703054698658569,0.001359468621024409
0.11,0.07643302923315493,1.6091113175811707,-1.4974615649858245,0.02303765970726856,0.00753392433568568,9.894670108731685e-05,1.2576021632856276,0.6627879833283808,1.165517185244973,0.35450182559888566,0.11584125650775917,0.0014764755057848841,10.799965784571537,6.1762435910215805,8.94542393747423,2.3306868809400925,0.7349146395273394,-0.00378452719856881,2.1564412792899046,-1.252979868082842,-2.1199007752540595,-0.39851317783907925,0.17243120768007045,0.0012696456727008972
0.12,0.09008166097722993,1.6163582411046573,-1.4849198697683952,0.026816195704240466,0.008771615300419401,0.00011444490536652152,1.3648631744075004,0.7246923523486705,1.2541695217429427,0.37785359969719023,0.12376909647337223,0.0015498204279204672,10.61008989393468,6.124762889792777,8.551870244830408,2.1759491248255216,0.6835596970784934,-0.0063842058398027035,2.220399931126241,-1.6009447191566846,-2.187514827094706,-0.40439610412888805,0.17408704357722482,0.001168168476348637
0.13,0.10478408972204051,1.6242189016652113,-1.4715307533876354,0.0308136706376132,0.010084421277688712,0.00013056346711218638,1.4702428744810572,0.786066056055396,1.3389116380759822,0.3997474933372736,0.13128059772693107,0.0016118561745664859,10.399538249240365,6.050061584283098,8.135095569205658,2.0178095540147893,0.6310333227904437,-0.008893256416012463,2.2804371302484228,-1.9741394543287276,-2.258409299192971,-0.4100036905320279,0.17514263185392281,0.0010550304775140467
0.14,0.12051944835284537,1.6326856703306332,-1.4573356129297086,0.03501510895948462,0.011468038110532021,0.0001471887678264637,1.5735358630804854,0.8466768665421909,1.419514045792689,0.4201438321871418,0.13836168328433082,0.0016625300714277322,10.167631317744705,5.951660482933165,7.696029953389706,1.8561778323265443,0.5778023286076035,-0.01128216395905568,2.3345013011495674,-2.369510462092374,-2.331483962924165,-0.4150897629769954,0.1754730692367799,0.000930463263905825
0.15,0.13726474697681765,1.6417485497266637,-1.4423780529562606,0.039405139327012756,0.012918053863295633,0.0001642077817366088,1.6745298623972273,0.9062879396030475,1.495755997344785,0.43900303675281327,0.1450015752763612,0.0017019013910145105,9.913978767517584,5.829416770765787,7.235908789767253,1.6912425354594234,0.5243682251099102,-0.013529916263995467,2.380520386231223,-2.783578600313815,-2.4055279162983716,-0.4193975124084727,0.17496271430421534,0.0007949595210204896
0.16,0.1549948330328551,1.6513951613333857,-1.426703766327048,0.043968019033208884,0.014429984804089798,0.0001815091184349808,1.7730086056037446,0.9646611606722036,1.5674286629212646,0.4562879706196125,0.15119309407941645,0.001730133669837199,9.638498120820111,5.683525592769122,6.756278396039534,1.523418414619286,0.47122738318758195,-0.015623844373744866,2.4164622277057157,-3.21249350053501,-2.4792476180855476,-0.4226677977698775,0.17350898382760815,0.0006492868798080498
0.17,0.17368238207977393,1.6616107664184352,-1.4103603830154996,0.04868767782659615,0.01599931185172517,0.00019898395475378993,1.8687549046918819,1.0215605085049562,1.6343383311548605,0.4719658793387268,0.1569327047635375,0.0017474836318809145,9.341423205712521,5.514513596497728,6.258988729187239,1.3533011999952649,0.41884396662639034,-0.017558871622010308,2.4404011545390945,-3.6521035581492165,-2.5512996150701452,-0.42464807314122105,0.1710259640930707,0.0004944914606071667
0.18,0.1932979200852057,1.6723783199724214,-1.3933972878867975,0.053547777530443326,0.017621515705761495,0.00021652683836931506,1.9615538005431747,1.0767553553986196,1.6963095128702022,0.4860099703847173,0.1622203854036324,0.0017542883615525135,9.023302527483063,5.323224565091915,5.746174548402877,1.1816278873227937,0.36763192607288886,-0.01933635285029478,2.450587712817191,-4.098039293657098,-2.6203267181833363,-0.42510153357103153,0.16744766411560552,0.0003318903248520943
0.19,0.21380987705967347,1.6836785562156673,-1.3758654095033396,0.058531784225870076,0.0192921094077239,0.00023403635764403756,2.0511956974467775,1.1300236243245882,1.753187838345801,0.4984006695426752,0.16705937019624076,0.0017509519274722502,8.684988030497095,5.110797653602667,5.220226570679964,1.0092411405281965,0.31794372840114704,-0.020962668703849552,2.445517861096267,-4.545806960002736,-2.684996091988244,-0.42381602596653006,0.16273074331594664,0.00016305260532786933
0.2,0.23518467093743634,1.695490103502449,-1.3578169829773168,0.0636230500212473,0.02100666747896385,0.0002514156808491466,2.137479387776287,1.1811547286781605,1.8048426526022758,0.5091265795377226,0.171455807123995,0.001737932320510906,8.327614975211304,4.878639069640933,4.68375435558395,0.8370569643671324,0.2700642763322989,-0.02244771985092875,2.4239975657926305,-4.990888637546556,-2.7440375275927438,-0.42061225544621067,0.15685656251661514,-1.0230311502252773e-05
0.21,0.257386819726818,1.707789625791689,-1.3393052906821545,0.06880490163473364,0.0227608510927782,0.00026857297385447174,2.2202148789381675,1.2299522289239972,1.8511692295162174,0.5181851613486342,0.1754183613814349,0.0017157293005325143,7.952573770197294,4.628388300594015,4.139542800986597,0.6660351818939176,0.2242089063390651,-0.02380344194833217,2.385198635037597,-5.428844648112058,-2.79628008946666,-0.4153508366167515,0.14983243328425724,-0.0001859845705096052
0.22,0.28037907915199256,1.7205519873072816,-1.3203843852467176,0.07406073319799415,0.02455042899018424,0.0002854217091483134,2.299225942517459,1.2762361515592662,1.8920905435436945,0.5255831563260512,0.17895778974060395,0.0016848735293841695,7.5614744032273356,4.361880172160423,3.5905042143654615,0.49715251916370207,0.18052459364012208,-0.025042435605212354,2.328701825957519,-5.855413966029859,-2.8406853732124544,-0.4079377936131987,0.1416919729956076,-0.00036210206219486275
0.23,0.3041226022681147,1.7337504365948022,-1.3011087996783235,0.0793741008683676,0.0263712940524956,0.0003018808810976901,2.3743523116122174,1.319844928752049,1.9275585568394074,0.5313367670373449,0.18208650623113637,0.0016459171949376689,7.156215288711989,4.081105420116898,3.0396256057834377,0.33137718406190686,0.13909280373656685,-0.026176778307850146,2.254545333776281,-6.266608233772984,-2.876375968931338,-0.39832825915081926,0.13249602512015823,-0.0005363864045417271
0.24,0.3285771278912968,1.7473568060330278,-1.2815332499227492,0.08472881692699491,0.02821947584595119,0.00031787513979495254,2.4454525623182075,1.3606369438225514,1.957554975557432,0.53547160586273,0.18481817934555883,0.0015994258697262403,6.73861591200593,3.788164826901389,2.4899237147294873,0.1696501838284714,0.09994025214852797,-0.02721711080884104,2.1631725931269847,-6.6587974164439165,-2.902656801511617,-0.38652780286015637,0.12232681240883955,-0.0007066380364089003
0.25,0.3537011613799171,1.7613417222189423,-1.2617123343849619,0.09010904162343918,0.030091148821297507,0.0003333348690831771,2.51240334886203,1.3984916185914558,1.9820915537787311,0.5380224696444261,0.1871672975346318,0.001545972928822456,6.310783522738017,3.4852317940759336,1.9443877779689194,0.012862543732540033,0.06303576404315692,-0.02817177503601842,2.0555005328308407,-7.028778273535446,-2.919030820163576,-0.37259224788562606,0.11129116930757944,-0.0008706793608751705
0.26,0.3794521841433514,1.7756748234864415,-1.241700236152215,0.09549937062987456,0.031982636952465684,0.00034819620815058016,2.575102276343432,1.433310126749919,2.0012098232746918,0.5390329006435376,0.1891488131168178,0.0014861339067403063,5.874835659249526,3.174509014310835,1.405935809997593,-0.13815881970039712,0.02830647352919513,-0.029046523419993253,1.9328475729965198,-7.3738316047866554,-2.9252055096767915,-0.356624799030397,0.09951436484897484,-0.0010264331075745927
0.27,0.4057868643359031,1.7903249802330239,-1.2215504323017217,0.10088491673961993,0.033890415117232495,0.0003624010377878587,2.6334680192551705,1.4650156746582348,2.014980385049318,0.5385546109745365,0.19077781647668116,0.0014204829637278582,5.43291075285411,2.8581905587478817,0.8773701756939678,-0.2826648887439269,-0.004356638519496414,-0.029844183291008797,1.796897775710842,-7.691759949527537,-2.9210923537336684,-0.3387715918081369,0.08713716597546108,-0.0011719720490279842
0.28,0.4326612697629797,1.8052605142707223,-1.2013154147425513,0.10625138446977042,0.035811107643300165,0.00037589694000834554,2.6874405427076593,1.4935534037698377,2.023501755917045,0.5366467730150497,0.19206925260676677,0.0013495902220486816,4.987125567830144,2.538426656802819,0.3613388530375672,-0.41999495328308356,-0.03509040584731693,-0.03056464906506573,1.649639611661887,-7.9809079998542884,-2.906798824502735,-0.31921559258109355,0.07431171981701552,-0.0013055672169552614
0.29,0.460031078751387,1.820449413688053,-1.181046426468597,0.11158513653328632,0.0377414844923706,0.00038863713926298537,2.7369808988407316,1.5188899417330637,2.0268988273954482,0.5333752063515896,0.1930376849070437,0.0012740199254639823,4.539526976468821,2.217292385034214,-0.13969757170018582,-0.5495840985434541,-0.06405134116286249,-0.031205042383069426,1.4932913403405759,-8.240165511794292,-2.882613834242531,-0.2981692929716051,0.061197061690510965,-0.0014257282902148784
0.3,0.48785178417026615,1.8358595401015645,-1.1607932165237547,0.11687325141489063,0.039678455541729295,0.0004005804321271124,2.7820705418879172,1.541012641351155,2.025320994484218,0.5288114881604308,0.1936971049358691,0.0011943292864127059,4.092034099941914,1.89676076270329,-0.6234926821530613,-0.6709678628528176,-0.0914080443114429,-0.03176001693571073,1.3302161029316075,-8.468953781998787,-2.8489878067793493,-0.27586664656121496,0.04795438103305777,-0.0015312345389555556
0.31,0.5160788848301785,1.8514588256168372,-1.1406038163560497,0.12210357154941666,0.04161906337740741,0.0004116911112110738,2.822710065991239,1.5599285515272576,2.018940016770488,0.5230320134526028,0.19406078356781142,0.0011110679083961436,3.646389426691671,1.5786806008957248,-1.0880350086081063,-0.7837844004925818,-0.11733466149216554,-0.03222217309542302,1.1628348922440184,-8.667197461375839,-2.8065088507017912,-0.25255474223698554,0.03474248219556205,-0.001621154375204436
0.32,0.5446680593784108,1.8672154572944062,-1.1205243396359847,0.12726474183716216,0.043560474977731176,0.00042193888720175077,2.858917454823226,1.5756631677569126,2.0079476720064897,0.5161170287745506,0.1941411600323765,0.001024777599067692,3.205826325574191,1.2647616658083627,-1.5315908792634023,-0.8877855197346438,-0.14201960674016867,-0.032582558602824274,0.9938949541176945,-8.83528642695907,-2.755879975425966,-0.22848647351553641,0.021736100159578026,-0.0016948160255183878
0.33,0.5735754883415611,1.883098047647463,-1.1005988098123267,0.13234623740548698,0.045499975613289015,0.00043129871562096395,2.8907428963150403,1.588259035305678,1.9925529823658117,0.5081495568324822,0.19395006355578387,0.0009359828419213187,2.7699047789744777,0.9565531460517853,-1.9526313747454895,-0.9828008546371558,-0.16557756746256835,-0.032832405019464994,0.8253325675089749,-8.974031140173963,-2.6978726344168096,-0.20390752095124795,0.009054011920175735,-0.0017519486588574787
0.34,0.6027578113007384,1.89907578902689,-1.0808690081185084,0.13733838390692232,0.04743495878245635,0.000439750826320034,2.9182322959177207,1.5977741379426964,1.9729801693818245,0.4992146501435338,0.19349831691673372,0.0008452110699070092,2.3409171655647016,0.6554457558814967,-2.3499336148697925,-1.068774450848017,-0.18819570097254967,-0.032960274639002196,0.6595260808842718,-9.084589276867863,-2.6333286563637457,-0.17905823847867489,-0.003158651095429711,-0.0017924816332111398
0.35000000000000003,0.6321723553858407,1.9151185921195866,-1.061374352129783,0.14223236690070637,0.04936291767602241,0.0004472805733806077,2.9414544085102348,1.6042803092696574,1.9494655988725387,0.48939829937840545,0.19279588935660605,0.000752974706057366,1.9204224271577175,0.36266151864086593,-2.722528343070456,-1.1457374142794023,-0.21000906716410128,-0.03295689766408888,0.4985309437747532,-9.168422487138598,-2.5631135944852614,-0.15416148215459824,-0.014779085976820136,-0.0018166455186263636
0.36,0.6617772909528997,1.931197207542954,-1.0421517996353231,0.14702023282612867,0.05128143815310257,0.0004538783031957403,2.960493556705899,1.6078615423367486,1.9222552494459861,0.4787865925422306,0.19185204770801623,0.0006597729815132582,1.509895343993832,0.07925394328137782,-3.0697022052148535,-1.2138045186279207,-0.23112842419158675,-0.032813661728668286,0.34416906267519465,-9.227231393144411,-2.4880958889529277,-0.12941903584373038,-0.025700066505008418,-0.0018249283951079507
0.37,0.6915317788771975,1.947283330563874,-1.0232357780463557,0.1516948818557097,0.053188193013071816,0.0004595392124992352,2.975448792429781,1.6086123020919907,1.8916021588967513,0.46746490295810456,0.1906754859969242,0.0005660909303494884,1.1104227876564654,-0.1938893884683899,-3.390984060461382,-1.27316478678625,-0.25163566231623324,-0.032523415013059886,0.1979358816665347,-9.262895134045898,-2.4091245101055536,-0.10500796422037292,-0.03583506427621499,-0.0018180468111936806
0.38,0.7213960792675652,1.9633496892085616,-1.0046581379680353,0.15625005348541385,0.05508093725794252,0.0004642632091181692,2.986430039036771,1.6066358644687544,1.857764007832039,0.4555171629704154,0.18927442448707005,0.0004723996618934013,0.7226422797062498,-0.45604136114044536,-3.686132098765227,-1.3240730235569256,-0.2715887664701637,-0.03208075814716416,0.060971429222309914,-9.277412370673003,-2.3270126653118304,-0.08107901035224019,-0.045119436000389285,-0.0017969041439809597
0.39,0.7513316154716873,1.9793701163168116,-0.9864481296426907,0.1606803056370751,0.05695750397769438,0.000468054776081187,2.9935536204122024,1.602042710825001,1.821000832534453,0.44302521516612536,0.1876566719751864,0.0003791566963017772,0.34699575042787745,-0.7066279506345579,-3.9551215064850043,-1.3668420411242383,-0.29102883726899664,-0.03148237732384396,-0.06589131329216674,-9.272847069122514,-2.2425263868632697,-0.057756460316160524,-0.05350708852270505,-0.001762550449359419
0.4,0.7813010185704953,1.9953196062857355,-0.9686324010254507,0.1649809879886865,0.058815801007067056,0.00047092281734849035,2.9969403098808067,1.5949489968923765,1.7815728617240054,0.43006823516113873,0.18582970293726714,0.00028680412673034024,-0.016054338058028018,-0.9452193070613695,-4.198128662407828,-1.4018339861796338,-0.30997987928866166,-0.030727539503269785,-0.1820760905930689,-9.251281440991761,-2.1563751503027455,-0.03513854760677103,-0.06096738288094847,-0.001716150500915646
0.41000000000000003,0.811268173839337,2.01117435740147,-0.9512350159066612,0.16914821033745747,0.0606538088424705,0.0004728804668390219,2.9967155268841803,1.5854751115734815,1.7397385118789488,0.4167222348770985,0.1838007835403444,0.00019576494905315314,-0.36604104760478645,-1.171519436558834,-4.41551159663344,-1.4294507588625667,-0.3284437175535506,-0.029818470333950575,-0.2872523327391293,-9.214775996822553,-2.0692041857591077,-0.013298269866341278,-0.06748465572113009,-0.0016589535191742879
0.42,0.8411982675904707,2.0269118007958924,-0.9342774901234981,0.17317880689097187,0.06246958011909992,0.00047394486207160563,2.993009375113366,1.5737443394422308,1.6957525783163048,0.4030596553514404,0.18157712766294212,0.00010643952325837555,-0.7040030317054974,-1.3853547900617549,-4.607787094916743,-1.4501237241557021,-0.3463856178932323,-0.0287604243648244,-0.3816117890859881,-9.165335563858012,-1.9815905459703202,0.007714738389866721,-0.07307474547529232,-0.00159221749264169
0.43,0.8710576843586814,2.042510617167682,-0.9177788435750793,0.1770702974527741,0.06426123857892682,0.000474137000011431,2.9859416768210636,1.5598816371789368,1.6498646548418807,0.3891490561802228,0.17916584598268948,1.9213793982537005e-05,-1.0260020866317445,-1.5866632373072584,-4.775622202429449,-1.4643094555961085,-0.3638220137879742,-0.027560354414234323,-0.46456220072191484,-9.104875912032629,-1.8940500360260857,0.02787030846049468,-0.07770784928786675,-0.0015173666195984672
0.44,0.9008143984722637,2.0579507424044063,-0.9017556671593002,0.18082084590298847,0.06602698473945452,0.00047348117237890313,2.975671411358242,1.544012523672449,1.602317641577906,0.37505484502143505,0.1765746160527706,-6.558276325278301e-05,-1.3347674912673713,-1.7754805397942872,-4.9197935843305896,-1.472473699348626,-0.3806086916318412,-0.026232222445459863,-0.5369987538122852,-9.035224562807088,-1.8070056328457353,0.04716301895450786,-0.08144400648455458,-0.0014356448930698497
0.45,0.9304377032401931,2.0732133634037684,-0.8862222006236503,0.18442921750212854,0.06776509889924759,0.0004720048947807947,2.962330476792941,1.5262620999362142,1.553346653564996,0.36083715991400567,0.17381141597930722,-0.00014762775981084353,-1.6299475051381993,-1.9519302123309759,-5.041186978157857,-1.4750910250308955,-0.39669506704302915,-0.024787068093513165,-0.5993412676870202,-8.958074734030024,-1.7208356099706195,0.06559775010583202,-0.08431566695723448,-0.001348336862933715
0.46,0.95989824604898,2.088280905164435,-0.8711904212226474,0.18789473503878004,0.0694739443176316,0.00046973858392253037,2.9460542808786805,1.5067541760666565,1.50317794010029,0.3465517536651511,0.1708845418384014,-0.00022663108582643402,-1.9115934591625088,-2.116211377190517,-5.140772302040846,-1.472635764583039,-0.4120034428808701,-0.023240448558846327,-0.6521938340455348,-8.874990312347522,-1.6358563801004502,0.08319253320366993,-0.08636766324852446,-0.001256667491585277
0.47000000000000003,0.9891680233745301,2.1031370103422184,-0.856670140713524,0.1912172346979608,0.07115197149374275,0.0004667152190093173,2.9269777325550126,1.4856105177783285,1.4520280509123422,0.3322499659180754,0.16780271761111526,-0.0003023364913213107,-2.179732811934652,-2.2685876830536373,-5.219586164004465,-1.4655760901370556,-0.42644832511385644,-0.021609673135504104,-0.6962313191403051,-8.787398454176909,-1.5523300243889793,0.09997517401252518,-0.08765057061759415,-0.0011617983358012374
0.48,1.0182203781066261,2.117766512384659,-0.8426691089398438,0.19439702222018493,0.0727977231108113,0.00046296998403933865,2.905235473209608,1.4629502042440712,1.4001031773680215,0.31797875222241345,0.16457516170685532,-0.0003745234969978617,-2.4345720372764097,-2.4093770730849724,-5.27871648985758,-1.454369240442098,-0.4399376781510327,-0.01991342503660576,-0.7322101528677607,-8.696588220932618,-1.4704698535801382,0.11598067912616289,-0.08822132443182264,-0.0010648058009350802
0.49,1.0470299790321984,2.132155403267894,-0.8291931224688943,0.197434829816712,0.07440983917056115,0.00045853991243204544,2.8809600925572214,1.4388890883235108,1.34759864709495,0.3037807596527085,0.161211605974986,-0.0004430071607293229,-2.67638964038594,-2.538942142977203,-5.319287716791711,-1.4394572788846727,-0.45238108701811974,-0.01817109667598682,-0.7609225140185059,-8.603711508381348,-1.3904473759956926,0.13124864403923042,-0.0881404565921423,-0.000966674987637058
0.5,1.0755727931033594,2.146290796802181,-0.816246136804313,0.2003317742571317,0.07598706197456516,0.00045346353058791413,2.85428140711609,1.4135393534287135,1.294698566458125,0.2896944440419684,0.1577222804004008,-0.0005076381844131314,-2.905602177925318,-2.657681496747811,-5.342448260130576,-1.4212639650499597,-0.4636929728362187,-0.01640237484548296,-0.7831866212315453,-8.509787147253759,-1.3123986982792268,0.1458210526922425,-0.08747135618617129,-0.0008682894419904003
0.51,1.1038260439354284,2.160160888371244,-0.8038303809244156,0.20308931644245026,0.07752824060843823,0.00044778051042480404,2.8253250832069012,1.3870091569062757,1.2415755879897417,0.2757542185318578,0.15411786338730646,-0.0005683020163110092,-3.122349647486647,-2.7660207797420715,-5.349354572016212,-1.4001907279571704,-0.47380063056184163,-0.01462670051182055,-0.7997530798009732,-8.415706175273058,-1.2364299333168114,0.15974062739397762,-0.0862748343422434,-0.0007704510591968261
0.52,1.13176819772465,2.1737549120051223,-0.7919464725547383,0.20570922286288543,0.07903233512174133,0.0004415313006254158,2.7942153789221744,1.3594023633878491,1.1883908369677387,0.2619906420435157,0.1504094513303106,-0.0006249209799388265,-3.327181112818796,-2.8644068858514915,-5.341166634799311,-1.3766168764244036,-0.48263475721229554,-0.012863175276394079,-0.811415975491834,-8.322241137522271,-1.162621756339397,0.17304946029842347,-0.08461510430877642,-0.0006738422670155859
0.53,1.1593789084916573,2.187063095362136,-0.7805935337325536,0.2081935289425469,0.08049841978797434,0.00043475680136367427,2.761071076700708,1.330818335701401,1.1352938822184697,0.2484306079661472,0.14660846662330024,-0.000677449926174153,-3.5205079345834203,-2.9533005134536956,-5.319034207780821,-1.350896687210314,-0.4901446227249959,-0.011129534851343117,-0.8189015565122261,-8.230052684867504,-1.0910357132608126,0.18578754027642153,-0.08255322363668055,-0.0005790564028562498
0.54,1.1866389769582129,2.2000766133679375,-0.7697693052903374,0.2105445045645778,0.08192568539979668,0.00042749804255762507,2.7260068466555656,1.301351800580125,1.0824228442216213,0.2350975622030901,0.14272656118223365,-0.0007258758806049199,-3.7027648898793224,-3.0331707906374215,-5.2840900213166755,-1.3233591463255046,-0.4962939136246298,-0.009442244833606193,-0.8228901364191039,-8.139699310385783,-1.0217174682661416,0.19799209585775904,-0.08014807532242262,-0.0004865929958690213
0.55,1.2135303070653973,2.212787541047694,-0.7594702595848286,0.21276462182401615,0.08331344057043989,0.0004197958812241133,2.6891330107184417,1.2710927679756452,1.0299045705508798,0.22201172594383578,0.13877551706432137,-0.0007702161333511781,-3.8744024853357746,-3.1044903604107663,-5.237442957123645,-1.2943077463247352,-0.5010620299105604,-0.007816095574272874,-0.8240096411502154,-8.051646560567105,-0.9547003428947942,0.20969699357681698,-0.07745572625269977,-0.0003968628874195852
0.56,1.2400358609029742,2.225188806042383,-0.7496917107960501,0.21485652504928018,0.08466111195530063,0.0004116907228967913,2.6505553837576996,1.2401264994689072,0.9778548788778495,0.2091903225264037,0.13476713848607413,-0.0008105158327322041,-4.035880940821894,-3.1677311541607134,-5.180172370095083,-1.264020735670261,-0.5044446811440064,-0.0062639693602445645,-0.8228318838558848,-7.966276220491971,-0.8900082554604823,0.220932366499755,-0.07452895086785542,-0.0003101943308338448
0.5700000000000001,1.2661396126540636,2.237274141231035,-0.7404279222350805,0.21682300309045735,0.08596824335326636,0.00040322226998438707,2.6103751751089272,1.2085335188652495,0.9263788560969679,0.19664780411771574,0.1307131397965734,-0.0008468452912404235,-4.187665258626323,-3.223360800370974,-5.113323462777011,-1.2327517485882247,-0.5064538814159736,-0.0047966949091635125,-0.8198710576806645,-7.8838952633343595,-0.8276581086503295,0.2317244355013499,-0.07141689895147148,-0.0002268397663934741
0.58,1.291826502051473,2.2490380378169617,-0.7316722102047897,0.21866696383636428,0.08723449368790161,0.0003944292990424044,2.568688939740947,1.1763896585926616,0.8755712030290775,0.1843960745906927,0.12662503346352502,-0.0008792970941982673,-4.330221062652554,-3.271839612527396,-5.037903618892884,-1.2007307451413123,-0.5071174245292909,-0.0034229748686918082,-0.8155839992326612,-7.804744410029973,-0.7676616817855353,0.2420954874423945,-0.06816488839898505,-0.00014698300142681879
0.59,1.3170823877653952,2.2604756991778165,-0.7234170440537016,0.2203914108925192,0.08845963390461622,0.0003853494681532663,2.5255885713922295,1.14376613608547,0.8255166151088144,0.17244470561549377,0.12251402167146129,-0.0009079830889138079,-4.464011034792542,-3.313618099129786,-4.954879600668118,-1.168165194390511,-0.5064779180674499,-0.002149380056429284,-0.8103718273516167,-7.729006191471679,-0.7100270891695515,0.25206397686563997,-0.0648143049772927,-7.074656212251514e-05
0.6,1.3418940010825149,2.271582995726909,-0.7156541421494582,0.22199942232844985,0.08964354285105218,0.00037601915485046395,2.4811613317119736,1.110729654909238,0.7762901904243342,0.1608011435930646,0.1183908946435957,-0.0009330313302802385,-4.589491847714952,-3.3491349392945566,-4.8651755154053795,-1.135241437935214,-0.504591457283782,-0.0009804032598382806,-0.8045826096506274,-7.6568124439617655,-0.6547598673835333,0.2616447209908247,-0.06140259204499888,1.8009784825594202e-06
0.61,1.3662489001867821,2.282356420986417,-0.7083745635751227,0.22349413138475444,0.09078620223371162,0.00036647332430413425,2.4354899104267163,1.0773425259508023,0.7279578574335481,0.14947090563045926,0.11426593826594295,-0.000954583054632969,-4.7071115296297465,-3.37881536919139,-4.769671459265425,-1.1021261764558705,-0.5015260218834339,8.143612515021381e-05,-0.7985147559505605,-7.588251199673101,-0.601863752878923,0.2708491613987878,-0.057963314243950084,7.063785495259801e-05
0.62,1.3901354253086042,2.2927930490318986,-0.7015687954190153,0.22487870901756304,0.091887690763964,0.00035674542683816464,2.3886525121822046,1.0436628045481668,0.680576815610744,0.13845776328086049,0.11014885302523847,-0.0009727897465969594,-4.8173072150798095,-3.403069927193326,-4.669202750066519,-1.068968027915144,-0.49735967862246966,0.0010354463513080336,-0.7924208833197921,-7.5233729583718,-0.5513412074794901,0.2796856696034471,-0.05452628037921141,0.00013578227029169314
0.63,1.4135426549701906,2.3028904934314944,-0.6952268355873402,0.22615634814996913,0.09294817762089326,0.00034686732329379695,2.340722966158638,1.0097444399595739,0.6341959831675069,0.1277639132406074,0.10604868569292694,-0.0009878103544367681,-4.9205032453979936,-3.422293508862958,-4.564559665787092,-1.0358991124585035,-0.49217866955991774,0.001882586571913869,-0.7865119411326942,-7.462196345471209,-0.5031937441523444,0.2881598775067422,-0.051117712063425844,0.00019728595562819803
0.64,1.4364603635193276,2.312646867772128,-0.6893382711190208,0.22733024949604583,0.09396791536710064,0.00033686923630416217,2.2917708549136995,0.9756374340633306,0.5888564468319448,0.1173901346076709,0.10197377462073769,-0.000999808698963476,-5.0171095875634215,-3.436864686532973,-4.456487611010859,-1.0030366256370833,-0.48607545988965484,0.0026252689854623368,-0.7809614253467317,-7.404713175450534,-0.45742209927039085,0.2962750173519848,-0.047760446161794104,0.0002552281933555056
0.65,1.458878980111493,2.3220607478384867,-0.6838923520244864,0.22840360882263838,0.09494723245692135,0.00032677972520287694,2.2418616592165423,0.9413880066358632,0.5445919094534347,0.10733593265925477,0.09793170898207108,-0.0010089511101285204,-5.107520542989665,-3.447145252087035,-4.3456876395517074,-0.9704843680609692,-0.4791468110388468,0.003267149109821288,-0.7759095482345257,-7.350892949574694,-0.4140262910852498,0.30403225912114495,-0.04447416057638426,0.0003097103443390282
0.66,1.480789549270689,2.3311311354882145,-0.6788780607052669,0.22937960551665276,0.0958865254750866,0.00031662568205599367,2.191056915919616,0.9070387649727819,0.5014291319219512,0.09759966940143676,0.09392930181652458,-0.0010154043146883293,-5.192113719393587,-3.4534799454665186,-4.232817267700046,-0.9383342058860205,-0.47149193484559326,0.0038129124417702887,-0.7714672625618079,-7.300686823429474,-0.3730055976591427,0.3114310362909656,-0.041275614398364906,0.0003608508996170934
0.67,1.502183693132542,2.339857424248171,-0.6742841770397725,0.23026139233048099,0.09678625123834618,0.0003064323461736691,2.139414386185298,0.8726288759956772,0.45938836654944,0.088178681382821,0.08997257632595786,-0.0010193335882324572,-5.271249239921125,-3.4561963353099827,-4.1184915187933235,-0.9066674424009804,-0.46321077384040343,0.004268064557811924,-0.7677200674479507,-7.254031083698066,-0.3343584813552284,0.3184693534373518,-0.03817889488920379,0.0004087810604829393
0.68,1.5230535754490029,2.348239366641433,-0.670099339243221,0.23105208618498996,0.09764691888372251,0.00029622333441567254,2.086988231646084,0.8381942393262279,0.41848377965515043,0.07906938545089758,0.08606676453763376,-0.0010209011757996561,-5.34526916447331,-3.4556048218969595,-4.003284145967406,-0.8755560864022662,-0.45440244161614984,0.0046387304000103935,-0.764731546911707,-7.210850175430828,-0.29808248135049975,0.3251440713513434,-0.0351956650932367,0.000453640837659062
0.6900000000000001,1.54339186741233,2.3562770432425344,-0.6663121006269362,0.23175475991767217,0.09846908205568435,0.00028602068464064014,2.033829196332706,0.8037676601101157,0.3787238616284703,0.0702673732682201,0.08221631719618337,-0.001020264977503242,-5.4144970988729,-3.4519987361517757,-3.8877289859079402,-0.8450640078646199,-0.44516384658604835,0.004931467185386396,-0.7625466116125681,-7.171059321294213,-0.26417409062650365,0.33145116711783995,-0.03233540711137398,0.0004955756501252952
0.7000000000000001,1.5631917153368717,2.363970833448914,-0.6629109823947995,0.23237243487268128,0.09925333129138214,0.0002758449097492968,1.9799847924541756,0.7693790206379549,0.3401118232136762,0.06176749550091023,0.07842492356977934,-0.0010175774891343344,-5.479237968253105,-3.445654511834204,-3.772321402099335,-0.8152479756449562,-0.43558851253417075,0.005153094099906497,-0.7611944298993877,-7.134566773343871,-0.23262862956132702,0.33738596803870147,-0.02960565716550988,0.0005347333966696473
0.71,1.5824467102204365,2.371321387949325,-0.6598845226230587,0.23290807423917784,0.10000028668890103,0.00026571505992251354,1.925499488356479,0.7350554500410975,0.3026459771740794,0.053563936649657154,0.07469553975188885,-0.0010129849826783263,-5.53977793189657,-3.436831911168869,-3.6575197814151137,-0.7861585755558043,-0.42576560060687996,0.005310540798205476,-0.7606910464004466,-7.101275736090888,-0.20344012459496053,0.34294335939196896,-0.02701222954961722,0.0005712619680230953
0.72,1.6011508591926469,2.378329602864717,-0.6572213215745406,0.23336457705436608,0.10071059092890589,0.0002556487908427948,1.870414897221049,0.7008214915391887,0.26632010485181057,0.04565028151882565,0.0710304240004853,-0.0010066269079718698,-5.596384417739083,-3.4257742870422274,-3.5437470528708612,-0.7578410101204813,-0.4157791299714191,0.005410715713512371,-0.7610416954940936,-7.071085997295184,-0.17660119743989422,0.3481179668498616,-0.024559427396805833,0.0006053071641514023
0.73,1.6192985588455315,2.3849965955335795,-0.6549100835000626,0.23374477279754613,0.10138490270562762,0.0002456624359001026,1.8147699652884595,0.666699266886242,0.23112380744779748,0.038019574318003554,0.0674311776721741,-0.0009986354942692246,-5.64930625588409,-3.4127088675127184,-3.4313922019472427,-0.7303357837154945,-0.40570738837320697,0.005460394343616892,-0.7622428235481802,-7.043895300242126,-0.15210296790816058,0.35290431497188224,-0.022250238896625647,0.0006370109795705049
0.74,1.636884570431585,2.3913236819116332,-0.6529396550789784,0.2340514165112203,0.10202389060931816,0.0002357710806089965,1.7586011586053554,0.6327086378053813,0.19704284210842257,0.030664371367417422,0.0638987903690527,-0.000989135529110609,-5.698773891746459,-3.3978470507489456,-3.320811758082143,-0.7036792786479218,-0.3956225192434957,0.005466126992061282,-0.7642838382501543,-7.01960048840619,-0.12993497156092904,0.3572969635863534,-0.02008651818164096,0.0006665102191159955
0.75,1.6539039969065035,2.397312355554851,-0.6512990606477282,0.23428718439460958,0.10262822748942775,0.00022598863769450722,1.7019426474918442,0.598867364321769,0.1640594431250177,0.023576788338928907,0.060433688010959864,-0.0009782442914489287,-5.744999660836584,-3.3813847006375513,-3.2123312367340335,-0.6779042290438078,-0.3855902687821082,0.005434164933143082,-0.7671486060716843,-6.998098450504779,-0.11008509198755412,0.36129062411145535,-0.01806915057693596,0.0006939354071569782
0.76,1.6703522617876148,2.4029642681548613,-0.6499775343603903,0.23445466982373236,0.10319858531607914,0.0002163279215314811,1.6448264881111339,0.5651912600010615,0.13215262873379943,0.01674854291228,0.05703578266513895,-0.0009660716163026117,-5.7881781086861395,-3.36350243520463,-3.1062465208352785,-0.6530401003429684,-0.37566987441925015,0.005370403588433881,-0.7708167202818847,-6.979286891089445,-0.09253950651732185,0.3648802579789754,-0.016198202282038762,0.0007194099545616752
0.77,1.6862250897945357,2.408281211596654,-0.6489645494188797,0.234556379760387,0.10373563054708228,0.00020680072084024534,1.5872828006920972,0.5316943441792896,0.10129849415105911,0.01017099366546411,0.053704523100312714,-0.0009527200691235768,-5.828486340977398,-3.3443659016876364,-3.0028251695171653,-0.6291133827046771,-0.3659140750865184,0.0052803410719890476,-0.7752645622535886,-6.9630649490759575,-0.07728264349213115,0.3680611593396911,-0.014473054843555037,0.0007430495495919667
0.78,1.7015184892356152,2.413265101509969,-0.6482498445029291,0.23459473151990826,0.1042400199988318,0.00019741786874609885,1.5293399441079543,0.49838899133148173,0.0714704915950623,0.0038351759521230294,0.05043894517495143,-0.0009382852094146501,-5.866084390540789,-3.3241260335982576,-2.902307644710077,-0.6061478068383988,-0.35636922363356405,0.005169050324919766,-0.7804661783624267,-6.949333684023474,-0.06429714882032156,0.3708290241734021,-0.012892524990274368,0.0007649617411575073
0.79,1.7162287361021153,2.4179179622876945,-0.6478234475215722,0.23457204987441152,0.10471239721196715,0.00018818930949820634,1.4710246866500238,0.4652860777725606,0.04263969813569417,-0.0022681645496736543,0.047237721313535284,-0.0009228559247892495,-5.901115589506932,-3.302919286452121,-2.8049084486333644,-0.584164490724767,-0.34707548231216734,0.005041163021566986,-0.7863939937783102,-6.937996447563397,-0.05356385933616015,0.373180007819595,-0.011454970551874527,0.000785245685357502
0.8,1.730352359831659,2.4222419135468622,-0.6476756967987863,0.2344905644743941,0.1051533892966146,0.00017912416131314748,1.4123623729543726,0.4323951259167828,0.014775072278586241,-0.008148540001744066,0.04409920846474445,-0.0009065148185058872,-5.9337069365169715,-3.2808678500281743,-2.710817167319631,-0.5631820254419342,-0.3380670833598973,0.004900863458187299,-0.7930193830722627,-6.9289591551656065,-0.04506178045896009,0.37511077280311167,-0.010158383278097174,0.0008039920288685656
0.81,1.7438861307030722,2.4262391580102896,-0.6477972597964348,0.23435240757704348,0.1055636042372925,0.0001702307749587665,1.3533770871413149,0.39972444634275117,-0.012156299764841404,-0.013815689735061455,0.04102149406779078,-0.0008893386354380958,-5.963969450491252,-3.2580798360802667,-2.6201994172025493,-0.5432165079013842,-0.3293726381856281,0.004751890723866392,-0.8003131159506087,-6.922130471418679,-0.038768065740720836,0.37661852866600387,-0.00900046942698736,0.0008212829054127627
0.8200000000000001,1.7568270488262059,2.429911970789501,-0.6481791494678727,0.2341596120744403,0.10594362863404035,0.00016151678782511244,1.2940918123133756,0.3672812779211391,-0.03818896714379326,-0.019279550260318065,0.03800243967478461,-0.0008713987133654074,-5.991998504019737,-3.234649441377903,-2.5331976934551,-0.5242815278141535,-0.3210154803559142,0.004597547563778059,-0.8082456946948144,-6.917421920190059,-0.03465799607898645,0.37770106534191206,-0.007978719007107588,0.0008371920241947857
0.8300000000000001,1.7691723346924755,2.433262690052129,-0.6488127383257063,0.23391410981906954,0.10629402585390381,0.00015298917334155554,1.2345285866269653,0.33507192626278975,-0.06335888578335683,-0.024550225537075972,0.03503972198634625,-0.0008527614483556908,-6.017874130958353,-3.2106570868208197,-2.449932120247847,-0.5063881156278338,-0.31301402938958667,0.004440714499633458,-0.8167875981132746,-6.914747929416095,-0.03270495662659384,0.37835678143004703,-0.007090464547164485,0.0008517848317817806
0.84,1.7809194212545467,2.4362937090594956,-0.6496897702973609,0.23361773024771623,0.10661533456544121,0.00014465428569380377,1.174708656207116,0.30310190073668736,-0.08770319716545473,-0.029637957135332457,0.03213087115373979,-0.0008334887647751768,-6.04166130429079,-3.186169534172935,-2.370501104419544,-0.4895446575965332,-0.3053821642003083,0.004283867921262008,-0.8259094450642434,-6.914025818841213,-0.03288040973191175,0.37858470854734305,-0.006332930233885266,0.0008651187313792472
0.85,1.7920659475066842,2.439007469562407,-0.6508023704324573,0.23327219930796186,0.10690806762827498,0.00013651789987273005,1.114652625213755,0.2713760502911358,-0.1112600135096412,-0.03455309397543744,0.029273306283376592,-0.000813638582107373,-6.063410181744852,-3.161239982713325,-2.2949818952547654,-0.4737567835648102,-0.29812959680906914,0.004129101027222859,-0.8355820889320655,-6.915175737769355,-0.035153862577385175,0.3783845327628089,-0.005703272210979229,0.0008772433458085161
0.86,1.8026097535406107,2.441406456545285,-0.6521430525166257,0.23287913869416257,0.10717271130976434,0.0001285852471502398,1.0543806033926553,0.23989869828781837,-0.13406820841684394,-0.039306061379928744,0.0264643681489363,-0.0007932652722490261,-6.083156318038666,-3.1359081488196754,-2.223431054178297,-0.4590272324803868,-0.2912622386351664,0.003978146655706949,-0.8457766528633357,-6.9181205587980825,-0.039492828539715585,0.3777566139495817,-0.005198610773525444,0.0008882008127017504
0.87,1.8125488770551599,2.443493194310561,-0.6537047246374146,0.2324400654020215,0.10740972480149678,0.00012086104612757257,0.9939123514549163,0.208673776527616,-0.1561672120788828,-0.04390732921410606,0.023701349173243895,-0.000772420102266723,-6.1009208439801075,-3.1102003322029153,-2.155884839220587,-0.4453557001637076,-0.28478255322621493,0.0038324011950872094,-0.8564645141159094,-6.922785732564634,-0.04586278166500796,0.3767020037283805,-0.004816055127284939,0.0008980261024924249
0.88,1.82188155130142,2.445270243896654,-0.655480692739479,0.23195639161270462,0.10761954000937062,0.00011334952954005154,0.9332674246260094,0.1777049586092846,-0.17759681020643875,-0.04836737893168898,0.020981520787382933,-0.000751151658752102,-6.116710613958886,-3.084129473203074,-2.092359510126462,-0.4327386734035432,-0.2786898906947304,0.0036929489117998315,-0.8676172445543722,-6.929099107732567,-0.05422710403180747,0.37522246252118574,-0.0045527213147501175,0.0009067473516914226
0.89,1.8306062044483145,2.4467402018238285,-0.6574646621983573,0.2314294249189252,0.10780256159246426,0.00010605446703112133,0.8724653146894547,0.14699579271745858,-0.19839694588783874,-0.05269666937794173,0.01830215830936517,-0.000729506250893021,-6.130518324661852,-3.057695206259002,-2.0328515609751965,-0.42116925409791506,-0.2729808003675718,0.0035605861645924275,-0.8792065131467901,-6.9369907197778184,-0.06454702616189051,0.3733204760854376,-0.0044057438421387166,0.0009143862057030439
0.9,1.8387214603565278,2.447905700162677,-0.6596507374349612,0.23086036890656428,0.10795916722756649,9.897918412915413e-05,0.8115255908213475,0.11654983388485729,-0.21860752366038882,-0.05690560123609173,0.015660563510222495,-0.0007075282901967199,-6.142322609113296,-3.030883915371528,-1.9773378881919697,-0.4106369768695757,-0.26764931924906143,0.0034358450928551054,-0.8912039552817002,-6.946392551584317,-0.07678156103167572,0.370999271756132,-0.004372281476486765,0.0009209581670562544
0.91,1.8462261407512324,2.448769407919827,-0.6620334195865132,0.23025032410622184,0.1080897080780935,9.212657767446048e-05,0.750468039470454,0.0863707757149782,-0.23826821515520713,-0.061004480034242636,0.013054085052701442,-0.0006852606454693659,-6.152088111400067,-3.0036687981064456,-1.9257759028619679,-0.40112762339720653,-0.2626872348268421,0.0033190164771008668,-0.9035810128308256,-6.957238268424296,-0.09088743263562649,0.3682628344849613,-0.004449517621554176,0.0009264729464095462
0.92,1.8531192687860782,2.4493340337346843,-0.6646076022441713,0.2296002893296204,0.10819450944807366,8.549912795269009e-05,0.689312803484598,0.05646258148577077,-0.25741826576580584,-0.06500347766014489,0.01048013699801546,-0.0006627449721770394,-6.159765548686707,-2.976009945423053,-1.8781035973312605,-0.3926230365961816,-0.2580843215542412,0.0032101715644619055,-0.9163087481298222,-6.969462929570317,-0.10681900045689352,0.36511592263115866,-0.004634655627183452,0.0009309348150389835
0.93,1.8594000739922552,2.449602329879501,-0.6673685652630762,0.2289111634060121,0.10827387160387623,7.90989077956422e-05,0.6280805206176966,0.026829614481671413,-0.27609630189049233,-0.06891259236082758,0.007936215580258284,-0.0006400220157047891,-6.165291768359324,-2.9478544453650346,-1.8342395771908955,-0.38510093777490795,-0.25382855101103097,0.00310918273198868,-0.9293576344337184,-6.983002678559223,-0.12452818160876977,0.36156408332727585,-0.004924909340538873,0.0009343429587435252
0.9400000000000001,1.8650679986069871,2.449577097552709,-0.6703119666471705,0.22818374733367147,0.10832807074834712,7.292758891254475e-05,0.5667924614732027,-0.002523232679177718,-0.2943401384094298,-0.07274160723406309,0.005419914447088561,-0.0006171318883097452,-6.168589809353472,-2.9191365194042502,-1.7940830709052022,-0.37853474995104364,-0.24990627631233764,0.0030157429364610078,-0.9426973249226277,-6.997794413998397,-0.14396437282211721,0.3576136671142317,-0.00531748917058663,0.000936691834203314
0.9500000000000001,1.8701227052754774,2.449261193452272,-0.673433832508965,0.22741874686117636,0.1083573601339461,6.698644571520673e-05,0.5054706668490342,-0.03159041004373726,-0.31218658617945705,-0.07650004724951122,0.0029289385598980492,-0.0005941143197338027,-6.169568977912026,-2.889777700970184,-1.7575139305445158,-0.3728934306635816,-0.2463023918060383,0.002929383958994114,-0.9562964019843216,-7.013775442768035,-0.16507437486564847,0.35327184141362694,-0.005809583910380153,0.0009379715298076184
0.96,1.8745640861189432,2.448657537611617,-0.676730545103604,0.2266167755124768,0.10836197130332186,6.127635689996425e-05,0.44413808434657853,-0.06036558406551826,-0.32967125946389786,-0.0801971348699567,0.00046111693757456846,-0.0005710088815242468,-6.16812494916844,-2.8596870664098115,-1.7243926383093322,-0.3681413178359154,-0.24300046949505472,0.0028494935057388204,-0.9701221082811152,-7.030883117526918,-0.1878023223937115,0.34854660228189527,-0.006398338546158455,0.0009381681338288346
0.97,1.8783922731588678,2.447769122475539,-0.6801988289372128,0.22577835806869784,0.10834211544747906,5.5797805048802735e-05,0.38281870399245005,-0.08884151360775475,-0.34682838336088945,-0.08384174437789552,-0.001985585584279972,-0.0005478551851161521,-6.164139907039085,-2.8287615292795474,-1.6945603347711296,-0.36423799250029987,-0.23998287395145113,0.0027753312629854587,-0.9841400610180295,-7.049054460570206,-0.21208962261346237,0.3434467837713959,-0.007080828278798364,0.0009372641135545578
0.98,1.8816076500838372,2.4465990231871753,-0.6838357349517364,0.22490393451819626,0.10829798487326163,5.055087451198043e-05,0.3215376924969479,-0.11700992883639715,-0.3636906014523554,-0.08744235505015828,-0.004413057421743322,-0.0005246930536822301,-6.157482735907837,-2.796886209441253,-1.6678388859619036,-0.3611381625157861,-0.23723085777348984,0.0027060440514201645,-0.9983139508665663,-7.068225776313751,-0.23787490654127028,0.3379820641097131,-0.00785402899248501,0.0009352387095950037
0.99,1.884210865340222,2.445150409049718,-0.6876386227924001,0.22399386448455808,0.10822975457327264,4.5535247835563815e-05,0.2603215256384831,-0.14486141374571204,-0.3802887840663596,-0.09100700336381863,-0.006823029998900052,-0.0005015626676416616,-6.148009278462731,-2.7639348888815,-1.6440310075908795,-0.35879157174314447,-0.23472463987303982,0.0026406802347123115,-1.012605227163182,-7.0883322549865975,-0.26509399696587327,0.3321629678025326,-0.008714784428127634,0.0009320683500484983
