tonegas/nnodely-applications/joint_friction_estimation/dataset/train/mpc_mujoco_episode_43 copy.csv
time,q1,q2,q3,q4,q5,q6,dq1,dq2,dq3,dq4,dq5,dq6,ddq1,ddq2,ddq3,ddq4,ddq5,ddq6,tau1,tau2,tau3,tau4,tau5,tau6
0.0,0.0,1.57,-1.57,0.0,0.0,0.0,0.0,0.0,0.0,0.0,0.0,0.0,2.8067617153855458,1.2507757475184038,2.5116775032459353,0.9379428392243874,0.40771672440273754,-3.716541161491449e-06,0.39130051173756597,-3.4646614955827406,-3.953184394535343,-0.8876799714076895,0.035371787667832104,2.4178452339977132e-05
0.01,0.0002792076261036259,1.5701255627052566,-1.5697497617821345,8.807319816024109e-05,3.4454373108208364e-05,4.000724271976508e-07,0.027920762610362585,0.012556270525653978,0.025023821786561814,0.008807319816024109,0.003445437310820836,4.000724271976508e-05,2.7686287254000552,1.2087960456083247,2.463517883043026,0.8673139031317483,0.34042186235047467,0.0039952498263255976,0.3883632915507788,-3.4977791994115757,-3.967900575673434,-0.8909350228234609,0.035090796628051917,1.855083636309498e-05
0.02,0.0008336169419429116,1.5703725202807746,-1.5692544277229825,0.000258448591754024,9.914774033229287e-05,1.2165784439474302e-06,0.05544093158392857,0.024695757551805267,0.04953340591520973,0.017037539359378295,0.00646933672240845,8.165060167497795e-05,2.7266191589724578,1.1642882998745476,2.409670657821986,0.8087462753347783,0.29784999863007044,0.0041416458222527375,0.38563564304439274,-3.5351183718458867,-3.9839045847597285,-0.894382242058708,0.034812686984608494,1.2259831320577297e-05
0.03,0.0016589248011630272,1.5707364416622192,-1.568519616111949,0.0005062579821208564,0.00019134686510787537,2.421207876941178e-06,0.08253078592201156,0.036392138144466096,0.07348116110334872,0.024780939036683238,0.00921991247755825,0.0001204629432993748,2.681651834564867,1.1173353241060493,2.3512140400239994,0.7592450719342629,0.2700340007350004,0.003827543354870233,0.3830802432321748,-3.5764247237153253,-4.00111967568537,-0.8980072506283885,0.034535265214527704,5.3203363594217165e-06
0.04,0.0027505873398705996,1.5712126433712128,-1.5675513355770696,0.0008273100656056936,0.0003092012366796407,3.987553936847754e-06,0.10916625387075723,0.047620170899372906,0.0968280534879345,0.03210520834848371,0.011785437157176535,0.0001566346059906576,2.63429462068856,1.0680494237309455,2.289005482363878,0.7165517646298802,0.25098617938886747,0.003518694627254515,0.38065748657103066,-3.6214349949894515,-4.019465330511763,-0.9017948531245427,0.03425617148638834,-2.2497063899798875e-06
0.05,0.004103855359326459,1.571796202676793,-1.5663559162445577,0.0012179202215652682,0.0004513822283443373,5.89469099816311e-06,0.1353268019455859,0.05835593055802429,0.11954193325117758,0.039061015595957475,0.01421809916646966,0.00019071370613153558,2.5849031904267012,1.0165649221746775,2.22373418227241,0.678965004747484,0.23710577012311518,0.0032517839859318443,0.3783259479433731,-3.669878841341038,-4.038857976992336,-0.9057291925193618,0.03397292588780802,-1.0430799540031587e-05
0.06,0.005713796944906411,1.5724819725015688,-1.5649399536812556,0.0016747825429733183,0.0006168661156469837,8.125537107886837e-06,0.16099415855799518,0.06857698247757983,0.14159625633020267,0.045686232140805,0.016548388730264634,0.00022308461097237273,2.5337051066276923,0.9630324975557699,2.1559607697233325,0.6452059542630373,0.22623126055416698,0.0030117707001058314,0.376042840601211,-3.7214805246459752,-4.059211629409437,-0.909793891090098,0.03368297219191907,-1.9202505566402826e-05
0.07,0.007575312387199435,1.5732645976153612,-1.5633102626224002,0.0021948739051249055,0.0008048039518268662,1.0665286412286388e-05,0.18615154422930236,0.07826251137924116,0.16296910588553346,0.0520091362151587,0.018793783617988245,0.0002539749304399552,2.480850835574244,0.9076148329305741,2.0861474158670554,0.6143161589027653,0.2170700400915102,0.002784509235440158,0.3737644701635592,-3.775960462157016,-4.080438475466131,-0.9139721815666555,0.03338371942003089,-2.8543612764389862e-05
0.08,0.009683144484310149,1.5741385317641272,-1.5614738382103894,0.0027753823209558004,0.0010144438963961106,1.3500385478809666e-05,0.21078320971107134,0.08739341487660585,0.18364244120108023,0.05805084158308947,0.020963994456924446,0.00028350990665232774,2.4264447376186675,0.8504832386837963,2.014680675145055,0.5855799788333549,0.20885414229760535,0.0025613654792002727,0.371446683982456,-3.8330366677266694,-4.102449423006396,-0.9182470310527043,0.033072581277841476,-3.843208858201583e-05
0.09,0.01203188610114979,1.5750980554593883,-1.5594378230203774,0.0034136536943366416,0.0012450852170830464,1.6617917967845584e-05,0.2348741616839641,0.09595236952611627,0.20360151900120155,0.06382713733808411,0.023064132068693562,0.00031175324890359176,2.3705639343247955,0.7918150013774546,1.9418888015076523,0.5584656659696172,0.2011322885524418,0.002337791013306223,0.36904531413630354,-3.89242610510711,-4.125154614787738,-0.9226012590434187,0.032747013394483944,-4.884494668096304e-05
0.1,0.014615986132738647,1.5761372942109888,-1.5572094785669626,0.0041071524985769135,0.0014960514109546225,2.000524982701911e-05,0.2584100031588858,0.10392387516005507,0.222834445341474,0.06934988042402715,0.025096619387157622,0.00033873318591735256,2.3132698339888433,0.7317912792168343,1.8680548626497926,0.5325806123033736,0.193644220720115,0.0021118020738946086,0.36651661177533207,-3.953845965020633,-4.148463916055141,-0.9270176501299812,0.032404548212056225,-5.975809348583624e-05
0.11,0.017429754576947315,1.5772502370292139,-1.5547961603043028,0.0048534329833743,0.001766674857978189,2.3649834932174678e-05,0.28137684442086686,0.11129428182250492,0.24133182626597816,0.07462804847973861,0.02706234470235664,0.00036445851051555676,2.25461520821801,0.6705954113662694,1.7934266608147764,0.5076373666841789,0.18624472957524674,0.001882950901367142,0.3638176702667061,-4.017014872509395,-4.17228737747834,-0.9314790615484206,0.03204282733940185,-7.114618749983788e-05
0.12,0.020467367154128835,1.5784307550549526,-1.5522052953736056,0.00565011833092945,0.0020562884202361344,2.753911855122283e-05,0.303761257718152,0.118051802573866,0.25908649306972653,0.07966853475551493,0.028961356225794557,0.00038892836190481506,2.194648567913193,0.6084115425808286,1.7182242283310958,0.4834278323379104,0.17885769863065448,0.0016516802604162883,0.36090683442114246,-4.081654027863459,-4.196535674635974,-0.9359685254816069,0.03165963118029813,-8.298252749336165e-05
0.13,0.0237228697479762,1.5796726202014764,-1.5494443625353382,0.006494885802867358,0.0023642212118602127,3.1660500039485816e-05,0.32555025938473625,0.12418651465238295,0.27609328382673837,0.08447674719379085,0.03079327916240784,0.00041213814882629877,2.1334168943570284,0.5454234897731227,1.6426454826670494,0.4598036777817862,0.17144828005180734,0.001418923881567169,0.35774409296874593,-4.147488282456656,-4.221120524364724,-0.940469345887799,0.03125290566100579,-9.52389766806092e-05
0.14,0.027190182842074508,1.5809695237105386,-1.546520873862588,0.0073854563911346215,0.0026897968592545524,3.600133098832194e-05,0.34673130940983077,0.12969035090622563,0.29234886727503473,0.08905705882672629,0.03255756473943399,0.00043408309488361224,2.07096736223927,0.48181379574622973,1.5668704859657927,0.4366614660617376,0.1640060282027651,0.0011858591323852252,0.3542914513732928,-4.214247149633249,-4.245955077755756,-0.9449651895639644,0.03082078590783224,-0.00010788592530839019
0.15,0.030863106064857853,1.5823150945403706,-1.543442357877384,0.008319587844071922,0.003032333232614265,4.054893411536758e-05,0.3672923222783344,0.13455708298319102,0.30785159852039445,0.09341314529372995,0.03425363733597127,0.00045476031270456414,2.007348438418555,0.4177629291624651,1.491064647489943,0.41393136654639395,0.15653465974050995,0.0009537536752084463,0.35051328203556753,-4.28166575010591,-4.270954289262752,-0.9494401711313005,0.03036161675732245,-0.00012089229161212772
0.16,0.03473532291684976,1.5837029175148525,-1.5402163438915457,0.009295070210691996,0.0033911430297650386,4.529063374427878e-05,0.38722168519919076,0.13878229744819037,0.32260139858382353,0.09754823666200742,0.03588097971507735,0.0004741699628911195,1.9426105875748196,0.3534486001463475,1.4153811262860876,0.39156858675998496,0.14904582570111913,0.0007238705869825335,0.3463766489483514,-4.3494856909696935,-4.296035261213564,-0.9538789316376466,0.029873970017063177,-0.00013422555975016616
0.17,0.038800405729018723,1.5851265511724828,-1.5368503473738835,0.010309723252577563,0.003765534835559603,5.0213792148599444e-05,0.40650828121689586,0.14236336576304107,0.3365996517662318,0.10146530418855672,0.03743918057945641,0.0004923158404320666,1.8768067239862696,0.28904516864419627,1.3399626296503135,0.36954686941885306,0.14155531703891633,0.0004974102752353105,0.34185160393927383,-4.417455877302303,-4.321117562947684,-0.9582667104971813,0.02935665843208986,-0.00014785185254330234
0.18,0.04305182088432206,1.5865795452613614,-1.533351856211035,0.01136139522951937,0.004154814427000609,5.5305848161965886e-05,0.4251415155303333,0.14529940888785864,0.34984911628483467,0.10516719769418077,0.0389279591441006,0.0005092056013366442,1.8099924934460885,0.224723128444474,1.2649427560210904,0.34785355763422565,0.13408075023549237,0.0002754759014542696,0.3369114517805934,-4.48533325533918,-4.346123523805677,-0.9625894105257841,0.028808746349320714,-0.00016173603633924715
0.19,0.04748293432275258,1.5880554578326924,-1.529728317763422,0.012447962684019181,0.0045582861836478,6.055435579031693e-05,0.4431113438430524,0.14759125713309926,0.3623538447613021,0.10865674544998115,0.04034717566471914,0.0005248507628351046,1.7422264362776716,0.1606486540929478,1.1904469952307464,0.326485851083683,0.12664015675558815,5.9054075263853534e-05,0.3315329816615374,-4.552883486337862,-4.370978499254586,-0.9668336558765142,0.028229557109519274,-0.0001758418549558324
0.2,0.052087017341484375,1.5895478718906382,-1.5259871266434522,0.013567330940180205,0.004975254517474032,6.594702140726761e-05,0.4604083018731796,0.1492414057945727,0.3741191119969838,0.11193682561610234,0.04169683338262312,0.0005392665616950685,1.6735700627099253,0.0969832011722837,1.1165934719103328,0.30544796694667964,0.11925112763544554,-0.00015099436381094122,0.32569666280805787,-4.619881550453834,-4.395611109533879,-0.9709868427316222,0.02761867723229155,-0.00019013208937383448
0.21,0.0568572526948794,1.5910504115609574,-1.5221356131622477,0.014717435101201859,0.005405025269891572,7.14717386572731e-05,0.47702353533950265,0.15025396703191515,0.38515134812045354,0.1150104161021653,0.04297707524175404,0.0005524717250005485,1.6040878602161477,0.033883152828843674,1.0434934972225576,0.28474898846131014,0.11193030171665086,-0.00035393679923911847,0.31938680239278117,-4.686112280217267,-4.419953450338854,-0.9750371826631424,0.026975957494021218,-0.00020456873962712931
0.22,0.06178674099348972,1.5925567577449338,-1.518181032405383,0.01589624138192558,0.005846907044460461,7.711662054602875e-05,0.49294882986103206,0.15063461839764028,0.39545807568647046,0.11788062807237214,0.044188177456888876,0.0005644881888755641,1.5338472455841536,-0.028500492778284217,0.9712519784274082,0.2644012363649759,0.10469306881792395,-0.0005491667111048315,0.3125916642970089,-4.751370823512527,-4.4439412752158445,-0.9789737386321117,0.026301511030944642,-0.0002191132251693261
0.23,0.06686850739638268,1.594060663228775,-1.514130553908576,0.01710174865261819,0.00630021245681155,8.287002843300757e-05,0.5081766402892964,0.15039054838412352,0.4050478496806992,0.12055072706926073,0.0453305412351089,0.0005753407886978826,1.4629184705246732,-0.0900223981084985,0.8999677238733906,0.24441903823574496,0.09755340908904042,-0.000736198445377978,0.30530354775601565,-4.815463036309061,-4.467514149520033,-0.9827864536556711,0.025595708629268472,-0.00023372659988313163
0.24,0.0720955085869107,1.5955559672220356,-1.5099912519118803,0.018331990100443615,0.006764259291583977,8.872059779984075e-05,0.5227001190528021,0.1495303993260582,0.41393019966958705,0.12302414478254269,0.04640468347724274,0.000585056936683317,1.3913744873677392,-0.1505431279862865,0.829733671951624,0.22481780090354597,0.09052381995914427,-0.0009146599148626144,0.29751882542647146,-4.87820580576245,-4.490615575976558,-0.9864661722305484,0.02485917139094579,-0.00024836977784399865
0.25,0.07746064001832527,1.5970366093017685,-1.5057700961763678,0.019585034938148803,0.007238371561511601,9.465726077671007e-05,0.5365131431414563,0.14806420797328976,0.4221155735512527,0.12530448377051887,0.047411226992762324,0.0005936662976869317,1.319290780133555,-0.20992935979747046,0.7606370656560025,0.20561331396583404,0.0836153003429061,-0.0010842839701663554,0.2892379409466082,-4.9394273046894375,-4.513193092084181,-0.9900046546597807,0.024092760987075388,-0.0002630037659549051
0.26,0.08295674341233539,1.5984966427420828,-1.5014739433510935,0.020858990107108396,0.007721880467297331,0.00010066926548372605,0.5496103394010122,0.14600334403142193,0.42961528252742315,0.12739551689595915,0.04835089057857299,0.0006012004707015987,1.246745165570075,-0.2680540639734312,0.6927595891482022,0.18682122977129834,0.07683737284227554,-0.001244898991101473,0.28046536660131316,-4.998967178812571,-4.5351983398032285,-0.9933945844860056,0.023297567730569024,-0.0002775898996349007
0.27,0.08857661449080416,1.5999302472116188,-1.4971095288806853,0.022152001935349018,0.008214125259256922,0.00010674619229583056,0.5619871078468769,0.14336044695360334,0.43644144704083326,0.12930118282406208,0.049224479195959125,0.0006076926812104514,1.1738175683684429,-0.3247966562547881,0.6261774787210893,0.1684566783683774,0.07019813143832998,-0.0013964191092400435,0.2712095222409984,-5.0566766685602955,-4.556587108171672,-0.9966295692883907,0.022474896715505753,-0.0002920900778680582
0.28,0.09431301091824935,1.6013317408241718,-1.4926834594455212,0.023462257721502573,0.008714454003302332,0.00011287796717496494,0.5736396427445192,0.1401493612553022,0.44260694351640895,0.13102557861535535,0.05003287440454095,0.0006131774879134375,1.100589774548612,-0.3800431229958144,0.5609616174970841,0.15053398587866906,0.0637043063251026,-0.0015388343780733393,0.2614826571209,-5.1124186675906085,-4.577319349690837,-0.9997041351503978,0.02162625228230935,-0.0003064669940989645
0.29,0.10015866043065866,1.6026955915303094,-1.4882022059273694,0.024787987223573803,0.009222224254919975,0.00011905487223652986,0.5845649512409311,0.13638507061375504,0.44812535181516944,0.13257295020712279,0.05077702516176426,0.000617690506156492,1.0271451668618992,-0.43368612062311407,0.497177620855436,0.13306647229059837,0.05736134013095562,-0.0016722011267201742,0.251300696813196,-5.166067720572404,-4.597359171511379,-1.0026137151513388,0.02075332107546407,-0.0003206843596901252
0.3,0.1061062691243416,1.6040164278403546,-1.4836720968937447,0.026127464037521152,0.009736803645537298,0.0001252675537316985,0.5947608693682941,0.1320836310045113,0.4530109033624751,0.13394768139473484,0.05145793906173222,0.0006212681495168635,0.9535684459339488,-0.48562505027836605,0.4348859177865727,0.11606631038387137,0.05117347142579387,-0.0017966326782957731,0.24068305778641003,-5.21750996310337,-4.61667480262753,-1.005354632275455,0.019857953963941678,-0.0003347071169299975
0.31,0.11214852987711234,1.6052890488715406,-1.479099312594233,0.02747900685537436,0.01025757038616138,0.00013150702763503892,0.6042260752770738,0.1272621031185989,0.45727842995115814,0.1351542817853205,0.052076674062408124,0.0006239473903340426,0.8799453407436273,-0.5357661086349564,0.37414183198551443,0.09954443182092984,0.04514382249377302,-0.0019122905663004897,0.22965243263500604,-5.266643006959879,-4.635238538449831,-1.0079240771673632,0.018942147093939342,-0.00034850163889053507
0.32,0.11827813087302191,1.6065084337144904,-1.4744898794617503,0.0288409805962745,0.010783913693480585,0.00013776468302974064,0.612960099590958,0.12193848429498574,0.4609433132482833,0.13619737409001437,0.05263433073192058,0.0006257655394701729,0.8063623118864232,-0.5840223158706059,0.31499566542615065,0.08351046972393344,0.039274489087888664,-0.0020193763403349996,0.2182345492689644,-5.313375774158266,-4.653026664271024,-1.0103200811918431,0.018008022339100527,-0.00036203591377213123
0.33,0.12448776420112231,1.60766975011643,-1.4698496651112083,0.030211797406670862,0.011315234143788619,0.00014403228348176345,0.6209633328100406,0.11613164019397057,0.46402143505419724,0.13708168103963628,0.05313204503080347,0.0006267600452022794,0.732906250899958,-0.6303135217915461,0.2574927863300084,0.06797272953093136,0.03356663040597452,-0.0021181240223597797,0.20645790763262176,-5.357628283553306,-4.6700193592641766,-1.0125414852786687,0.017057807405353974,-0.0003752797117341991
0.34,0.13077013449833355,1.6087683624807076,-1.4651843738274486,0.03158991752813082,0.011850943960150798,0.000150301966590324,0.6282370297211227,0.1098612364277623,0.4665291283759608,0.13781201214599587,0.053570981636217915,0.0006269683108560562,0.6596641787340117,-0.6745663911305501,0.2016737227934795,0.05293818181663368,0.02802055791635727,-0.002208793245595253,0.19435349771057348,-5.399331393905601,-4.686200582754674,-1.0145879050493691,0.01609381583617156,-0.000388204732582864
0.35000000000000003,0.1371179676063801,1.6097998391842547,-1.4604995425335927,0.03297385003295725,0.012390467238208018,0.00015656624189607895,0.634783310804653,0.10314767035471263,0.46848312938558456,0.1383932504826429,0.05395232780572192,0.000626427530575495,0.5867229462301363,-0.7167143690759211,0.14757426283761577,0.038412472171519996,0.0226358219641547,-0.0022916630934280424,0.18195450269451735,-5.438426507512237,-4.701557944587497,-1.0164596927324556,0.01511842714977974,-0.0004007847330656871
0.36,0.14352401921294414,1.6107599592165889,-1.4558005372302143,0.03436215342916868,0.012933240115922642,0.00016281798732062844,0.6406051606564046,0.09601200323341316,0.46990053033784385,0.13883033962114344,0.05427728777146236,0.0006251745424549475,0.5141689392406009,-0.7566976281242206,0.09522556124493708,0.024399944336052748,0.01741129533301322,-0.002367026628063318,0.16929599122917557,-5.474865238611934,-4.716082561466844,-1.0181578963766837,0.01413406732306521,-0.00041299563289935433
0.37,0.149981083447627,1.6116447181458107,-1.4510925498949783,0.03575343613746416,0.013478710892426774,0.00016905044430218976,0.6457064234682868,0.0884758929221728,0.47079873352361157,0.13912827082954787,0.05454707765041325,0.0006232456981561312,0.44208779076784693,-0.7944629973857215,0.04465425324168759,0.010903673591158292,0.012345253138385637,-0.002435186088087321,0.15641460263044576,-5.508609050847815,-4.729768901177488,-1.0196842168687859,0.013143189818035736,-0.00042481559902310536
0.38,0.15648200140399254,1.6124503334187934,-1.446380595831645,0.0371463568436278,0.014026340100949013,0.0001752572117828104,0.6500917956365534,0.08056152729827194,0.4711954063333387,0.13929207061636426,0.05476292085222382,0.0006206767480620633,0.37056410224839853,-0.8299638755037309,-0.004117425156095367,-0.0020744919640931503,0.007435448598406058,-0.002496448733158435,0.1433482288788696,-5.539628868096481,-4.742614616605616,-1.0210409632529323,0.01214825732618045,-0.00043622510792203746
0.39,0.16301966955986263,1.6131732490043924,-1.4416695114566243,0.0385396247304753,0.014575600540580855,0.0001814322391924706,0.6537668155870094,0.07229155855990348,0.4711084375020561,0.13932678868475049,0.05492604396318424,0.0006175027409660201,0.2996811758441575,-0.8631601283732767,-0.05107151050653491,-0.01453388412917933,0.0026791843719267128,-0.0025511232864391525,0.13013569704205677,-5.567904662952925,-4.754620371462803,-1.0222310068344975,0.0111517243843847,-0.00044720698619449896
0.4,0.16958704806911834,1.613810139390012,-1.4369639525105997,0.03993199959394242,0.015125977271407022,0.00018756981856542994,0.6567378509255716,0.06368903856194501,0.4705558946024465,0.13923748634671212,0.05503767308261674,0.0006137579372959342,0.229520759343501,-0.8940179728650749,-0.09619417952470322,-0.02647496284800832,-0.0019266207243915368,-0.0025995169460405823,0.116816455577649,-5.593425027098854,-4.765789659581026,-1.0232577345310259,0.01015602099364503,-0.0004577464298428023
0.41000000000000003,0.17617716889950544,1.614357912943259,-1.4322683926821336,0.04132229184829025,0.015676967577272296,0.00019366457591399636,0.6590120830387096,0.05477735532471506,0.4695559828466058,0.13902922543478313,0.0550990305865272,0.0006094757348566434,0.16016280501850505,-0.9225098477693382,-0.13947561150872834,-0.03789926121382603,-0.006385369705257049,-0.0026419329010704045,0.10343026772139073,-5.616186727679415,-4.776128619591095,-1.0241250019091706,0.009163537349137215,-0.0004678310030417123
0.42,0.18278314379232466,1.6148137146516868,-1.427587122629631,0.042709362425676904,0.0162280809001973,0.0001997114619752028,0.6605974892819219,0.04558017084276739,0.4681270052502431,0.13870705773866573,0.05511133229250063,0.0006046886061206425,0.09168524353638702,-0.9486142731764842,-0.18090984630413098,-0.048809328261907314,-0.010700730111117274,-0.002678668323177903,0.09001691488109653,-5.636194253673266,-4.785645846723157,-1.0248370863184904,0.00817660976762806,-0.0004774506173826357
0.43,0.1893981720213801,1.6151749282547732,-1.4229242493875747,0.04409212257553518,0.016778838750192225,0.00020570574243621145,0.661502822905543,0.03612136030864352,0.466287324205629,0.13827601498582764,0.05507578499949245,0.0005994280461008662,0.024163773785645083,-0.9723156995033724,-0.22049463855681828,-0.05920867039530142,-0.014876581335459216,-0.002710012770576087,0.07661591264520863,-5.6534593560671,-4.794352203378364,-1.0253986405019608,0.007197507876166315,-0.0004865974928009578
0.44,0.19601554793013967,1.6154391777833177,-1.4182836961425573,0.04546953356931499,0.017328774593954963,0.00021164298773524375,0.6617375908759586,0.026424952854444544,0.4640553245017311,0.13774109937798087,0.05499358437627388,0.0005937245299032296,-0.042328330746998585,-0.9936043473574664,-0.25823130903465263,-0.06910169215551809,-0.018916966455195125,-0.0027362469633814,0.06326624168270319,-5.6680005854422095,-4.802260630017572,-1.025814647029626,0.0062284231047816645,-0.0004952661015685013
0.45,0.20262866822770798,1.6156043285223396,-1.4136692023643385,0.04684060631620813,0.017877433725682474,0.00021751906252618952,0.6613120297568297,0.016515073902180183,0.4614493778218927,0.13710727468931386,0.05486591317275094,0.000587607479094578,-0.10772039862240322,-1.0124760394055046,-0.29412459381118095,-0.07849363693377098,-0.022826048388920717,-0.0027576418852599816,0.050006095467482706,-5.6798428303516095,-4.809385957798537,-1.0260903738666232,0.005271458505854073,-0.0005034530968723741
0.46,0.2092310390259015,1.6156684874143616,-1.4090843242769258,0.04820440089548017,0.018424373122973712,0.00022333011488691378,0.6602370798193544,0.006415889202205151,0.4584878087412632,0.1363794579272039,0.054693939729123925,0.0005811052360724259,-0.1719445198843187,-1.0289320253795156,-0.328182492098521,-0.08739052813799297,-0.026608070173017917,-0.0027744581674134794,0.03687264641289331,-5.689016859616003,-4.815744724269588,-1.0262313313505071,0.004328619904141363,-0.0005111572276063426
0.47000000000000003,0.21581628260143237,1.615630002920639,-1.4045324356545443,0.04956002601099643,0.018969161290561958,0.0002290725653436922,0.6585243575530862,-0.003848449372259855,0.45518886223814664,0.13556251155162652,0.054478816758824794,0.0005742450456778429,-0.2349356882271472,-1.0429788013112682,-0.3604161135035855,-0.09579911123858231,-0.03026731912019809,-0.002786945714284006,0.02390183165769243,-5.695558871400477,-4.821354993298196,-1.0262432308160803,0.003401808364365258,-0.0005183792410720124
0.48,0.22237814386892776,1.6154874643584647,-1.4000167289272887,0.05090663837345344,0.01951137809438505,0.00023474309577717245,0.6561861267495388,-0.014253856217422287,0.45157067272557483,0.13466123624570064,0.054221680382309255,0.0005670530433480257,-0.29663192599741434,-1.0546279240378393,-0.3908395254501622,-0.10372679706243915,-0.03380809460837009,-0.0027953435259726045,0.011128159410073871,-5.699510051655241,-4.826236180278995,-1.0261319450693,0.002492813947909771,-0.0005251217753267023
0.49,0.2289104965522271,1.6152397007331514,-1.3955402165812698,0.05224344201571818,0.020050614588285418,0.00024033863826888644,0.6532352683299335,-0.02477636253133932,0.44765123460188494,0.1336803642264739,0.05392364939003657,0.000559554249171398,-0.356974392270796,-1.0638958219660868,-0.4194696014718,-0.11118160664352583,-0.03723467923806756,-0.0027998797049389457,-0.0014154635632965297,-5.7009161442176755,-4.830408883530114,-1.0259034708758754,0.0016033107166799304,-0.0005313892429248289
0.5,0.2354073490430886,1.614885779083655,-1.3911057328381502,0.05356968754654041,0.020586472835428415,0.0002458563639411636,0.6496852490861523,-0.03539216494964301,0.44344837431195905,0.1326245530822227,0.05358582471429957,0.000551772567227716,-0.4159074743693615,-1.0708036030239148,-0.44632587103411425,-0.11817211788368809,-0.04055131309307325,-0.0028007715916850695,-0.013697883016243573,-5.699827034583524,-4.83389472265124,-1.0255638935953224,0.0007348529305641413,-0.0005371877077824672
0.51,0.24186284993809282,1.6144250023610849,-1.3867159355991088,0.05488467134774214,0.0211185657263378,0.0002512936718380136,0.6455500895004213,-0.046077672257009636,0.4389797239041427,0.1314983801201727,0.053209289090938416,0.0005437307896850028,-0.4733788632892853,-1.0753768606615468,-0.47143037149226896,-0.12470741423442133,-0.04376217083998357,-0.002798226016106631,-0.025689826859681318,-5.696296349066384,-4.836716184483596,-1.0251193540579695,-0.0001111276247464613,-0.0005425247568535659
0.52,0.24827129324613934,1.6138569068595305,-1.3823733086384913,0.056187734719807605,0.021646516795271305,0.00025664817788953356,0.640844330804653,-0.056809550155430835,0.43426269606175893,0.1303063372065472,0.05279510689335018,0.0005354506051519986,-0.5293396135981937,-1.0776454786989762,-0.4948075027271652,-0.13079703557289468,-0.04687134140934779,-0.0027924396363883663,-0.03736401359603797,-5.690381070779771,-4.838896477182315,-1.0245760177509662,-0.0009333232506261401,-0.0005474093682437214
0.53,0.2546271232604881,1.6131812592187476,-1.3780801640326645,0.05747826298059949,0.022169960036496916,0.00026191770399789955,0.635583001434874,-0.06756476407828925,0.42931446058266387,0.1290528260791887,0.05234432412256113,0.0005269526108366003,-0.583744188434452,-1.0776434357444646,-0.5164838849462405,-0.13645093139546072,-0.04988281000963246,-0.0027835993496123645,-0.04869524001431437,-5.682141173598917,-4.840459392787499,-1.0239400463500963,-0.001730550966075206,-0.0005518517773066922
0.54,0.2609249390907873,1.6123980530182829,-1.3738386448099105,0.05875568452171715,0.02268853972188138,0.00026710026727885263,0.6297815830299189,-0.07832062004647394,0.4241519222754096,0.12774215411176584,0.05185796853844648,0.0005182563280953075,-0.6365504902991072,-1.0754086098391495,-0.5364882200627641,-0.1416794164295596,-0.052800442237848966,-0.002771882746353982,-0.05966044880228506,-5.671639274992621,-4.841429178562464,-1.023217571607295,-0.0025017522371901914,-0.0005558633421731229
0.55,0.26715949885195467,1.6115075049825898,-1.3696507278075463,0.06001946982679281,0.023201910221065793,0.00027219406948897985,0.6234559761167381,-0.08905480356930306,0.4187917002364197,0.1263785305075656,0.0513370499184413,0.0005093802210127215,-0.6877198783756963,-1.0709825839090965,-0.5548511570050385,-0.14649312872122566,-0.05562797006521558,-0.002757458599559781,-0.0702387768968414,-5.658940308361069,-4.841830417257346,-1.022414671579388,-0.0032459918893305967,-0.0005594564100531024
0.56,0.2733257235081284,1.6105100508166017,-1.3655182267228556,0.061269130455795226,0.023709735825378497,0.0002771974866657514,0.6166224656173722,-0.0997454165988165,0.41325010846905574,0.12496606290024201,0.0507825604312704,0.0005003417176771543,-0.737217173145244,-1.0644104525357125,-0.5716051612363433,-0.150902990229965,-0.05836897949207698,-0.0027404873775954686,-0.08041158552921918,-5.644111215276263,-4.841687916354323,-1.0215373491617707,-0.00396245628682965,-0.0005626441855373169
0.5700000000000001,0.27941870037117866,1.6094063406910908,-1.3614427953448294,0.0625042179991803,0.024211690576521786,0.0002821090590042164,0.609297686305028,-0.11037101255109102,0.4075431378026332,0.12350875433850735,0.050195475114328904,0.0004911572338464977,-0.7850106490843668,-1.0557406304846673,-0.5867843886971391,-0.15492016993590507,-0.06102689968354502,-0.002721121760528411,-0.09016247302980915,-5.62722065779846,-4.84102660625747,-1.0205915128715868,-0.004650450864788884,-0.0005654406019982475
0.58,0.2854336862544672,1.6081972343969646,-1.357425930954156,0.06372432300549649,0.024707458100965363,0.0002869274809916523,0.6014985883288517,-0.12091062941261199,0.4016864390673198,0.12201050063161961,0.04957675244435775,0.0004818421987435909,-0.8310720162448054,-1.0450246633654692,-0.60042456431874,-0.1585560494331535,-0.06360499341576142,-0.0026995071625806055,-0.09947727153891409,-5.60833875083698,-4.8398714473066775,-1.0195829598084778,-0.005309397095975367,-0.000567860197065814
0.59,0.2913661102836577,1.6068837961874303,-1.3534689778793625,0.0649290738858232,0.025196731450885086,0.00029165159181893585,0.5932424029190523,-0.1313438209534365,0.39569530747935144,0.12047508803267071,0.04892733499197237,0.0004724110827283573,-0.8753763915142961,-1.032317040727938,-0.6125628651890525,-0.16182219096336503,-0.06610634868022913,-0.00267578223692988,-0.1083440288270428,-5.587536814336394,-4.838247345420304,-1.018517360706929,-0.005938828973266669,-0.0005699179930233732
0.6,0.2972115763674183,1.605467289326711,-1.3495731311974606,0.06611813579819348,0.02567921295239933,0.0002962803660853688,0.5845466083760561,-0.14165068607192496,0.3895846681901875,0.11890619123702767,0.04824815015142419,0.00046287742664329366,-0.91790226035217,-1.017675011840281,-0.623237808391413,-0.1647303078237834,-0.06853387131323707,-0.0026500793811125023,-0.11675297646323371,-5.564887144901597,-4.8361790761066175,-1.0174002469828443,-0.0065383890846209755,-0.0005716293828422573
0.61,0.30296586533181297,1.6039491703637285,-1.3457394405679304,0.06729120951493166,0.02615461406177619,0.00030081290481149273,0.5754288964394652,-0.15181189629824277,0.3833690629530107,0.11730737167381852,0.04754011093768622,0.0004532538726123954,-0.9586314297802737,-1.0011584043348223,-0.63248914348224,-0.16729223705542262,-0.07089027853429819,-0.0026225252042001435,-0.12469648558484052,-5.540462806326601,-4.83369121652836,-1.0162369996677973,-0.007107824353351408,-0.0005730100224474666
0.62,0.308624936723061,1.6023310831488717,-1.3419688141893271,0.06844803027562317,0.026622655230211987,0.00030524842677294586,0.5659071391248042,-0.16180872148567405,0.37706263786031696,0.11568207606915161,0.04680411684357965,0.0004435521961453125,-0.9975489733909458,-0.982829445854543,-0.6403577495129729,-0.1695199143196522,-0.07317809329706115,-0.002593240990696577,-0.1321690115195783,-5.514337438362246,-4.830808085258277,-1.0150328401175335,-0.007646981511707,-0.0005740757296862353
0.63,0.3141849302841454,1.6006148526116708,-1.3382620228682545,0.06958836662822887,0.0270830657777137,0.000309586260166493,0.5559993561084368,-0.1716230537200975,0.3706791321072737,0.11403363526056937,0.04604105475017122,0.0004337833393547117,-1.0346431691106939,-0.9627525887836047,-0.6468855364621637,-0.17142535083061938,-0.07539963937256289,-0.002562343117957333,-0.1391670284929187,-5.486585082947558,-4.827553689325824,-1.0137928223764354,-0.008155802370558067,-0.0005748423903551402
0.64,0.3196421671114819,1.598802478316883,-1.3346197041908858,0.07071201926066281,0.027535583776554705,0.0003138258346182118,0.5457236827336536,-0.18123742947878566,0.3642318677368694,0.11236526324339413,0.045251799884100746,0.00042395744517188116,-1.0699054304312472,-0.9409943381026393,-0.6521153508912358,-0.17302061222601317,-0.07755703710107564,-0.002529943465748641,-0.14568895562354955,-5.457280027037148,-4.823951678125846,-1.0125218270767473,-0.00863431894249003,-0.0005753258715323255
0.65,0.3249931504985202,1.5968961278161824,-1.3310423667876385,0.07181881982496974,0.027979955944713048,0.00031796667354215715,0.5350983387038248,-0.19063505007007334,0.35773374032472666,0.11068005643069308,0.04443721681583436,0.0004140838923945344,-1.1033302317898588,-0.9176230823701605,-0.6560908856049585,-0.1743177992298781,-0.07965219976603777,-0.002496149775797818,-0.15173507536890948,-5.426496661082067,-4.820025303738382,-1.0112245567500704,-0.009082648469954184,-0.0005755419423594455
0.66,0.33023456647373706,1.5948981298123281,-1.327530394682002,0.07290862975606877,0.02841593754964391,0.0003220083868568997,0.5241415975216883,-0.19979980038543316,0.35119721056364006,0.10898099310990216,0.0435981604930862,0.0004041713314742553,-1.1349150287488934,-0.8927089277991974,-0.658856593064747,-0.1753290299567496,-0.08168683055726067,-0.0024610659954273917,-0.1573074455339967,-5.394309352163874,-4.8157973871945545,-1.009905532428985,-0.009500988404425098,-0.0005755062023241768
0.67,0.3353632840410105,1.5928109671523765,-1.324084051714898,0.07398133908687393,0.02884329232268212,0.00032595066406595325,0.5128717567273434,-0.2087162659951652,0.3446342967104111,0.10727093308051727,0.042735477303821226,0.0003942277209053582,-1.1646601735914819,-0.86632353537097,-0.660457602270683,-0.17606642371848347,-0.08366242010527003,-0.002424792578348489,-0.16240980590174903,-5.360792330738874,-4.811290290215681,-1.0085690914182586,-0.009889611376875032,-0.0005752340170086296
0.68,0.340376355130824,1.5906372696661935,-1.320703486036294,0.07503686526145946,0.029261792384315602,0.0003297932677072001,0.5013071089813455,-0.21736974861830263,0.3380565678603794,0.10555261745855257,0.04185000616334829,0.00038426036412468205,-1.1925688269159227,-0.8385399609048995,-0.6609396388176849,-0.176542086159158,-0.08558024458108893,-0.0023874267617847167,-0.16704748048415397,-5.326019589922273,-4.806525891951254,-1.0072193861179384,-0.01024886019438646,-0.000574740461192469
0.6900000000000001,0.3452710142711585,1.5883798068662285,-1.3173887346561142,0.0760751519478099,0.02967121818051601,0.00033353602717527673,0.4894659140334565,-0.22574627999650795,0.331475138017997,0.1038286686350435,0.04094257962004088,0.00037427594680766296,-1.2186468657771257,-0.8094324979886991,-0.6603489478062714,-0.17676809557669682,-0.08744136436798833,-0.0023490627947583276,-0.17122727633149637,-5.290064796227615,-4.801525570245113,-1.0058603837844395,-0.010579142892463466,-0.0005740402691315384
0.7000000000000001,0.3500446779872797,1.586041480524221,-1.3141397280467644,0.07709616785158195,0.030071358430257933,0.0003371788329201687,0.47736637161211365,-0.2338326342007492,0.3249006609349718,0.10210159037720626,0.040014024974192125,0.00036428057448919827,-1.2429027888890425,-0.7790765236610635,-0.658732219284395,-0.1767564902723695,-0.08924662332219047,-0.0023097921621968442,-0.1749573797742063,-5.253001210675455,-4.796310186967818,-1.0044958671203899,-0.010880927867633767,-0.0005731477917738284
0.71,0.35469494393992484,1.5836253171402364,-1.310956294789857,0.0780999055322053,0.030462010084302157,0.00034072163102388966,0.4650265952645162,-0.24161633839844884,0.31834332569073154,0.10037376806233561,0.03906516540442245,0.00035427981037209797,-1.2653476193683497,-0.7475483467322819,-0.6561365158963675,-0.1765192567679379,-0.0909966486481153,-0.0022697037423738964,-0.17824725090882013,-5.214901619194773,-4.790900076965982,-1.003129435589346,-0.011154739110308556,-0.0005720769606240923
0.72,0.3592195898116489,1.58113446031916,-1.307838166259925,0.07908638022256535,0.030842978295261544,0.00034416441815674664,0.4524645871724098,-0.24908568210763105,0.31181285299319794,0.0986474690360047,0.03809682109593873,0.0003442787132856972,-1.2859948054664045,-0.7149250586283229,-0.6526092024102457,-0.17606831875023365,-0.09269185142286407,-0.0022288839580446584,-0.18110751707758718,-5.175838271260283,-4.78531504019561,-1.001764507357337,-0.011401151553625902,-0.0005708412579262894
0.73,0.36361657195129043,1.5785721630695257,-1.3047849813381136,0.08005562865343993,0.031214076398909257,0.0003475072369134006,0.43969821396415026,-0.25622972496342683,0.30531849218112983,0.09692484308745823,0.03710981036477127,0.0003342818756653967,-1.3048601197045724,-0.6812843866458153,-0.6481978768076304,-0.1754155266014883,-0.0943324278110298,-0.002187416886989424,-0.18354986603103363,-5.135882825737754,-4.779574336626018,-1.0004043217695113,-0.011620786550172572,-0.0005694536927989829
0.74,0.3678840237866849,1.5759417800393143,-1.301796291148989,0.08100770788380413,0.0315751259066285,0.0003507501715281844,0.4267451835394469,-0.2630383030211501,0.29886901891244594,0.09520792303641981,0.03610495077192429,0.00032429346147837864,-1.3219615567970555,-0.6467045495127992,-0.6429503026320006,-0.174572647371674,-0.09591836101463169,-0.002145384342501444,-0.18558693940487803,-5.095106302945939,-4.773696683522626,-0.9990519422766925,-0.011814307485075582,-0.0005679267829322196
0.75,0.372020254015878,1.5732467597031234,-1.2988715638137294,0.08194269413807287,0.03192595650884022,0.0003538933439682385,0.4136230229193127,-0.26950203361908703,0.29247273352597286,0.09349862542687394,0.03508306022117195,0.0003143172440054069,-1.3373192307156956,-0.6112641151609864,-0.6369143423051861,-0.17355135507963393,-0.09744942400907419,-0.0021028659249294757,-0.187232227087542,-5.053579041987286,-4.7677002547408875,-0.9977102597333978,-0.011982415530987946,-0.0005662725414351175
0.76,0.3760237445871797,1.5704906365148916,-1.2960101892130598,0.0828606816513176,0.03226640608918028,0.0003569369104021079,0.4003490571301645,-0.2756123188231771,0.28613746006695,0.0917987513244739,0.034044958034005764,0.00030435664338694,-1.3509552712228576,-0.5750418606288213,-0.6301378911478714,-0.17236322121288028,-0.0989251831177187,-0.0020599390477232804,-0.18849996300229416,-5.0113706624489005,-4.761602681688843,-0.9963819959956705,-0.012125845547956426,-0.000564502468410575
0.77,0.3798931484784568,1.5676770230401422,-1.293211483753367,0.08376178152347195,0.032596320749130436,0.00035988105804047406,0.3869403891277124,-0.28136134747494007,0.27987054596926486,0.09010998721543455,0.03299146599501547,0.00029441476383661744,-1.3628937201718896,-0.5381166340320418,-0.6226688118571787,-0.171019705337903,-0.10034500247647049,-0.0020166789372646488,-0.1894050227789991,-4.968550029629517,-4.755421055642275,-0.9950697077538772,-0.012245362129050094,-0.0005626275468269357
0.78,0.38362728728608914,1.5648096020815088,-1.2904746951294686,0.08464612058352833,0.03291555484273828,0.00036272600234473325,0.3734138807632371,-0.2867420958633487,0.2736788623898423,0.08843390600563689,0.03192340936078446,0.0002844944304259218,-1.373160427848888,-0.5005672185561711,-0.6145548692314496,-0.16953214570956243,-0.10170804944164669,-0.001973158599744229,-0.18996282374443807,-4.925185222506331,-4.74917193112345,-0.9937757905423038,-0.012341755790922991,-0.0005606582422553369
0.79,0.3872251486340098,1.5618921188111,-1.2877990070775414,0.08551384026472533,0.033223971020990097,0.00036547198459827484,0.3597861347920651,-0.29174832704087517,0.2675688051927138,0.08677196811970099,0.030841617825181838,0.0002745982253541589,-1.3817829496056908,-0.4624721984476633,-0.6058436649550548,-0.1679117498104934,-0.10301330099162342,-0.0019294487866258203,-0.19018922761720375,-4.881343503717137,-4.742871330081854,-0.9925024828739424,-0.012415839307167043,-0.0005586045060454858
0.8,0.39068588341322474,1.558928372923063,-1.2851835441117199,0.08636509549172998,0.03352144028532771,0.00036811926983395995,0.34607347792149606,-0.29637458880368817,0.26154629658215006,0.08512552270046482,0.0297469264337615,0.0002647285235685092,-1.3887904430114766,-0.4239098270013615,-0.5965825722913971,-0.16616958474930588,-0.10425955116577335,-0.001885617909056836,-0.1901004462530208,-4.837091290896754,-4.736534746642601,-0.9912518704551658,-0.01246844418135079,-0.0005564757815210055
0.81,0.3940088028621558,1.5559222108195037,-1.2826273762378624,0.08720005358082984,0.03380784204972642,0.0003706681451107206,0.33229194489310554,-0.30061621035593644,0.25561678738575355,0.08349580890998627,0.02864017643987073,0.0002548875276760639,-1.3942135657288137,-0.38495789656541957,-0.5868186705688451,-0.16431656745858803,-0.10544541958510134,-0.0018417319658816655,-0.18971295074883346,-4.792494128772243,-4.730177152215341,-0.9900258904410563,-0.012500417256007413,-0.0005542810127879391
0.8200000000000001,0.397193375498078,1.5528775178427212,-1.2801295236379668,0.0880188931541673,0.034083064210676015,0.0003731189181306159,0.31845726359222215,-0.3044692976782515,0.24978525998955875,0.0818839573337462,0.027522216094959556,0.0002450773019895327,-1.3980843743007614,-0.3456936106082886,-0.5765986793757756,-0.1623634546538235,-0.10656936108371884,-0.0017978544346910486,-0.18904338417884717,-4.747616661487806,-4.723813000782813,-0.9888263356978976,-0.012512617453496994,-0.0005520286557657732
0.8300000000000001,0.40023922390983246,1.549798210566511,-1.2776889613186866,0.08882180306906845,0.03434700322433187,0.0003754719161868939,0.3045848411754474,-0.30793072762103113,0.24405623192801856,0.08029099149011454,0.02639390136558541,0.00023529980562780653,-1.400436224016628,-0.306193457915542,-0.5659688924201696,-0.16032083252161744,-0.10762967647847788,-0.0017540461550153985,-0.1881084782026507,-4.702522604696932,-4.717456234214041,-0.9876548590447786,-0.012505912644587813,-0.0005497266910690991
0.84,0.4031461214218859,1.5466882291590736,-1.2753046237173646,0.08960898136354291,0.03459956419002815,0.00037772748543238045,0.2906897512053393,-0.3109981407437305,0.23843376013220027,0.07871782944744599,0.025256096569628683,0.00022555692454864947,-1.4013036700069548,-0.2665330890075382,-0.5549751110436071,-0.15819910612211485,-0.1086245244917956,-0.0017103652130600056,-0.1869249737543025,-4.657274717026013,-4.711120287471771,-0.9865129774512937,-0.012481176640743125,-0.0005473826383891565
0.85,0.4059139886396839,1.5435515298298508,-1.2729754092589685,0.09038063421905616,0.03484066093927154,0.00037988599045616424,0.27678672177980324,-0.3136699329222819,0.2329214458396136,0.07716528555132568,0.024109674924338603,0.0002158505023783821,-1.4007223697028033,-0.22678719489072793,-0.5436625774163765,-0.15600848849970106,-0.10955193482798808,-0.0016668668045567436,-0.18550954599156116,-4.611934770579293,-4.704818093607366,-0.9854020761730228,-0.012439286306424952,-0.0005450035720475995
0.86,0.408542889886107,1.540392077372372,-1.27070018485728,0.09113697494170162,0.035070216129261915,0.0003819478141555951,0.2628901246423089,-0.3159452457478816,0.22752244016882764,0.07563407226454566,0.02295551899903747,0.00020618236994308627,-1.3987289867791464,-0.18702938827667517,-0.5320759074741017,-0.15375898951361067,-0.11040982239753738,-0.0016236031081096058,-0.18387873365602653,-4.5665635202196375,-4.698562088458689,-0.9843234128107605,-0.012381118788199443,-0.0005425961374194261
0.87,0.41103302953868476,1.537213837814955,-1.268477790353666,0.09187822296292457,0.03528816133991747,0.000383913357889189,0.24901396525777791,-0.3178239557417094,0.2222394503614277,0.07412480212229522,0.02179452106555501,0.00019655437335938837,-1.3953610966895467,-0.1473320874220758,-0.5202590236936362,-0.15146040440045505,-0.11119600266214391,-0.0015806231482232702,-0.18204887296761904,-4.521220671422741,-4.692364214987552,-0.9832781212833791,-0.012307548858011398,-0.0005401665679476919
0.88,0.4133847482770632,1.5340207711908382,-1.266307042886737,0.09260460286097383,0.03549443717331597,0.0003857830418949973,0.2351718738378409,-0.31930666241167127,0.21707474669289445,0.07263798980492575,0.020627583339850358,0.00018696840058083343,-1.390657093886753,-0.10776640276086256,-0.5082550878318675,-0.1491223021091792,-0.11190820806413537,-0.0015379726730720966,-0.1800360361503553,-4.475964846562771,-4.686235927212632,-0.9822672157076829,-0.012219446368655743,-0.000537720702498985
0.89,0.4155985192500446,1.5308168244390488,-1.2641867411862093,0.0933163434042767,0.035688993354403176,0.0003875573059576284,0.22137709729814017,-0.3203946751789536,0.2120301700527476,0.07117405433028814,0.019455618108720804,0.00017742640626311208,-1.3846561008131775,-0.06840202651498692,-0.4961064337877663,-0.1467540134416847,-0.11254410548619198,-0.0014956940351966708,-0.17785597466063666,-4.430853549546372,-4.6801881937119765,-0.981291594181765,-0.012117673820176977,-0.0005352640028353396
0.9,0.41767494417133905,1.5276059244470084,-1.2621156697842824,0.09401367661794985,0.03587178883176365,0.0003892366103060047,0.207642492129443,-0.3210899992040379,0.20710714019270424,0.06973332136731432,0.018279547736047636,0.0001679304348376264,-1.3773978787358416,-0.0293071254837515,-0.4838545007723528,-0.14436461904963327,-0.11310131466907514,-0.0014538260874934483,-0.17552406716413602,-4.38594312876722,-4.674231500685561,-0.9803520424710688,-0.012003084036643196,-0.0005328015710049069
0.91,0.4196147493529742,1.5243919712455702,-1.2600926031378847,0.09469683687467022,0.036042791877200546,0.00039082143672273395,0.1939805181635143,-0.3213953201438155,0.20230666463976085,0.06831602567203662,0.017100304543689195,0.00015848264167292618,-1.3689227404915671,0.009451762777529201,-0.47153976699678846,-0.14196293734627186,-0.11357742750398092,-0.0014124040899633483,-0.17305527228278933,-4.341288738406136,-4.668375854583362,-0.979449237598742,-0.011876517953444302,-0.000530338166480063
0.92,0.42141878168511393,1.5211788313668348,-1.2581163096551946,0.09536606001113702,0.03620198018282909,0.0003923122898449414,0.18040323321397322,-0.3213139878735421,0.19762934826901393,0.06692231364668089,0.01591883056285407,0.0001490853122207494,-1.3592714652018703,0.04780983016987414,-0.45920168410965934,-0.13955751240304703,-0.11397002809178858,-0.0013714596378457955,-0.1704640861093214,-4.296944298150803,-4.662630784317635,-0.9785837513438398,-0.011738802515925333,-0.0005278782228973031
0.93,0.42308800457083096,1.5179703313747392,-1.2561855556199073,0.09602158247135514,0.036349340954355595,0.0003937096986353315,0.16692228857170424,-0.32084999920956586,0.1930754035287291,0.06555224602181144,0.014736077152650764,0.00013974087903900916,-1.3484852150102817,0.08570409442999491,-0.44687861263992884,-0.13715660188847312,-0.11427671345386425,-0.0013310206186200046,-0.16776450446319,-4.252962451454979,-4.657005343090092,-0.9777560536526045,-0.011590748690767691,-0.000525425864278137
0.9400000000000001,0.4246234938241691,1.5147702515780292,-1.2542991090068312,0.09666364047796444,0.036484870999189685,0.0003950142180011864,0.15354892533381057,-0.320007979670998,0.18864466130762417,0.06420580066092982,0.013553004483409077,0.00013045193658548678,-1.3366054538909862,0.12307349144778999,-0.4346077587064076,-0.1347681651462731,-0.1144951147560409,-0.0012911111863377345,-0.16496998983886405,-4.20939452249876,-4.651508109874725,-0.9769665159693646,-0.011433149592053951,-0.0005229849206339223
0.9500000000000001,0.4260264335396147,1.5115823199348215,-1.252455743182514,0.09729246923282484,0.03660857680802366,0.0003962264305382683,0.14029397154456325,-0.31879316432077986,0.18433658243172046,0.06288287548603952,0.012370580883397415,0.0001212212537081902,-1.323673868573642,0.1598589632947595,-0.4224251122810202,-0.1323998514708865,-0.11462291889779763,-0.0012517517700455505,-0.1620934429750207,-4.166290472049571,-4.646147190605994,-0.9762154144946242,-0.011266778724380361,-0.0005205589428800087
0.96,0.42729811194087786,1.5084102061575329,-1.2506542404847614,0.0979083021480457,0.03672047462850994,0.0003973469483757497,0.12716784012631172,-0.3172113777288737,0.18015026977527104,0.06158329152208645,0.011189782048628198,0.00011205178374813906,-1.3097322916271463,0.1960035417369319,-0.41036538728923094,-0.13005898868189703,-0.1146578903030635,-0.0012129591083775981,-0.1591471789516725,-4.123698852457088,-4.640930219129315,-0.9755029333786481,-0.011092388345704918,-0.0005181512170055376
0.97,0.42843991721665653,1.5052575160265071,-1.248893395675087,0.09851137010861814,0.03682059052967586,0.0003983764150977388,0.11418052757786581,-0.3152690131025651,0.17608448096744223,0.06030679605724449,0.010011590116591845,0.00010294667219891051,-1.294822626743742,0.23145242701208182,-0.3984619638457519,-0.127752572071537,-0.11459789273824406,-0.0011747463216512655,-0.15614290770154393,-4.08166676204509,-4.635864357976772,-0.9748291678593182,-0.010910707952829283,-0.0005157647774646006
0.98,0.4294533333508308,1.5021277859201965,-1.2471720192583524,0.09910190076777092,0.036908960455735364,0.00039931550771641234,0.10134161341742699,-0.3129730106310704,0.17213764167346426,0.059053065915278424,0.008836992605950285,9.390926186735323e-05,-1.2789867762645946,0.2661530616580694,-0.38674683292070433,-0.12548725381551173,-0.11444091097240872,-0.001137123015154562,-0.15309171880233943,-4.040239799188299,-4.630956299035627,-0.9741941273532965,-0.010722442892506224,-0.0005134024197721307
0.99,0.4303399359542981,1.4990244775692587,-1.245488940664092,0.09968011787612448,0.03698563026798993,0.0004001649386714899,0.0886602603467279,-0.31033083509377374,0.16830785942602675,0.05782171083535496,0.007666981225456324,8.49430955077541e-05,-1.262266570988338,0.30005519918930584,-0.37525054373214584,-0.12326933293023279,-0.11418507208907247,-0.0011000954188156165,-0.1500040703980243,-3.999462016383209,-4.62621226418042,-0.9735977385095196,-0.010528273101136874,-0.0005110667123037226
