tonegas/nnodely-applications/joint_friction_estimation/dataset/train/mpc_mujoco_episode_29.csv
time,q1,q2,q3,q4,q5,q6,dq1,dq2,dq3,dq4,dq5,dq6,ddq1,ddq2,ddq3,ddq4,ddq5,ddq6,tau1,tau2,tau3,tau4,tau5,tau6
0.0,0.0,1.57,-1.57,0.0,0.0,0.0,0.0,0.0,0.0,0.0,0.0,0.0,-9.462775806944354,6.238489683398962,2.265549701830853,0.547979707708663,-1.3477965446874904,-1.5675821103400267e-06,-1.318846685322362,-0.9978080956789137,-3.1190683309920137,-0.7214423857173007,-0.11894217101661529,-0.0017891610290452164
0.01,-0.000941233394290962,1.5706226060603954,-1.5697730535357644,5.304653005613531e-05,-0.00011453839354146068,-1.1454547522976589e-06,-0.09412333942909619,0.06226060603952966,0.022694646423567714,0.005304653005613531,-0.011453839354146069,-0.00011454547522976588,-9.330222833383848,6.120463708448902,2.145732017726152,0.48517292058363637,-1.1224240999942836,-0.01140690022969082,-1.3119250415244772,-1.083774625282647,-3.1576360322188624,-0.7301359843574312,-0.11812221395627549,-0.0017810757493156237
0.02,-0.0028098146936704127,1.5718560256684415,-1.56933124929622,0.00015357026820667235,-0.0003294551428541759,-3.4774080969838915e-06,-0.18685812993794504,0.12334196080461515,0.04418042395445317,0.010052373815053705,-0.02149167493127152,-0.00023319533446862327,-9.181189956513883,5.993205339284928,2.0161696628746153,0.42648658577124365,-0.9774977451967644,-0.01167039071107645,-1.3102609642068141,-1.186975377837383,-3.1994747196861164,-0.7392268359882914,-0.11756060150956144,-0.0017724562032097638
0.03,-0.005590519863255848,1.5736875375151171,-1.5686875999797485,0.00029626619001283955,-0.0006353746097711259,-6.909286147620941e-06,-0.27807051695854357,0.18315118466755198,0.06436493164715121,0.014269592180616719,-0.030591946691695,-0.00034318780506370494,-9.018384463263349,5.856580638695967,1.8778109429287237,0.3706309521459801,-0.8793891418184643,-0.010556170258596786,-1.3133865178582067,-1.3068333005843713,-3.244487127353363,-0.7487046072544759,-0.1172236063401029,-0.0017631243880308982
0.04,-0.009266937188443475,1.5761034797174898,-1.5678559588263434,0.0004759990315461124,-0.0010256828723602706,-1.1358782300813686e-05,-0.36764173251876264,0.2415942202372525,0.0831641153405132,0.017973284153327284,-0.039030826258914464,-0.00044494961531927447,-8.84332893943051,5.710517211867745,1.7315304598179075,0.31667714327231167,-0.807979504080258,-0.009392658460607883,-1.320810851910535,-1.4427133853362943,-3.2925472536642966,-0.7585525812739371,-0.11707431951794779,-0.001752908148201388
0.05,-0.013821546773036618,1.579089243846411,-1.5668509409372267,0.000687736803057362,-0.001495316519888443,-1.675686125068032e-05,-0.4554609584593142,0.2985764128921268,0.1005017889116791,0.021173777151124965,-0.046963364752817253,-0.0005398078949866636,-8.656829528542406,5.5549997262072495,1.5781554640758788,0.2639768732969756,-0.7512837081909112,-0.008285483430215734,-1.3320205240038947,-1.5939251407782429,-3.3435027753761006,-0.7687483525886333,-0.11707333218114671,-0.001741635744627536
0.06,-0.019235757068690875,1.5826292744055566,-1.565687847331221,0.000926505821941716,-0.002040042090086497,-2.304256643736976e-05,-0.5414210295654258,0.35400305591455494,0.11630936060055994,0.02387690188843539,-0.05447255701980541,-0.0006285705186689438,-8.459265737590956,5.390068953678983,1.4184859827251355,0.2120966820379273,-0.7022348691501179,-0.007201294740216468,-1.3464795612380833,-1.7597239723473397,-3.3971770859547146,-0.7792644470956407,-0.11717938331171898,-0.0017291361567396742
0.07,-0.025489916166623494,1.5867070737320639,-1.5643825902131887,0.0011873622188018945,-0.0026560324974365538,-3.015854315766522e-05,-0.6254159097932618,0.4077799326507414,0.13052571180322575,0.026085639686017854,-0.06159904073500566,-0.0007115976720295457,-8.250771185063908,5.215822699869195,1.2533094718816002,0.160767076183717,-0.6567425594710059,-0.006115016175472832,-1.3636296574157096,-1.9393122417121598,-3.453371241972613,-0.7900689237027803,-0.11734999138581093,-0.0017152422818889753
0.08,-0.032563309062950734,1.5913052124573146,-1.562951618362133,0.0014653760518876168,-0.003339623281857275,-3.804842174425601e-05,-0.7073392896327237,0.4598138725250651,0.14309718510557684,0.027801383308572233,-0.06835907844207209,-0.0007889878586590792,-8.031347691784221,5.03241757337761,1.0834110041787,0.10984350808758947,-0.6125168141343167,-0.005020030477442816,-1.3828907976655362,-2.131840517139827,-3.511865996468619,-0.8011259910548,-0.11754207801346926,-0.001699795416743124
0.09,-0.040434148124376186,1.5964053457366951,-1.5614118419007026,0.0017556250630948553,-0.00408717770336622,-4.6655532148209924e-05,-0.7870839061425454,0.5100133279380583,0.15397764614304707,0.029024901120723853,-0.0747554421508945,-0.0008607110403953909,-7.800938564901392,4.8400709260801404,0.9095798327678803,0.05927635061830472,-0.5683547026213915,-0.003922000833982864,-1.4036625254720816,-2.3364093506639674,-3.5724240273102508,-0.8123966570081517,-0.11771258505875273,-0.0016826500986958446
0.1,-0.04907956153681626,1.6019882354648785,-1.5597805560001838,0.002053195784173712,-0.004895017630844629,-5.592243910033269e-05,-0.8645413412440075,0.558288972818342,0.16312859005187083,0.029757072107885668,-0.08078399274784083,-0.0009266906952122765,-7.5594767578730515,4.63906253027503,0.7326129987400414,0.009087648095317036,-0.523706587905501,-0.0028331224283943968,-1.425326005912923,-2.552071797069907,-3.6347924185154654,-0.823839417654661,-0.11781908228968649,-0.0016636787711914556
0.11,-0.05847558300478411,1.6080337786603003,-1.558075363318079,0.002353190208687336,-0.005759394050552683,-6.57909568652399e-05,-0.9396021467967849,0.6045543195421882,0.17051926821047692,0.029999442451362376,-0.08643764197080539,-0.0009868517764907202,-7.306917360098817,4.4297357090812834,0.5533165157462925,-0.04064703437974515,-0.47841158956025254,-0.0017682666871916553,-1.4472469841350324,-2.777836802316456,-3.698705415128175,-0.8354109847528696,-0.11782035964943857,-0.0016427759524332763
0.12,-0.06859714501005337,1.6145210421431893,-1.5563140951680152,0.0026507366256947247,-0.006676481224664526,-7.620243007912037e-05,-1.0121562005269258,0.6487263482889022,0.17612681500638622,0.02975464170073886,-0.09170871741118439,-0.0010411473213880484,-7.04326007212162,4.212497736524548,0.37250456987056957,-0.08981291907505806,-0.4325355343729598,-0.000742563364491744,-1.4687796857135922,-3.012673521920576,-3.763887442812818,-0.8470670443674875,-0.11767699632934839,-0.0016198617107755597
0.13,-0.07941807730699636,1.6214283035551706,-1.5545147315903034,0.0029410034972196485,-0.00764238470691815,-8.709814857331954e-05,-1.0820932296942993,0.6907261411981449,0.1799363577711884,0.02902668715249236,-0.09659034822536237,-0.001089571849419917,-6.768565023153533,3.987819394063508,0.19099710500737554,-0.1382674164885369,-0.38627113886650477,0.00023006136093872698,-1.4892716542901265,-3.2555165752257196,-3.83005635923605,-0.8587630347912061,-0.11735189770998766,-0.0015948843257637057
0.14,-0.09091111189220699,1.628733098681762,-1.5526953206303236,0.003219215477669321,-0.008653157170281896,-9.841981463895553e-05,-1.1493034585210622,0.7304795126591538,0.18194109599799435,0.027821198044967216,-0.10107724633637459,-0.0011321666065635992,-6.4829639098666565,3.7562336228201785,0.009616116171954125,-0.18584931191536747,-0.33987614817583633,0.0011377180730933745,-1.5080694722046804,-3.5052721950613286,-3.89692688431178,-0.870454928177953,-0.11681079077757692,-0.001567822064878069
0.15,-0.10304789535643666,1.6364122749470151,-1.5508738972440312,0.0034806708378877457,-0.00970481828543477,-0.0001101100126571732,-1.213678346422967,0.7679176265252988,0.18214233862923385,0.026145536021842483,-0.10516611151528749,-0.0011690198018217677,-6.1866676220716865,3.5183332523206636,-0.17081906095537125,-0.23238624823932597,-0.29363479134634574,0.0019709687014684008,-1.5245252630638617,-3.7608251920124225,-3.9642141401014044,-0.8820999976708628,-0.1160226687374657,-0.0015386840449210016
0.16,-0.11579900926052238,1.6444420508560968,-1.5490684023373416,0.0037207596833507893,-0.01079337629058846,-0.00012211265084686649,-1.2751113904085714,0.8029775909081663,0.18054949066896206,0.02400888454630435,-0.10885580051536901,-0.0012002638189693292,-5.87997105165276,3.274767820897344,-0.34949720112385396,-0.27770087856078707,-0.24783371309694147,0.002722959311842743,-1.5380038330964645,-4.021046617645898,-4.031637218641665,-0.8936575501640451,-0.11496017617598892,-0.0015075101797804211
0.17,-0.1291339989477341,1.6527980810700589,-1.547296602510455,0.003934982455549347,-0.011914849762842896,-0.00013437335757179219,-1.3334989687211725,0.8356030213962049,0.17717998268865426,0.021422277219855738,-0.11214734722544363,-0.0012260706724925696,-5.563255519795924,3.0262395320069886,-0.52562113803521,-0.3216159600549586,-0.2027470268214131,0.0033893634667379047,-1.547890272595922,-4.284801981654612,-4.098922687478707,-0.9050896042246914,-0.11359992721205503,-0.0014743702456754917
0.18,-0.14302141099924087,1.6614555267102065,-1.5455760111205903,0.004118968285631117,-0.01306528864917878,-0.00014683982290372932,-1.3887412051506762,0.8657445640147587,0.17205913898646946,0.01839858300817702,-0.11504388863358836,-0.0012466465331937148,-5.236989120051138,2.77349841546765,-0.6984139844417392,-0.3639585847965696,-0.15862722356791537,0.0039682010633477205,-1.5535978114130187,-4.550959854432421,-4.165807938503436,-0.9163614931407128,-0.11192275056701789,-0.0014393621217543863
0.19,-0.1574288393510299,1.6703891304097649,-1.543923811298249,0.004268492835609178,-0.014240793967455772,-0.00015946208158121127,-1.4407428351789004,0.8933603699558351,0.1652199822341438,0.014952454997806099,-0.11755053182769912,-0.0012622258677481935,-4.9017252092593555,2.5173367833187754,-0.8671254147387772,-0.40456368790669206,-0.1156999234833549,0.004459579879493969,-1.5545757046688524,-4.818400669641036,-4.232044285997763,-0.9274423745342778,-0.10991385728997943,-0.0014026092879359186
0.2,-0.1723229799176606,1.6795732955599494,-1.542356781554298,0.004379495319059235,-0.0154375358198867,-0.00017219273711737153,-1.489414056663072,0.9184165150184566,0.156702974395102,0.011100248345005788,-0.11967418524309296,-0.0012730655536160275,-4.558099252702243,2.258583086639887,-1.0310378184497178,-0.443276933569674,-0.07416120585957486,0.004865394972000114,-1.5503169173945301,-5.086025531373732,-4.297399724634323,-0.9383056304325945,-0.10756292891324763,-0.0013642576825815902
0.21,-0.18766969341094072,1.6889821691376947,-1.5408912245992517,0.0044480944431699865,-0.01665176951853391,-0.00018498712919945873,-1.5346713493280113,0.9408873577745307,0.14655569550462877,0.00685991241107512,-0.121423369864721,-0.0012794392082087203,-4.206824224723817,1.9980952921743378,-1.189472151966127,-0.4799570515144078,-0.03417670395533179,0.005189012174835472,-1.5403653799626977,-5.352764827824965,-4.361661267314322,-0.9489291449987649,-0.104864125982707,-0.0013244720393164181
0.22,-0.203434075901206,1.698589727454401,-1.539542899963797,0.004470603059309196,-0.01787984973143784,-0.0001978034480670622,-1.5764382490265272,0.9607558316706281,0.13483246354546444,0.002250861613920941,-0.1228080212903931,-0.001281631886760346,-3.8486847694604576,1.7367539058655654,-1.341793336675653,-0.5144776776224447,0.004118077084513061,0.005434955096686789,-1.5243225995567573,-5.617586457977898,-4.4246367957583335,-0.9592954511362685,-0.10181601910133144,-0.0012834318344528406
0.23,-0.2195805365468165,1.708369864129913,-1.5383269609627357,0.004443541351240647,-0.019118242635282535,-0.00021060280050236866,-1.6146460645610512,0.9780136675511866,0.12159390010613302,-0.002706170806854871,-0.12383929038446947,-0.0012799352435306482,-3.4845303311924862,1.4754547744365651,-1.4874150741402066,-0.5467287401912434,0.04061659381062199,0.0056086094146765575,-1.501853435575656,-5.879503489421564,-4.486156373035789,-0.9693917416861104,-0.09842144673497638,-0.001241326983587096
0.24,-0.23607288181495698,1.7182964795739302,-1.5372578964852086,0.004363648429558517,-0.020363536115904572,-0.0002233492325815603,-1.649234526814047,0.9926615444017178,0.10690644775271264,-0.007989292168213024,-0.12452934806220377,-0.0012746432079191643,-3.1152674668812828,1.215101796086908,-1.625803973012681,-0.5766174261979657,0.07523951884635949,0.00571595375135292,-1.472690877457329,-6.137581083387433,-4.546072985902855,-0.9792097457030048,-0.09468730596730449,-0.0011983534279343929
0.25,-0.2528744054346422,1.728343571248143,-1.5363494780246143,0.004227892238191251,-0.02161244809759975,-0.00023600971453902552,-1.6801523619685224,1.004709167421288,0.09084184605943033,-0.0135756191367266,-0.12489119816951787,-0.0012660481957465206,-2.7418515519927817,0.9565996674202856,-1.7564829073525985,-0.604068758402502,0.107932616265348,0.005763322678735694,-1.4366396999501565,-6.390942546601663,-4.604262704973943,-0.9887454750829548,-0.09062428405949534,-0.0011547087478278573
0.26,-0.26994798326117386,1.7384853239861757,-1.5356147122844404,0.004033477714075809,-0.02286183311003021,-0.00024855409307251297,-1.7073577826531676,1.0141752738032765,0.0734765740173981,-0.01944145241154424,-0.1249385012430457,-0.0012544378533487458,-2.3652780847601247,0.7008467862900256,-1.8790335513799512,-0.6290258129968436,0.13866439044020673,0.0057572044351181795,-1.3935789114062227,-6.638774397441429,-4.660624271354701,-0.997998851376329,-0.08624654001184257,-0.0011105879329689592
0.27,-0.2872561721898208,1.7486961996641546,-1.535065799613759,0.0037778531742423665,-0.024108687220264203,-0.0002609550162332292,-1.7308188928646913,1.0210875677978801,0.05489126706813158,-0.0255624539833442,-0.1246854110233993,-0.0012400923160716256,-1.986573783355289,0.4487284197912303,-1.9930980607675197,-0.6514496080405419,0.1674236258881372,0.00570407363655101,-1.3434629529552695,-6.8803303649019485,-4.715078138403547,-1.006973226736871,-0.08157134628667814,-0.0010661794269998257
0.28,-0.30476131223430836,1.7589510255413447,-1.5347140984408503,0.0034587149353842387,-0.025350151469023103,-0.0002731878357510105,-1.7505140044487526,1.0254825877190128,0.03517011729087316,-0.03191382388581278,-0.12414642487588996,-0.001223281951778124,-1.6067876556857252,0.2011102337089005,-2.0983798946987258,-0.6713186942937543,0.19421690867613606,0.005610257580557221,-1.2863216483057396,-7.114934271654221,-4.767565015813227,-1.0156748164390221,-0.07661870141180618,-0.0010216615485340854
0.29,-0.3224256308814572,1.7692250806265228,-1.5345700957876658,0.0030740101992681183,-0.02658351395604388,-0.0002852304912803715,-1.7664318647148853,1.0274055085178002,0.014400265318442268,-0.038470473611612016,-0.1233362487020776,-0.0012042655529361014,-1.226982203497588,-0.041167735049699956,-2.194643795480043,-0.688628481773863,0.2190661982937403,0.005481833529451308,-1.2222589434212725,-7.341981785624704,-4.818043979384996,-1.0241120630983915,-0.07141092433774623,-0.0009771993727908613
0.3,-0.34021134884529136,1.7794941794700865,-1.5346433838638647,0.002621938262803284,-0.027806210720780444,-0.00029706338064959645,-1.7785717963834131,1.0269098843563744,-0.007328807619878773,-0.045207193646483415,-0.12226967647365636,-0.0011832889369224968,-0.8482249020578195,-0.27729659752505975,-2.2817149629573388,-0.7033903370530963,0.2420065010733934,0.005324553676543942,-1.1514505107331878,-7.560941056740553,-4.866490223044091,-1.0322949545587912,-0.06597224118823537,-0.0009329421383541614
0.31,-0.3580807863701603,1.7897347528327565,-1.534942642658942,0.002100950133990893,-0.029015825562454387,-0.0003086692197747119,-1.7869437524868943,1.0240573362670002,-0.029925879507742156,-0.052098812881239125,-0.12096148416739431,-0.0011605839125115437,-0.4715800748232476,-0.5065035743920818,-2.3594774789228734,-0.7156304876295749,0.26308368146563543,0.0051437940710821195,-1.0741403225302555,-7.77135228556572,-4.912892539349857,-1.0402343183223834,-0.06032837445703939,-0.0008890212232463368
0.32,-0.37599646927074276,1.7999239247374237,-1.535475628376317,0.0015097466541192607,-0.030210088938561457,-0.00032003289548143243,-1.7915682900582497,1.0189171904667225,-0.05329857173749011,-0.05912034798716321,-0.1194263376107069,-0.0011363675706720546,-0.09810126004980392,-0.7280563680270622,-2.4278720517984427,-0.7253887704898947,0.2823524352480252,0.004944523732498984,-0.9906363217837498,-7.9728262974893855,-4.957250620732385,-1.0479411154074032,-0.054506143814693986,-0.0008455487143309351
0.33,-0.39392123394498973,1.8100395854695899,-1.536249167485618,0.0008472752423219699,-0.03138687607405435,-0.00033114131407279416,-1.792476467424699,1.0115660732166105,-0.07735391093010227,-0.06624714117972907,-0.11767871354928908,-0.0011108418591361708,0.2711758559732597,-0.9412669288515355,-2.4868931639296594,-0.7327172621385518,0.29987443877043374,0.004731290255663295,-0.9013053354103642,-8.165042219117877,-4.9995722758931755,-1.0554257556772706,-0.04853308655591599,-0.0008026165748155715
0.34,-0.4118183306519043,1.8200604601523156,-1.5372691561100165,0.00011272539090533028,-0.03254420440515207,-0.00034198324809741183,-1.7897096706914555,1.0020874682725691,-0.10199886243983672,-0.07345498514166396,-0.1157328331097723,-0.0010841934024617686,0.6352398857968261,-1.1454946149864658,-2.536585712762578,-0.7376788268199537,0.3157166803595626,0.00450821848631211,-0.8065673847473664,-8.347744371994066,-5.039870654385933,-1.0626974550908077,-0.04243710440735787,-0.0007602963969505744
0.35000000000000003,-0.42965152440739734,1.8299661725821315,-1.5385405644151646,-0.000694476951312868,-0.03368023047256622,-0.00035254918341817894,-1.783319375549304,0.9905712429815897,-0.12714083051481925,-0.08072023422181983,-0.11360260674141481,-0.0010565935320767104,0.9931095345510887,-1.3401487579987992,-2.5770412430124114,-0.7403456184238877,0.32994997378850055,0.004279019198738521,-0.706889551080508,-8.520738512397172,-5.078161567658585,-1.0697636531002535,-0.03624614199309886,-0.0007186397114011001
0.36,-0.4473851929162864,1.8397373040716032,-1.5400674456256944,-0.0015746759649514848,-0.034793246369287996,-0.00036283116835656923,-1.773366850888907,0.9771131489471689,-0.152688121052971,-0.08801990136386169,-0.11130158967217735,-0.0010281984938390284,1.3438387255236497,-1.5246906595617724,-2.6083938697863998,-0.7407975697101321,0.3426476490374455,0.004047005058953612,-0.602779551000369,-8.683887554655664,-5.11446098723052,-1.0766295057139676,-0.02998790078670762,-0.0006776788115411215
0.37,-0.46498442102498283,1.8493554471009785,-1.54185294926458,-0.0025279933703705564,-0.035881675838267346,-0.0003728226663951649,-1.7599228108696408,0.9618143029375315,-0.17855036388857096,-0.09533174054190717,-0.10884294689793496,-0.0009991498038595668,1.686521058654081,-1.6986350539526622,-2.630815992695947,-0.7391209000476344,0.35388441221684985,0.0038151116207709723,-0.4947791679796266,-8.837106919245775,-5.148782790735322,-1.0832974666948032,-0.0236895909238335,-0.00063742804025407
0.38,-0.4824150912459105,1.8588032536345749,-1.5438993381899884,-0.0035543365181991784,-0.03694407010558439,-0.0003825184136593565,-1.7430670220927655,0.9447806533596298,-0.20463889254082263,-0.10263431478286221,-0.10623942673170424,-0.0009695747264191601,2.0202936168283148,-1.8615510793298333,-2.6445138985264403,-0.7354066699590831,0.36373536425153574,0.003585921424665628,-0.38345767383697804,-8.980359646230973,-5.181136814863516,-1.0897669661314056,-0.017377721860715362,-0.0005978854787627919
0.39,-0.4996439699698179,1.8680644780064897,-1.5462080089932566,-0.004653407019522522,-0.03797910352524922,-0.00039191428216816024,-1.7228878723907413,0.9261224371914837,-0.23086708032682132,-0.10990705013233434,-0.10350334196648267,-0.0009395868508803773,2.344340146267729,-2.013062806593908,-2.6497233453320637,-0.7297494074742623,0.372275166557019,0.0033616897119552736,-0.26940535774743535,-9.11365140975029,-5.211527261389737,-1.0960341923366654,-0.011077931585579775,-0.0005590349714703897
0.4,-0.5166387890447222,1.8771240143242576,-1.5487795153199075,-0.005824709781208101,-0.038985569102701824,-0.00040100714964068465,-1.6994819074904226,0.9059536317767808,-0.25715063266510374,-0.1171302761685579,-0.10064655774526039,-0.0009092867472524411,2.6578936463390397,-2.152849378365908,-2.6467052142042697,-0.7222458277574866,0.3795773412638894,0.0031443705352576234,-0.15322726225403616,-9.237025560826666,-5.239951489045339,-1.1020919798181752,-0.004814852955541814,-0.0005208484175915051
0.41000000000000003,-0.533368322459339,1.8859679283778588,-1.5516135936824424,-0.007067562320046635,-0.03996237395550936,-0.00040979477646763915,-1.6729533414616768,0.8843914053601114,-0.28340783625348037,-0.12428525388385343,-0.09768048528075364,-0.0008787626826954509,2.960238410768601,-2.280644812241502,-2.6357413067621067,-0.7129936637340037,0.38571369340361983,0.0029356423763076123,-0.03553720639689262,-9.350558314320912,-5.266399210522473,-1.1079298030299085,0.001387985233360492,-0.0004832882592560127
0.42,-0.5498024579238242,1.8945834840748559,-1.5547091913482463,-0.008381104239381655,-0.04090853476172955,-0.00041827569030334206,-1.6434135464485284,0.8615555696997041,-0.30955976658037226,-0.13135419193350206,-0.09461608062201865,-0.0008480913835702924,3.2507115667657605,-2.3962375222049723,-2.617130356982617,-0.7020906216536726,0.39075384271439617,0.0027369326314357068,0.08304784346011063,-9.454354182078948,-5.290852100849438,-1.1135338728354702,0.007508225617595371,-0.00044631009647239604
0.43,-0.5659122631910125,1.9029591644504165,-1.5580644959073486,-0.009764306763348215,-0.04182317323895648,-0.00042644907860045006,-1.610980526718826,0.8375680375560562,-0.3355304559102318,-0.13832025239665602,-0.09146384772269263,-0.0008173388297108025,3.5287041609955603,-2.499469610002289,-2.5911843156378156,-0.6896334717340746,0.3947648532361612,0.002549440469691522,0.20191301337611878,-9.548541738801468,-5.313283811125912,-1.1188873301439404,0.013524721844774469,-0.0004098653615618608
0.44,-0.5816700470068296,1.9110846873237908,-1.5616769661519654,-0.011215982236374664,-0.04270551169019883,-0.00043431468929566584,-1.5757783815817006,0.8125522873374282,-0.3612470244616696,-0.14516754730264486,-0.0882338451242349,-0.0007865610695215774,3.793661841985324,-2.5902359746622223,-2.558224954665377,-0.6757172803201676,0.3978109495376785,0.0023741578795166696,0.3204503479025773,-9.633269790561062,-5.333660370466331,-1.1239705290580935,0.019417554527549383,-0.000373903989107647
0.45,-0.5970494146191083,1.918951015690811,-1.5655433639316239,-0.012734793508867876,-0.043554868646457086,-0.0004418727397555265,-1.5379367612278725,0.7866328367020236,-0.3866397779658421,-0.15188112724932118,-0.08493569562582542,-0.0007558050459860653,4.045085187608018,-2.668483283429505,-2.518580827559834,-0.6604347864555216,0.39995330919161276,0.002211888684002794,0.4380632137609738,-9.708703998760603,-5.351940949182262,-1.1287614001167834,0.02516802796108726,-0.00033837702183508653
0.46,-0.6120253178097304,1.92655036295566,-1.5696597866831192,-0.014319263143659769,-0.0443706546301523,-0.00044912383400760495,-1.4975903190621997,0.7599347264848912,-0.41164227514953133,-0.1584469634791893,-0.08157859836952183,-0.0007251094252078476,4.282529724015437,-2.7342088414166574,-2.4725846106093528,-0.6438759223949084,0.4012499219101002,0.0020632655181218595,0.5541702856060968,-9.775023995195792,-5.368078947883575,-1.1332358828198947,0.03075865204297299,-0.00030323909790454386
0.47000000000000003,-0.6265740994460727,1.9338761931151145,-1.5740217003724393,-0.015967782391514557,-0.04515236805839564,-0.00045606888821052765,-1.4548781636342305,0.7325830159454625,-0.43619136893199684,-0.16485192478547891,-0.078171342824334,-0.0006945054202922678,4.505605679058565,-2.7874593905621246,-2.420570838758387,-0.626127474510799,0.40175550655813197,0.0019287648679338076,0.6682091289403183,-9.832421007209021,-5.382023370366529,-1.137368415584176,0.03617311373120881,-0.0002684507706556423
0.48,-0.6406735325744899,1.940923216015382,-1.5786239726250324,-0.017678619897480152,-0.04589959130045163,-0.0004627090642540368,-1.4099433128417218,0.704702290026739,-0.4602272252593205,-0.17108375059655967,-0.07472232420559911,-0.000664017604350912,4.713977509094655,-2.828329861295638,-2.3628740392820538,-0.6072728782262757,0.40152147802889004,0.0018087201942176279,0.7796394031122951,-9.881095996093514,-5.393720432902166,-1.1411324705721393,0.04139624213776565,-0.00023398061772791543
0.49,-0.6543028541014128,1.9476873778062234,-1.5834609058603237,-0.019449930112834905,-0.04661198689961457,-0.00046904571132855803,-1.3629321526922906,0.6764161790841425,-0.4836933235291307,-0.17713102153547539,-0.0712395599162941,-0.0006336647074521233,4.9073632333968265,-2.8569620929284825,-2.299827256504516,-0.5873921381203466,0.4005959566880719,0.0017033333592446631,0.8879457124889628,-9.921258297243881,-5.403115358811071,-1.144501120439004,0.04641397100225945,-0.00019980710257800315
0.5,-0.6674427931270641,1.954165846720052,-1.5885262702852108,-0.02127976139958452,-0.04728929396606056,-0.00047508031525868907,-1.3139939025651393,0.6478468913828623,-0.5065364424887104,-0.18298312867496125,-0.06773070664459928,-0.0006034603930131014,5.085533605399477,-2.873543531492448,-2.2317609516498136,-0.5665618622060418,0.39902381377505947,0.0016126844983919142,0.9926401364514594,-9.953124737312478,-5.410154304950202,-1.14744762392775,0.05121330184407717,-0.00016592015763224597
0.51,-0.6800755940132766,1.9603569943058148,-1.5938133366384977,-0.023166063825686735,-0.04793132474403117,-0.0004808144553572122,-1.2632800886212394,0.6191147585762885,-0.5287066353286953,-0.18863024261022165,-0.0642030777970603,-0.0005734140098523125,5.248311144959964,-2.878305906784167,-2.1590022537344637,-0.5448553975870016,0.39684674677344844,0.0015367405270079182,1.0932644690457256,-9.97691919200833,-5.414786365856284,-1.1499460173820837,0.05578227057323103,-0.0001323224645992184
0.52,-0.6921850342809489,1.96626037224943,-1.5993149086130225,-0.025106696659239907,-0.04853796135392222,-0.00048624976852419113,-1.2109440267672396,0.5903377943615242,-0.5501571974524906,-0.19406328335531736,-0.06066366098910569,-0.0005435313166978953,5.3955690509021865,-2.8715238839828388,-2.081874530312553,-0.5223430532709212,0.39410337934599937,0.0014753624990886394,1.1893921972060402,-9.992872538312307,-5.416965601689766,-1.151971699616201,0.06010991977173498,-9.903041378376035e-05
0.53,-0.7037564374447927,1.9718766849149825,-1.6050233549139126,-0.027099435578616812,-0.049109152707466554,-0.0004913879202883263,-1.1571403163843743,0.5616312665552439,-0.5708446300889986,-0.19927389193769035,-0.05711913535443324,-0.0005138151764135149,5.527230008513398,-2.8535136795874356,-2.000697240959144,-0.49909239487343804,0.39082938097639897,0.0014283119652112042,1.2806302428137495,-10.0012229468606,-5.416653037691223,-1.1535019981545338,0.06418627825921101,-6.607473056714254e-05
0.54,-0.714776680903649,1.977207757744349,-1.6109306409393624,-0.02914197962284467,-0.049644911592184815,-0.0004962305824653863,-1.102024345885635,0.5331072829366466,-0.5907286025449877,-0.20425440442278575,-0.05357588847182642,-0.00048426621770600564,5.643264902543846,-2.824631626747699,-1.9157860317043678,-0.4751685952790865,0.3870576019790022,0.0013952565579824494,1.366620488845687,-10.00221645411707,-5.4138185854859655,-1.1545167056132686,0.06800234894866457,-3.3500763525675845e-05
0.55,-0.7252341990142261,1.9822565016578935,-1.617028360094122,-0.031231957912349975,-0.05014531191960725,-0.0005007794170892696,-1.0457518110577202,0.5048743913544497,-0.6097719154759473,-0.20899782895053046,-0.05004003274224322,-0.0004548834623883283,5.743691442733272,-2.7852726714675464,-1.827453025251497,-0.45063482501536356,0.38281822002753074,0.0013757749452310009,1.4470411039274598,-9.996107749714087,-5.408442840133932,-1.1549985759187695,0.07155010539985839,-1.3684349243862914e-06
0.56,-0.7351189814849551,1.9870268736057037,-1.6233077647651568,-0.0333669361744608,-0.05061048613041201,-0.000505036066255791,-0.9884782470728966,0.47703719478102313,-0.6279404671034831,-0.21349782621108224,-0.046517421080476476,-0.00042566491665214343,5.82857270604534,-2.7358687787416986,-1.7360072597428262,-0.4255526661724307,0.37813889483339125,0.0013693613353131795,1.5216076731665429,-9.983161111962586,-5.400518711203457,-1.1549337711283103,0.07482249690605651,3.0248139495051224e-05
0.5700000000000001,-0.7444225672350854,1.991523833427775,-1.6297597970035198,-0.03554442311078549,-0.051040622748554074,-0.0005090021475063228,-0.9303585750130271,0.4496959822071194,-0.6452032238363006,-0.21774869363246885,-0.043013661814206024,-0.00039660812505318087,5.898015597683617,-2.6768872264919703,-1.641755228066959,-0.3999825341201628,0.37304492807657397,0.0013754296467398675,1.5900741366270732,-9.96365142394918,-5.390052851227318,-1.1543122508179184,0.07781346142128431,6.126134846755587e-05
0.58,-0.7531380338723489,1.9957532971927048,-1.6363751189662552,-0.03776187664479444,-0.05143596407564119,-0.0005126792543684542,-0.8715466637263548,0.4229463764929776,-0.6615321962735491,-0.22174535340089493,-0.039534132708711395,-0.0003677106862131344,5.952169231611581,-2.6088287652151663,-1.5450014702070094,-0.3739840920110229,0.3675594261357702,0.001393317505956837,1.6522335306312783,-9.937865203763238,-5.3770668505559325,-1.153128097312729,0.08051794516412444,9.15710820992376e-05
0.59,-0.7612599829506446,1.9997220871978396,-1.64314414317722,-0.04001671008768176,-0.05179680401622046,-0.0005160689616625166,-0.8121949078295692,0.39687900051348207,-0.6769024210964758,-0.22548334428873182,-0.03608399405792655,-0.0003389707294062431,5.991223230686519,-2.5322256225025814,-1.4460491728283467,-0.34761664411651516,0.36170346362300876,0.0014222901809981536,1.7079185216086532,-9.906101585108301,-5.361598173726407,-1.1513797714368934,0.08293192733301213,0.00012106600337045861
0.6,-0.7687845211773031,2.003437878829285,-1.6500570626662088,-0.042306298258968866,-0.05212348602423737,-0.0005191728351764733,-0.7524538226658585,0.37157916314452144,-0.6912919488988669,-0.22895881712871066,-0.03266820080169145,-0.0003103873513956627,6.015405946598971,-2.4476393339715807,-1.3452007331170739,-0.3209394953759901,0.355496246145961,0.0014615445210948153,1.757001717793376,-9.868673188709915,-5.3437008188861865,-1.1490702949309684,0.08505244804737486,0.0001496250647909374
0.61,-0.7757092377475742,2.0069091444975187,-1.6571038810420058,-0.044627983595452086,-0.05241640116068883,-0.0005219924453073834,-0.6924716570271096,0.34712656682339477,-0.7046818375797098,-0.2321685336483222,-0.029291513645145723,-0.00028196101309101255,6.0249826005099045,-2.3556583855537396,-1.2427582477045451,-0.29401226606959874,0.3489552711485686,0.0015102130544235592,1.7993957409657422,-9.825906830373064,-5.323445688409077,-1.1462073572000482,0.08687763739674197,0.0001771192361564259
0.62,-0.7820331779919637,2.010145094883197,-1.664274442547335,-0.04697908227813241,-0.05267598625237978,-0.0005245293842636867,-0.6323940244389499,0.3235950385678142,-0.7170561505329343,-0.23510986826803265,-0.02595850916909482,-0.000253693895630324,6.020253346500389,-2.256895656368747,-1.139023892174741,-0.26689515231386807,0.3420964860535207,0.001567368270872116,1.83505303884753,-9.778144018082333,-5.300920665477195,-1.142803345587939,0.08840674334137874,0.000203413405416747
0.63,-0.7877568135298209,2.013155617747666,-1.6715584621326083,-0.049356890401863376,-0.0529027221416814,-0.0005267852864204345,-0.5723635537857104,0.3010522864469447,-0.728401958527334,-0.23778081237309684,-0.02267358893016217,-0.00022559021567477837,6.001551261575789,-2.1519856564110786,-1.0343001620495933,-0.23964912493219437,0.3349344432936192,0.001632027204724551,1.8639654188205237,-9.725741197981225,-5.276230397932507,-1.1388752998916667,0.08964015616542946,0.0002283684115033512
0.64,-0.7928820091299664,2.0159512145832346,-1.678945555571429,-0.05175869020678776,-0.05309713201724794,-0.0005287618514175908,-0.5125195600145525,0.279559683556858,-0.7387093438820822,-0.24017998049243794,-0.01944098755665374,-0.00019765649971564085,5.969240267870389,-2.0415815588020902,-0.9288899520544751,-0.21233606127602656,0.32748245212828664,0.0017031563538196792,1.8861632853851926,-9.669069717202014,-5.249495796982042,-1.1344447933044992,0.09057942723629009,0.0002518431656949152
0.65,-0.7974119864859781,2.0185429353987994,-1.686425269624576,-0.054181756384396755,-0.0532597798157546,-0.000530460869590521,-0.4529977356011706,0.25917208155647015,-0.7479714053147003,-0.24230661776089968,-0.016264779850666482,-0.0001699018172930115,5.923712994743688,-1.9263520322085805,-0.8230964567549086,-0.18501880657875702,0.3197527274028644,0.0017796770219948854,1.9017145671710778,-9.608515480127378,-5.220853264233626,-1.1295377433720382,0.09122727996812949,0.0002736968168174841
0.66,-0.8013512851198002,2.0209423119564516,-1.6939871122413024,-0.05662336246442935,-0.0533912686848484,-0.0005318842493207357,-0.39392986338221764,0.23993765576523327,-0.7561842616726278,-0.24416060800326006,-0.013148886909379431,-0.00014233797302147172,5.865388590512359,-1.8069778849996154,-0.7172228821039903,-0.15776116345780622,0.31175653560730865,0.001860471125099572,1.9107233242269197,-9.544478283527944,-5.190453665913077,-1.1241841578324443,0.09158761111623581,0.00029379091535209007
0.67,-0.8047057206324185,2.0231612897935447,-1.7016205827678845,-0.059080787282029965,-0.053492239497639524,-0.000533034045894383,-0.3354435512618219,0.2218977837093215,-0.7633470526582214,-0.245742481760061,-0.010097081279112335,-0.00011497965736473475,5.7947104954921125,-1.684148538600836,-0.6115719638900496,-0.13062781014651748,0.3035043387350811,0.0019443875201865524,1.913328032553788,-9.477370824919257,-5.158461077853792,-1.1184178213585527,0.09166548083233629,0.00031199153239487565
0.68,-0.8074823405242433,2.025212159381841,-1.7093152021140847,-0.06155132151779064,-0.05356336940918977,-0.0005339124914554066,-0.2776619891824803,0.20508695882959807,-0.7694619346200215,-0.2470534235760678,-0.0071129911550249685,-8.784455610236257e-05,5.7121441897190595,-1.5585583531154896,-0.5064452953434304,-0.10368414988106611,0.2950059364989741,0.0020302488893442217,1.9096995501272853,-9.407617387203018,-5.125051328854685,-1.1122759301991538,0.0914670902767762,0.00032817129138396723
0.6900000000000001,-0.8096893778104088,2.0271074867901913,-1.7170605428091705,-0.06403227429670069,-0.05360537044556854,-0.0005345220256400875,-0.22070372861655604,0.18953274083502877,-0.7745340695085831,-0.24809527789100422,-0.0042001036378765556,-6.095341846808638e-05,5.618174930077256,-1.4309028334404332,-0.4021424720820779,-0.07699609559302445,0.28627060746113386,0.0021168592155049737,1.9000387766579552,-9.335652211005927,-5.0904103731975034,-1.105798682507167,0.09099974599677356,0.0003422112735332729
0.7000000000000001,-0.8113362026572785,2.0288600442292304,-1.724846258860966,-0.06652097982578091,-0.053618988116143414,-0.0005348653264797131,-0.164682484686964,0.17525574390390602,-0.778571605179558,-0.24887055290802157,-0.0013617670574876508,-3.4330083962551936e-05,5.513305492505146,-1.3018747486530533,-0.2989600680145825,-0.05062979556894831,0.2773072495450464,0.0022030118946343435,1.8845740276962377,-9.261917573919819,-5.054732525446018,-1.099028832727031,0.09027181072457488,0.0003540027619161382
0.71,-0.8124332722659634,2.030482740865314,-1.7326621153146176,-0.06901480404444342,-0.05360500003985421,-0.0005349453411582976,-0.10970696086849258,0.16226966360835723,-0.7815856453651354,-0.24938242186625054,0.0013988076289205686,-8.001467858443187e-06,5.398053935431386,-1.1721602012522447,-0.19719046064496393,-0.024651307042293347,0.26812452025110645,0.0022874984505953933,1.863558152012543,-9.186861602920889,-5.0182185920937785,-1.0920112187826994,0.08929264070789987,0.0003634487940008678
0.72,-0.812992079226556,2.0319885542960394,-1.74049801739283,-0.07151115125652155,-0.053564214576293775,-0.0005347653162138898,-0.05588069605926502,0.15058134307252038,-0.783590207821238,-0.2496347212078123,0.004078546356043641,1.800249444078267e-05,5.272951400573753,-1.0424346858074685,-0.0971205283294152,0.0008737742365090284,0.25873097667427203,0.002369117869396753,1.8372654290854764,-9.110935852469032,-4.981073935188094,-1.084792270958707,0.08807251013988285,0.0003704654980013814
0.73,-0.8130250985630565,2.0333904630808375,-1.748344039086678,-0.07400747070856858,-0.05349746945249942,-0.0005343288267743837,-0.003301933650040771,0.14019087847982642,-0.784602169384814,-0.2496319452047035,0.006674512379436006,4.364894395060565e-05,5.138539966719635,-0.913359178623557,0.0009697546381339794,0.025880719597562774,0.24913521515514248,0.002446686537538767,1.8059882906424074,-9.034592686049674,-4.943506502765621,-1.077419511304296,0.0866225236895707,0.00037498319448560455
0.74,-0.8125457336836803,2.0347013807171295,-1.7561904510560313,-0.07650126307551333,-0.05340563037646098,-0.0005336398044225352,0.04793648793762191,0.1310917636291905,-0.7846411969353227,-0.24937923669447443,0.00918390760384371,6.890223518485079e-05,4.9953705711149565,-0.7855763011360339,0.0968087967425435,0.05030609882138082,0.2393460100749607,0.0025190486844230975,1.7700339161838743,-8.958282503144703,-4.905724859848414,-1.0699410521267294,0.08495451853077274,0.00037694725107779623
0.75,-0.8115682614444794,2.03593409144526,-1.7640277476914188,-0.07899008681214366,-0.05328958962849619,-0.0005327025632915687,0.09774722392010071,0.1232710728130421,-0.7837296635387421,-0.24888237366303315,0.011604074796479135,9.372411309666002e-05,4.844001011663279,-0.6597065998981562,0.19013491177169528,0.07408822756128908,0.22937245096908754,0.002585087290132293,1.7297207570080138,-8.882450856752738,-4.8679362519466824,-1.0624051016925309,0.08308095761233508,0.0003763186845832123
0.76,-0.810107776526123,2.0371011882538763,-1.7718466731849436,-0.08147156432720416,-0.05315026462185173,-0.0005315218240015469,0.14604849183563834,0.11670968086161958,-0.781892549352478,-0.2481477515060509,0.013932500664445601,0.00011807392900217779,4.6849940413406,-0.5363449852260005,0.2806978543625238,0.09716762108490196,0.21922407677072897,0.0026437353241712813,1.6853750462222137,-8.807535508603118,-4.830344730594963,-1.0548594846482022,0.08101481619477033,0.000373074511237423
0.77,-0.8081801353144596,2.038215013441649,-1.7796382464567144,-0.08394338793614832,-0.052988596424183264,-0.0005301027350592326,0.19276412116633593,0.11138251877723192,-0.7791573271770751,-0.24718236089441564,0.01616681976684662,0.00014190889423142355,4.518915564140299,-0.4160573688791631,0.3682603378266853,0.11948744476942513,0.20891100566022658,0.0026939871964959394,1.6373273534515178,-8.7339634701268,-4.793149367523031,-1.047351183932537,0.07876946388746463,0.00036720785183026814
0.78,-0.8058018994653123,2.039287602071431,-1.7873937847851875,-0.0864033255487689,-0.05280554823197042,-0.000528450891360377,0.23782358491472927,0.10725886297819326,-0.7755538328473172,-0.24599376126205807,0.01830481922128412,0.00016518436988556223,4.346332939564219,-0.2993775386390192,0.4525995043220387,0.14099395221056688,0.19844405866854586,0.0027349102097220523,1.5859092423737309,-8.662148077093264,-4.7565425807514305,-1.0399259101113683,0.07635854455142053,0.0003587278039856128
0.79,-0.8029902793230913,2.0403306286293623,-1.795104925994723,-0.08884922604900702,-0.052602103790455115,-0.0005265723494547765,0.2811620142221004,0.10430265579314182,-0.7711141209535354,-0.24459005002381268,0.020344444151530593,0.00018785419056004132,4.167813400261486,-0.18680430439026677,0.5335083189481875,0.16163690239474338,0.18783487491608142,0.0027656558725395186,1.531450086857707,-8.592486144649023,-4.720708592326707,-1.0326277031541575,0.07379585648199329,0.000347659098729411
0.8,-0.79976307735147,2.041355357174361,-1.8027636490613903,-0.0912790243261575,-0.05237926575236949,-0.0005244736392599843,0.3227201971621255,0.10247285449988319,-0.7658723066667271,-0.2429798277150475,0.022283803808562992,0.00020987101947922486,3.9839225849796644,-0.07879894641796983,0.6107968614841592,0.18136994814443752,0.17709601615522175,0.0027854708109051884,1.4742740974594792,-8.525355247373378,-4.685822033692314,-1.0254985707214324,0.07109523525495108,0.00033404156251945477
0.81,-0.7961386317228152,2.0423725952333123,-1.8103622930084124,-0.09369074591937639,-0.05213805396955712,-0.0005221617719411443,0.36244456286548254,0.10172380589513845,-0.75986439470221,-0.24117215932188807,0.024121178281236607,0.00023118673188399178,3.795223186621752,0.024217007791034546,0.6842934921375968,0.20015098896755656,0.16624105816188717,0.002793707044303595,1.4146976045147297,-8.461111165991142,-4.652046710941242,-1.0185781660727777,0.06827044151121103,0.00031792940904811065
0.8200000000000001,-0.7921357602015223,2.0433926516644916,-1.8178935739753215,-0.0960825112407703,-0.05187950371259427,-0.0005196442437114828,0.4002871521292881,0.10200564311794456,-0.7531280966909082,-0.23917653213939216,0.02585502569628526,0.00025175282296614103,3.6022737129797746,0.12186365678168344,0.7538458707760929,0.2179424824055025,0.1552846664771259,0.0027898314048351303,1.3530266372870388,-8.40008553865301,-4.619534538516871,-1.0119035077639145,0.06533505577737499,0.00029939038731196176
0.8300000000000001,-0.7877737044451106,2.0444252986768316,-1.8253506003596274,-0.09845253934631398,-0.051604663814688236,-0.0005169290353501939,0.43620557564117346,0.1032647012340214,-0.7457026384305959,-0.23700281055436853,0.02748398979060314,0.00027152083612890193,3.4056273557105117,0.2138042320559968,0.8193218125122927,0.2347117090776436,0.14424265407530257,0.0027734338044789197,1.2895548308635754,-8.34258375032624,-4.588424646407985,-1.0055087424021554,0.062302382179755554,0.000278504813658288
0.84,-0.7830720748360744,2.0454797381560725,-1.8327268859462127,-0.10079915122829784,-0.05131459473746117,-0.0005140246072826816,0.4701629609036142,0.10544394792409703,-0.7376285586585327,-0.23466118819838555,0.02900690772270716,0.00029044280675123176,3.2058309613886684,0.29974622763172337,0.8806099661473353,0.25043098771367944,0.13313201870043656,0.0027442341180572427,1.2245616840347369,-8.288883088949872,-4.558842662593849,-0.9994249508915363,0.05918536261988066,0.0002553645157950093
0.85,-0.778050795947249,2.046564572411149,-1.8400163609574094,-0.10312077260784568,-0.05101036655770597,-0.0005109398901210653,0.5021278888825439,0.10848342550766889,-0.7289475011196762,-0.23216213795478344,0.03042281797551951,0.000308471716161632,3.003424097066291,0.3794421465107203,0.9376203057208903,0.26507783759478,0.12197095789927204,0.0027020874732466282,1.158311182567769,-8.23923119172571,-4.530900169491965,-0.9936799978373471,0.05599650265193789,0.00023007171615263496
0.86,-0.7727300527339636,2.047687779415904,-1.8472133809754094,-0.10541593621115378,-0.05069305687580619,-0.0005076842706197306,0.5320743213285406,0.11232070047549389,-0.7197020018000055,-0.22951636033081024,0.031730968189977844,0.0003255619501334624,2.7989382016886126,0.4526898636037118,0.990284429178086,0.2786350869279097,0.11077886015259963,0.002646987704926218,1.091050793387921,-8.193844799367984,-4.504694330485381,-0.9882984231054435,0.05274780994992113,0.00020273788060248642
0.87,-0.767130237537641,2.0488566925828904,-1.8543127337079324,-0.10768328351837886,-0.0503637486482157,-0.0005042675730615841,0.5599815196322624,0.11689131669862263,-0.7099352732522962,-0.22673473072250874,0.03293082275904906,0.00034166975581465545,2.592895814018361,0.5193326097753007,1.0385556618558087,0.2910909267469277,0.09957627098995303,0.002579068809600571,1.0230108265219577,-8.15290883043728,-4.480307680278447,-0.9833013739500749,0.04945074588839324,0.00017348255649059398
0.88,-0.7612718979778197,2.0500779850681656,-1.8613096435875596,-0.10992156597943846,-0.05002352794816326,-0.0005007000361537742,0.5858339559821293,0.12212924852750971,-0.6996909879627129,-0.2238282461059607,0.03402207000524409,0.0003567536907809844,2.3858098673548724,0.5792585865281333,1.0824089660287186,0.30243891094871955,0.08838483351165394,0.0024986042932604313,0.9544041534850922,-8.116575782171669,-4.457808070863922,-0.9787065756382589,0.04611619039782158,0.0001424322213666614
0.89,-0.7551756858028713,2.051357658569056,-1.8681997742144836,-0.11212964569628295,-0.04967348166054254,-0.0004969922855755316,0.6096212174948371,0.1279673500890398,-0.6890130626924023,-0.22080797168444855,0.03500462876207201,0.0003707750578242559,2.1781830413109864,0.6324002253701243,1.1218406610782012,0.3126779039792975,0.07722720335934063,0.0024060043177036583,0.8854262633394773,-8.08496545860858,-4.437248763275105,-0.9745283381072591,0.04275441990591236,0.00010971916082085298
0.9,-0.7488623067639555,2.0527010365413454,-1.8749792286712945,-0.11430649557636247,-0.04931469511872723,-0.0004931553023846646,0.6313379038915812,0.13433779722892503,-0.6779454456810893,-0.21768498800795108,0.035878654181531425,0.00038369831908669947,1.970507161196483,0.6787331100311398,1.156867961879283,0.321811978544031,0.0661269388097967,0.0023018106374066427,0.8162556311000901,-8.058165021378429,-4.418668654033301,-0.970777595890818,0.03937509785087202,7.548039063368252e-05
0.91,-0.7423524715719759,2.0541127617286237,-1.8816445477565187,-0.11645119896695935,-0.04894824969276897,-0.0004892003875512037,0.6509835191979593,0.14117251872783665,-0.6665319085224106,-0.21447033905968813,0.036644542595825565,0.00039549148334609496,1.7632626361112143,0.7182745833601634,1.1875283457105332,0.32985026643260973,0.05510836732647739,0.0021866893737430004,0.7470543676460648,-8.036229353445265,-4.40209262426364,-0.9674619783335031,0.03598727696016061,3.9856635136850725e-05
0.92,-0.7356668479934148,2.0555967978649963,-1.888192706200685,-0.1185629487847138,-0.04857522034004755,-0.0004851391229452885,0.6685623578561216,0.14840361363726892,-0.65481584441662,-0.21117498177544394,0.037302935272142214,0.000406126460591515,1.5569179276330918,0.7510820638988939,1.213878760338259,0.33680676616889027,0.04419643053697264,0.0020614217036598603,0.6779691159003429,-8.019181721361177,-4.387531998816017,-0.9645859069732928,0.032599412236412946,2.9913704079716956e-06
0.93,-0.7288260141378535,2.0571564353833014,-1.8946211069444752,-0.12064104615897477,-0.048196673130903936,-0.0004809833291606478,0.6840833855561254,0.15596375183050104,-0.6428400743790152,-0.20780973742609757,0.037854720914361435,0.00041557937846407053,1.3519290419478949,0.7772510997660189,1.2359946878775714,0.3427001117071793,0.03341651020155645,0.0019268926952697996,0.6091321548091945,-8.00701471736689,-4.374985102363957,-0.9621507169019228,0.029219383386139268,-3.497006220270902e-05
0.9400000000000001,-0.7218504129876391,2.0587943009347,-1.9009275735728342,-0.12268489861150712,-0.047813662763057256,-0.0004767450206020619,0.6975601150214431,0.1637865551398646,-0.6306466628359068,-0.20438524525323576,0.03830103678466787,0.00042383085585859026,1.1487390393595918,0.7969131895742451,1.253969080590056,0.34755330677397556,0.022794238271114153,0.0017840784180402913,0.5406626705848027,-7.999691458979165,-4.3644378993338595,-0.9601547989021236,0.025854525269931445,-7.38812695925664e-05
0.9500000000000001,-0.7147603082184142,2.0605123705021833,-1.9071103410116155,-0.12469401779853906,-0.047427230079649496,-0.000472436358306267,0.7090104769224882,0.17180695674833438,-0.6182767438781237,-0.20091191870319305,0.03864326834077572,0.0004308662295794858,0.9477775562933844,0.810233401643805,1.2679111859270118,0.3513934297252215,0.01235529457548612,0.0016340316860998794,0.47266815373097215,-7.997147020602067,-4.3558647046082015,-0.958593759201474,0.022511664846613245,-0.00011359554740289257
0.96,-0.7075757413579875,2.062311985870341,-1.9131680446043053,-0.12666801684411333,-0.047038399606547564,-0.00046806960099698763,0.7184566860426721,0.1799615368157761,-0.6057703592689934,-0.19739990455742581,0.03888304731019326,0.0004366757309279349,0.7494603361122221,0.8174078237699159,1.2779452788774386,0.3542513139542116,0.002125196025415832,0.0014778666905941318,0.4052458804851358,-7.999290069223551,-4.349228952221169,-0.9574605937663283,0.019197163027672427,-0.000153966549588468
0.97,-0.7003164903301448,2.0641938741967665,-1.9190997076955394,-0.1286066072961918,-0.04664817712503822,-0.00046365705489758395,0.7259251027842754,0.1881888326425227,-0.5931663091233965,-0.1938590452078465,0.039022248150934385,0.00044125460994036755,0.5541887662690224,0.818660876267766,1.2842093200525015,0.3561612089325976,-0.00787091856536426,0.0013167428673401815,0.33848443838589926,-8.006004674429192,-4.3444840096948,-0.9567458741780619,0.015916959850353934,-0.00019484889090933983
0.98,-0.6930020294293825,2.0661581704167666,-1.924904727855446,-0.13050959573894946,-0.04625754729626319,-0.0004592110228377008,0.7314460900762212,0.19642962200002975,-0.5805020159906609,-0.19029884427576602,0.03906298287750283,0.00044460320598831463,0.36234942047328017,0.8142425209806848,1.2868535579492166,0.35716042692019023,-0.01760850383317969,0.00115184837645399,0.27246525760264484,-8.017152261787302,-4.341574026222819,-0.9564379422809033,0.012676621414504843,-0.00023609868751563832
0.99,-0.68565149077206,2.068204442202618,-1.930582861884349,-0.13237688009618315,-0.04586747135365364,-0.0004547437531928765,0.7350538657322501,0.2046271785851319,-0.5678134028902878,-0.1867284357233691,0.03900759426095472,0.00044672696448243114,0.17431360563161696,0.8044253984294277,1.2860390935168144,0.3572889802490664,-0.0270638192163577,0.0009843835346867724,0.20726411231916408,-8.032573678122931,-4.3404348035732685,-0.9565231109593909,0.009481387105035648,-0.00027757404169461477
