tonegas/nnodely-applications/joint_friction_estimation/dataset/train/mpc_mujoco_episode_39 copy.csv
time,q1,q2,q3,q4,q5,q6,dq1,dq2,dq3,dq4,dq5,dq6,ddq1,ddq2,ddq3,ddq4,ddq5,ddq6,tau1,tau2,tau3,tau4,tau5,tau6
0.0,0.0,1.57,-1.57,0.0,0.0,0.0,0.0,0.0,0.0,0.0,0.0,0.0,-7.243886353935776,-3.864564263997701,11.66794078973367,5.017203614299824,-1.072986099606176,-2.3170240162073696e-06,-1.0096497974433432,-4.284676008219835,-3.415092135652092,-0.69365058077642,-0.09130842401311257,-0.001422422888003454
0.01,-0.0007206638474014305,1.5696189187316023,-1.5688392679547978,0.00046662633032916077,-9.023699253080083e-05,-6.602952513439897e-07,-0.07206638474014304,-0.03810812683977732,0.11607320452022776,0.046662633032916075,-0.009023699253080083,-6.602952513439897e-05,-7.220377584567198,-3.6964569389672004,11.678994412836843,4.6943368839817445,-0.9092752265592949,-0.006589987135665609,-1.010441557310712,-4.214049436028166,-3.3837040966895264,-0.6863362243960802,-0.0914305698019281,-0.001417064161584105
0.02,-0.002159093803048642,1.568873708817434,-1.56651866106935,0.0013747375557561694,-0.00026071165256525824,-2.0062057802120447e-06,-0.14384299556472113,-0.07452099141683138,0.23206068854477385,0.09081112254270085,-0.01704746600344574,-0.0001345910528868055,-7.192043397515761,-3.5178898179254765,11.67337516805711,4.442315632870081,-0.8100005673609729,-0.006776729490100664,-1.0096861512678212,-4.141836450525418,-3.350442042861319,-0.678267763543349,-0.09146479125095298,-0.0014058263482236582
0.03,-0.004312133953565448,1.5677823015518852,-1.5630401774875413,0.0027045833017323865,-0.000505322828300039,-3.996225727108304e-06,-0.21530401505168067,-0.10914072655488777,0.34784835818087856,0.1329845745976217,-0.024461117573478075,-0.00019900199468962597,-7.160777132434205,-3.330004061985972,11.655704038344062,4.243671681023521,-0.7500060830286586,-0.006211705385180899,-1.0075043424941672,-4.068847314585618,-3.315644058438867,-0.6695210486478125,-0.09141606953775124,-0.0013887956897645636
0.04,-0.007176470900990373,1.5663635075590163,-1.558406619980285,0.0044404739030431215,-0.0008203503089415055,-6.595904868618562e-06,-0.2864336947424926,-0.14187939928690124,0.46335575072562657,0.17358906013107347,-0.03150274806414664,-0.0002599679141510258,-7.127537972031166,-3.1338381023337205,11.629240135075282,4.084985766268236,-0.7140598230755231,-0.005616885292784701,-1.0039959239120748,-3.9959683627792097,-3.279668378790504,-0.6601728124942767,-0.09128723613575598,-0.00136603668216748
0.05,-0.010748676266345365,1.5646369242376559,-1.5526213663936657,0.006569757219810924,-0.0012035335029411012,-9.780954730556135e-06,-0.35722053653549907,-0.17265833213604842,0.5785253586619319,0.21292833167678027,-0.038318319399959576,-0.00031850498619375724,-7.092702127509899,-2.93036968532311,11.596164513179865,3.955932250642146,-0.6928991439999024,-0.0050124474404888986,-0.9992364290570467,-3.924155268058738,-3.242891710936646,-0.6503003779421219,-0.09107878030202175,-0.0013375843021239137
0.06,-0.015025212144320302,1.5626228466269114,-1.5456882252484523,0.0090820295645751,-0.0016535098790150357,-1.3532796893659827e-05,-0.42765358779749374,-0.2014077610744537,0.6933141145213478,0.2512272344764176,-0.04499763760739345,-0.00037518421631036917,-7.05627314841308,-2.7205476732438716,11.557799516600383,3.848542901745528,-0.680866346590399,-0.004345644737476562,-0.9932738105571347,-3.854424254527517,-3.205707078322976,-0.639981197743044,-0.09078865322618282,-0.0013034416833387801
0.07,-0.020002412129472562,1.5603421791460903,-1.5376113598094867,0.011968524666267803,-0.0021694708420975125,-1.7834942030748213e-05,-0.49771999851522586,-0.22806674808210925,0.807686543896557,0.2886495101692702,-0.05159609630824768,-0.0004302145137088387,-7.018007784564339,-2.5053161748732835,11.514778690762093,3.756642493401781,-0.6744839288659179,-0.0035731424347043017,-0.9861251396791624,-3.7878410005474947,-3.1685210929949594,-0.6292922339383702,-0.0904120694758287,-0.0012635807338732272
0.08,-0.025676445432698113,1.5578163462774006,-1.5283952676829833,0.015221637756630454,-0.0027509490867206423,-2.2670668642806126e-05,-0.5674033303225549,-0.2525832868689574,0.9216092126503388,0.3253113090362652,-0.05814782446231298,-0.00048357266120579117,-6.977491310780284,-2.2856327307762467,11.467179270474226,3.6754174609022066,-0.6715944537418537,-0.0026650108017847174,-0.9777734284021378,-3.725506976044915,-3.1317505596028288,-0.618309179462637,-0.0899413124970245,-0.001217944501053406
0.09,-0.032043268565176794,1.5550672007400352,-1.5180448058077776,0.01883455202734394,-0.003397685499916211,-2.8021585482573022e-05,-0.6366823132478682,-0.27491455373652907,1.035046187520572,0.36129142707134865,-0.06467364131955687,-0.0005350916839766895,-6.934182792672489,-2.0624816950630445,11.41462665028913,3.601087265728008,-0.6708413081531859,-0.001600279145409722,-0.9681647128628291,-3.6685429911339424,-3.0958183289235737,-0.6071055251196911,-0.08936555484385904,-0.0011664507881228403
0.1,-0.03909856727390362,1.5521169280985658,-1.5065652527865114,0.02280094254637452,-0.004109544260306606,-3.3866727184725214e-05,-0.7055298708726832,-0.2950272641469393,1.1479553021266153,0.3966390519030578,-0.07118587603903948,-0.000584514170215219,-6.887442715495879,-1.8368835572057662,11.356378171710094,3.530654975164353,-0.6713555971010869,-0.0003633320748113178,-0.9572055696044585,-3.6180698000511757,-3.0611483423260943,-0.5957514796843573,-0.08867070668143733,-0.0011089968848672198
0.11,-0.046837690380930996,1.548987947089454,-1.4939624020145446,0.02711473876980989,-0.004886457228832059,-4.018196264142702e-05,-0.7739123107027375,-0.312898100911165,1.2602850771966767,0.431379622343537,-0.0776912968525453,-0.0006315235456701806,-6.836550552283468,-1.609900676599674,11.291391926982424,3.4617189299745377,-0.6725677717953609,0.0010583264264583114,-0.944761266148855,-3.575185704313723,-3.028159841838847,-0.584312758563063,-0.08783930840356499,-0.001045465447517611
0.12,-0.05525557661415928,1.5457028052586936,-1.4802426801341457,0.0317699314525501,-0.005728386262911214,-4.693958650835111e-05,-0.8417886233228279,-0.3285141830760553,1.3719721880398725,0.4655192682740213,-0.08419290340791552,-0.0006757623866924089,-6.780716922542759,-1.3826397223045734,11.218384984350482,3.392331533690605,-0.6740947607943042,0.0026753998207502683,-0.9306547750224237,-3.540941231098283,-2.9972607624646974,-0.572849266483229,-0.08685048506647214,-0.0009757316335489464
0.13,-0.06434667524343496,1.5422840697952322,-1.4654132860695976,0.03676041336565041,-0.006635296650272842,-5.4108019752823154e-05,-0.9091098629275678,-0.3418735463461413,1.4829394064548076,0.4990481913100309,-0.09069103873616283,-0.0007168433244472049,-6.719093215470419,-1.156250998044596,11.135884402843164,3.3208944035000805,-0.6756727984171533,0.0044976102381575345,-0.91466690394668,-3.516311125324184,-2.9688403733362314,-0.5614137114058051,-0.0856799817164416,-0.0008996716071412376
0.14,-0.07410486124338744,1.5387542137272254,-1.4494823463663187,0.04207984601432051,-0.007607137623630139,-6.165157776817178e-05,-0.9758185999952484,-0.3529856068006897,1.5930939703278892,0.5319432648670095,-0.09718409733572962,-0.0007543558015348616,-6.650780457495645,-0.9319247735209812,11.042273558761485,3.2460815825106906,-0.677117879935583,0.006534249389098523,-0.8965378117394065,-3.502164083594637,-2.9432612913161726,-0.5500501996204726,-0.08430029943061038,-0.0008171725026701204
0.15,-0.08452334572622142,1.5351354979250333,-1.4324590828310213,0.047721546705508364,-0.008643827591185564,-6.95302832119359e-05,-1.041848448283397,-0.36187158021920024,1.7023263535297308,0.564170069118786,-0.10366899675554245,-0.0007878705443764121,-6.574838513892256,-0.7108847275872106,10.935835589016055,3.166784391280949,-0.6783028637720747,0.008794626827958396,-0.8759701859511965,-3.4992308705772763,-2.9208510544808233,-0.5387928753466369,-0.08268095178880483,-0.0007281438776327914
0.16,-0.09559458247981113,1.5314498496261166,-1.4143539886084004,0.05367839197975292,-0.009745242728641024,-7.769971093838015e-05,-1.1071236753589717,-0.3685648298916614,1.8105094222620957,0.5956845274244554,-0.11014151374554591,-0.0008169427726444254,-6.490296261396694,-0.4943786297502607,10.814795079203101,3.0820729234053665,-0.6791445263372964,0.011288511993331696,-0.8526343501743618,-3.5080716913955285,-2.9018935180463377,-0.5276646829108367,-0.0807888603264776,-0.0006325306095371489
0.17,-0.10731017157891441,1.527718738459213,-1.3951790088899279,0.059942734705612864,-0.010911208184497378,-8.611085754063777e-05,-1.1715589099103285,-0.37311111669036223,1.917497971847249,0.6264342725859946,-0.11659654558563542,-0.0008411146602257617,-6.39616305691879,-0.28366643906245254,10.677358234740495,2.991170267507588,-0.6795964668942567,0.014026628224689919,-0.8261755420750547,-3.52904396482411,-2.8866204499260295,-0.516676352495031,-0.07858890510630308,-0.0005303271015788052
0.18,-0.11966076118823288,1.5239630511920277,-1.3749477225119233,0.0665063331149286,-0.012141491508192341,-9.47100301126099e-05,-1.2350589609318465,-0.37556872671854097,2.0231286378004567,0.6563598409315735,-0.12302833236949631,-0.0008599172571972123,-6.291441615451111,-0.08000608533991341,10.521749572698415,2.8934363445341624,-0.6796453306459043,0.01702123238524811,-0.7962235551100496,-3.5622720781979877,-2.875204006049156,-0.5058257785513733,-0.07604464295171653,-0.00042159258374555736
0.19,-0.13263594882984556,1.5202029666479804,-1.3536755209724403,0.07336029078294784,-0.013435798114648588,-0.00010343874911491669,-1.2975187641612684,-0.3760084544047386,2.1272201539483016,0.6853957668019246,-0.12943066064562458,-0.0008728719002306787,-6.175141375332145,0.1153632932146983,10.346313553679575,2.7883580535706756,-0.6793087562896218,0.020286797008929547,-0.7624047489488007,-3.6076108035292043,-2.8677407858234663,-0.4950954638897935,-0.07311918782611919,-0.0003064658809220121
0.2,-0.1462241834450195,1.516457832518834,-1.3313797750328817,0.08049500743693094,-0.01479376870274783,-0.00011223365927639579,-1.3588234615173955,-0.3745134129146334,2.2295745939558484,0.7134716653983098,-0.13579705880992418,-0.0008794910161479101,-6.046295286446559,0.3012381270807512,10.149386108184242,2.6755503934580247,-0.6786341033347512,0.023840812497667674,-0.7243568445504284,-3.664646336505784,-2.8642694111448916,-0.48445844527729554,-0.06977629999340675,-0.0001851843559472624
0.21,-0.16041266992579328,1.5127460456727913,-1.3080800013837397,0.08790013994275056,-0.016214978600178172,-0.00012102644121938811,-1.4188486480773796,-0.37117868460428705,2.329977364914207,0.7405132505819622,-0.14212098974303428,-0.0008792781942992316,-5.903973617829461,0.47647026096836154,9.929522433365154,2.554747042502246,-0.6776972768638139,0.027704670926762542,-0.6817455722746293,-3.7326514372717687,-2.86473969431773,-0.4738723032676638,-0.06598158511363893,-5.8096299459544775e-05
0.22,-0.17518727750102708,1.5090849380547722,-1.2837980072549213,0.09556457414059055,-0.017698939000874533,-0.00012974371484900218,-1.4774607575233794,-0.36611076180191604,2.4281994128818347,0.7664434197839993,-0.14839604006963591,-0.000871727362961408,-5.747302296598267,0.6399855755017538,9.685323347232558,2.4258100408750707,-0.6766013084268785,0.031904678468628545,-0.6342839265374699,-3.810604305447425,-2.869039528744461,-0.46328756968847745,-0.061703904165906195,7.43211682584462e-05
0.23,-0.19053245381409942,1.5054906699332833,-1.2585580297962886,0.1034764072816527,-0.019245100056915834,-0.00013830692388254768,-1.5345176313072344,-0.3594268121488816,2.5239977458632663,0.7911833141062141,-0.1546161056041302,-0.0008563209033545509,-5.575472587879164,0.790804507790841,9.415841971511162,2.2887199988486593,-0.6754743614666054,0.03647312516674117,-0.5817519473584694,-3.8971387533695747,-2.876942673892343,-0.45263651497353125,-0.05691678087265084,0.00021145598892146635
0.24,-0.20643114567569928,1.501978132738347,-1.2323868306629655,0.11162294272969392,-0.020852855718072313,-0.00014663218771072674,-1.5898691861599865,-0.3512537194936334,2.6171199133323135,0.8146535448041224,-0.16077556611564783,-0.0008325263828179046,-5.390476051646893,0.9277476583328659,8.982924545379623,2.145659947819876,-0.6745059000687839,0.04144951514673112,-0.5243416560829932,-4.006580402213357,-2.907385896592957,-0.44662237637196817,-0.05163914885229254,0.000350184318252864
0.25,-0.22286499706696705,1.4985607662254012,-1.2053271520961288,0.11999006305671102,-0.02252156282036364,-0.00015463099496802393,-1.643385139126778,-0.3417366512945686,2.7059678566836762,0.8367120327017102,-0.16687071022913272,-0.0007998807257297196,-5.200674311615411,1.0494605213690988,8.010377878496243,1.9953080615296912,-0.6740630658198121,0.046846188175960535,-0.4631420074204991,-4.175778137150414,-3.012816800839307,-0.45832295712182597,-0.04599513149377743,0.000482814750494382
0.26,-0.23981517731338337,1.495250256890511,-1.1774744256090277,0.1285599882465402,-0.02425059680045742,-0.00016221370339837392,-1.6950180246416318,-0.3310509334890157,2.7852726487101203,0.8569925189829165,-0.17290339800937776,-0.0007582708430349973,-4.998240766677137,1.1549152965643266,7.02196582125543,1.8036442543167404,-0.6745518413095901,0.05257419455553458,-0.3977748567125388,-4.335531832603394,-3.120907457134652,-0.47004361734526884,-0.039915359183950096,0.000615152648211984
0.27,-0.2572616089944106,1.4920567105446079,-1.1489259332669666,0.13731165727479694,-0.02603934737929562,-0.00016928872978403428,-1.7446431681027232,-0.31935463459031094,2.854849234206103,0.8751669028256746,-0.17887505788382024,-0.0007075026385660351,-4.782615882873047,1.2445625892775911,6.043686547623695,1.5801058870493172,-0.6760704421834483,0.05868682201224862,-0.3287727970974582,-4.479822694206556,-3.2271459954376702,-0.4807798503591227,-0.033435642293542345,0.0007460096666738023
0.28,-0.27518291394445415,1.4889887033442342,-1.1197782125750992,0.14622161532031094,-0.027887222576338428,-0.0001757615339457043,-1.7921304950043573,-0.30680072003736536,2.914772069186735,0.8909958045514009,-0.18478751970428078,-0.0006472804161670028,-4.553416319480907,1.318944111467457,5.0949553242092005,1.3337599074020723,-0.6786747429536852,0.06524729659869233,-0.2568241131337604,-4.6043290382606115,-3.32801148790076,-0.4897760331161062,-0.02660459334206211,0.0008740777611887249
0.29,-0.29355637688922026,1.4860533380645733,-1.0901251031829557,0.15526483161747992,-0.029793650364501895,-0.00018153355510859432,-1.8373462944766086,-0.29353652796609736,2.9653109392143424,0.9043216297168978,-0.1906427788163466,-0.0005772021162890017,-4.310439828502574,1.3786796284146203,4.181454909194272,1.0729500016780058,-0.6823799135102036,0.07232607526427925,-0.18274431883085285,-4.706939395645991,-3.421997047357822,-0.49677607114917477,-0.01948260901185553,0.0009978723422877968
0.3,-0.31235792723172306,1.483256301920415,-1.0600571370349856,0.16441538223239147,-0.03175807820106874,-0.00018650125224119537,-1.8801550342502817,-0.27970361441582137,3.006796614797012,0.9150550614911551,-0.19644278365668422,-0.0004967697132601054,-4.053427016191553,1.4244017656990384,3.323600425273116,0.804479316811685,-0.6871610929287169,0.07999624023299551,-0.10743135527133008,-4.7849042990849915,-3.5056858980624623,-0.5010545740589533,-0.012136030140593293,0.0011161548316004374
0.31,-0.3315621154968926,1.480601932342704,-1.0296594981271963,0.17364709208213308,-0.0337799691291747,-0.00019055501980877297,-1.9204188265169504,-0.26543695777109255,3.039763890778942,0.9231709849741625,-0.202189092810596,-0.0004053767567577596,-3.7821302802904304,1.4568124534622517,2.5575438054987645,0.5347647827547082,-0.6929476537524728,0.08833980714344064,-0.03182477614492574,-4.835228695830152,-3.5735695496766526,-0.5013634735872019,-0.0046330243574202595,0.00122803292996485
0.32,-0.35114209129900753,1.4780932951726393,-0.9990084444886274,0.18293422809771878,-0.03585879399173337,-0.0001935777855411738,-1.9579975802114928,-0.25086371700647736,3.0651053638568926,0.9287136015585705,-0.20788248625586675,-0.00030227657324008363,-3.4965320762847747,1.4767641151405442,1.8832741703409455,0.27084342169910336,-0.6996278096298969,0.0974562755055451,0.043144826034604344,-4.859065577994423,-3.6252180188990786,-0.4976888416972384,0.00295500615552665,0.0013323676046633768
0.33,-0.37106960440413667,1.4757322617982285,-0.968171258731714,0.19225204205266908,-0.03799402203955385,-0.0001954438545986884,-1.9927513105129129,-0.2361033374410809,3.08371857569134,0.9317813954950294,-0.21352280478204788,-0.0001866069057514577,-3.196487324770332,1.4850572334180838,1.3092523825200262,0.017995133158408727,-0.707066681755304,0.10744997563792669,0.11658681139520366,-4.8573630754722545,-3.659176035877943,-0.4897570480447244,0.010559899995609578,0.0014282940243799244
0.34,-0.39131499372050865,1.473519585403233,-0.9372053812072703,0.20157722039460876,-0.04018510875411595,-0.00019601767934157102,-2.024538931637201,-0.22126763949953712,3.096587752444364,0.9325178341939692,-0.21910867145620977,-5.738247428826307e-05,-2.8819355307039416,1.482510185641124,0.8556588427567882,-0.21928619816350414,-0.7151040724909858,0.1184383736953637,0.1876655493114805,-4.830831371493727,-3.672464382615607,-0.47690686441867663,0.01811883321469849,0.0015153050184124823
0.35000000000000003,-0.4118471852324831,1.4714549833295099,-0.9061564009897478,0.21088833189968842,-0.042431481217104265,-0.00019515232169646358,-2.053219151197443,-0.20646020737232076,3.1048980217522484,0.9311111505079668,-0.22463724629883197,8.653576451074453e-05,-2.5526653635291607,1.4699537114550911,0.5447100258247353,-0.43670379511866564,-0.7235635337490471,0.13056333698946743,0.2556702433441216,-4.780832305379552,-3.6618884306275348,-0.45840369607669545,0.025580700390697236,0.0015931928508590408
0.36,-0.4326336758112285,1.4695372204986306,-0.8750558473815975,0.22016626643570059,-0.04473252075575016,-0.00019268760612142343,-2.0786490578745442,-0.19177628308792635,3.1100553608150365,0.9277934536012167,-0.23010395386458996,0.00024647155750401426,-2.2085113843534905,1.4482640344120041,0.32938728003719775,-0.6299203207641558,-0.732261465020243,0.14400015816486905,0.3200395347437349,-4.713270918870683,-3.6338603184362865,-0.4358431433634887,0.03289653346725897,0.0016612027115277621
0.37,-0.4536405222545125,1.467764172689744,-0.8439257593153504,0.2293943234740515,-0.047087547923106175,-0.00018844915895577566,-2.1006846443283966,-0.17730478088867085,3.1130088066247015,0.9228057038350919,-0.23550271673560136,0.0004238447165647773,-1.8492557563012249,1.418110683273584,0.1750229050913823,-0.7980923281159649,-0.7410316904797503,0.15892500922953012,0.3802341324028424,-4.6322021403588725,-3.593252267900695,-0.4104511227394727,0.04001625901056005,0.0017187189515945817
0.38,-0.4748323262122574,1.4661328778475176,-0.8127820708665026,0.2385580967030813,-0.04949580790341352,-0.00018224747219272637,-2.1191803957744875,-0.16312948422262893,3.114368844884787,0.9163773229029809,-0.24082599803073482,0.0006201686763049293,-1.4745786292135281,1.380037116679427,0.07098159247990599,-0.942391665780834,-0.749699631585723,0.17552805988977796,0.4357335329316194,-4.539662054906443,-3.541721579850944,-0.38267332772871365,0.04689089390532645,0.0017654005840995405
0.39,-0.4961722103137221,1.4646395854332943,-0.7816356573588502,0.2476453245728479,-0.05195645346753217,-0.00017387649930313134,-2.133988410146469,-0.14932924142231674,3.114641350765239,0.9087227869766585,-0.24606455641186548,0.0008370972889595031,-1.0840729492836356,1.334574000065601,-0.005508780864089569,-1.0642940334603908,-0.7580550772217536,0.19403070443230513,0.486076305970955,-4.437893065513872,-3.482617156253145,-0.35336405009756744,0.05347024069289067,0.0018008470372792855
0.4,-0.5176217870236753,1.4632798015711734,-0.750494574080022,0.2566456602073307,-0.05446852587135332,-0.00016311223445021294,-2.1449576709953226,-0.13597838621208758,3.1141083278828225,0.9000335634482798,-0.251207240382115,0.0010764264852918407,-0.6772166084506742,1.2822080901575144,-0.0655469362430664,-1.166059557986608,-0.7658407773618312,0.2146778388299129,0.5308238863262011,-4.328108339263145,-3.417717887620765,-0.3229980652731382,0.059702802655194634,0.0018247899619854909
0.41000000000000003,-0.5391411178735037,1.4620483348987607,-0.7193651570116623,0.2655504392250584,-0.057030931243037604,-0.00014971092442843636,-2.151933084982841,-0.12314666724127182,3.1129417068359664,0.8904779017727659,-0.2562405371684282,0.0013401310021776574,-0.25334265335651485,1.2234282683529039,-0.11256676495352813,-1.249963232817735,-0.7727225164979726,0.23774927835140738,0.569581395155799,-4.210987478013954,-3.347751713489219,-0.2917929120492819,0.06553737095300406,0.0018370839043407663
0.42,-0.5606886604770446,1.4609393453428894,-0.6882523728090434,0.27435248422019765,-0.05964241039786653,-0.00013340684558843632,-2.1547542603540815,-0.11089895558712817,3.1112784202618817,0.8802044995139272,-0.2611479154828926,0.0016304078840000049,0.18838691721182826,1.1587478622391933,-0.15113318592317404,-1.3179113056553073,-0.7782622964765054,0.2635690839253964,0.6020182898491703,-4.087157888632393,-3.273583361446625,-0.2599941254588502,0.07092315792778492,0.0018376424299014597
0.43,-0.5822212011773089,1.459946395000648,-0.6571602779374006,0.28304593362596076,-0.06230150081523895,-0.00011390976085145683,-2.153254070026433,-0.09929503422414714,3.1092094871642773,0.8693449405763112,-0.2659090417372415,0.0019497084736979499,0.6488827014840841,1.088735442215751,-0.21332401833805725,-1.3714872111169807,-0.7818916149978992,0.2925093313442634,0.627873510691467,-3.957800901085642,-3.1998181101405794,-0.22874941593968776,0.07580192865406908,0.001826184182157133
0.44,-0.6036937833167735,1.4590624979727855,-0.626095176437848,0.2916259718523456,-0.06500649238470127,-9.090269298149271e-05,-2.147258213946452,-0.08838970278622951,3.1065101499552603,0.858003822638486,-0.2704991569462327,0.002300706786996412,1.129344942575148,1.0138893518570942,-0.28479433384623,-1.4133536401778561,-0.7828869460655374,0.3249638602837921,0.6468793272820901,-3.8224553332888527,-3.1247528464367775,-0.19769152012236857,0.08011774035537154,0.0018027981698974982
0.45,-0.6250596111825801,1.458280176442058,-0.5950642285403875,0.30008868692590734,-0.06775536652232639,-6.403870382137862e-05,-2.136582786580663,-0.07823215307273994,3.103094789746047,0.8462715073561728,-0.27488741376251163,0.0026863989160114086,1.6309936813855455,0.9348507507519634,-0.38380490607041073,-1.4447486324354015,-0.7802776431854035,0.36139733142042496,0.6588889258585802,-3.681560099959229,-3.0510671529684132,-0.1674989124506956,0.08381057558081886,0.0017674434003963145
0.46,-0.646269956156775,1.4575915224584461,-0.5640772520495002,0.308430894858431,-0.07054572236235293,-3.293795914134232e-05,-2.121034497419479,-0.0688653983611963,3.0986976490887295,0.8342207932523673,-0.2790355840026548,0.0031100744680036298,2.151292567061966,0.8534718363070487,-0.6449991819536285,-1.4651727413593674,-0.7727856510430593,0.40230721026389427,0.6636832975281588,-3.5364962566185354,-2.997194355671387,-0.14265116011796256,0.08675673732222644,0.0017194567922723801
0.47000000000000003,-0.6672744326460243,1.456988358707276,-0.5331599474606648,0.3166496044416725,-0.07337471704909083,2.8131034925179833e-06,-2.100447648924927,-0.06031637511700315,3.091730458883544,0.8218709583241518,-0.28289946867379023,0.00357510626338603,2.687061991896501,0.7715997855579741,-1.1550005032124382,-1.4795216324465401,-0.7589893388655407,0.44804987012751063,0.6608841466493871,-3.38562283501746,-2.97524214996586,-0.1261771872801486,0.08879733376434604,0.001658358517204851
0.48,-0.6880213410101095,1.4564624205559478,-0.5023624407232186,0.3247412785104997,-0.07623899744259965,4.366168277438399e-05,-2.0746908364085237,-0.05259381513283677,3.0797506737446176,0.8091674068827226,-0.28642803935088174,0.0040848579281866,3.245048464575439,0.6880738701484179,-1.6804731210957558,-1.500368909216708,-0.7372200114626182,0.4987928966856199,0.6503916364676642,-3.2246990933893147,-2.954232449453653,-0.11081293669476575,0.08990538089098014,0.0015851637985461553
0.49,-0.7084570556492602,1.4560052981619631,-0.4717364251968951,0.3327018273666295,-0.07913452026127588,9.009085113339898e-05,-2.0435714639150695,-0.04571223939846239,3.0626015526323456,0.7960548856129764,-0.28955228186762183,0.004642916835901499,3.827928913254712,0.6035100746438993,-2.183824053111688,-1.5256293878210396,-0.7045657870407114,0.5548989117326839,0.6326437282444015,-3.054652255240226,-2.9292139213139827,-0.09540123322293914,0.09005651620166019,0.001500773253591203
0.5,-0.7285258149860022,1.4556085034727313,-0.44133145525828243,0.34052692926770484,-0.08205633671032002,0.00014261952576973225,-2.006875933674203,-0.0396794689231898,3.0404969938612663,0.7825101901075341,-0.2921816449044143,0.005252867463633326,4.403577824062794,0.5284873215998559,-3.8424614864179016,-1.534759367788972,-0.6570089125601646,0.6167013306937439,0.607958326035797,-2.8753044602200246,-3.058943703214683,-0.1179220895517467,0.0886519975869664,0.0014017247396384915
0.51,-0.7481728587028301,1.4552643882402845,-0.41131058471967136,0.348208890809953,-0.08499869879004644,0.00020178193081733876,-1.9647043716827917,-0.0344115232446718,3.0020870538611084,0.7681961542248168,-0.2942362079726425,0.0059162405047606505,4.945028027826268,0.4703814062374455,-7.27240291161268,-1.5625500912554173,-0.5926372141604377,0.6819118731238962,0.5751794304425204,-2.669800891325521,-3.4284709853519706,-0.19943218847728045,0.0849252228996043,0.0012849122536327297
0.52,-0.767347049512645,1.4549669234826474,-0.38201111670487536,0.35573145714075444,-0.08795521781280831,0.00026808699981397673,-1.917419080981484,-0.029746475763704042,2.929946801479601,0.7522566330801446,-0.2956519022761868,0.006630506899663797,5.507897817362746,0.41293941599206374,-9.846400386858917,-1.7033656370097212,-0.5109042275398306,0.7450241565375544,0.533136415932221,-2.437955437854271,-3.6879293392643264,-0.25765745088258685,0.07954984720050781,0.0011567043813758156
0.53,-0.785995601172116,1.4547103991145174,-0.3536867287627271,0.3630726979584125,-0.09091806501748871,0.00034198529945896267,-1.8648551659471015,-0.0256524368130081,2.8324387942148235,0.7341240817658062,-0.29628472046803994,0.007389829964498595,6.084698408060265,0.3596453614063095,-11.721811825408643,-1.900208416613026,-0.40274298777882933,0.8040645678128779,0.48534005327607194,-2.196066596147774,-3.8574809710419435,-0.2967857945133747,0.07283964353561444,0.0010218975237166962
0.54,-0.8040648277162183,1.4544896731032604,-0.3265226547866457,0.370208913120314,-0.09387743943427296,0.0004238352066676432,-1.806922654410239,-0.022072601125694584,2.716407397608137,0.7136215161901472,-0.2959374416784243,0.008184990720868052,6.666104209235192,0.3126342663114638,-13.02827280991163,-2.1153688478647226,-0.2632677957969136,0.8567480282893483,0.43476923097996345,-1.956142785314235,-3.954047490369998,-0.3202754678988675,0.06510088609827692,0.0008846967278810086
0.55,-0.821501079190965,1.4543003122379163,-0.30064824626619635,0.377117125183712,-0.09682131860403984,0.0005138632262101628,-1.743625147474671,-0.018936086534410257,2.5874408520449395,0.6908212063397963,-0.294387916976688,0.009002801954251969,7.240656496679282,0.2730001609096771,-13.873035836173228,-2.3248346770624977,-0.09108343344578707,0.9005527333501631,0.38384219908049716,-1.726495002398729,-3.9918316550268163,-0.33100587977454365,0.05662661882652454,0.000748669520446289
0.56,-0.8382518813191261,1.4541386497194448,-0.2761474059683096,0.38377657851046865,-0.09973545494201619,0.0006121213989515893,-1.6750802128160993,-0.016166251847150998,2.450084029788674,0.6659453326756651,-0.29141363379763474,0.009825817274142645,7.794746498417671,0.24105777180028248,-14.345152201349574,-2.514181639257295,0.11202934010262044,0.9329143896001755,0.3344264861010782,-1.5124251920943765,-3.9827444673710306,-0.3313902600995165,0.04769120735375611,0.0006167376496816269
0.5700000000000001,-0.8542672692985049,1.4540017811411452,-0.25306728191330274,0.39016955226247424,-0.10260360142105247,0.000718446353188519,-1.6015387979378846,-0.013686857829964273,2.308012405500689,0.6392973752005584,-0.28681464790362887,0.010632495423692972,8.312914521027713,0.21656284882615895,-14.518747293020937,-2.675586638753771,0.34130120584293877,0.9514701269647317,0.2878784546496665,-1.316901659224014,-3.9367579212500274,-0.323460809364019,0.038545718752698716,0.0004911976200263317
0.58,-0.8695012750985865,1.453887517132578,-0.23142552695066487,0.3962817098338194,-0.10540795435309987,0.0008324252015938146,-1.5234005800081656,-0.01142640085670791,2.164175496263786,0.6112157571345135,-0.28043529320474003,0.011397884840529563,8.77848539698692,0.19889522681335994,-14.455604975469088,-2.8056774892674454,0.5892162387169169,0.9543259063508156,0.24510239961037625,-1.1411633787783437,-3.8622002023068718,-0.3089342113112822,0.029414284215189875,0.00037376102680070344
0.59,-0.8839134957723785,1.4537943079098155,-0.2112163662392698,0.402102144234815,-0.10812979267851075,0.0009533736800728397,-1.441222067379203,-0.009320922276250733,2.0209160711395087,0.5820434400995619,-0.27218383254108774,0.012094847847902516,9.174523347418965,0.1872077650305253,-14.207227301611663,-2.903995960448789,0.8459336031167721,0.9403157864639713,0.20661999086175234,-0.9852280512312366,-3.7660052795784633,-0.28926295838389426,0.020491422757726432,0.0002656072939492894
0.6,-0.8974706418457472,1.4537211521418822,-0.19241566695354503,0.40762323279153156,-0.11075027646944288,0.0010803314413843422,-1.3557146073368633,-0.007315576793315757,1.8800699285724753,0.5521088556716566,-0.2620483790932136,0.012695776131150235,9.485036705569216,0.18054387864492974,-13.816495457339043,-2.97190407385402,1.0999541649792457,0.9092127401970993,0.17264269321883385,-0.8482991999210129,-3.6539253217443246,-0.2656762560114504,0.011940262785923637,0.00016744347140581963
0.61,-0.9101479453070921,1.4536674998925,-0.17498516789786409,0.41284038113930444,-0.1132513471224115,0.0012120780478443813,-1.2677303461344902,-0.005365224938222744,1.7430499055680952,0.5217148347772897,-0.2501070652968622,0.013174660646003918,9.696306265863873,0.1779264616547122,-13.319025974755263,-3.0118085032383917,1.339029590543598,0.8618493428303191,0.14314183857945043,-0.7290792529898023,-3.5307119494464034,-0.2392131130251207,0.003891629063444115,7.956761154089996e-05
0.62,-0.9219303013913237,1.4536331569553742,-0.1588759985407873,0.4177517124267408,-0.11561665345744945,0.001347170949187655,-1.178235608423158,-0.003434293712586233,1.610916935707679,0.4911331287436377,-0.23653063350379505,0.013509290134327376,9.798166034922255,0.178421389857834,-12.744291622060462,-3.026614843497974,1.551242200972378,0.8001161797784224,0.11791286491013724,-0.6260012447482214,-3.400270750972523,-0.21074943983171146,-0.003555988119037538,1.9335625928250214e-06
0.63,-0.9328130306671448,1.4536181957188736,-0.14403159507973495,0.4223577401262152,-0.11783241711167156,0.0014840038505207543,-1.0882729275821155,-0.001496123650062619,1.4844403461052345,0.46060276994743665,-0.22157636542221085,0.013683290133309933,9.785047787936202,0.18117923697839497,-12.116557834393117,-3.0193521345301235,1.726126016956373,0.7268258364257019,0.09663169816496729,-0.537393644260278,-3.2657925437722923,-0.1810204587978533,-0.010335536586383027,-6.578430843128289e-05
0.64,-0.9428021780474748,1.4536228758194767,-0.1303901038743705,0.4266610497697341,-0.11988815137532098,0.0016208808840666312,-0.9989147380329977,0.0004680100602956457,1.3641491205364464,0.4303309643518931,-0.20557342636494286,0.013687703354587681,9.65662147348632,0.1854591370112032,-11.455672008132808,-2.9929281481740695,1.8556682998006013,0.6454564604969546,0.078902320611928,-0.46159242619690455,-3.129864375646805,-0.15063940301789736,-0.016409548396744772,-0.00012412781389085093
0.65,-0.9519143095041299,1.453647576303345,-0.11788634874965077,0.4306660048801085,-0.12177716159123346,0.0017560995328230876,-0.9112131456655116,0.0024700483868338443,1.2503755124719722,0.40049551103743347,-0.18890102159124758,0.013521864875645646,9.417922129074373,0.19063876808362934,-10.777733403688803,-2.9499880530850753,1.9350370889299207,0.5598138971966602,0.06429531178200161,-0.39701292756832934,-2.9945630469670785,-0.12011327480054526,-0.02176735767941581,-0.0001737945772126346
0.66,-0.9601758183941002,1.4536927398180868,-0.10645342741681091,0.43437848454228506,-0.12349678083298733,0.001888033884642554,-0.8261508889970223,0.004516351474182935,1.1432921332839867,0.3712479662176565,-0.17196192417538758,0.013193435181946626,9.078938664275835,0.19621419636399534,-10.095664788601141,-2.8928546693296795,1.9629242349935856,0.4736677635703934,0.05237766092758567,-0.3421920013886436,-2.8615338303053677,-0.08985629953903046,-0.026421508644165783,-0.0002155822965468514
0.67,-0.9676218026254776,1.4537588284841827,-0.09602399299093724,0.4378056541107599,-0.12504832727266796,0.002015209842065171,-0.7445984231377442,0.0066088666095827815,1.042943442587367,0.34271695684748293,-0.15515464396806364,0.01271759574226171,8.653730139914972,0.20179285509791584,-9.419702400277972,-2.8235299792725392,1.941464053202127,0.3904197024478844,0.04273451244523668,-0.2958089178839163,-2.732056934679094,-0.06020160377832651,-0.03040356528104601,-0.0002503393310235875
0.68,-0.9742946131663286,1.453846290510665,-0.08653126886549502,0.44095576637700823,-0.1264368032263432,0.002136365342811767,-0.6672810540850953,0.00874620264823327,0.9492724125442218,0.3150112266248338,-0.1388475953675245,0.012115550074659615,8.159208825320936,0.2070823378187473,-8.757817529494993,-2.7437375160717075,1.8757655887005398,0.31285116896962073,0.03498376605860237,-0.25669160230602156,-2.6071040290986756,-0.03141154317549294,-0.03375960453568691,-0.00027892300164904265
0.6900000000000001,-0.9802421979212578,1.4539555362740828,-0.07790983871202864,0.4438379880705671,-0.12767038414822252,0.0022504910890655655,-0.5947584754929169,0.010924576341768443,0.8621430153466376,0.28822216935589196,-0.12335809218793006,0.011412574625379847,7.613769957297521,0.2118770584567391,-8.11608053244696,-2.6549858750696167,1.7731609345693948,0.24297764604708938,0.028784629178488612,-0.22381322157147446,-2.487386800758885,-0.003687000579453259,-0.03654570357698177,-0.00030216644235530525
0.7000000000000001,-0.9855163707193147,1.4540869224215753,-0.07009624785493225,0.4464622456840834,-0.12875976431877093,0.0023568501656005265,-0.5274172798057015,0.013138614749242591,0.7813590857096384,0.26242576135162526,-0.10893801705484003,0.01063590765349608,7.035950003427801,0.2160442547169696,-7.498975869535774,-2.558636045090875,1.6423082541755045,0.18201283502946541,0.023841309453400763,-0.1962828504357881,-2.3733990935267846,0.02282413428509278,-0.03882371338648438,-0.0003208541484891237
0.71,-0.990171124669636,1.454240742538384,-0.06302944750883122,0.4488390849913306,-0.1297174327321643,0.002454977648166442,-0.46547539503212243,0.015382011680872606,0.7066800346101038,0.2376839307247194,-0.09576684133933641,0.009812748256591536,6.443263647219836,0.2195103312269603,-6.90967470306139,-2.455959549803868,1.4922913188772857,0.13042657097745192,0.019903038647077702,-0.17333293098905153,-2.265453715664207,0.0480191939043092,-0.04065755245309613,-0.0003357057053782027
0.72,-0.9942610867172744,1.4544172229937364,-0.056651109167319476,0.4509795398474443,-0.13055694849581018,0.0025446634014924794,-0.4089962047638406,0.017648045535237248,0.6378338341511739,0.21404548561137368,-0.08395157636458687,0.00896857533260373,5.851317394035503,0.2222481999558548,-6.350273185825114,-2.3481796484463686,1.3318325400486315,0.08806805848013521,0.0167615444924349,-0.15430535082296823,-2.1637150481142604,0.0718335383194561,-0.04211017393283091,-0.0003473666479862183
0.73,-0.9978401813736709,1.4546165227148982,-0.05090583297465344,0.4528950074624068,-0.1312922726541058,0.0026259225032963162,-0.3579094656396536,0.019929972116177145,0.5745276192666038,0.19154676149624847,-0.07353241582956312,0.008125910180383666,5.273240416815766,0.2242659030438142,-5.821989994818712,-2.2364933767371955,1.1686949711456376,0.05432247806507462,0.014246928331534937,-0.13863769537207374,-2.068226554090614,0.09423425699856272,-0.043241262937960157,-0.00035640516080501586
0.74,-1.000960541580751,1.4548387357955435,-0.04574126979027651,0.45459712894819765,-0.13193719641140184,0.0026989580979867936,-0.3120360207080167,0.022221308064529308,0.5164563184376926,0.17021214857908512,-0.06449237572960363,0.007303559469047734,4.719421584188686,0.22559687457967573,-5.3253507657303105,-2.122075442681737,1.009303553505846,0.02827251726509772,0.012222766420069073,-0.12584982847860918,-1.9789366987384365,0.11521404576064304,-0.0441056640693279,-0.0003633130834030195
0.75,-1.0036716777399628,1.4550838960366148,-0.04110817524515605,0.4560976752277726,-0.132504887848112,0.002764121144404755,-0.27111361592118743,0.024516024107132755,0.4633094545120462,0.15005462795749755,-0.05676914367101668,0.006516304641796161,4.197507913756298,0.2262915904554849,-4.860318996769262,-2.0060695499993635,0.8585768619918657,0.008843942824010131,0.01058097422716885,-0.11553239697955203,-1.895717868348342,0.13478658328909407,-0.04475243847625339,-0.0003685100732456597
0.76,-1.006019894460591,1.4553519826645906,-0.03696040872032151,0.4574084393025674,-0.13300756317767976,0.002821870720043194,-0.23482167206280388,0.02680866279757684,0.4147766524834544,0.1310764074794826,-0.050267532956773026,0.005774957563843907,3.7125969690405975,0.22641109347555946,-4.4264522910100785,-1.8895702754826615,0.71993436463071,-0.005076795983931515,0.009236936846270721,-0.10733541279855635,-1.8183884992042116,0.15298109707948107,-0.04522448914989509,-0.0003723494281747611
0.77,-1.0080479298611107,1.4556429266814899,-0.03325489258237074,0.4585411362370204,-0.1334562760839777,0.002872737536431811,-0.20280354005198173,0.02909440168993107,0.3705516137950765,0.11326969344530109,-0.04487129062979479,0.005086681638861709,3.267557038326498,0.22602169532105587,-4.022992266914471,-1.773603898129334,0.5954305514457335,-0.01455722897853473,0.00812503681125852,-0.1009594593728381,-1.7467263976132266,0.16983893755864773,-0.04555857238888826,-0.0003751250857009374
0.78,-1.0097947835918701,1.455956617405358,-0.029951540442555137,0.4595073122611641,-0.13386081030108732,0.0029172923063010077,-0.17468537307593737,0.03136907238681526,0.3303352139815605,0.09661760241436484,-0.04045342171096224,0.004455476986919685,2.8634112735756077,0.22519086094692561,-3.64893407034262,-1.6591097571123132,0.48596625663642457,-0.020564246066009595,0.007194759388129119,-0.09614832752148819,-1.6804791539903308,0.18541082286826976,-0.04578560016694247,-0.00037707896070392384
0.79,-1.0112956964970863,1.4562929088716932,-0.027013161173439052,0.4603182642062514,-0.13422965614947238,0.002956119723699499,-0.15009129052161274,0.03362914663350761,0.29383792691160837,0.08109519450873089,-0.036884584838507595,0.0038827417398491163,2.497539497215568,0.22454851027101633,-3.3803622357525316,-1.5459259477354284,0.39159088277579135,-0.023935176557767335,0.006507055589620676,-0.09055376142965631,-1.6295333317230982,0.19740131873610212,-0.04598243312699822,-0.00037806470105488835
0.8,-1.0125824304388769,1.4566517061899422,-0.02441293925748338,0.46098476974701924,-0.1345700709858252,0.0029898002015371953,-0.12867339417906193,0.035879731824914426,0.2600221915955671,0.06665055407678609,-0.03404148363528309,0.003368047783769656,2.163867020537117,0.22564129215446235,-3.3629720509497467,-1.4355837503571998,0.31142660016174173,-0.025419946960809847,0.006220196309489069,-0.07988125184748537,-1.6131244031369603,0.20134891627055707,-0.04627031563030283,-0.00037747817306506287
0.81,-1.0136838278322502,1.4570331644422658,-0.022148766204933522,0.46151642018543376,-0.13488822101204037,0.003018899631854283,-0.11013973933734042,0.038145825232371845,0.226417305254986,0.0531650438414496,-0.03181500262151522,0.002909943031708775,1.866207082829307,0.22788638174738912,-3.342217592282739,-1.33938110588905,0.24336495446475415,-0.025695339811299567,0.0059758287929698355,-0.0708939825102196,-1.5982787345926321,0.20487813575097974,-0.046503477498168584,-0.00037628352796237005
0.8200000000000001,-1.0146255272676292,1.457437546750448,-0.02021825354489207,0.4619216062158725,-0.13518927538556186,0.0030439549496310845,-0.09416994353789286,0.04043823081820351,0.19305126600414507,0.04051860304387786,-0.03010543735214973,0.002505531777680127,1.6020382647564315,0.23116981549148877,-3.3129518444981105,-1.2551476061561928,0.1864402923820101,-0.025143814176099788,0.00575320068829517,-0.06372800496696147,-1.5842265554592379,0.20817440485463035,-0.046689691208795216,-0.0003745982149816006
0.8300000000000001,-1.0154302118467569,1.4578652118030144,-0.018618218813349095,0.46220772025751977,-0.13547750137814243,0.00306546802184305,-0.08046845791276808,0.04276650525665833,0.16000347315429775,0.028611404164724442,-0.028822599258057434,0.002151307221196529,1.3684461516070654,0.23541702098660985,-3.2790828051297076,-1.1807839236215898,0.13955151310179315,-0.02403161626481487,0.00554646953596994,-0.05826938268631124,-1.5713839277822963,0.2111476405233048,-0.046840946000366264,-0.00037249330816014085
0.84,-1.0161178848984296,1.4583166082490844,-0.017345062197855234,0.46238131994001713,-0.13575636843551364,0.00308390264495053,-0.06876730516728162,0.045139644606999416,0.127315661549386,0.017359968249734598,-0.027886705737121258,0.001843462310747994,1.162564243467224,0.24054758768288484,-3.2402845965631903,-1.1147115400633352,0.10150274669804604,-0.02256777072025784,0.0053464587618190776,-0.054515822669887554,-1.5596264556224295,0.21383158997341373,-0.046965028026819504,-0.00037004295725663453
0.85,-1.0167061361449323,1.4587922670438378,-0.01639472884205836,0.4624482636890243,-0.1360286538484098,0.003099683296240946,-0.058825124650268505,0.04756587947534515,0.09503333557968711,0.006694374900718149,-0.02722854128961337,0.0015780651290416175,0.98155089301648,0.24648691579176818,-3.196862393653303,-1.0555826407527142,0.07109484271610933,-0.020915334161431653,0.005146710075174261,-0.05244568466556915,-1.5489172193767808,0.21623879673406682,-0.04706882413670239,-0.00036730922632424316
0.86,-1.0172104009179086,1.4592927945499912,-0.015762734060487525,0.4624138247645911,-0.13629654532817906,0.0031131952500725725,-0.05042647729762673,0.05005275061534458,0.06319947815708367,-0.0034438924433221677,-0.02678914797692674,0.001351195383162641,0.8226724955613374,0.25316556979054805,-3.1491784181000684,-1.0022680327614486,0.04717222633675233,-0.019198166340139045,0.00494232014989723,-0.05203352722792648,-1.5392317329593646,0.2183780464138221,-0.047158130607271344,-0.0003643452044719046
0.87,-1.0176442060951234,1.4598188661362046,-0.01544419496637178,0.46228278676838985,-0.13656173726229306,0.0031247857158442365,-0.04338051772148186,0.052607158621349945,0.03185390941157448,-0.01310379962012338,-0.026519193411400438,0.0011590465771663839,0.6833528097902131,0.260519406587527,-3.097637440896021,-0.953822155134092,0.028657062799431365,-0.017507290489285898,0.0047295959206971085,-0.05325067699860654,-1.5305553017939963,0.2202550772805647,-0.04723780663087641,-0.0003611961771347432
0.88,-1.0180193992984476,1.4603712202816639,-0.015433866948121246,0.46205952352965357,-0.13682551859277858,0.003134765703147805,-0.03751932033243473,0.05523541454592348,0.0010328018250534664,-0.02232632387362554,-0.02637813304855149,0.0009979987303568665,0.5612123834462297,0.26848750861789145,-3.042362851640551,-0.9094578830419433,0.014570110818872939,-0.015906970215248617,0.004505351411732586,-0.05607441365683147,-1.5228398588631853,0.22188266805617335,-0.04731170423896498,-0.0003579020437637896
0.89,-1.0183463586932446,1.4609506528766856,-0.015726153045562706,0.46174806662260376,-0.1370888511431046,0.0031434123563165964,-0.03269593947970397,0.05794325950217186,-0.029228609744146202,-0.031145690704979273,-0.026333255032600485,0.0008646653168791242,0.454069763544399,0.2770147427991248,-2.983830963400093,-0.8685039716198686,0.004042794312801856,-0.014440249814285766,0.004267546374568861,-0.06047062513150114,-1.516086044414727,0.22326172033279829,-0.04738322182464034,-0.00035449583345496187
0.9,-1.0186341838704125,1.4615580121886858,-0.016315148431541783,0.46135216171116883,-0.1373524381406476,0.0031509715627730294,-0.028782517716780743,0.060735931200022346,-0.05889953859790783,-0.03959049114349299,-0.026358699754299435,0.0007559206456433167,0.35996056209058874,0.28604944298891727,-2.922266863917169,-0.8304057390994961,-0.003681988792425539,-0.01313395946772511,0.004014290053191282,-0.06641053906205507,-1.510264225116001,0.22439962533036376,-0.047455019720070525,-0.00035100673725218883
0.91,-1.0188908667125907,1.462194194059532,-0.017194660599689143,0.4608753158685097,-0.1376167830591925,0.0031576606649825942,-0.025668284217811574,0.06361818708461385,-0.08795121681473607,-0.04768458426590906,-0.02643449185448932,0.000668910220956494,0.27712953909874083,0.29554318064080226,-2.8578470507069933,-0.7946963059979293,-0.009251829566437442,-0.012002887744855861,0.0037439748225755252,-0.07386535952254987,-1.505340136392034,0.2253044008332697,-0.04752925178969837,-0.0003474602537119913
0.92,-1.0191234433342453,1.462860137385169,-0.018358225075454614,0.4603208375308296,-0.13788223932455962,0.0031636711551244205,-0.023257662165458458,0.06659433256371303,-0.11635644757654724,-0.055447833768011566,-0.02654562653671047,0.0006010490141826447,0.20401721422500757,0.3054512839813416,-2.790850486883786,-0.7609801054749834,-0.013211599130316554,-0.011053209007428372,0.0034553677000614454,-0.08280215776788592,-1.5012943063735649,0.22598025645939226,-0.04760775240290769,-0.0003438782081188391
0.93,-1.0193381285606693,1.4635568199805575,-0.019799131443084508,0.45969186991204003,-0.1381490517019752,0.003169171268851091,-0.021468522642389107,0.06966825953885325,-0.1440906367629895,-0.06289676187895633,-0.026681237741557427,0.0005500113726670375,0.13925014711135938,0.31573203603803074,-2.721486883509396,-0.7289279834183144,-0.016013231619231627,-0.01028522602937433,0.0031472846484450383,-0.09318865191081524,-1.4980994956811922,0.2264328825340004,-0.047691994317694865,-0.0003402799153621381
0.9400000000000001,-1.0195404340320462,1.4642852546933438,-0.021510442789164794,0.4589914189307763,-0.1384173902449796,0.0031743084191165867,-0.02023054713768617,0.07284347127863723,-0.17113113460802865,-0.07004509812637347,-0.026833854300440895,0.0005137150265495956,0.08162379264238405,0.32634648338696676,-2.649957982770453,-0.6982646615943313,-0.018025709446813698,-0.00969544810118371,0.002818602208529959,-0.1049916076610975,-1.4957283903714944,0.22666772383158934,-0.0477831890435777,-0.0003366824495316902
0.9500000000000001,-1.0197352715816963,1.4650464857702397,-0.023485014544141647,0.45822237648760245,-0.13868737773147027,0.0031792114368834816,-0.0194837549650082,0.07612310768959166,-0.19745717549768527,-0.07690424431738288,-0.02699874864906933,0.000490301776689488,0.030085782541916437,0.3372581837945749,-2.5764570607687856,-0.6687609600890649,-0.01954556041473643,-0.009278116578602133,0.0024681996039146777,-0.11817690395344997,-1.4941533637032927,0.22669008663238938,-0.04788233614273856,-0.00033310103989744107
0.96,-1.0199270434497232,1.4658415854523863,-0.025715512646707135,0.457387539760952,-0.1389591114880134,0.00318399260339348,-0.019177186802685677,0.07950996821467203,-0.2230498102565487,-0.08348367266504493,-0.02717337565431201,0.0004781166509998371,-0.016280754556327392,0.3484329724297492,-2.5011695122397515,-0.6402271700604825,-0.02080694968080754,-0.009026272185076945,0.0020949145425829766,-0.1327095654943433,-1.49334641364768,0.22650520101243599,-0.047990264286037,-0.0003295494013072521
0.97,-1.0201197208484019,1.4666716507781936,-0.02819443106649331,0.4564896270909973,-0.13923268044068257,0.0031887494720600987,-0.019267739867863155,0.0830065325807224,-0.24789184197861755,-0.08979126699546909,-0.027356895266917213,0.00047568686666191775,-0.05827315512284299,0.35983874977820973,-2.4242736728872987,-0.612507410329866,-0.021991010062781258,-0.008932453270228728,0.0016975092517658619,-0.14855378700873903,-1.493279162286449,0.22611826501413093,-0.04810766486915706,-0.0003260400096820038
0.98,-1.0203169123023594,1.4675378005743507,-0.030914108747351184,0.4555312909373636,-0.13950817814803354,0.0031935664874559034,-0.019719145395760713,0.08661497961570935,-0.27196776808578743,-0.09583361536336929,-0.027549770735098213,0.0004817015395804772,-0.09658403539077258,0.3714452925641839,-2.3459416227608636,-0.5854748051466023,-0.02323422230300376,-0.008989108046175642,0.0012746445784743347,-0.1656729580971335,-1.4939228794827306,0.22553447965522416,-0.0482351192355112,-0.0003225843308700608
0.99,-1.0205219230646096,1.4684411726179403,-0.03386674603444602,0.4545151283272401,-0.13978571248119342,0.003198516415049534,-0.020501076225029467,0.09033720435895176,-0.2952637287094832,-0.10161626101235124,-0.02775343331598814,0.0004949927593630364,-0.1318147180431272,0.3832240878944399,-2.2663398988403367,-0.5590273449089205,-0.02463578137558553,-0.009188793927999275,0.0008248606421531222,-0.1840296923927472,-1.4952485176483465,0.2247590780347179,-0.048373120520669444,-0.0003191930097053712
