tonegas/nnodely-applications/joint_friction_estimation/dataset/train/mpc_mujoco_episode_44 copy.csv
time,q1,q2,q3,q4,q5,q6,dq1,dq2,dq3,dq4,dq5,dq6,ddq1,ddq2,ddq3,ddq4,ddq5,ddq6,tau1,tau2,tau3,tau4,tau5,tau6
0.0,0.0,1.57,-1.57,0.0,0.0,0.0,0.0,0.0,0.0,0.0,0.0,0.0,-1.7735039319691406,-12.480427536011657,11.661578926912755,5.546097706559479,-0.2723449071299431,-2.9126707281612596e-06,-0.24682766612863138,-8.627312039425927,-4.922772519738129,-0.9980101930292085,-0.02259039596324145,-0.0007361114320298553
0.01,-0.00017646514614938366,1.5687601454117373,-1.568841799043489,0.0005131640057298475,-2.2737296054162393e-05,6.009686205518395e-08,-0.017646514614938366,-0.12398545882628238,0.11582009565110006,0.05131640057298475,-0.0022737296054162392,6.009686205518394e-06,-1.761226479374596,-12.410705380445709,11.609634247450895,5.161354810498181,-0.23186243273624285,0.0005916837001740394,-0.244974241068583,-8.612199182588277,-4.914819973938136,-0.9957557958006267,-0.022486692220590528,-0.0007333856233530721
0.02,-0.0005280350568438628,1.5662875855880236,-1.5665328110316754,0.0015092087245192612,-6.572497691898036e-05,1.8904737568832544e-07,-0.03515699106944792,-0.24725598237135327,0.23089880118135872,0.09960447187894136,-0.004298768086481797,1.2895051363314148e-05,-1.7462639898946741,-12.339385723603012,11.534175377427854,4.857576859056106,-0.20778526825441546,0.0006576880596118606,-0.2408442318904403,-8.579881590430542,-4.899606697099671,-0.9917058354435443,-0.022244668644314035,-0.0007277445343351103
0.03,-0.0010531360606547792,1.5625895543282138,-1.563082191913038,0.0029639967919299105,-0.00012747291501016058,3.8307163985162325e-07,-0.05251010038109165,-0.36980312598098286,0.3450619118637311,0.14547880674106495,-0.0061747938091180204,1.940242641632978e-05,-1.7288669216511718,-12.266770191501772,11.441044433220272,4.615118640787527,-0.19405523350500964,0.0005920222008972686,-0.2344962214792525,-8.530296098210664,-4.877212585951915,-0.9858962076273525,-0.02186437712319983,-0.000719239395566424
0.04,-0.0017499849760935428,1.5576733565157812,-1.5585003984430552,0.004858044268972646,-0.00020712066552888643,6.343017217426751e-07,-0.06968489154387635,-0.49161978124326833,0.45817934699828533,0.1894047477042735,-0.007964775051872586,2.512300818910518e-05,-1.7090551360322563,-12.192940166357014,11.334611080601865,4.418934365433403,-0.18700013030596274,0.00048283321781772415,-0.22601628389697542,-8.463366917070857,-4.847712905057536,-0.9783626107549954,-0.02134614657726508,-0.0007079235297792598
0.05,-0.002616578524426932,1.551546372857765,-1.5527988609817598,0.007175377314788292,-0.00030421425191217474,9.333298983112667e-07,-0.08665935483333893,-0.6126983658016264,0.570153746129549,0.2317333045815646,-0.009709358638328834,2.990281765685915e-05,-1.6867072098056817,-12.117793817658493,11.21809845029223,4.25750520216416,-0.18439175620617476,0.0003582567141300341,-0.21551862601382854,-8.379005026267492,-4.811179783548812,-0.9691414423904283,-0.02069067344806181,-0.0006938541013432138
0.06,-0.003650673848894448,1.5442160799529652,-1.5459897453449467,0.009902656317691595,-0.0004185699598118004,1.2702067691421461e-06,-0.10340953244675158,-0.7330292904799814,0.6809115636812986,0.2727279002903302,-0.011435570789962561,3.368768708308795e-05,-1.6616144542538267,-12.041074933888307,11.093835625589474,4.122012607949248,-0.18487629599304345,0.00023059900084110296,-0.20314625741186532,-8.277110238850469,-4.767684922935608,-0.958270901325167,-0.019899141355997223,-0.0006770945927521614
0.07,-0.004849763490511487,1.5356900835109768,-1.5380857843501987,0.013028504556765703,-0.0005501907590222106,1.6348586934568284e-06,-0.11990896416170396,-0.8525996441988271,0.7903960994748092,0.3125848239074107,-0.013162079921041023,3.646519243146823e-05,-1.633514197073987,-11.962395882711201,10.963453486104875,4.005702249769223,-0.18762944512207014,0.0001063983099582888,-0.18907149020467096,-8.157575460409603,-4.717303309364761,-0.9457922695117412,-0.018973359258615256,-0.000657717627325766
0.08,-0.006211046929447769,1.5259761629628434,-1.52910016402749,0.016542993024999602,-0.0006992145156932222,2.0172429179715515e-06,-0.13612834389362816,-0.9713920548133326,0.8985620322708838,0.35144884682338984,-0.014902375667101148,3.82384224514723e-05,-1.6021109494151557,-11.881256407847912,10.828036965084936,3.903395456317935,-0.19214666110772605,-1.0177654357290677e-05,-0.17349609109224579,-8.020292789377486,-4.660117760999658,-0.9317513464568331,-0.017915910756726862,-0.0006358079362717649
0.09,-0.00773140008357589,1.5150823259933734,-1.5190464527852943,0.020437244303552395,-0.0008658813020491837,2.407384580346578e-06,-0.15203531541281212,-1.0893836969469943,1.0053711242195613,0.38942512785527944,-0.016666678635596153,3.901416623750265e-05,-1.5670906087983254,-11.797059525324253,10.688243859415788,3.811114660856771,-0.19811442202445217,-0.000115750696117356,-0.15665091743906748,-7.865161186505892,-4.596224163118004,-0.9162000061856472,-0.01673030867773464,-0.0006114653482206809
0.1,-0.00940734375263022,1.5030168717189614,-1.5079385643635164,0.024703127068673163,-0.0010505119986545571,2.795370920040913e-06,-0.1675943669054331,-1.2065454274412133,1.1107888421777827,0.42658827651207676,-0.01846306966053735,3.8798633969433506e-05,-1.5281308250667192,-11.709125454975524,10.544398044438825,3.7257967850716565,-0.20532971190770244,-0.0002068778888628664,-0.13879487569080137,-7.692095486654699,-4.52573725421474,-0.8991978436290344,-0.015421149540147507,-0.0005848077105249314
0.11,-0.011235011785520615,1.4897884613580443,-1.49579074734154,0.029333019513950686,-0.0012534932998095037,3.171343873039348e-06,-0.18276680328903952,-1.3228410360917129,1.214781702197647,0.4629892445277523,-0.02029813011549466,3.759729529984352e-05,-1.484909491945471,-11.616704277924391,10.396563156151279,3.645074378300522,-0.21364773030373208,-0.0002795630364264001,-0.12021304920138201,-7.5010365476188205,-4.44879682854625,-0.880813873328858,-0.01399426242637378,-0.0005559736587865359
0.12,-0.013210119659914643,1.4754061953129332,-1.482617595441796,0.03431962513094879,-0.001475265946459298,3.52551419877708e-06,-0.19751078743940284,-1.4382266045111227,1.3173151899743991,0.49866056169981043,-0.02217726466497944,3.541703257377321e-05,-1.437112680094425,-11.518987821692676,10.244601405341589,3.5671089012208075,-0.22294545303697788,-0.00032897250389296584,-0.10121385697702756,-7.291962334387625,-4.365574216088018,-0.861128238828593,-0.012456846421334362,-0.0005251251467703904
0.13,-0.015327934159139333,1.4598796956163422,-1.4684340739846287,0.0396558282612592,-0.0017163139849712288,3.848211037992513e-06,-0.21178144992246906,-1.5526499696590987,1.4183521457167354,0.5336203130310407,-0.02410480385119308,3.226968392154333e-05,-1.3844430009751978,-11.415121121466033,10.088221097671822,3.490464099548613,-0.23309321548559936,-0.00034927908686621656,-0.08212512738383909,-7.06489972597878,-4.276278891006119,-0.8402338861325577,-0.010817590264492145,-0.0004924496394769518
0.14,-0.017583244893496254,1.4432191927056397,-1.453255558693174,0.045334579884462524,-0.001977153361300458,4.129976551394185e-06,-0.22553107343569218,-1.6660502910702544,1.5178515291454842,0.5678751623203325,-0.02608393763292293,2.8176551340167164e-05,-1.326629268104491,-11.304213664907556,9.927015584768553,3.4140101700623493,-0.24392920459887524,-0.00033360758173117677,-0.06328900325500769,-6.819936803785197,-4.181165044184135,-0.8182381491119328,-0.009086767307884422,-0.0004581618609217844
0.15,-0.019970338535837684,1.4254356154843573,-1.4370978836830706,0.05134880644983469,-0.0022583183758072933,4.361713863915278e-06,-0.23870936423414288,-1.778357722128253,1.6157675010103383,0.6014226565372165,-0.028116501450683513,2.3173731252109222e-05,-1.2634383297830658,-11.18535044240315,9.760495714298106,3.3368515537032026,-0.25523342445504316,-0.0002740923174033849,-0.04505563830284422,-6.557235316796778,-4.08053792848995,-0.7952641877202623,-0.00727629834110897,-0.0004225049763478048
0.16,-0.022482976827792375,1.406540683630543,-1.41997739595177,0.05769133635736048,-0.002560344549060732,4.534896577019357e-06,-0.2512638291954692,-1.8894931853814212,1.7120487731300553,0.6342529907525789,-0.030202617325343902,1.7318271310407943e-05,-1.1946900282885218,-11.057602376574911,9.588117353681012,3.258272841063838,-0.2666988874468359,-0.00016208866564748625,-0.02777570019959666,-6.277042829760881,-3.974759717815651,-0.7714522059998703,-0.005399774405903996,-0.0003857510745581314
0.17,-0.025114379671540062,1.3865470011584293,-1.4019110140435356,0.06435484007122799,-0.002883746356873258,4.641848637581785e-06,-0.2631402843747688,-1.9993682472113619,1.8066381908234521,0.6663503713867514,-0.03234018078125258,1.069520605624277e-05,-1.120276339947642,-10.92003392505633,9.409305269002962,3.1776985749846487,-0.277898916957656,1.1389393036020934e-05,-0.011791764523495424,-5.9797032854969405,-3.864254360019891,-0.7469603281779718,-0.003472431517643688,-0.0003482007866970326
0.18,-0.027857214962919728,1.3654681505099682,-1.382916288828446,0.07133178090478619,-0.003228988149439891,4.676103498855673e-06,-0.27428352913796666,-2.107885064846114,1.899472521508945,0.6976940833558202,-0.034524179256663304,3.4254861273888506e-06,-1.0401848852496696,-10.771768033026465,9.223473191690008,3.0946623973316214,-0.2882509443083716,0.0002549071175975137,0.0025713060499225615,-5.665692393268482,-3.749520092592266,-0.7219667220959304,-0.001511064935305905,-0.0003101827338382167
0.19,-0.030703597164486247,1.343318780729738,-1.3630114646728262,0.07861437425656029,-0.003596446449845836,4.632850249461499e-06,-0.2846382201566517,-2.2149369780230193,1.9904824155619787,0.7282593351774098,-0.03674583004059449,-4.325324939417484e-06,-0.9545307553232018,-10.61185193426438,9.030041997323234,3.0087886490611675,-0.29697949152253855,0.0005754072283056799,0.015016509046017673,-5.335563359539158,-3.631111500097363,-0.6966658464000769,0.00046611271065048407,-0.0002720491054027584
0.2,-0.03364509734587782,1.3201147031105316,-1.3422155392753923,0.08619455390033255,-0.003986361859737051,4.509470858259765e-06,-0.29415001813915737,-2.320407761920643,2.079592539743394,0.758017964377227,-0.03899154098912151,-1.2337939120173339e-05,-0.8635903665472632,-10.439427342397028,8.828458527727932,2.919772672949061,-0.30308458504475544,0.000976480884007036,0.025285435245143525,-4.99002738004622,-3.5096656912750257,-0.6712727040824689,0.002439694193482906,-0.00023417433502296445
0.21,-0.03667276755800966,1.2958729773679714,-1.320548320548051,0.09406394403565267,-0.004398779110924035,4.306164578680124e-06,-0.30276702121318394,-2.4241725742560134,2.166721872734133,0.786939013532012,-0.04124172511869834,-2.0330627957964104e-05,-0.7678442009433767,-10.253496737379429,8.618218403071532,2.827375392723905,-0.3053266299244348,0.0014560823250866495,0.03316863186880978,-4.629855763124436,-3.3858683140388677,-0.6460157704188587,0.004389369857150232,-0.0001969469229774395
0.22,-0.039777183305592725,1.2706120116391013,-1.2980304782293988,0.10221383666724719,-0.004833474666876336,4.0266426454776894e-06,-0.31044157475830664,-2.526096572886995,2.2517842318652352,0.8149892631594522,-0.04346955559523014,-2.7952193320243473e-05,-0.66801294723322,-10.053185276102854,8.398868113595913,2.7314094612176376,-0.3022447261722352,0.002003871942426086,0.0385156690274633,-4.255998489536051,-3.2604919871268856,-0.6211430687414864,0.0062943070996110545,-0.00016076697110398147
0.23,-0.04294850742561962,1.2443516502098524,-1.2746835902413745,0.11063517343090142,-0.005289872892651828,3.6788557426791665e-06,-0.3171324120026896,-2.626036142924902,2.3346887988024236,0.8421336763654229,-0.04563982257754918,-3.4778690279852305e-05,-0.5699338675865319,-9.484687376366763,8.192894252770724,2.639250923774606,-0.29224247503604817,0.0025986203392641995,0.040958448333082945,-3.725752224402,-3.0875783478201764,-0.5887194539769472,0.008125380381203993,-0.00012178781752363045
0.24,-0.0461770526395167,1.2171484317459331,-1.250527737139687,0.11931901034003238,-0.005766977544474614,3.2760035745440883e-06,-0.32285452138970816,-2.7203218463919185,2.415585310168752,0.8683836909130971,-0.04771046518227867,-4.0285216813507826e-05,-0.477046928987219,-8.438948209587862,8.012706158210353,2.551627063442787,-0.2738491343405267,0.0032252462018527717,0.040285407756020145,-3.00909525930474,-2.8613063131251506,-0.548366496139975,0.009838501568837896,-8.011207608270378e-05
0.25,-0.04945360758090731,1.1891064582317106,-1.2255802453103266,0.12825656480921532,-0.006263298780031001,2.8373068386477925e-06,-0.3276554941390612,-2.8041973514222596,2.4947491829360358,0.8937554469182931,-0.049632123555638716,-4.386967358962956e-05,-0.3859250907955503,-7.347073090781363,7.83749332953263,2.4580203505475513,-0.245856035568619,0.0038665254960601747,0.03680262564028167,-2.292343478668454,-2.646094455123386,-0.5117243770055151,0.011386991895829769,-4.214208430731786e-05
0.26,-0.05276909305532075,1.1603344366546922,-1.199857990895629,0.1374385622755741,-0.006776759646285034,2.3881878846502735e-06,-0.33154854744134393,-2.8772021577018396,2.5722254414697594,0.9181997466358771,-0.05134608662540333,-4.49118953997519e-05,-0.29771037509138876,-6.250881611253039,7.664630224039667,2.3586391235774933,-0.20754947412452207,0.004481355588218439,0.03085779601927064,-1.5961238919360323,-2.4495322477072885,-0.4801437039043156,0.012754035215130318,-8.735171428911204e-06
0.27,-0.0561146697187418,1.1309415099013744,-1.1733776743811184,0.14685526398478438,-0.00730464653049856,1.9603697981682333e-06,-0.33455766634210493,-2.939292675331773,2.648031651451072,0.9416701709210281,-0.052788688421352564,-4.278180864820403e-05,-0.21369237938435517,-5.171932701613533,7.490426549266895,2.2540779416300385,-0.15930317520648474,0.005030986040005847,0.022878285400304038,-0.9318124876914011,-2.2759116313342695,-0.45433578934448343,0.013929371820597999,1.964089672817782e-05
0.28,-0.05948186829491109,1.101035105689301,-1.146156186444124,0.1564965060254123,-0.00784362019243734,1.5913646803072927e-06,-0.3367198576169288,-2.990640421207329,2.7221487936994344,0.9641242040627903,-0.05389736619387805,-3.6900511786094057e-05,-0.1341292541514332,-4.138049825842305,6.857353170097274,2.1431015135006426,-0.10275396562359251,0.00548316272075039,0.013366798510708523,-0.35693917530787433,-2.192676247784596,-0.4505697020996681,0.014899774871338787,3.467416011060846e-05
0.29,-0.06286262937365503,1.0707179612305897,-1.11825527936266,0.16634905593702667,-0.0083897965391167,1.3234228072036455e-06,-0.33807610787439385,-3.031714445871129,2.7900907081464137,0.9852549911614383,-0.054617634667936094,-2.679418731036471e-05,-0.060355696194168265,-3.1770648922207414,6.103824835515457,2.00297170054454,-0.04052865216091958,0.005780535298619105,0.002834543103230537,0.15674106324708115,-2.1560453535445214,-0.45754571357036217,0.01567195686403624,4.194530884240641e-05
0.3,-0.06624945271780283,1.0400855267250186,-1.0897487145943228,0.17639678567652622,-0.008938897946589544,1.1995046068166836e-06,-0.33868233441478107,-3.063243450557097,2.850656476833711,1.0047729739499554,-0.0549101407472843,-1.2391820038696189e-05,0.006997267520273428,-2.325424036952758,5.350727300343317,1.834709655388295,0.023950624234367758,0.005886420810719939,-0.008237919707661606,0.6108395835643933,-2.151279191164601,-0.4711104814648169,0.016250975546382856,4.350930477896516e-05
0.31,-0.06963548144825563,1.0092223891022085,-1.060710472678912,0.18662145779745717,-0.009486459814876341,1.2604189285004792e-06,-0.3386028730452793,-3.0863137622810064,2.9038241915410743,1.0224672120930955,-0.05475618682867968,6.0914321683795636e-06,0.06777671310385867,-1.5384721474145375,4.618254740323271,1.645969249470312,0.0870467485957925,0.005806710955652661,-0.019407165927080576,1.0246389736822468,-2.1691532200969017,-0.4893293498765684,0.01665453212251307,4.049890727231506e-05
0.32,-0.07301453734325863,0.9782067236038879,-1.0312127117829895,0.19700340541511935,-0.010028061728096643,1.5426843381659803e-06,-0.3379055895003007,-3.1015665498320555,2.9497760895922682,1.0381947617662168,-0.05416019132203018,2.8226540966550107e-05,0.12233649588895205,-0.9883024825739396,3.917944724543491,1.4432389691246268,0.14542993897269274,0.005573331332777598,-0.030300501410403812,1.3464138154015504,-2.220016497155216,-0.5129268281503404,0.01687017215475309,3.238246906959679e-05
0.33,-0.07638109969554963,0.9470931522173575,-1.0013246663760051,0.20752222862795758,-0.01055955452039256,2.0767642664941543e-06,-0.33665623522909954,-3.111357138653053,2.988804540698438,1.0518823212838222,-0.05314927922959162,5.340799283281738e-05,0.1710823000151164,-0.5155715110109338,3.2562766277889055,1.233769267648249,0.19649052180668963,0.00521668560435512,-0.04059154288325841,1.6333646580665706,-2.2848797340124656,-0.5388438370186278,0.016943418564960802,2.1136127219264253e-05
0.34,-0.07973027092346713,0.9159286134205037,-0.9711118980502763,0.2181572827015297,-0.01107724829752285,2.8857561069645327e-06,-0.3349171227917496,-3.1164538796853773,3.0212768325728807,1.0635054073572126,-0.05176937771302905,8.089918404703786e-05,0.21464623138605632,-0.24586084109547496,2.624920770007251,1.0222575409491013,0.23852333985651875,0.004776003215382685,-0.050055527712632775,1.8501003683997759,-2.371343698463079,-0.5676804322865785,0.016868364516188127,6.3912508619717124e-06
0.35000000000000003,-0.0830577119800344,0.8847398485422914,-0.9406371248626568,0.2288880940760293,-0.0115780502124535,3.984711449415467e-06,-0.3327441056567259,-3.1188764878212285,3.0474773187619495,1.0730811374499594,-0.05008019149306505,0.00010989553424509337,0.2536811024639508,-0.1095796303605126,2.070267641435717,0.8128711893052873,0.2707485369419323,0.004277501371073467,-0.05852237421879382,2.0266407434969778,-2.463146030685139,-0.5962343296081056,0.01667857265277622,-9.966427888780864e-06
0.36,-0.08635957041838734,0.8535403488897086,-0.9099556224494356,0.23969487545509313,-0.01205953838821955,5.380524953804655e-06,-0.33018584383529426,-3.119949965258271,3.0681502413221198,1.080678137906383,-0.04814881757660502,0.0001395813504389188,0.28882529077304114,-0.03962980862466967,1.5722522965654864,0.6106810599695773,0.29319638094254297,0.0037480170831939164,-0.06588687609829934,2.1840625170821557,-2.5554289427324672,-0.6240553502498202,0.01639860330994897,-2.7453695229012377e-05
0.37,-0.0896324072304773,0.8223370262715196,-0.8791171244804195,0.25055876724933185,-0.012519978458971563,7.072454932293403e-06,-0.3272836812089963,-3.120332261818904,3.083849796901619,1.0863891794238698,-0.046044007075201364,0.0001691929978488748,0.3206334016459045,-0.0024615804656838115,1.1634125060355553,0.41806810320052534,0.30648952304969956,0.0032110369966237007,-0.0720828874526325,2.3345422995503475,-2.640036419343535,-0.6495248883230518,0.01604530276338923,-4.510635373485366e-05
0.38,-0.09287313147417177,0.7911335625583148,-0.8481626040199263,0.2614621567323415,-0.012958294155906167,9.053075662061687e-06,-0.3240724243694471,-3.1203463713204815,3.095452046049323,1.0903389483009667,-0.043831569693460345,0.00019806207297682832,0.3495969958201879,0.01863381481386621,0.8077134899587991,0.2381053833889486,0.3116393870684453,0.002688539803521295,-0.07707420549887282,2.4802480848682036,-2.720063497551462,-0.6735857077050513,0.01562668050045908,-6.325616738717493e-05
0.39,-0.09607894241220638,0.759932056326904,-0.8171277731540536,0.27238872107226153,-0.013374006336465728,1.130945926372914e-05,-0.32058109380346067,-3.1201506231410856,3.1034830865872642,1.0926564339920015,-0.041571218055956094,0.00022563836016674523,0.37610318330178905,0.03192482825941195,0.5640736497881592,0.07116805940215398,0.30986343048678955,0.0021949855780419303,-0.08084253192269363,2.6254399775123485,-2.7865549845969224,-0.6941534967082816,0.015153326217739542,-8.0776459217344e-05
0.4,-0.0992472837806212,0.7287338631502138,-0.7860372993098359,0.2833237279391507,-0.013767151179097506,1.3824520747103789e-05,-0.31683413684148176,-3.1198193176690183,3.109047384421771,1.0935006866889172,-0.03931448426317791,0.0002515061483374649,0.400458033766637,0.04164256177029399,0.39629999003643335,-0.07989172156266655,0.3024620093158469,0.001744977700933903,-0.08339138681508157,2.768056285995581,-2.8439250526218527,-0.7123497836626342,0.014629102217916908,-9.810043999254752e-05
0.41000000000000003,-0.10237580829455326,0.6975399991928164,-0.7549083288402783,0.29425407173771745,-0.01413819001719833,1.6578331762420544e-05,-0.3128524513932062,-3.1193863957397396,3.112897046955765,1.0930343798566713,-0.03710388381008232,0.00027538110153167564,0.42288440587294124,0.04985526805807984,0.2728011007723596,-0.2148168325685162,0.2907005603882458,0.0013462766144776844,-0.0847403807239738,2.906231185187187,-2.896247926600692,-0.7291825577466658,0.014057546493280549,-0.00011561276969551939
0.42,-0.10546235230972639,0.666351334390275,-0.7237535787527871,0.30516813548247224,-0.014487918845591573,1.954919940473984e-05,-0.3086544015173135,-3.1188664802541326,3.1154750087491117,1.091406374475478,-0.03497288283932429,0.00029708676423192954,0.443526062527593,0.05851686237632522,0.17980804923022953,-0.33504859552540295,0.2757439580992274,0.0010002888600166154,-0.084924630023617,3.039169597465678,-2.9452836778143423,-0.7450907764597969,0.013443168275081909,-0.0001334252110326659
0.43,-0.10850491986487576,0.63516878204158,-0.6925826925556537,0.31605560630364676,-0.014817382916731606,2.2714538566204135e-05,-0.30425675551493714,-3.1182552348695074,3.1170886197133383,1.0887470821174503,-0.03294640711400337,0.0003165339161464295,0.462453726906911,0.07593574899807515,0.12247899681326618,-0.4424732411440234,0.2586206802065296,0.0007051056540817793,-0.08399341834043587,3.16814550697451,-2.990110443289012,-0.759911045297806,0.012792466914277708,-0.00015135080662770264
0.44,-0.11150167511113095,0.6039941265744871,-0.6614017406027789,0.32690733876111466,-0.015127799640180704,2.605160956731392e-05,-0.2996755246255184,-3.1174655467092816,3.1180951952874865,1.0851732457467873,-0.031041672344909753,0.00033370710011097857,0.47967927898061896,0.10774832719674864,0.0896244796569939,-0.5385123662642564,0.24020805407628798,0.00045848990645482035,-0.08200922392244969,3.293130504260663,-3.03227871855935,-0.7740356147212826,0.012109943225411613,-0.0001694745965623988
0.45,-0.11445094140483497,0.5728305801392318,-0.6302143235904758,0.3377151838338874,-0.01542049236294714,2.9538093709435293e-05,-0.29492662937040187,-3.1163546435255274,3.118741701230306,1.080784507277273,-0.02926927227664362,0.00034864841421213726,0.4951745123313644,0.1392305071776166,0.06972737769168355,-0.6249390956975992,0.22122427165318165,0.0002569864131662311,-0.07904832537530582,3.410125860759727,-3.0738986601772065,-0.7878235339460854,0.01139717938569224,-0.0001878870698726998
0.46,-0.1173512048955583,0.541681314452989,-0.5990227161402973,0.3484718044644105,-0.01569683593332472,3.3152513342743304e-05,-0.2900263490723324,-3.114926568624286,3.1191607450178487,1.0756620630523126,-0.02763435703775791,0.00036144196333080114,0.5088770669631216,0.16506761589583588,0.05385188023396778,-0.7036464422154701,0.20223639574544605,9.53957224145846e-05,-0.07520280017883224,3.5177485083545426,-3.1162290336646836,-0.8015253484672364,0.010658256157016575,-0.00020661175452140997
0.47000000000000003,-0.12020112178500593,0.510548930549239,-0.5678287553289114,0.3591704879361513,-0.015958213238113996,3.687450057667336e-05,-0.28499168894476296,-3.1132383903749923,3.119396081138593,1.0698683471740775,-0.026137730478927836,0.0003721987233930056,0.5206959839022106,0.188393065699711,0.04097882551711092,-0.7765461925317677,0.18367680934339448,-3.222239691096085e-05,-0.07057644057482354,3.616599327599167,-3.1592427002228636,-0.8151527182240788,0.00989914419837889,-0.00022555055142760088
0.48,-0.12299952852510125,0.4794357709485718,-0.5366339498818306,0.36980498555244007,-0.01620598149509105,4.068496562473671e-05,-0.2798406740095318,-3.1113159600667166,3.11948054470809,1.0634497616288787,-0.024776825697705333,0.0003810465048063351,0.5305129090664481,0.22913421962374836,0.029103013486648663,-0.8452445854041383,0.165862956298727,-0.00013127209105147364,-0.0652802028701396,3.7101267856469824,-3.202975934859999,-0.8288289089602556,0.009127238812331387,-0.0002446516592667182
0.49,-0.12574545472944632,0.4483459006699498,-0.5054396819294639,0.38036936288913936,-0.016441447037912255,4.456617858045041e-05,-0.27459262043450616,-3.1089870278622036,3.1194267952366688,1.056437733669932,-0.023546554282120657,0.0003881212955713698,0.5323943786367692,3.363137154678502,0.033244340377851955,-0.8713885876822238,0.1492825099083394,-0.00020613035458855178,-0.05961648219982143,4.315555462111683,-3.23075485460738,-0.8558701347817321,0.00866642610173735,-0.00026843209705150126
0.5,-0.12843870997479773,0.41759079417226486,-0.4742451064272667,0.39085950786825174,-0.016665789189824008,4.8501313580499744e-05,-0.26932552453514247,-3.075510649768494,3.119457550219719,1.0490144979112386,-0.022434215191175243,0.0003935135000049333,0.5326724349571611,7.021763824258043,0.041225311713448454,-0.9007228437066761,0.13405024009501776,-0.00015321857756461776,-0.052707155261875124,4.941303776255206,-3.2976774565887754,-0.8879521652124228,0.008088120697781689,-0.00029520204139959095
0.51,-0.13107926002601913,0.387533926937377,-0.44304908393539444,0.40127096917685995,-0.016880081434979814,5.2476080414162956e-05,-0.264055005122141,-3.0056867234887865,3.1196022491872255,1.0411461308608225,-0.021429224515580773,0.000397476683366321,0.5343510298466234,9.785156249186008,-3.611147274668336,-0.9460545657879003,0.11982451989496301,3.539856876944025e-05,-0.04471231609772627,5.365702754808497,-3.8945332760473015,-1.0323931344950321,0.006951604668879051,-0.0003770467032871123
0.52,-0.1336669365646517,0.3584492837865428,-0.41221082042610024,0.4115845700267589,-0.017085463209065146,5.646724907810333e-05,-0.2587676538632571,-2.9084643150834215,3.083826350929417,1.031360084989897,-0.02053817740853316,0.00039911686639403717,0.5360986991869082,11.817662935086371,-7.070179389505916,-1.1342474382491012,0.10537135220482963,8.680579260689214e-05,-0.03623301743051404,5.656883737822296,-4.491816384712377,-1.16657248031415,0.005677220175026158,-0.0004555429517773548
0.53,-0.13620156357567653,0.3305383828921204,-0.3820713754957028,0.42177096050741697,-0.017283090672645354,6.0446758857796206e-05,-0.25346270110248365,-2.7910900894422404,3.0139444930397463,1.0186390480658032,-0.01976274635802065,0.00039795097796928736,0.5377619691650198,13.251365397962134,-9.680032512527822,-1.4198510405863836,0.0911053626339928,3.0523186314468376e-05,-0.027678752732888168,5.8471389844350625,-4.986502748119786,-1.2688947684589285,0.004397105608083238,-0.0005197619686555928
0.54,-0.13868297189276205,0.30394343298169385,-0.35288884681050037,0.4317965829924868,-0.017474081157526637,6.438586123027172e-05,-0.24814083170855095,-2.659494991042656,2.918252868520245,1.0025622485069823,-0.019099048488128392,0.0003939102372475516,0.539300097401928,14.194799018753624,-11.597266760464212,-1.7446913930760317,0.07756397916793911,-8.085851165584579e-05,-0.01935887984284152,5.960478728004732,-5.387556066590511,-1.343837568765542,0.0031543182302301584,-0.0005712109968025277
0.55,-0.14111100380559832,0.27875804767698104,-0.32485344056393883,0.4416276344015313,-0.017659479221603658,6.825729377585974e-05,-0.2428031912836289,-2.5185385304712833,2.8035406246561556,0.9831051409044481,-0.018539806407702156,0.00038714325455880205,0.5406782296552065,14.739617355628555,-12.950264465487678,-2.070501329808991,0.06507320417159301,-0.00021788175676307198,-0.011494868907846907,6.015738983246157,-5.704267447053568,-1.3955633473207096,0.001978819514449592,-0.0006114047530296775
0.56,-0.14348551697861464,0.2550363045405836,-0.2980998845903513,0.45123256968755643,-0.017840237043425716,7.203646385725268e-05,-0.23745131730163083,-2.3721743136397397,2.675355597358752,0.9604935286025148,-0.018075782182205808,0.0003779170081392951,0.5418686992765792,14.963116254432503,-13.84477438094524,-2.37321259757001,0.05380339554574172,-0.00036301898082058415,-0.004230705958984695,6.027520408519518,-5.946098867034143,-1.4278969892049438,0.0008897872483186837,-0.0006418303296360062
0.5700000000000001,-0.14580638754853975,0.23280039366644864,-0.27271769643481475,0.46058357546873563,-0.018017205328076494,7.570202201006e-05,-0.23208705699251064,-2.2235910874134994,2.538218815553657,0.9351005781179212,-0.01769682846507783,0.0003665558152807315,0.5428511541852332,14.930371055090355,-14.368252578575774,-2.638740887242534,0.0438143726111368,-0.0005059705132675063,0.002353904782224841,6.007045857686181,-6.122446331266213,-1.4442999858119574,-0.00010217895180489106,-0.0006639109244342471
0.58,-0.14807351239828656,0.21204706357267233,-0.24875970883612375,0.4696573291550551,-0.01819113161535448,7.923604530033698e-05,-0.22671248497468235,-2.0753330093776294,2.3957987598691,0.9073753686319477,-0.017392628727798305,0.00035340232902769794,0.5436120185762615,14.69604789574547,-14.593257395576476,-2.8599060527041402,0.035090645961843636,-0.0006409363340649232,0.008229684952367394,5.962898852990441,-6.242399627770263,-1.4478530401029224,-0.000993059078065674,-0.000678975292475068
0.59,-0.15028681067646363,0.19275304089398634,-0.22624916863642683,0.4784352728986023,-0.018362663557583616,8.262397677999716e-05,-0.22132982781770555,-1.9294022678685994,2.2510540199696916,0.8777943743547214,-0.01715319422291392,0.00033879314796601855,0.5441436355360424,14.305941082763995,-14.580120145499839,-3.034204600761619,0.027568138884387,-0.0007648827426869342,0.013404716863037056,5.901632752519793,-6.31453994569201,-1.4412518924646245,-0.0017836769864407014,-0.0006882359715020823
0.6,-0.15244622466460062,0.1748795740416652,-0.20518565890430057,0.4869035672868999,-0.018532355323092047,8.58544199812971e-05,-0.21594139881369837,-1.7873466852321138,2.106350973212625,0.8468294388297565,-0.016969176550842995,0.00032304432012999394,0.5444433068305785,13.798280161584653,-14.379063574335344,-3.162214787632834,0.021153911824029314,-0.0008764393031093221,0.01791300211897881,5.828256794214484,-6.34679191838079,-1.4268165946744351,-0.0024782475219088974,-0.0006927767414267162
0.61,-0.15455172010306534,0.15837622880721342,-0.18555004347376708,0.4950528420140296,-0.018700675768324748,8.891885471631012e-05,-0.2105495438464723,-1.6503345234451794,1.9635615430533495,0.8149274727129756,-0.016832044523270202,0.0003064434735013007,0.544512353057506,13.204843217283688,-14.031898737767612,-3.2464662442927192,0.015740325029471758,-0.0009752121288149063,0.021805007607523248,5.746613705850857,-6.346331840935889,-1.4065120467296652,-0.0030832009861486067,-0.0006935483271312954
0.62,-0.15660328608228585,0.1431840451641553,-0.16730859437860207,0.5028778258490186,-0.018868017409765046,9.18113176691742e-05,-0.20515659792205276,-1.5192183643058106,1.8241449095165012,0.7824983834989011,-0.01673416414402975,0.0002892462952864085,0.544355256261775,12.55190699762128,-13.573398530086491,-3.290647325720215,0.011214896317164214,-0.0010613680105993062,0.025140239002115348,5.659666836482074,-6.319545882902699,-1.3819766528737916,-0.0036062629169369012,-0.0006913706943259706
0.63,-0.15860093459513344,0.12923814871304523,-0.15041643284408007,0.5103769129230972,-0.019034705527651016,9.452807556761808e-05,-0.1997648512847597,-1.3945896451110087,1.6892161534521986,0.7499087074078574,-0.016668811788597006,0.0002716757898443882,0.5439789100107095,11.861059487574494,-13.032421226665209,-3.299055828726921,0.007466901107496593,-0.0011353894541015208,0.02798168395253208,5.569714819718647,-6.2720286690499565,-1.3545558773661206,-0.0040557579785969605,-0.0006869401303973323
0.64,-0.16054469983325415,0.11646989685266167,-0.13482039133185206,0.5175517042039509,-0.019201006961026515,9.706730805715296e-05,-0.19437652381206919,-1.2768251860383566,1.5596041512228005,0.7174791280853727,-0.01663014333754976,0.00025392324895348806,0.5433919811476383,11.149896380031509,-12.43283868057423,-3.276223787087744,0.00439155820766346,-0.0011979337585119598,0.03039186514160917,5.47855007622772,-6.208611879155222,-1.3253378774430011,-0.004440103082134055,-0.0006808394319860131
0.65,-0.1624346372969906,0.10480862845120341,-0.12046138592626218,0.5244065501080618,-0.019367138321984563,9.942881027144716e-05,-0.18899374637364588,-1.1661268401458256,1.4359005405589873,0.6854845904110848,-0.016613136095804656,0.00023615022142942023,0.5426043769464451,10.432619337245365,-11.794309928734682,-3.2266660597505847,0.0018924644185859263,-0.001249752986452135,0.0324302081206153,5.387574977274932,-6.133413305504708,-1.2951889878023213,-0.004767454972321799,-0.0006735497906634317
0.66,-0.16427082277639404,0.09418307619939731,-0.10727637385091328,0.5309481110762402,-0.01953327347859411,0.00010161372040023541,-0.18361854794034443,-1.0625552251806105,1.3185012075348908,0.6541560968178362,-0.016613515660954658,0.0002184910128788258,0.5416268069003407,9.720550915493561,-11.132930784390052,-3.1547165768068837,-0.00011721065354203253,-0.0012916481217331022,0.0341514356287615,5.297886830629655,-6.049898303178555,-1.2647874603030567,-0.0050454800302500834,-0.000665463282507989
0.67,-0.16605335125011025,0.08452249266581335,-0.09519995919724235,0.5371849465278421,-0.019699550241574687,0.00010362427452032617,-0.1782528473716208,-0.9660583533583958,1.2076414653670928,0.6236835451601903,-0.01662767629805786,0.00020105541200907562,0.5404704271654068,9.02257853849657,-10.461782616691544,-3.0644264532848986,-0.0017143817229371972,-0.0013244416624469402,0.03560473025269166,5.210340368637135,-5.960947282028777,-1.2346544333979987,-0.005281217860993465,-0.000656895171299349
0.68,-0.16778233573970547,0.0757575341069036,-0.08416570036964213,0.5431271381314885,-0.01986607624799459,0.00010546358903005992,-0.17289844895952203,-0.8764958558909755,1.1034258827600214,0.5942191603646383,-0.016652600641990388,0.00018393145097337434,0.5391465559478421,8.34553764140819,-9.791398130256669,-2.959505628081537,-0.002966267544290746,-0.0013489598400591163,0.03683344774641381,5.125594251178755,-5.868924521042726,-1.2051815731422757,-0.00548101458264808,-0.0006480954978535505
0.6900000000000001,-0.16945790614919448,0.06782094009408747,-0.07410716481955137,0.548785950221048,-0.02003293407308371,0.00010713546983969709,-0.16755704094890003,-0.7936594012816125,1.005853555009075,0.5658812089559592,-0.01668578250891211,0.0001671880809637171,0.5376664492271619,7.694542525198738,-9.130158081725313,-2.8432949737972493,-0.003930961092172225,-0.0013660198726195283,0.03787520580895361,5.0441463575815515,-5.775745018582387,-1.1766551861574763,-0.0056505060845853,-0.0006392596416058744
0.7000000000000001,-0.17108020811298233,0.06064804185744444,-0.06495877000485029,0.5541735280462675,-0.020200185624151126,0.00010864424676774377,-0.1622301963787841,-0.717289823664303,0.9148394814701083,0.5387577825219466,-0.016725155106741565,0.0001508776928046681,0.5360411272869428,7.073272028477004,-8.48463030114387,-2.7187595515375165,-0.004658197875597014,-0.001376420029809644,0.03876221274559039,4.966361270952468,-5.682937290557512,-1.1492768661632051,-0.005794635599993289,-0.0006305377059137478
0.71,-0.17264940186998207,0.05417712777373871,-0.056656443940671236,0.5593026330964498,-0.02036787588285107,0.00010999463120821229,-0.15691937569997452,-0.6470914083705732,0.8302326064179046,0.5129105050182236,-0.016769025869994365,0.00013503844404685154,0.5342812435837638,6.484215570206637,-7.859859793742544,-2.5884963201838396,-0.0051902159201410725,-0.0013809315689532475,0.03952173486242428,4.892492261450486,-5.591700854507751,-1.1231808853592113,-0.005917693445231208,-0.0006220426863819659
0.72,-0.17416566117717974,0.04834969049588379,-0.04913813396396195,0.5641864137766849,-0.02053603606689558,0.00011119159495695699,-0.1516259307197664,-0.5827437277854918,0.7518309976709282,0.48837806802350914,-0.016816018404451075,0.00011969637487446997,0.5323969878142213,5.928885922374689,-7.2596254639861,-2.4547514270742887,-0.005562635003728,-0.0013802921799535017,0.040176629686005154,4.822699736897965,-5.502958920481756,-1.0984488861923578,-0.006023370801796504,-0.0006138575788681297
0.73,-0.1756291722723397,0.043110576917203616,-0.04234418909421869,0.5688382090870605,-0.020704686282618148,0.00011224026801451704,-0.14635110951599767,-0.5239113578680173,0.679394486974326,0.46517953103755766,-0.016865021572256816,0.00010486730575600504,0.5303980208926341,5.407999583064341,-6.686631096938032,-2.3194438678303264,-0.005805312691970876,-0.0013752012075287645,0.040745895765620474,4.75706577403484,-5.417401158304882,-1.0751211042014852,-0.006114816289706952,-0.0006060409798030636
0.74,-0.17704013289218096,0.03840805893196359,-0.03621763492866758,0.5732713826791469,-0.020873837735260924,0.00011314585331913424,-0.14109606198412417,-0.47025179852400273,0.6126554165551111,0.44331735920863485,-0.01691514526427773,9.055853046172006e-05,0.5282933790665761,4.9216337359302065,-6.142952454197474,-2.1841917707358434,-0.005943135054225779,-0.001366314981057437,0.0412451958009778,4.695614903617114,-5.3355574701127395,-1.0532136533874827,-0.006194729441832659,-0.000598635612844555
0.75,-0.17839875135591568,0.03419384070925736,-0.030704385230937044,0.57749918364259,-0.02104349457330895,0.00011391355549938718,-0.13586184637347096,-0.42142182227062325,0.5513249697730535,0.4227800963443088,-0.016965683804802418,7.67702180252932e-05,0.5260698997508991,4.46906096950181,-5.7239184310957185,-2.050323074502309,-0.005998424625880128,-0.001354257603310538,0.041683729210007445,4.6409630973973375,-5.269825601934965,-1.0354260294855964,-0.006277134517890203,-0.0005929411938241691
0.76,-0.17970524804594845,0.030423016364187355,-0.0257626308287334,0.5815343281291063,-0.021213660575655564,0.00011454818912092075,-0.1306496690032775,-0.37708243450700035,0.49417544022036436,0.4035144486516349,-0.01701660023466144,6.34633621533575e-05,0.523701243927097,4.049341423251145,-5.515100530807829,-1.921953992156963,-0.006041718552823039,-0.0013441586496459879,0.04206599341248577,4.595517019271155,-5.231416245604601,-1.0242021523221274,-0.006375259813707207,-0.0005901426948633649
0.77,-0.18095985815428145,0.027054004301359118,-0.02137127668288115,0.5853883743864254,-0.021384348646982597,0.00011505365533957442,-0.12546101083330025,-0.33690120628282355,0.4391354145852251,0.3854046257319088,-0.01706880713270326,5.054662186536739e-05,0.5212223537284882,3.6623590408942985,-5.272302421047685,-1.8053439546688104,-0.00616701394954039,-0.001343427882339876,0.04240469942012054,4.552341295966114,-5.189482869354263,-1.0125595746711227,-0.006460573616539847,-0.0005870049010379685
0.78,-0.1821628276465845,0.024048453491164995,-0.017505927314704565,0.5890719817491605,-0.02155557390641896,0.00011543350478407002,-0.12029694923030677,-0.3005550810194122,0.3865349368176585,0.36836073627350546,-0.01712252594363612,3.7984944449559535e-05,0.518639983689415,3.3064797736019016,-4.999442219698371,-1.697856842841313,-0.006308257015824159,-0.0013453985760367715,0.04270804624477172,4.511339569546997,-5.144463336236552,-1.0005517053361208,-0.006534365577610892,-0.0005835570607107315
0.79,-0.18331441261651155,0.021371082258056836,-0.014139264370561571,0.5925951255184029,-0.021727349396163977,0.00011569113725182206,-0.11515849699270486,-0.2677371233108158,0.33666629441429946,0.3523143769242335,-0.017177548974501917,2.57632467752051e-05,0.5159617003419495,2.9799889041754213,-4.704605703811661,-1.5973377146140972,-0.0064229394923578376,-0.0013472200773093634,0.04298265469799541,4.472544723277482,-5.097323309614724,-0.9883548271118522,-0.006598316105843844,-0.0005798862125368815
0.8,-0.18441487856608352,0.018989510811020762,-0.011241835798399439,0.5959672570005022,-0.021899683684524072,0.00011582989754836086,-0.11004659495719578,-0.23815714470360724,0.2897428572162132,0.33721314820993886,-0.017233428836009528,1.3876029653879449e-05,0.5131956976852744,2.681163702522737,-4.384438147265258,-1.50217797005158,-0.006487402079802029,-0.0013473072402556685,0.04323398742542894,4.435670571477775,-5.047575538548138,-0.9758244869837008,-0.006652515479798926,-0.0005759301001160344
0.81,-0.18546449959609101,0.016874089237110052,-0.008781720577217624,0.5991974533558609,-0.022072579148315074,0.00011585316670313608,-0.10496210300074928,-0.211542157391071,0.2460115221181815,0.3230196355358686,-0.017289546379100143,2.3269154775219093e-06,0.510350546477683,2.408247954415232,-4.039745205421135,-1.4108714416208716,-0.00648465004183274,-0.0013442038251306743,0.0434665141342668,4.40055453188975,-4.995252169968139,-0.9629363913324999,-0.006697468125255709,-0.0005716827457800649
0.8200000000000001,-0.1864635575684949,0.014997723815186444,-0.00672460313771317,0.602294544953186,-0.02224603095607972,0.00011576442740931959,-0.09990579724038678,-0.18763654219236078,0.2057117439504454,0.30970915973251156,-0.01734518077646461,-8.873929381649284e-06,0.5074346241719593,2.159500672115677,-3.673297418148417,-1.3221369495562474,-0.006404648875197649,-0.0013368392221457803,0.043683824499289106,4.3670987419214615,-4.940633616710408,-0.9497247535132105,-0.0067338681105698125,-0.0005671663224936389
0.8300000000000001,-0.18741234129132148,0.013335705652027737,-0.005034041804616141,0.6052672168775111,-0.02242002664338291,0.00011556730505012183,-0.09487837228265726,-0.16620181631587064,0.16905613330970296,0.2972671924325052,-0.017399568730318882,-1.971223591977704e-05,0.5044586529324335,1.933213698127668,-3.2842959928142372,-1.2349543498934734,-0.00624306832287691,-0.0013245267346159162,0.043889098860722675,4.335108320857131,-4.88354923039182,-0.9361256106082925,-0.006761891467007574,-0.0005623586215581238
0.84,-0.1883111454620011,0.011865541371307237,-0.0036713866621884248,0.6081240992437237,-0.022594545872060015,0.00011526560523761049,-0.08988041706796245,-0.14701642807205,0.13626551424277158,0.2856882366212628,-0.01745192286771071,-3.0169981251133917e-05,0.501430507435832,1.7277350382647598,-2.8828655282564455,-1.1484114267465246,-0.005997758130992625,-0.0013067078630675244,0.04408458007289071,4.3047171635326755,-4.825214268486692,-0.9223853024753773,-0.006783173340478425,-0.0005573828796231976
0.85,-0.18916026991673157,0.010566793319252588,-0.0025967729182190613,0.6108738132244201,-0.02276956096379589,0.0001148633033628426,-0.08491244547304698,-0.12987480520546493,0.10746137439693634,0.27497139806965043,-0.017501509173587487,-4.023018747678929e-05,0.4983599777316221,1.5414900711841175,-2.4964013765309296,-1.0620421270957756,-0.005674035305314629,-0.0012834930537644063,0.0442720417224779,4.276580368609281,-4.76905060222901,-0.9092417969704788,-0.00680180868154175,-0.0005525930403782638
0.86,-0.18996001872521717,0.00942093352006544,-0.0017718157214847595,0.6135249239093018,-0.02294503894428913,0.00011436444213960698,-0.0799748808485601,-0.11458597991871478,0.08249571967343018,0.2651110684881687,-0.01754779804932404,-4.9886122323562835e-05,0.49525504359346306,1.3730493903321401,-2.1218507500890755,-0.9763047744702424,-0.005292799903086648,-0.0012562256705278552,0.04445282783178219,4.25047638109343,-4.714660058426777,-0.8965840523502766,-0.0068178414656015944,-0.0005479499398880731
0.87,-0.1907106993884614,0.008411200755547875,-0.0011593108735781076,0.6160859107554328,-0.023120942866545095,0.00011377309648172269,-0.07506806632442516,-0.10097327645175644,0.06125048479066518,0.25609868461310265,-0.017590392225596475,-5.913456578842978e-05,0.4921231154247705,1.221026815212108,-1.733317169020746,-0.8914839172825966,-0.004867671088826658,-0.0012255676893282441,0.04462822965763118,4.225509680249156,-4.65874303766949,-0.8836585423113662,-0.0068280456462200025,-0.0005431158662001765
0.88,-0.1914126220434374,0.007522453784702087,-0.0007206862797612917,0.6185652250022868,-0.023297231269504236,0.00011309344632120292,-0.0701922654975982,-0.08887469708457872,0.04386245938168158,0.24793142468539797,-0.017628840295914265,-6.796501605197617e-05,0.4889726131892662,1.0840147457784846,-1.3516922833257514,-0.8070014713778599,-0.004393323905667185,-0.0011909112733583527,0.04479921275199912,4.202160277932791,-4.603883963208336,-0.8710189740016153,-0.006835650980875482,-0.0005383590439333825
0.89,-0.19206609868250457,0.006741039729015742,-0.0004180562056897633,0.6209712728995244,-0.023473859108086546,0.00011232971764248351,-0.06534766390671873,-0.07814140556863453,0.030263007407152844,0.24060478972375357,-0.017662783858231154,-7.637286787194004e-05,0.4858109247452757,0.9607595771228786,-1.0600202430235317,-0.7230165778552182,-0.003879389084644025,-0.0011531834466475543,0.0449658186350869,4.182771986044268,-4.560565725479812,-0.8609684395777412,-0.006853008399595208,-0.0005347587831230039
0.9,-0.19267144261032243,0.0060546998355933725,-0.00022239625334205472,0.6233121403284809,-0.023650783441756505,0.00011148582996018504,-0.06053439278178461,-0.0686339893422369,0.019565995234770855,0.23408674289565304,-0.017692433366995945,-8.43887682298467e-05,0.48264051370080374,0.8503040457620014,-0.8214642287788755,-0.6422596705864163,-0.003383927282597954,-0.001116863033151505,0.04512805926480186,4.166175919633588,-4.524238887336034,-0.8524789231098251,-0.006875705867510181,-0.0005318528191516631
0.91,-0.19322896808825413,0.005452459890583265,-0.0001099257997666948,0.6255954745018799,-0.023827965209213844,0.00011056537768947076,-0.05575254779317024,-0.060223994501010736,0.011247045357535993,0.22833341733990092,-0.01771817674573381,-9.204522707142884e-05,0.4882670383856862,5.313954444010723,-5.306562520250777,-0.6478791160541935,0.005579029938127811,-0.0010790821585635602,0.04619782862914698,4.78368398822032,-5.223045184467833,-0.9871495126329329,-0.0076907826631305515,-0.0006061868598717467
0.92,-0.193738126885054,0.005377819294636721,-0.0005237995585616253,0.6278093242147291,-0.02400499657036834,0.00010955252030827177,-0.050915879679989,-0.007464059594654411,-0.041387375879493045,0.22138497128491993,-0.017703136115449773,-0.00010128573811989956,0.47665171021937613,0.39815055656683196,2.5165677750929736,-0.5914551058398541,-0.007133051019544263,-0.0012599665065659016,0.045520787079681664,4.027090421057093,-4.090781664567462,-0.756627059039437,-0.0064957926954029455,-0.0004891721046768588
0.93,-0.19420005281587396,0.00534133786174434,-0.000691924813069917,0.6299801779124999,-0.024182362214911778,0.00010847340103363648,-0.04619259308199521,-0.003648143289238121,-0.016812525450829174,0.21708536977708,-0.017736564454343705,-0.00010791192746352876,0.4737105199929209,0.38956612672802826,1.9188894235318577,-0.4194136996017237,-0.003531232709945785,-0.0009779499120765034,0.045695916140745634,4.045356441179752,-4.157695722509668,-0.7704708781819969,-0.0066296788658779925,-0.0004966856711674499
0.9400000000000001,-0.1946150405381948,0.0053424821430613795,-0.0006725922933960839,0.632120997837497,-0.02435985897037018,0.00010733560750897875,-0.04149877223208409,0.00011442813170398514,0.0019332519673833058,0.21408199249970664,-0.017749675545840504,-0.00011377935246577295,0.47076685110124944,0.38221644978920727,1.249537122035781,-0.29016701128841715,-0.0014098942896401973,-0.0008914721280033344,0.04586160286712335,4.06588829421211,-4.235429694094131,-0.7865262782332142,-0.00677983047634915,-0.0005052730674252331
0.9500000000000001,-0.19498338460924947,0.005380841742979595,-0.0005312872503619814,0.6342408443034037,-0.024537390744857696,0.0001061415591882543,-0.03683440710546584,0.0038359599918215913,0.014130504303410242,0.211984646590665,-0.01775317744875137,-0.00011940483207244644,0.46782405576426933,0.37740092133829756,0.5914104702216728,-0.19976742800050484,-0.0003653372636059221,-0.0008628359226861004,0.046020204594843676,4.086396562404325,-4.313482186182736,-0.8025218325051927,-0.006933452453600828,-0.0005138730987747189
0.96,-0.19530537903441125,0.005456230897290214,-0.000332515173788934,0.6363454718920497,-0.024714934509799065,0.00010489135767096261,-0.03219944251617981,0.007538915431061844,0.01987720765730474,0.2104627588646092,-0.01775437649413689,-0.0001250201517291678,0.4648682627254179,0.3751282776674389,-0.25597902236935643,-0.14227801917125604,-5.8257888991913864e-05,-0.0008625900591741065,0.04617071792033311,4.112905197719222,-4.416903163828169,-0.8240307748681388,-0.007120390918522164,-0.0005250192287944816
0.97,-0.19558131919877822,0.005568766136603943,-0.0001595201553013505,0.6384372181464784,-0.024892529049626272,0.00010358278535322038,-0.027594016436696622,0.011253523931372909,0.01729950184875835,0.20917462544286045,-0.017759453982720576,-0.00013085723177422393,0.4658127156383137,5.617933036444778,-22.39289140336463,-0.26969468916787775,0.008004952321837955,-0.0009021609107773276,0.04662173911225617,5.3436558016810665,-7.362960540784466,-1.44932089087267,-0.01072804788102693,-0.0008259902745133212
0.98,-0.19581116196301848,0.006245453645635142,-0.0021939955348763075,0.6404397117762848,-0.02507094486535614,0.00010212146756611733,-0.022984276424025195,0.06766875090311994,-0.2034475379574957,0.20024936298064275,-0.01784158157298681,-0.00014613177871030436,0.45541347643184693,0.24269073960454532,3.995405143599948,-0.7100953128624372,-0.016546401388963516,-0.0019184367913158001,0.04613540472584698,3.9810110638472587,-3.9118996535259,-0.7121431483570286,-0.006614862912615644,-0.0004755030875292496
0.99,-0.1959958693427637,0.006944307204505798,-0.0038373860909214604,0.6423932108328283,-0.0252502596753499,0.00010058405482699167,-0.01847073797452184,0.06988535588706557,-0.16433905560451528,0.19534990565435262,-0.017931480999376435,-0.00015374127391256574,0.4526531074919081,0.24802496427993811,3.920833369967783,-0.4769844212745973,-0.008810437044718789,-0.0011430274844610594,0.04630660336218115,3.985197374096657,-3.910089356801689,-0.7114710879360797,-0.006655934158496496,-0.0004762723064382886
