tonegas/nnodely-applications/joint_friction_estimation/dataset/train/mpc_mujoco_episode_14.csv
time,q1,q2,q3,q4,q5,q6,dq1,dq2,dq3,dq4,dq5,dq6,ddq1,ddq2,ddq3,ddq4,ddq5,ddq6,tau1,tau2,tau3,tau4,tau5,tau6
0.0,0.0,1.57,-1.57,0.0,0.0,0.0,0.0,0.0,0.0,0.0,0.0,0.0,-1.4615280626842768,7.603187783917587,7.170377479392853,2.4772864156654464,-0.20707632325735226,-3.6683851598051653e-06,-0.20364154724607675,0.6309304134704581,-2.1126319115867647,-0.47269665393182614,-0.0182148183283788,-0.00041180392330672836
0.01,-0.0001453698227425806,1.5707603555480363,-1.5692844242681148,0.00023331128373945022,-1.7626362867910216e-05,-5.4735794039229016e-08,-0.014536982274258058,0.07603555480361539,0.07155757318852699,0.02333112837394502,-0.0017626362867910216,-5.473579403922901e-06,-1.4485766904536677,7.382321252608153,6.984085948712279,2.272173997197612,-0.1735478659883709,-0.0005356525861054395,-0.20385084037457532,0.4726801319622842,-2.1798688869226837,-0.4875345601720834,-0.01820012013197332,-0.0004188192213842659
0.02,-0.0004347140191510396,1.5722590745409233,-1.567872768041499,0.0006829399060721598,-5.079429768778611e-05,-1.6428477463196548e-07,-0.0289344196408459,0.14987189928869038,0.141165622661586,0.044962862233270964,-0.0033167934819875898,-1.0954898059273646e-05,-1.433377059055262,7.149181505229119,6.7791357745642475,2.098691969693448,-0.1521785768928492,-0.0004981709926705769,-0.20524072736599647,0.2901556598297539,-2.2515362395966676,-0.5028596464713404,-0.01824960294605471,-0.000425712453415673
0.03,-0.0008664597360243447,1.5744729084581202,-1.5657861385807792,0.0013342368805310627,-9.81417368187902e-05,-3.2449919822581176e-07,-0.043174571687330514,0.22138339171968205,0.20866294607197,0.06512969744589028,-0.004734743913100407,-1.602144235938463e-05,-1.416324110654298,6.904451532936242,6.558935997823035,1.9488717446602948,-0.13783854579245336,-0.00039080822740045207,-0.2077069066248468,0.08521492065765468,-2.3272527165788293,-0.5186054232881089,-0.01835511866071857,-0.0004324084823409307
0.04,-0.001438877828980916,1.577377427885941,-1.5630469752063765,0.002174300020010388,-0.0001587203019797446,-5.322884273639015e-07,-0.05724180929565711,0.29045194278208186,0.2739163374402794,0.08400631394793251,-0.006057856516095441,-2.0778922913808965e-05,-1.397633258064551,6.648911470244392,6.326298281611692,1.8167437969273053,-0.12746208181479535,-0.00026898676117370623,-0.2111364927383507,-0.14021438245190954,-2.406605379265348,-0.5346980326194795,-0.01850744801209913,-0.00043882711481220974
0.05,-0.0021500932241127163,1.5809471060828097,-1.559678814627941,0.0031915275778267387,-0.00023181080660413086,-7.851126601936945e-07,-0.07112153951318005,0.35696781968687397,0.3368160578435475,0.10172275578163507,-0.007309050462438628,-2.5282423282979305e-05,-1.3774115142016545,6.383416914728234,6.083575215059948,1.697856700066609,-0.11923399260796153,-0.0001321436760891026,-0.21540851179291287,-0.38415210881732875,-2.4891547154047617,-0.5510575010689025,-0.018696550874935762,-0.0004448833389426161
0.06,-0.002998088845343209,1.5851554088145063,-1.5557060911592029,0.004375287067649187,-0.00031681428575716886,-1.0802476522332724e-06,-0.08479956212304925,0.4208302731696688,0.3972723468738194,0.11837594898224481,-0.008500347915303798,-2.9513499203957794e-05,-1.3557017735716232,6.108881182909535,5.83276498431859,1.588910093696839,-0.11209711640687381,2.1712994244138528e-05,-0.22039430816272979,-0.6445826872041076,-2.5744398215829447,-0.5675990080163265,-0.018911803448387658,-0.0004504891692556999
0.07,-0.003980705816401663,1.5899748889855603,-1.5511539639681797,0.0057156713394711425,-0.0004131888154998451,-1.414396203458055e-06,-0.09826169710584534,0.48194801710540064,0.45521271910231476,0.13403842718219558,-0.009637452974267626,-3.3414855122478255e-05,-1.3325105804614237,5.826260468468212,5.575590307015673,1.4874748795478325,-0.10545313573109727,0.000190907069144014,-0.22595801366929566,-0.9194717236793712,-2.661983602754879,-0.5842341560759792,-0.019142226303439324,-0.0004555562231798501
0.08,-0.0050956416590126185,1.5953772848103478,-1.546048165466996,0.007203320630996643,-0.000520414051863327,-1.7835669105185466e-06,-0.1114935842610956,0.5402395824787533,0.5105798501183693,0.14876492915255005,-0.010722523636348189,-3.691707070604916e-05,-1.3078257422987003,5.5365411837224086,5.313557738067608,1.3917800187196718,-0.09898045502898611,0.0003713241310218107,-0.23195719054581526,-1.2067821153038172,-2.751297929781344,-0.6008722276294348,-0.019376704807653123,-0.0004599985344927137
0.09,-0.0063404476021557375,1.6013336204307738,-1.5404148664343418,0.00882929438046257,-0.0006379724926063625,-2.183108355819254e-06,-0.12448059431431185,0.5956335620425899,0.563329903265409,0.16259737494659274,-0.011755844074303549,-3.995414453007075e-05,-1.281627671589176,5.2407289472985905,5.048002020040739,1.3005501253846354,-0.09252309986314966,0.000557815448418042,-0.2382437253205927,-1.5044895819512023,-2.8418887065987413,-0.6174214127614132,-0.01960420166201208,-0.0004637353197239849
0.1,-0.007712525741254932,1.6078143080104612,-1.534280554596814,0.010584980449094249,-0.0007653407539792133,-2.6078228753310305e-06,-0.13720781390991946,0.6480687579687374,0.613431183752799,0.17556860686316778,-0.01273682613728507,-4.247145195117766e-05,-1.253896814658171,4.9398388536894675,4.780119076713055,1.2128817848222013,-0.08602275909707746,0.000745133593756872,-0.24466502051155392,-1.8105975084822594,-2.933260795878092,-0.6337899932774879,-0.019813960148203153,-0.0004666935297477673
0.11,-0.009209126548990568,1.6147892504321186,-1.527671924254426,0.012462032344646464,-0.0009019867582618041,-3.052113973455932e-06,-0.14966008077356358,0.6974942421657375,0.6608630342387833,0.1877051895552215,-0.01366460042825908,-4.442910981249015e-05,-1.2246185875700382,4.634886768930579,4.510990408755399,1.1281493844487294,-0.0794770954063777,0.0009284845893781507,-0.2510655023228251,-2.123150988012954,-3.024922756174939,-0.649887468873986,-0.01999569592593557,-0.0004688100849491867
0.12,-0.010827347084767857,1.6222279438035836,-1.5206157751843485,0.014452327280133171,-0.0010473703119438815,-3.510140645834058e-06,-0.1618220535777288,0.743869337146498,0.7056149070077672,0.1990294935486708,-0.014538355368207733,-4.580266723781261e-05,-1.1937866706848976,4.326881480727754,4.241601009750623,1.0459334365090527,-0.07291411428032646,0.001103821429046607,-0.25728843575560895,-2.440249955685723,-3.1163913463387223,-0.6656256128817646,-0.02013977478909166,-0.000470033731771391
0.13,-0.012564130143875925,1.630099579045502,-1.5131389195440534,0.016547939610858105,-0.0012009455222603323,-3.975963606687185e-06,-0.17367830591080669,0.7871635241918362,0.7476855640295194,0.20956123307249355,-0.015357521031645094,-4.658229608531271e-05,-1.161405172317879,4.0168175913210105,3.972852428363076,0.9659660442105142,-0.06637641076485945,0.0012679683146367797,-0.26317801403420854,-2.7600613060108623,-3.2071957565197886,-0.680919446657203,-0.0202373736138364,-0.00047032648407029657
0.14,-0.014416264510059004,1.6383731418942789,-1.50526809585793,0.01874112549566034,-0.0013621640949235982,-4.443675546886593e-06,-0.18521343661830778,0.8273562848776878,0.7870823686123251,0.21931858848022354,-0.016121857266326582,-4.6771194019940776e-05,-1.12748997102464,3.705669083607583,3.705572224159953,0.8880894397674268,-0.05991154373379004,0.001418635174464826,-0.26858166780184073,-3.0808298948003894,-3.2968815292641,-0.6956881234985265,-0.020280621773366543,-0.0004696646312713542
0.15,-0.016380386415124824,1.647017510710991,-1.4970298894388203,0.02102431562204261,-0.0015304789251063618,-4.907511885893772e-06,-0.19641219050658215,0.8644368816712236,0.8238206419109813,0.22831901263822713,-0.01683148301827635,-4.638363390071792e-05,-1.092069430068845,3.3943835198284615,3.4405207736193635,0.8122244959488505,-0.05356625115818048,0.0015543628479940397,-0.2733525220097566,-3.400888338568384,-3.3850141388830566,-0.7098557148522403,-0.02026272052338558,-0.0004680393102477018
0.16,-0.018452982259997655,1.6560015515424453,-1.488450658789975,0.023390113593551566,-0.0017053476253590786,-5.3619411122632675e-06,-0.20725958448728296,0.8984040831454365,0.8579230648845293,0.2365797971508957,-0.017486870025271693,-4.544292263694955e-05,-1.0551846123295183,3.0838768507108494,3.1783961587713447,0.7383468536444653,-0.047383100641113174,0.0016744271197433047,-0.2773519155584077,-3.718665539455334,-3.471182202457678,-0.7233518934880554,-0.020178038252527977,-0.0004654566507118448
0.17,-0.020630392609963955,1.6652942099357504,-1.479556467670745,0.025831298157721352,-0.001886235781313499,-5.801735380440742e-06,-0.2177410349966301,0.9292658393305017,0.8894191119230254,0.24411845641697855,-0.01808881559544203,-4.397942681774738e-05,-1.016889088086883,2.7750288239023546,2.9198376979747955,0.6664688716579583,-0.04139870012084046,0.0017787216411758316,-0.2804518910896351,-4.032693881571481,-3.5550003013894687,-0.7361125102178113,-0.02002218001385208,-0.0004619375153486109
0.18,-0.022908817441142874,1.6748645990632676,-1.4703730226041092,0.028340827896865962,-0.0020726198206886654,-6.2220229349503475e-06,-0.22784248311789176,0.9570389127517246,0.9183445066635758,0.250952973914461,-0.01863840393751665,-4.202875545096062e-05,-0.9772484088533121,2.468678985814661,2.665428544598628,0.5966260333383211,-0.03564291466080416,0.0018676339860971003,-0.2825375601285264,-4.341615064399018,-3.6361113982351343,-0.7480800625788082,-0.019792030374838836,-0.0004575168660320381
0.19,-0.025284322584730907,1.6846820837707959,-1.4609256156662174,0.030911847344504348,-0.002263989442584644,-6.6183244053119285e-06,-0.2375505143588032,0.9817484707528247,0.9447406937891839,0.25710194476383835,-0.019136962189597848,-3.9630147036158075e-05,-0.9363393099454503,2.1656232722055573,2.4156976756631647,0.5288667700981158,-0.030138731156536203,0.0019419247347599589,-0.2835092519690414,-4.644184559764694,-3.714188839538124,-0.759204055664161,-0.01948576930868794,-0.0004522427961503385
0.2,-0.027752847290035743,1.6947163602181712,-1.4512390724354538,0.033537693751884944,-0.002459849594073499,-6.986575206816612e-06,-0.24685247053048331,1.0034276447375263,0.9686543230763603,0.26258464073805965,-0.01958601514888546,-3.682508015046835e-05,-0.8942486983118534,1.8666111811922341,2.1711215118811027,0.4632449088635475,-0.024902534137085652,0.0020026161088614602,-0.28328436290667536,-4.939274700131246,-3.7889379413748348,-0.7694412569368947,-0.019102861562043893,-0.00044617527612217427
0.21,-0.03031021280659598,1.7049375308377714,-1.4413377049974183,0.03621190393064106,-0.0026597220069307414,-7.32313629204726e-06,-0.2557365516560238,1.0221170619600162,0.9901367438035596,0.267421017875612,-0.01998724128572426,-3.365610852306483e-05,-0.8510724777219852,1.5723435189180233,1.9321253477007319,0.3998141379455511,-0.01994463267989577,0.0020508940653252983,-0.281798834974088,-5.225876426814035,-3.860097160236368,-0.778755848386696,-0.018644020636912666,-0.0004393846644428946
0.22,-0.0329521318696558,1.7153161743921954,-1.4312452699075469,0.03892822075323027,-0.002863146323567258,-7.624795391953295e-06,-0.2641919063059817,1.0378643554423992,1.009243508987147,0.27163168225892065,-0.020342431663651687,-3.0165909990603466e-05,-0.8069142594788026,1.2834707035540938,1.6990847209043909,0.3386240279894732,-0.015269928541316702,0.0020880257450145157,-0.27900820932644177,-5.503099746542043,-3.9274388575439634,-0.7871194807586964,-0.01811114918312895,-0.000431950039929129
0.23,-0.03567421896173979,1.725823410967075,-1.4209849310087488,0.04168059901322939,-0.003069680850788957,-7.888760709292675e-06,-0.272208709208399,1.0507236574879404,1.0260338898798014,0.27523782599991203,-0.02065345272216989,-2.639653173393804e-05,-0.7618840027389978,1.0005916082797137,1.4723268129458542,0.27971725254238944,-0.010878649359670867,0.0021152926915577186,-0.2748882177823827,-5.770172962987624,-3.99076967143992,-0.7945112357877807,-0.017507258182236626,-0.00042395741219165476
0.24,-0.03847200121578377,1.7364309617879803,-1.4105792269904505,0.04446321044091307,-0.00327890298492171,-8.112648813404115e-06,-0.2797782254043981,1.0607550820905274,1.0405704018298316,0.27826114276836866,-0.020922213413275294,-2.2388810411144005e-05,-0.7160966241243728,0.7242529188693609,1.252131941267669,0.22312773463871238,-0.006767094316971534,0.0021339392062159623,-0.26943489560274547,-6.026440765966601,-4.049930514380315,-0.8009175033922328,-0.016836367789882387,-0.0004154978668040716
0.25,-0.04134092982187364,1.7471112038011385,-1.4000500435602103,0.047270447742009385,-0.003490409353479617,-8.294468256179727e-06,-0.28689286060898656,1.0680242013158256,1.0529183430240068,0.2807237301096315,-0.02115063685579072,-1.818194427756116e-05,-0.6696706115956916,0.4549489767810383,1.038735181476748,0.16887950800192275,-0.0029283565302660186,0.00214513452986298,-0.2626642182278467,-6.2713612746382745,-4.104796219409406,-0.806331781612116,-0.016103393074245832,-0.000406665699280122
0.26,-0.04427639179971518,1.7578372190056637,-1.3894185900814853,0.05009692758378584,-0.003703815717922526,-8.432600200248483e-06,-0.29354619778415436,1.0726015204525137,1.0631453478725081,0.28264798417764575,-0.021340636444290906,-1.3813194406875673e-05,-0.6227266726578757,0.1931220744895232,0.8323281391646957,0.1169861287852827,0.000647001190430263,0.0021499471480247723,-0.2546112833198585,-6.504502141922297,-4.155274861724578,-0.8107544077113317,-0.015314018132474305,-0.0003975565880275162
0.27,-0.047273722002050524,1.7685828385697622,-1.3787053805126435,0.05293749249623679,-0.003918756679879004,-8.525777132213897e-06,-0.2997330202335345,1.0745619564098374,1.0713209568841742,0.28405649124509524,-0.02149409619564776,-9.31769319654141e-06,-0.5753864420172815,-0.06083683364088983,0.6330608772723576,0.06745050983483503,0.003970331434412611,0.0021493293518614898,-0.245329076133936,-6.725535835378632,-4.201306785196894,-0.8141922292985944,-0.014474562182466559,-0.0003882658511748766
0.28,-0.05032821521987858,1.779322681804547,-1.3679302184640734,0.05578721168983275,-0.004134885230052856,-8.573060532742722e-06,-0.3054493217828057,1.0739843234784825,1.0775162048570108,0.28497191935959615,-0.021612855017385184,-4.728340052882459e-06,-0.5277712689635645,-0.3065870442942104,0.4410439943877177,0.02026507707964964,0.007054355597336137,0.0021441101757216363,-0.23488687022729354,-6.9342342149319025,-4.242863365856085,-0.8166582245642651,-0.013591841217263652,-0.00037888682587115634
0.29,-0.053435138268054065,1.7900321901063885,-1.357112186173069,0.05864138081713532,-0.00435187217529647,-8.57381819507473e-06,-0.3106923048175485,1.0709508301841577,1.0818032291004214,0.2854169127302568,-0.021698694524361427,-7.576623320083828e-08,-0.4800011001234421,-0.543836683115172,0.2563508416180027,-0.024587831188012277,0.009912688145258919,0.002134994941352719,-0.22336832628815068,-7.130462530133031,-4.279945545965628,-0.8181710807850163,-0.012673028683139692,-0.0003695094016586729
0.3,-0.056589741939173176,1.80068765601195,-1.3462696371807237,0.06149552072517438,-0.004569405475328915,-8.527701725522607e-06,-0.31546036711191106,1.0655465905561643,1.0842548992345404,0.2854139908039059,-0.021753330003244493,4.611646955212254e-06,-0.4321934689279173,-0.7723409897453369,0.07901986014029339,-0.06713538499230443,0.012559430779733649,0.0021225697958600076,-0.21086935913949206,-7.314172959296018,-4.312582173209775,-0.8187547401286723,-0.011725518414280364,-0.00036021873214470027
0.31,-0.059787272724172176,1.8112662475391024,-1.3354201924817541,0.06434537526006773,-0.004787189516524346,-8.434624623976768e-06,-0.3197530784999002,1.0578591527152437,1.084944469896962,0.28498545348933485,-0.021778404119543134,9.307710154583899e-06,-0.3844625992162981,-0.9919003523373365,-0.09094298216943897,-0.10741355347045944,0.015008833158129953,0.002107309846965444,-0.1974958466868717,-7.48539781005383,-4.340828179716176,-0.8184379215130889,-0.010756792744125894,-0.00035109414175516645
0.32,-0.0630229842093718,1.8217460280117448,-1.3245807399073186,0.06718690819590238,-0.005004944346255258,-8.294741228163438e-06,-0.3235711485199627,1.0479780472642504,1.0839452574435564,0.2841532935834656,-0.021775482973091228,1.3988339581332985e-05,-0.33691862691229146,-1.2023581333864195,-0.2535616788699824,-0.14546630598430665,0.017275015294299978,0.0020895897003375685,-0.18336125488247063,-7.644242495928242,-4.3647626351900675,-0.8172536268546016,-0.009774298335553214,-0.00034220823712623606
0.33,-0.0662921480714408,1.8321059715872356,-1.313767436492613,0.0700162993671539,-0.0052224048875524525,-8.108426711044423e-06,-0.3269163862069009,1.0359943575490882,1.0813303414705564,0.28293911712515074,-0.021746054129719458,1.8631451711901436e-05,-0.2896669406700064,-1.4035983275686947,-0.408887622737661,-0.18134475588287602,0.0193717458884759,0.0020696954284138425,-0.16858424998988497,-7.790878396726632,-4.384486707398643,-0.815238639504719,-0.008785331849428375,-0.0003336262259211246
0.34,-0.06959006460361597,1.8423259747217593,-1.3029957135754129,0.07282994008850203,-0.0054393201504065935,-7.876258244122842e-06,-0.32979165321751563,1.0220003134523727,1.0771722917200197,0.281364072134814,-0.021691526285414126,2.321684669215807e-05,-0.24280763980360806,-1.5955430905801715,-0.5569970181782935,-0.21510627299115725,0.021312270448572646,0.002047837178110301,-0.1532863640085653,-7.925535702309602,-4.400121561689828,-0.8124330220413601,-0.007796937123717087,-0.0003254054397423741
0.35000000000000003,-0.07291207271823821,1.8523868638216994,-1.2922802843687278,0.07562442794829706,-0.005655452452921711,-7.598997378699418e-06,-0.3322008114622245,1.0060889099940016,1.0715429206685012,0.2794487859795022,-0.021613230251511663,2.772608654234234e-05,-0.19643510567198919,-1.7781501758267535,-0.6979882926001575,-0.24681358582616397,0.023109183027924862,0.00202416181600501,-0.13758977159426097,-8.048496329869664,-4.411806229239147,-0.8088796198765199,-0.00681581508208867,-0.0003175950524921066
0.36,-0.07625355938202542,1.8622703993381573,-1.28163515375027,0.07839656106254107,-0.005870576662753379,-7.277573649941817e-06,-0.3341486663787206,0.9883535516457826,1.064513061845788,0.27721331142440075,-0.021512420983166837,3.2142372875760154e-05,-0.15063768096729627,-1.9514103133191738,-0.831979529847219,-0.2765338904461574,0.02477433561180664,0.0019987651431686015,-0.1216152277769305,-8.160086994671158,-4.419695471378092,-0.8046235763893246,-0.005848247148564085,-0.00031023598110699113
0.37,-0.07960996845132327,1.871959276567408,-1.2710736300133494,0.08114333187540305,-0.0060844794668217525,-6.913069373239849e-06,-0.3356409069297854,0.968887722925067,1.0561523736920624,0.274677081286198,-0.021390280406837405,3.64504276701968e-05,-0.10549745002352438,-2.115344562370761,-0.9591059471393488,-0.30433797943642205,0.026318779548421545,0.001971703359459842,-0.10548020581839537,-8.260672503554707,-4.423957664754894,-0.7997118645142897,-0.004900032527487105,-0.0003033609521077664
0.38,-0.0829768088847195,1.881437123422584,-1.260608338327934,0.0838619205902605,-0.006296958675169225,-6.506705576541444e-06,-0.33668404333962343,0.9477846855175842,1.0465291685415252,0.27185887148574484,-0.021247920834747275,4.0636379669840524e-05,-0.061090112284185344,-2.270001666766973,-1.079517435011185,-0.3302994017237335,0.027752733877693836,0.0019430035384492839,-0.08929726422529022,-8.350649329710759,-4.4247727293001935,-0.7941928389300779,-0.0039764393273290415,-0.000296994714856778
0.39,-0.08634966231977129,1.8906884954415253,-1.2502512356667241,0.08654968831228874,-0.0065078225630142775,-6.059828994879664e-06,-0.3372853435051787,0.9251372018941368,1.0357102661210034,0.268776772202823,-0.021086388784505233,4.468765816617796e-05,-0.0174849404082336,-2.415455438053398,-1.1933761775909284,-0.35449366155952067,0.029085575909894912,0.0019126729855092894,-0.07317266173688358,-8.430439516546315,-4.422330118097306,-0.7881158122226861,-0.00308216917099893,-0.00029115438077574184
0.4,-0.08972419000911204,1.8996988682928295,-1.2400136269589739,0.08920416997989894,-0.006716889253513015,-5.57390004220828e-06,-0.3374527689340753,0.901037285130423,1.0237608707750239,0.2654481667610202,-0.02090666904987373,4.859289526713837e-05,0.0252551858877612,-2.551802189544388,-1.3008543683077347,-0.37699746302834125,0.030325849917546978,0.0018807073969562271,-0.05720522946270181,-8.50048494814073,-4.416826885364465,-0.7815306576547422,-0.002221334649930361,-0.00028584986697382565
0.41000000000000003,-0.09309613911883155,1.908454628036972,-1.2299061822442232,0.09182306715802803,-0.006923986142452029,-5.050481670000093e-06,-0.33719491097195153,0.8755759744142536,1.010744471475075,0.2618897178129092,-0.02070968889390148,5.234183722081872e-05,0.06707367929499643,-2.6791582406456627,-1.4021320338395493,-0.3978880047436508,0.03148129029844943,0.0018470978086314593,-0.04148550058349452,-8.561242014002271,-4.408465845910904,-0.7744874404726236,-0.0013974487470517821,-0.0002810844226838026
0.42,-0.09646134839874637,1.9169430593922667,-1.2199389546088195,0.09440424076155465,-0.007128949365034459,-4.4912290204271e-06,-0.3365209279914815,0.8488431355294564,0.9967227635403794,0.25811736035266186,-0.020496322258242987,5.5925264957299316e-05,0.10792008666933385,-2.7976575081678745,-1.4973949768566794,-0.4172423279992863,0.03255885603388248,0.001811836349641549,-0.02609509039021035,-8.613176686750052,-4.397453836686789,-0.7670360790357057,-0.0006134251751851491,-0.0002768552174969764
0.43,-0.09981575324000004,1.9251523322466657,-1.2101213986999184,0.09694570377207994,-0.00733162330406011,-3.897879783576641e-06,-0.335440484125367,0.8209272854398973,0.9817555908901163,0.254146301052528,-0.02026739390256512,5.9334923685045956e-05,0.14774988183809093,-2.9074491985181896,-1.5868328459542482,-0.4351367204166081,0.03356477369450117,0.0017749208585510767,-0.011106313068563125,-8.656760023067127,-4.384000088455232,-0.7592260364645862,0.00012841154922184025,-0.0002731539715133276
0.44,-0.10315539014037743,1.933071486646256,-1.2004623896243019,0.09944561400607894,-0.007531860138116426,-3.2722451720739186e-06,-0.33396369003773896,0.7919154399590289,0.9659009075616517,0.24999102339990154,-0.020023683405631598,6.256346115027222e-05,0.1865242178575027,-3.0086956120331183,-1.670637339113827,-0.4516461761202919,0.034504586632054024,0.0017363584314065705,0.0034179833920611018,-8.69246409087524,-4.368314713209163,-0.7511060429823592,0.0008263075551849164,-0.00026996760906483185
0.45,-0.1064764006018182,1.9406904164800414,-1.1909702420526542,0.1019022669870905,-0.007729519427867976,-2.6162014321534618e-06,-0.3321010461440778,0.761892983378541,0.9492147571647555,0.2456652981011547,-0.019765928975155007,6.56043739920457e-05,0.22420964666219295,-3.101570068276001,-1.7490005451281938,-0.46684391262551195,0.035383208339964334,0.0016961679932444018,0.017424386482465665,-8.72075831921015,-4.350607310763017,-0.7427238486672157,0.0014790538813093995,-0.000267278919517407
0.46,-0.10977503448791819,1.9479998520684634,-1.181652729363689,0.10431408896924774,-0.007924467738138012,-1.931681816979449e-06,-0.3298633886099984,0.7309435588421991,0.9317512688965208,0.241182198215724,-0.019494831027003633,6.845196151740127e-05,0.2607778135146207,-3.186254958886917,-1.8221134256816454,-0.48080094390949846,0.03620497826875524,0.00165438199050838,0.030868717394501942,-8.742106261739492,-4.331085695985895,-0.7341260059459772,0.002085954842666341,-0.0002650672107016559
0.47000000000000003,-0.11304765287176617,1.954991341850321,-1.1725171026765486,0.10667963015412621,-0.00811657829319859,-1.2206689554624988e-06,-0.32726183838479916,0.6991489781857627,0.9135626687140264,0.2365541184878471,-0.019211055506057863,7.110128615169501e-05,0.2962051330789213,-3.262939932547039,-1.8901644392126604,-0.4935857085551163,0.03697371864905219,0.0016110473070271025,0.04371568419070522,-8.756962760247433,-4.309954746417749,-0.7253576808349704,0.002646791750981842,-0.00026330894267229083
0.48,-0.11629073040633686,1.9616572333495101,-1.1635701096340494,0.10899755813765404,-0.008305730662509704,-4.851875575936e-07,-0.32430775345706947,0.6665891499188974,0.8946993042499254,0.23179279835278233,-0.018915236931111478,7.354813978688988e-05,0.3304724533310843,-3.3318202148101115,-1.953338306297904,-0.5052637513890836,0.037692791107647894,0.00156622551005281,0.055938416183041594,-8.765771490676341,-4.287415368524499,-0.7164624916738691,0.0031617831749970026,-0.00026197833166590227
0.49,-0.11950085725090864,1.9679906535894904,-1.1548180128134664,0.11126665161873635,-0.008491810474058552,2.727025949053206e-07,-0.3210126844571777,0.6333420239980402,0.8752096820582937,0.22690934810823163,-0.018607981154884747,7.578901524989206e-05,0.3635647128936141,-3.393095063954353,-2.01181491508928,-0.5158974566651544,0.03836515206505653,0.0015199925338352793,0.06751790516983319,-8.768962871412194,-4.263663579596852,-0.7074823738955327,0.0036315428435820937,-0.0002610479162474711
0.5,-0.12267474058766112,1.9739854891097723,-1.1462666076555426,0.11348579439632807,-0.008674709152434725,1.0509134162813542e-06,-0.3173883336752482,0.5994835520281818,0.8551405157923816,0.22191427775917194,-0.018289867837617328,7.782108213760335e-05,0.39547059676240154,-3.4469663626179226,-2.065768364304838,-0.5255458305509642,0.03899340608227764,0.0014724378954513728,0.0784423778755412,-8.766952311364147,-4.238889701271383,-0.6984574692255499,0.004057036195028893,-0.0002604890796514834
0.51,-0.1258092057627936,1.9796363657251161,-1.1379212398161362,0.11565396967697447,-0.008854323678824376,1.8473350791980447e-06,-0.31344651751324887,0.5650876615343707,0.8345367839406348,0.21681752806464033,-0.017961452638965075,7.964216629166905e-05,0.42618219478853314,-3.493637343784893,-2.115366140403328,-0.534264330486387,0.03957985647941564,0.0014236635454643043,0.08870662210545491,-8.760138773945227,-4.213277659837378,-0.6894260376036827,0.004439536467110914,-0.00026027252419101956
0.52,-0.12890119708625258,1.9849386281547012,-1.129786821858328,0.11777025471034752,-0.009030556370206076,2.6598424016329978e-06,-0.3091991323458963,0.5302262429585036,0.8134417957808325,0.2116285033373046,-0.01762326913816998,8.125073224349531e-05,0.45569466669720265,-3.533311448678175,-2.160768424866248,-0.5421047388138565,0.04012655268828791,0.001373782445833971,0.09831128692227567,-8.748903632234564,-4.18700438787264,-0.6804243900600364,0.004780581108628808,-0.00026036869529709304
0.53,-0.13194777832352264,1.989888319635319,-1.1218678492158,0.11983381576605356,-0.009203314675173966,3.4863010818281233e-06,-0.3046581237270047,0.4949691480617849,0.7918972642528018,0.20635610557060372,-0.017275830496788987,8.264586801951256e-05,0.48400591687693967,-3.5661913132752234,-2.2021275269383267,-0.5491150780107255,0.04063533392431129,0.001322916950327102,0.10726217471557807,-8.733609790311512,-4.160239321307892,-0.671486840755873,0.005081929178245387,-0.0002607481542416284
0.54,-0.134946132911976,1.994482161619783,-1.1141684153708347,0.12184390346098363,-0.009372510983991446,4.324573799277962e-06,-0.29983545884533375,0.4593841984464098,0.7699433844965435,0.20100876949300603,-0.01691963088174797,8.382727174498384e-05,0.5111162816597473,-3.5924778794762386,-2.2395874367341397,-0.5553395648095236,0.04110786887052864,0.0012711970745661882,0.11556954049179692,-8.71460104592078,-4.133143985733204,-0.6626456764070148,0.005345520283791757,-0.0002613818998816679
0.55,-0.13789356393304172,1.9987175336492833,-1.1066922262023002,0.12379984844272585,-0.009538062450683624,5.172526194929847e-06,-0.29474310210657434,0.4235372029500219,0.7476189168534525,0.19559449817422203,-0.0165551466692178,8.479523956518856e-05,0.5370282313392939,-3.6123696264068714,-2.2732834932925723,-0.560818600485204,0.04154569116786311,0.0012187587133879463,0.12324741116579356,-8.692201670179024,-4.105871665611669,-0.6539311413414843,0.0055734355075703,-0.0002622416408379175
0.56,-0.14078749386999617,2.0025924534764026,-1.0994426134704758,0.12570105743106239,-0.0096998908252019,6.02803273943406e-06,-0.28939299369544497,0.3874919827119205,0.7249612731824492,0.19012089883365257,-0.016182837451827706,8.555065445042131e-05,0.5617460887418018,-3.626061916911615,-2.3033421619255874,-0.5655887946215774,0.04195023059309699,0.0011657418720393276,0.13031293516914144,-8.666716180896215,-4.078567150036154,-0.6453714364975239,0.0057678606625400555,-0.00026330002039390104
0.5700000000000001,-0.14362546417953173,2.0061055575039988,-1.0924225474164824,0.12754700961632828,-0.00985792229393306,6.8889824946701435e-06,-0.28379703095355613,0.3513104027596412,0.702006605399348,0.18459521852659025,-0.01580314687311592,8.609497552360827e-05,0.5852757657725608,-3.63374645397432,-2.329880915057786,-0.5696830197183953,0.042322839885970076,0.001112288955949392,0.1367857703694606,-8.63842928719303,-4.051366548735745,-0.6369927307390172,0.005931052132115074,-0.0002645307970824908
0.58,-0.14640513470347488,2.009256081594172,-1.0856346484644241,0.1293372534104136,-0.010012087327072223,7.753284770649046e-06,-0.2779670523943155,0.31505240901733517,0.6787898952058151,0.1790243794085323,-0.015416503313916332,8.643022759789027e-05,0.6076245190093097,-3.635610841571432,-2.3530082106680332,-0.5731304940778834,0.042664817259518095,0.001058543163105552,0.14268751616583494,-8.607605984388503,-4.024397172192135,-0.6288191829485634,0.0060653054635954745,-0.0002659089844294506
0.59,-0.14912428294512786,2.0120438422910967,-1.0790811980240926,0.13107140354343516,-0.010162320531628575,8.61887467732735e-06,-0.27191482416529783,0.27877606969245067,0.6553450440331536,0.1734150133021559,-0.015023320455635194,8.655899066783042e-05,0.6288007251002097,-3.631838244307185,-2.372823562414518,-0.5759568904815957,0.04297742469195809,0.0010046470102949012,0.1480411937176612,-8.574491779556297,-3.997777469946344,-0.6208729734506145,0.006172926812485194,-0.0002674109536657654
0.6,-0.15178080323273588,2.014469218491635,-1.0727641484012391,0.13274913849658576,-0.010308560509079972,9.48371856875008e-06,-0.2656520287608022,0.24253762005382434,0.6317049622853524,0.1677734953150601,-0.014623997745139759,8.648438914227303e-05,0.6488136764464549,-3.62260714008579,-2.3894176955273343,-0.5781844682766906,0.04326190215643111,0.0009507410178802855,0.15287077659448195,-8.53931302965668,-3.9716170214480364,-0.6131743434150598,0.006256207272261367,-0.00026901450341970835
0.61,-0.15437270579055998,2.016533133588353,-1.0666851318309891,0.1343701982593756,-0.010450749716932975,1.0345819375228825e-05,-0.25919025578241006,0.20639150967180545,0.6079016570250019,0.16210597627898496,-0.014218920785300375,8.621008064787435e-05,0.667673397404954,-3.608091160025164,-2.4028727825952494,-0.5798322265560998,0.04351947799403977,0.000896962568582349,0.15720077270701024,-8.502277375702374,-3.9460165741098865,-0.6057416409929383,0.006317400071361024,-0.00027069890047549684
0.62,-0.15689811573598902,2.0182370381008434,-1.0608454686579447,0.13593438239740757,-0.01058883433367458,1.1203221817879512e-05,-0.2525409945429035,0.17039045124902233,0.5839663173044378,0.15641841380319776,-0.013808461674160385,8.574024426506875e-05,0.6853904810316039,-3.588459009805939,-2.4132627534154327,-0.5809160762385268,0.04375137568025522,0.0008434449480039796,0.1610558571899799,-8.463574257976676,-3.921068123566072,-0.5985913730383452,0.006358700575813726,-0.00027244489565612234
0.63,-0.15935527201907512,2.019582892803128,-1.0552461746939168,0.1374415484149641,-0.010722764126817436,1.2054017498721305e-05,-0.2457156283086087,0.13458547022846815,0.5599293964027937,0.15071660175565216,-0.013392979314285706,8.507956808417931e-05,0.7019759461975272,-3.5638744666601467,-2.4206536731384096,-0.5814490289251388,0.04395881727090156,0.0007903165717023097,0.16446055494391812,-8.423375498861438,-3.896855031486637,-0.5917382613723742,0.006382229001461242,-0.0002742347187716297
0.64,-0.1617425263188434,2.0205731523473633,-1.0498879677910435,0.13889161039502165,-0.010852492323938713,1.2896349858673753e-05,-0.238725429976827,0.0990259544235143,0.5358206902873339,0.14500619800575526,-0.012972819712127668,8.423323599524473e-05,0.7174411147458174,-3.5344964462332387,-2.42510418299695,-0.5814414004925137,0.044143023843420615,0.0007377003905612578,0.1674389707885125,-8.381835941327216,-3.873452176658985,-0.585195302644606,0.006390015713319593,-0.0002760520563878715
0.65,-0.16405834190872606,2.021210749377084,-1.044771273674298,0.14028453789784212,-0.010977975486791391,1.3728418995018766e-05,-0.23158155898826696,0.06375970297207312,0.5116694116745645,0.13929275028204588,-0.012548316285267853,8.320691363450127e-05,0.73179750821177,-3.5004791335902112,-2.426665997953646,-0.5809010274693183,0.04430521327197967,0.0006857134698067813,0.17001456461475062,-8.339094132569304,-3.8509261354066067,-0.5789738309441526,0.006383988970527006,-0.0002778820159295022
0.66,-0.166301292501517,2.0214990791168272,-1.0398962310830653,0.1416203550980097,-0.011099173388723894,1.454848632930299e-05,-0.22429505927909602,0.02883297397434869,0.4875042591232684,0.13358172001675725,-0.012119790193250216,8.200673342842237e-05,0.7450567635022222,-3.4619721726753063,-2.4253844556452626,-0.579833494289117,0.0444465956909883,0.0006344667223720513,0.17220996852428208,-8.295273043625773,-3.8293353877666196,-0.5730835824047302,0.006365964962605103,-0.00027971107934912024
0.67,-0.16847006108234916,2.0214419844191314,-1.035262696276587,0.14289914013868418,-0.011216048895777863,1.535487911604368e-05,-0.21687685808321355,-0.005709469769577022,0.46335348064783477,0.12787850406744883,-0.011687550705396867,8.0639278674069e-05,0.7572305668168362,-3.4191209085740835,-2.421299111016741,-0.5782423695916954,0.04456836701303324,0.0005840647846914737,0.1740468426897097,-8.250480817076548,-3.8087305461865357,-0.5675327611360247,0.006337639975551905,-0.00028152704928386546
0.68,-0.1705634387363738,2.0210437412446347,-1.0308702469626239,0.14412102468091811,-0.011328567851943697,1.614599478210195e-05,-0.20933776540246385,-0.03982431744968164,0.4392449313963042,0.12218845422339228,-0.011251895616583487,7.911156660582692e-05,0.7683306049938157,-3.3720666769584766,-2.414444371047979,-0.5761294497733651,0.044671700867441544,0.0005346060127376928,0.1755457665361992,-8.20481153608741,-3.789154603822557,-0.5623281058963333,0.006300584523707668,-0.00028331899029237855
0.6900000000000001,-0.17258032347608013,2.0203090445462872,-1.0267181857126888,0.14528619362513415,-0.011436698969138724,1.69203050860546e-05,-0.20168847397063186,-0.0734696698347651,0.41520612499350656,0.11651689442160269,-0.010813111719502711,7.74310303952647e-05,0.7783685333720447,-3.3209471351226667,-2.404850163959328,-0.5734950080366215,0.04475773932719784,0.0004861825756181659,0.17672616181132825,-8.15834600912397,-3.770643199823045,-0.557474956998848,0.006256239284543979,-0.0002850771674278434
0.7000000000000001,-0.1745197190715411,2.0192429945245314,-1.022805542930631,0.1463948849812757,-0.011540413722533371,1.7676360086335513e-05,-0.19393955954609685,-0.10660500217556965,0.3912642782057748,0.11086913561415594,-0.01037147533946457,7.560550002809158e-05,0.7873559591801252,-3.2658966290366815,-2.392542637254408,-0.5703380472123669,0.044827582780567976,0.0004388806271716783,0.1776062441563817,-8.111152565615303,-3.7532248992593136,-0.5529773230158552,0.006205912677729814,-0.0002867929840647169
0.71,-0.1763807338853198,2.017851083216709,-1.01913107944423,0.1474473898637253,-0.011639686251887035,1.8412791906382215e-05,-0.18610148137786958,-0.13919113078222461,0.36744634864009657,0.10525048824496029,-0.009927252935366428,7.364318200467016e-05,0.795304439388369,-3.207046590858493,-2.3775448789117735,-0.5666565546597457,0.044882279293150695,0.00039278053181818207,0.17820299990007932,-8.063287858693382,-3.736921485619452,-0.5488379469115446,0.00615077993628978,-0.0002884589205640211
0.72,-0.17816257971232316,2.016139181380903,-1.0156932887917562,0.1484440525868292,-0.011734493269568153,1.9128318284452245e-05,-0.17818458270033613,-0.17119018358056867,0.3437790652473948,0.09966627231038874,-0.009480701768111747,7.155263780700316e-05,0.8022254918922278,-3.144525961355633,-2.359877655984218,-0.5624477575625342,0.044922813786375304,0.0003479571206498888,0.1785321849487045,-8.014797671873069,-3.7217482640086272,-0.5450583712951547,0.006091883525722244,-0.00029006847504034825
0.73,-0.1798645706235562,2.014113525631937,-1.0124903992771865,0.14938527083677208,-0.011824813975923507,1.982174589516233e-05,-0.17019909112330558,-0.20256557489659582,0.32028895145697933,0.0941218249942882,-0.009032070635535414,6.934276107100835e-05,0.8081306188339603,-3.0784616316945725,-2.339560164804719,-0.5577083769522222,0.04495009733869315,0.00030447996342480854,0.17860834283061905,-7.965717727169352,-3.707714373400364,-0.5416390025418641,0.006030134775992221,-0.0002916161071870836
0.74,-0.18148612181151472,2.0117807057853065,-1.009520375868915,0.1502714958956109,-0.011910629982631586,2.0491973429298984e-05,-0.1621551187958519,-0.23328198466304534,0.2970023408271481,0.08862250588388229,-0.008581600670807911,6.70227534136655e-05,0.8130313408140916,-3.0089788990703634,-2.316610786932882,-0.5524348788156797,0.044964956887353136,0.0002624136305614533,0.1784448391560711,-7.916074492677019,-3.6948231064580486,-0.5385791735794886,0.005966316600834092,-0.00029309718582862677
0.75,-0.18302674843386357,2.0091476523634357,-1.0067809220173602,0.15110323289349947,-0.011991925244625664,2.1137994417865378e-05,-0.154062662234887,-0.26330534218706964,0.27394538515548716,0.08317369978885744,-0.00812952619940774,6.460209885663943e-05,0.8169392406950798,-2.9362019306661757,-2.291047844926305,-0.5466237206494515,0.0449681255823009,0.00022181793371367498,0.17805390996492257,-7.865885988065416,-3.683072235594395,-0.5358772051847214,0.005901087188344405,-0.000294507940602252
0.76,-0.18448606445108698,2.006221624217806,-1.0042694814668456,0.15188104106551603,-0.012068686001106253,2.175889978588385e-05,-0.14593160172234065,-0.29260281456300014,0.2511440550514741,0.07778081720165628,-0.007676075648058825,6.209053680184716e-05,0.8198660156575808,-2.860254230465713,-2.262890351975522,-0.5402715918485956,0.04496023401151916,0.00018274812956559083,0.17744672164720315,-7.815162586772498,-3.672454344060018,-0.5335304656737033,0.005834984556042951,-0.00029584541793008646
0.77,-0.1858637814529688,2.0030101962202096,-1.0019832401365107,0.1526055339900412,-0.012140900726081993,2.2353880121094298e-05,-0.13777170018818366,-0.3211427997596427,0.22862413303348875,0.07244929245251637,-0.007221472497574091,5.949803352104498e-05,0.8218235361353909,-2.781259103491506,-2.2321587494221915,-0.5333756463394064,0.04494180248451096,0.00014525507835533302,0.17663344032772055,-7.7639078139224535,-3.6629571609516027,-0.5315354289082828,0.0057684318721274875,-0.0002971074412252651
0.78,-0.18715970746807115,1.9995212469766352,-0.9999191281437907,0.15327737978632255,-0.012208560088785316,2.292222764246989e-05,-0.1295926015102344,-0.34889492435743713,0.20641119927200868,0.06718457962813514,-0.006765936270332329,5.683475213755919e-05,0.8228239102296527,-2.699340112114989,-2.1988756261850293,-0.5259337259080681,0.04491323452503693,0.00010938534582977111,0.17562330880143165,-7.712119139145069,-3.6545638991072247,-0.5298877305717257,0.005701743452315309,-0.00029829257508704203
0.79,-0.18837374574982765,1.9957629465180609,-0.9980738220421869,0.15389730124970066,-0.012271656924206982,2.3463337853353308e-05,-0.12140382817565057,-0.3758300458574325,0.18453061016037833,0.0619921463378114,-0.0063096835421666995,5.411102108834182e-05,0.8228795521870419,-2.6146215191870614,-2.1630664141624063,-0.5179445727026355,0.044874811691427485,7.518124810867999e-05,0.17442472928735478,-7.659788763549264,-3.6472535949126375,-0.5285822226960082,0.005635131348285702,-0.0002994000930784988
0.8,-0.18950589353245892,1.9917437439237442,-0.9964437473426498,0.15446607590395728,-0.012330186213884405,2.397671086415236e-05,-0.11321477826312773,-0.40192025943165993,0.16300746995370088,0.0568774654256623,-0.005852928967742303,5.133730107990546e-05,0.8220032535220503,-2.5272287128743485,-2.124760053758267,-0.5094080294669681,0.04482668980463478,4.268083855157867e-05,0.17304535043326053,-7.606904400103916,-3.641001449080196,-0.5276130264474652,0.00556871244921261,-0.0003004299485482202
0.81,-0.1905562407496489,1.9874723548344098,-0.9950250813849022,0.15498453595137293,-0.012384145076965235,2.446195236989405e-05,-0.10503472171899694,-0.4271389089334554,0.14186659577475905,0.051846004741566636,-0.005395886308083107,4.8524150574168787e-05,0.8202082553705854,-2.437288608260282,-2.0839896238167506,-0.5003252261060158,0.04476889663336214,1.191783270337865e-05,0.17149215715004182,-7.553450046613722,-3.635779167483528,-0.5269735831986111,0.005502516022163683,-0.0003013827478542612
0.8200000000000001,-0.191524968708794,1.98295774881504,-0.9938137566214738,0.15545356810234445,-0.012433532771452536,2.49187742684588e-05,-0.09687279591451282,-0.45146060193697446,0.12113247634284331,0.04690321509715209,-0.004938769448730031,4.5682189856474963e-05,0.8175083206827571,-2.344930020987333,-2.040792930429167,-0.49069875128635054,0.044701331047294346,-1.707851413390582e-05,0.1697715619833324,-7.499406750353734,-3.631555301138478,-0.5266567039315972,0.005436491620254903,-0.0003022597252749633
0.8300000000000001,-0.19241234871364923,1.9782091365297603,-0.9928054643731085,0.15587411326780345,-0.01247835070542368,2.534699490625943e-05,-0.088738000485522,-0.47486122852797163,0.10082922483653295,0.042054516545901276,-0.0044817933971144,4.282206378006279e-05,0.8139178048967853,-2.2502840084786953,-1.9952130493245774,-0.4805328078588502,0.044623763622882784,-4.4283579214210445e-05,0.16788949684123983,-7.44475336325187,-3.628295584416803,-0.5266546170331932,0.005370517289454285,-0.00030306271884640356
0.84,-0.19321874062834185,1.9732359566945268,-0.9919956591095668,0.15624716609918785,-0.012518602457904102,2.5746538939209602e-05,-0.08063919146926167,-0.49731798352334,0.08098052635416383,0.03730528313843929,-0.0040251752480421525,3.9954403295017306e-05,0.8094517237851012,-2.153484174585706,-1.9472988168557483,-0.46983335101037316,0.044535838652056015,-6.967758066889207e-05,0.16585150399227044,-7.389467286292364,-3.625963270565947,-0.5269590145524947,0.005304408005933229,-0.0003037941463498525
0.85,-0.19394459137600298,1.968047862776973,-0.9913795633047129,0.15657377436233763,-0.01255429380897155,2.611743679826782e-05,-0.072585074766112,-0.5188093917553763,0.061609580485388137,0.03266082631497976,-0.003569135106744863,3.708978590582178e-05,0.8041258172273955,-2.054666933863917,-1.8971052649595381,-0.4586082081791991,0.04443707748196557,-9.324580896330481e-05,0.1636628253285445,-7.333525201564244,-3.6245194635886553,-0.527561097000932,0.005237924276021723,-0.00030445698068351
0.86,-0.19459043336566864,1.9626547094167857,-0.9909521729091807,0.1568550381334041,-0.012585432778568403,2.6459823750607133e-05,-0.06458419896656716,-0.5393153360187393,0.042739039553222134,0.028126377106647484,-0.0031138969596852563,3.4238695233931195e-05,0.797956607744413,-1.9539717320833685,-1.8446939959013586,-0.44686717989824754,0.044326883085329616,-0.00011497887710099075,0.1613284889584907,-7.276903790106837,-3.6239234455125673,-0.5284516167796661,0.005170780830314175,-0.00030505472388959857
0.87,-0.1951568828416221,1.957066538544345,-0.990708263477904,0.15709210880666344,-0.012612029673410846,2.6773938549384318e-05,-0.05664494759534725,-0.5588170872440634,0.02439094312766739,0.023707067325933678,-0.002659689484244319,3.14114798777185e-05,0.7909614527194696,-1.8515412200263683,-1.7901334930980517,-0.434622120906349,0.04420454574757926,-0.0001348729688155359,0.15885339225308293,-7.21958043341869,-3.6241329980547343,-0.5296209203222536,0.005102655342509186,-0.00030559137916868454
0.88,-0.19564463814997515,1.9512935651800187,-0.9906423969834158,0.15728618790599821,-0.012634097141305426,2.7060121667396147e-05,-0.04877553083530383,-0.5772973364326298,0.006586649448817303,0.019407909933476682,-0.0022067467894580166,2.8618311801183003e-05,0.7831585893424249,-1.7475213781153145,-1.7334993648678452,-0.42188700100907983,0.04406924973629822,-0.00015293007772343437,0.15624238052313483,-7.161533896207549,-3.6251047176617286,-0.5310589890406584,0.005033197102373917,-0.00030607142029564897
0.89,-0.19605447791800945,1.9453461629014008,-0.9907489293391292,0.1574385256937377,-0.012651650232117012,2.731881311236954e-05,-0.040983976803430855,-0.5947402278617884,-0.010653235571339514,0.015233778773948513,-0.0017553090811586228,2.5869144497339362e-05,0.774567171430969,-1.6420615899391902,-1.6748745185510843,-0.4086779453633147,0.043920080810631035,-0.00016915822285412663,0.15350032055520135,-7.102744987676836,-3.626794322884515,-0.5327554791603595,0.004962035571042033,-0.0003064997579532261
0.9,-0.19638725914260702,1.9392348489708873,-0.9910220186498678,0.15755041957251406,-0.012664706464578188,2.7550549824329334e-05,-0.03327812245975797,-0.6111313930513546,-0.02730893107386467,0.011189387877635366,-0.0013056232461175336,2.3173671195979184e-05,0.7652072974159416,-1.5353146633046717,-1.614349263095901,-0.39501325403242227,0.04375603442124687,-0.00018357162991267106,0.15063216828319928,-7.04319719837876,-3.6291569530309635,-0.5346997605256576,0.004888788745923632,-0.00030688170261641265
0.91,-0.19664391518497756,1.9329702691212145,-0.9914556341997794,0.15762321227777873,-0.012673285898088917,2.7755962658334067e-05,-0.02566560423705435,-0.6264579849672689,-0.0433615549911589,0.007279270526467702,-0.0008579433510729165,2.0541283400473426e-05,0.7551000289187849,-1.4274367980185956,-1.5520213388875042,-0.3809134008494146,0.04357602444975406,-0.00019619086829930632,0.14764302992475783,-6.982877309425662,-3.632147457029346,-0.5368809544494052,0.004813071262058849,-0.0003072229237507516
0.92,-0.1968254536698277,1.926563182001908,-0.9920435661805111,0.15765828986061495,-0.012677411208627073,2.7935772958831472e-05,-0.01815384848501538,-0.6407087119306558,-0.05879319807317511,0.003507758283623094,-0.00041253105381566823,1.7981030049740402e-05,0.7442673994981878,-1.3185875002069103,-1.487995874314616,-0.36640101181475604,0.043378892339658304,-0.00020704293402359908,0.14453821596816857,-6.921775970648624,-3.6357206714351116,-0.5392879706724718,0.004734502157003683,-0.00030752940522574637
0.93,-0.19693295428809635,1.9200244432949258,-0.9927794361552237,0.15765707946245883,-0.01267710776787471,2.809078873493661e-05,-0.01075006182686401,-0.6538738706982268,-0.07358699747125717,-0.000121039815612148,3.034407523643223e-05,1.550157761051374e-05,0.7327324132969644,-1.2089294435785503,-1.4223852693048904,-0.3515008234313042,0.04316341647915012,-0.00021616127209797553,0.14132328745984016,-6.85988824413468,-3.639831686522069,-0.5419095434875366,0.004652712227490041,-0.0003078073969873984
0.9400000000000001,-0.19696756650338657,1.913364989513088,-0.9936567082467416,0.157621046885287,-0.012672403724661102,2.822190044900442e-05,-0.00346122152902259,-0.6659453781837961,-0.08772720915178611,-0.003603257717183933,0.0004704043213608374,1.3111171406780768e-05,0.7205190334768768,-1.0986282786479475,-1.3553090067982114,-0.3362396215820853,0.0429283217071843,-0.0002235857372788752,0.13800409411521575,-6.7972141094696,-3.644436099418848,-0.5447342670694418,0.004567350908317129,-0.0003080633631769148
0.9500000000000001,-0.19693050716324328,1.9065958215000827,-0.9946687010309582,0.1575516939627235,-0.012663330087830679,2.8330076433853487e-05,0.0037059340143279374,-0.6769168013005337,-0.10119927842165768,-0.006935292256350559,0.0009073636830424277,1.0817598484906919e-05,0.7076521604854417,-0.987852391520099,-1.286893393872686,-0.3206461617116485,0.04267228882965046,-0.00022936248295751804,0.13458680385942387,-6.733758926968175,-3.6494902532830857,-0.547750630040687,0.004478092607331824,-0.00030830392702180286
0.96,-0.19682305801743943,1.8997279876558892,-0.9958086001096069,0.1574505557393468,-0.01264992080966063,2.8416357957026298e-05,0.010744914580384585,-0.6867833844193344,-0.1139899078648807,-0.010113822337669661,0.0013409278170048952,8.628152317281285e-06,0.694157600352157,-0.8767726144153122,-1.2172712349593697,-0.30475107124741374,0.042393964052120925,-0.0002335437855415512,0.13107792349824005,-6.669533855195471,-3.654951461549701,-0.5509470492859155,0.004384642435025262,-0.00030853581295673733
0.97,-0.19664656314642873,1.8927725669162876,-0.9970694713297473,0.15731919746722278,-0.012632212868977824,2.848185395325961e-05,0.01764948710107068,-0.6955420739601608,-0.12608712201404193,-0.013135827212402293,0.0017707940682807075,6.549599623331224e-06,0.6800620233590444,-0.7655618906507129,-1.1465814402793857,-0.2885867353582232,0.042091968256927625,-0.00023618780028744624,0.12748431032519897,-6.60455621917329,-3.66077821634617,-0.5543119030138377,0.004286741273242894,-0.0003087657865508682
0.98,-0.19640242630408353,1.8857406515196866,-0.9984442746108653,0.15715921143033507,-0.012610246353155831,2.8527735449055256e-05,0.024413684234520075,-0.7031915396600958,-0.13748032811179142,-0.015998603688771842,0.0021966515821993356,4.588149579564618e-06,0.6653929135697312,-0.6543948973000073,-1.074968573301128,-0.2721871672640286,0.0417649060726788,-0.0002373582580479927,0.12381317458635413,-6.538849825830951,-3.6669303802369537,-0.5578335630492545,0.004184170134762896,-0.00030900059292207274
0.99,-0.19609210817974929,1.8786433295987488,-0.9999258783344204,0.15697221360911834,-0.012584064538208881,2.8555229705669955e-05,0.031031812433423803,-0.7097321920937754,-0.14816037235550578,-0.01869978212167365,0.0026181814946950152,2.749425661470038e-06,0.6501785098290238,-0.5434476292080291,-1.002582341619362,-0.25558786446646176,0.04141137471253353,-0.00023712409794598988,0.1200720728488493,-6.472445223497754,-3.673369360540783,-0.5615004263221058,0.004076753773973377,-0.00030924689440394056
