tonegas/nnodely-applications/joint_friction_estimation/dataset/train/mpc_mujoco_episode_43.csv
time,q1,q2,q3,q4,q5,q6,dq1,dq2,dq3,dq4,dq5,dq6,ddq1,ddq2,ddq3,ddq4,ddq5,ddq6,tau1,tau2,tau3,tau4,tau5,tau6
0.0,0.0,1.57,-1.57,0.0,0.0,0.0,0.0,0.0,0.0,0.0,0.0,0.0,8.630420831884427,0.6436779377249809,4.008387222786626,1.588704224469918,1.2563374034267625,-4.964790261574592e-06,1.203198415940435,-3.4834873151745094,-3.825021672637923,-0.84792225701224,0.1086956148209393,0.0009499311324263457
0.01,0.0008585354392005335,1.5700655785573348,-1.5696008874789267,0.00014854811545113195,0.0001061066611186277,1.1663101910521113e-06,0.08585354392005334,0.0065578557334604725,0.03991125210734852,0.014854811545113193,0.01061066611186277,0.00011663101910521112,8.529617144605625,0.6954140072056199,3.9618811912365084,1.471071397353649,1.0512629272841991,0.011644748923136383,1.196200523277243,-3.472411761805486,-3.8233932004747566,-0.84773176234807,0.10803001752566306,0.0009401204240838497
0.02,0.0025649221602399813,1.5702019349073482,-1.5688078836456343,0.0004361694083659033,0.0003055295929996067,3.5469120092891827e-06,0.1706386721039448,0.013635635001339684,0.07930038332923608,0.02876212929147714,0.019942293188097898,0.00023806018182370714,8.41784656884267,0.7481563282681186,3.9060861285855113,1.374661144396054,0.92218437134742,0.012061674867331895,1.1897164543874312,-3.466717117793524,-3.8231155495329303,-0.8476629804390167,0.10737020689734147,0.0009278279917993658
0.03,0.005107655830802322,1.5704143488041071,-1.5676269735219241,0.0008549782677051356,0.0005900394219674897,7.060795700396772e-06,0.2542733670562341,0.021241389675901945,0.11809101237100825,0.04188088593392322,0.028450982896788303,0.0003513883691107589,8.297757854336812,0.8011637753320736,3.842478775233131,1.2940697073381635,0.8385216024521185,0.011132603117831152,1.1837389864280585,-3.466601540671112,-3.824281041820492,-0.8477382155823727,0.10671517258508757,0.0009131030798784432
0.04,0.008474568617470285,1.5707081110103225,-1.5660647975265019,0.0013982684412421954,0.0009541272424834844,1.1632999100454434e-05,0.33669127866679627,0.02937622062152486,0.15621759954223483,0.054329017353705975,0.03640878205159946,0.0004572203400057662,8.170913117439603,0.8537559978473692,3.7721511288330696,1.2251971533534558,0.7818591641592221,0.010204702581845915,1.1782477422524165,-3.472241043556555,-3.8269685262957687,-0.8479761357180182,0.10606295300124295,0.0008960015593356903
0.05,0.01265291999266576,1.5710884588030567,-1.5641285721155582,0.002060201582864013,0.0013938935496843545,1.7204458186230578e-05,0.41783513751954743,0.038034779273431456,0.19362254109435217,0.06619331416218176,0.04397663072008701,0.0005571459085776143,8.03821465950941,0.9053000139117314,3.695906047941895,1.1649318902008705,0.7410830603624348,0.009377230512944479,1.1732089306752351,-3.483788907643726,-3.8312436425562137,-0.8483919033708948,0.10541064218737527,0.0008765804070413926
0.06,0.01762944742789358,1.5715605154189083,-1.5618260322203512,0.0028355707981487614,0.0019063772623919746,2.372686543141427e-05,0.4976527435227819,0.04720566158516203,0.2302539895206953,0.07753692152847487,0.05124837127076201,0.0006522407245183692,7.900164019034182,0.9552020971129628,3.6143304440258985,1.1109148653959728,0.7094851882681681,0.008601645265216007,1.1685752187495777,-3.5013738667097556,-3.8371586448152457,-0.8489972157046783,0.10475440985850439,0.0008548956437307231
0.07,0.023390392651238844,1.5721292328195582,-1.5591653898653735,0.00371962135358423,0.002489150658675812,3.115787246838553e-05,0.5760945223345261,0.05687174006497961,0.2660642354977826,0.08840505554354683,0.05827733962838376,0.000743100703697126,7.757019711252528,1.0029031593041384,3.5278518236382643,1.0613607861367953,0.6830206580815457,0.00783408279345199,1.1642857462655585,-3.525097617764292,-3.8447519987579404,-0.8498003018346934,0.10408953423033347,0.000831002096958871
0.08,0.029921513058368446,1.5727993374603115,-1.5561553046049077,0.0047079149971519275,0.0031400751125283226,3.9457963861856274e-05,0.6531120407129601,0.06701046407532894,0.30100852604657513,0.09882936435676973,0.06509244538525105,0.0008300091393470743,7.608893748122892,1.0478764979232584,3.436782122112978,1.014922275478252,0.6592561694913641,0.007048169369402224,1.1602662952407823,-3.5550320260819674,-3.854047890720214,-0.8508059085502373,0.10341044819396662,0.0008049540955978147
0.09,0.037208084188824396,1.5735752789458615,-1.552804862379477,0.005796227595381776,0.0038571541650366664,4.8588574396985945e-05,0.7286571130455949,0.0775941485549966,0.33504422254307875,0.10883125982298485,0.0717079052508344,0.0009130610535129668,7.455811179100427,1.089627153504763,3.3413517703454514,0.9705866672235892,0.6367350219956833,0.006230495568052774,1.156429627596897,-3.5912162775019905,-3.8650557435627313,-0.8520152950810098,0.10271079952852805,0.0007768066221766285
0.1,0.045234896960096936,1.5744611815923237,-1.5491235601365683,0.006980472271427434,0.004638445606934232,5.851100115251518e-05,0.802681277127254,0.08859026464623504,0.368130224290884,0.11842446760456579,0.07812914418975651,0.0009922426755529234,7.297747306547425,1.1276923552680778,3.2417362281130266,0.9275976314887355,0.6145936316453273,0.005375974893427227,1.152676003511579,-3.6336541595147036,-3.877769805532499,-0.8534262509380122,0.10198352564226404,0.000746616673436415
0.11,0.05398625201360342,1.5754607990034795,-1.5451212941348134,0.008256642114183435,0.005482009431942164,6.918580925331877e-05,0.8751355053506489,0.09996174111558205,0.4002266001754948,0.1276169842756,0.08435638250079325,0.001067480810080359,7.134651424775393,1.161642681671619,3.1380766820202837,0.8853956731983761,0.5923298827146013,0.004484720847615087,1.148893891288553,-3.6823116078616867,-3.8921688604127014,-0.8550331465466299,0.1012209429822408,0.0007144446950072892
0.12,0.06344595271959982,1.5765774718254382,-1.5408083502980092,0.009620767960351492,0.006385877685910221,8.057254393748013e-05,0.9459700705996398,0.11166728219587731,0.4312943836804046,0.13641258461680558,0.09038682539680572,0.001138673468416136,6.966462416038322,1.191083661171212,3.0304961965066433,0.8435729563003918,0.5696631133757322,0.0035600778895732432,1.1449608770726554,-3.7371146260516133,-3.9082160950894282,-0.8568270233894492,0.10041485083043586,0.0006803560134827181
0.13,0.07359729790037514,1.5778140888763004,-1.5361953953360068,0.01106888783714001,0.007348037767716132,9.262963395164588e-05,1.015134518077531,0.12366170508623003,0.46129549620023147,0.14481198767885184,0.09621600818059114,0.001205709001416575,6.793119407607254,1.2156576050878607,2.919112293013593,0.8018389856333155,0.5464493747992805,0.0026073811775892963,1.1407447794060506,-3.797947664422776,-3.9258591517091515,-0.8587957281035645,0.09955664874967307,0.0006444222161681341
0.14,0.0844230750344826,1.5791730518616862,-1.5312934676273269,0.012597025475173398,0.008366424073566522,0.00010531441552074492,1.0825777134107462,0.13589629853858456,0.4901927708679995,0.15281376380333897,0.10183863058503892,0.0012684781569099037,6.614569404776764,1.2350455110289587,2.804046693606795,0.759994503739307,0.522630007373877,0.0016331595521634767,1.13610496953365,-3.864652528942798,-3.9450303843001038,-0.8609240930883648,0.09863746647968223,0.0006067224405194913
0.15,0.09590555452149574,1.5806562438872185,-1.5261139670814257,0.014201175922048098,0.009438914886435033,0.00011858323291970445,1.1482479487013137,0.14831920255323033,0.5179500545901237,0.16041504468746995,0.10724908128685101,0.0013268817398959533,6.430773034316774,1.2489689089515106,2.6854327843128547,0.7179115907196412,0.4982002808131547,0.0006446068503001001,1.13089389359654,-3.9370278753158248,-3.9656473331740445,-0.8631941644812743,0.09764830462836505,0.0005673445398876275
0.16,0.10802648546976697,1.5822650019680906,-1.5206686433804726,0.015877296754815452,0.010563332622301337,0.00013239158786844865,1.212093094827123,0.16087580808721366,0.5445323700953089,0.1676120832767355,0.11244177358663049,0.0013808354948744196,6.241709061134509,1.2571915473155124,2.563421217142808,0.6755184370544693,0.47319010308185483,-0.00035078291982237886,1.1249587875055773,-4.0148293297457425,-3.9876134241157253,-0.8655854767513846,0.09658018407105479,0.0005263860939662303
0.17,0.12076709339045588,1.584000093715867,-1.5149695821515214,0.017621303741166102,0.011737446272050641,0.000146694319778555,1.2740607920688911,0.17350917477763228,0.56990612289512,0.17440069863506483,0.11741136497493032,0.001430273191010636,6.047378056529658,1.259520836830076,2.4381839680745148,0.6327876273228128,0.44765197976777316,-0.0013454782222801498,1.118143569505721,-4.0977702631580675,-4.010818893073999,-0.8680753716046685,0.09542430157628878,0.0004839552335643389
0.18,0.1341080801225588,1.5858616983553853,-1.509029188747623,0.019429070062246707,0.01295897531413174,0.0001614458048444649,1.334098673210291,0.1861604639518362,0.5940393403898341,0.18077663210806055,0.12215290420810995,0.0014751485065909887,5.847805425984093,1.2558089859611457,2.3099170932661535,0.58972705378938,0.4216533246277052,-0.0023321065351238346,1.1102908893930752,-4.185523230555079,-4.035141930735008,-0.8706393573890652,0.09417218883451257,0.00044017125111044943
0.19,0.14802962626559946,1.5878493921914991,-1.5028601694262376,0.021296428406256805,0.014225594634215065,0.00017660016563016828,1.3921546143040673,0.19876938361138413,0.6169019321385552,0.18673583440100966,0.12666193200833245,0.0015154360785703382,5.64304390364197,1.2459537769018572,2.1788423712881797,0.5463727935326759,0.39527138125406935,-0.0033036056258604063,1.101244307262015,-4.277722071503535,-4.060450035037139,-0.873251503756038,0.09281587179229331,0.0003951649711794715
0.2,0.1625113963530774,1.5899621386076987,-1.4964755098091844,0.023219175387612707,0.015534940144139767,0.00019211148508156985,1.448177008747795,0.21127464161997003,0.6384659617053124,0.1922746981355901,0.13093455099247017,0.0015511319451401574,5.433175562481017,1.2298989438628478,2.0452079803595926,0.5027834468515486,0.36858971582084976,-0.0042533414711725115,1.0908505687688932,-4.373964651790138,-4.086601553514199,-0.8758848650163065,0.09134802700114869,0.0003490788594700231
0.21,0.1775325469573834,1.5921982826375747,-1.4898884505930488,0.025193077854043636,0.016884614885677093,0.00020793402035422956,1.5021150604306004,0.22361440298759624,0.658705921613556,0.19739024664309276,0.13496747415373275,0.0015822535272659712,5.218313357371366,1.2076341277903337,1.9092883326497296,0.4590355601083633,0.3416956632381485,-0.00517519959569146,1.078961938480074,-4.473816210403081,-4.113447391501059,-0.8785119244667233,0.08976213158942012,0.0003020668540305551
0.22,0.19307173787399423,1.5945555501067543,-1.4831124605542365,0.027213880723085514,0.018272195460597482,0.00022402241282188919,1.5539190916610817,0.23572674691796422,0.6775990038812137,0.20208028690418783,0.13875805749203898,0.001608839246765961,4.99860220275513,1.1791943931915503,1.7713831696598916,0.4152198520571888,0.3146783634805672,-0.0060636537574785265,1.0654385482023843,-4.576813260677181,-4.14083285690612,-0.8811050510104907,0.08805260346634985,0.00025429390898308005
0.23,0.20910714648869788,1.5970310512984431,-1.4761612069598875,0.02927731604740083,0.019695238662608253,0.00024033189132395736,1.6035408614703663,0.2475501191688831,0.6951253594349049,0.20634353243153153,0.1423043202010773,0.0016309478502068188,4.774219581384342,1.1446593037273223,1.6318160111420896,0.37143803600250713,0.28762717759377665,-0.006913814433146204,1.050150713545726,-4.682467980176342,-4.168599607651114,-0.8836369586888213,0.0862149284747809,0.00020593524828892574
0.24,0.22561648538638,1.599621289051066,-1.4690485235552495,0.03137911305080166,0.021151288208186382,0.00025681846623860265,1.6509338897682104,0.25902377526228265,0.7112683404638046,0.2101797003400828,0.14560495455781283,0.0016486574914645314,4.545375681575119,1.1041515635939478,1.4909320430608748,0.32780008609404554,0.26063036399274964,-0.00772145888597997,1.0329811695937203,-4.790273011181942,-4.196587664193203,-0.8860811593262816,0.0842457714239986,0.0001571753349584148
0.25,0.24257702321393645,1.6023221711527291,-1.4617883763502015,0.033515008908090185,0.022637881477703667,0.00027343911240115956,1.6960537827556472,0.27008821016630963,0.7260147205047881,0.21358958572885264,0.14865932695172832,0.0016620646162556897,4.3123130652242,1.0578352413715062,1.3490955262481605,0.2844218386964954,0.23377394936778018,-0.00848304440983716,1.0138271756599675,-4.8997065829784034,-4.224637446943863,-0.8884123983919932,0.08214306825299794,0.0001082065691960035
0.26,0.2599656087638316,1.6051290268552383,-1.454394827472477,0.03568076006514203,0.02415255618880538,0.00029015193926355267,1.738858554989517,0.28068557025091023,0.7393548877724693,0.21657511570518437,0.15146747111017123,0.001671282686239314,4.075305875859734,1.005913601839663,1.2066868054589939,0.24142285210014158,0.20714075951558186,-0.00919570633521305,0.9926024398555573,-5.010237858878144,-4.252591797010569,-0.8906070644089839,0.07990609699036963,5.922773697209763e-05
0.27,0.27775869819949967,1.6080366272910653,-1.446881997392751,0.037872153913537425,0.025692856932658617,0.0003069163470305031,1.7793089435668032,0.2907600435827103,0.7512830079726048,0.2191393848395398,0.1540300743853238,0.0016764407766950424,3.8346586039775907,0.9486265791097519,1.0640989975607573,0.198924472225392,0.1808095926287301,-0.009857242549118794,0.96923881664758,-5.121332405426729,-4.280297938592227,-0.8926435628046285,0.0775355256757438,1.0442238067190899e-05
0.28,0.2959323853000498,1.6110392095407224,-1.4392640258570573,0.040085020648377115,0.027256341511495186,0.0003236931678217638,1.8173687100550107,0.30025822496571003,0.7617971535693706,0.2212866734839691,0.15634845788365692,0.0016776820791260744,3.5907044351495583,0.8862479311593026,0.9217344368935978,0.15704807009991217,0.15485452648336562,-0.01046608641564184,0.9436877347657239,-5.232457678680762,-4.307609342582855,-0.8945026459711483,0.0750334359742957,-3.79438705652138e-05
0.29,0.31446243456043715,1.614130504066129,-1.4315550318849082,0.042315245150101044,0.0288405870233896,0.0003404447912005771,1.8530049260387371,0.30912945254065366,0.7708993972149061,0.22302245017239267,0.15842455118944143,0.001675162337881328,3.3438032142511562,0.8190821213675983,0.7800009548592433,0.11591343021534595,0.12934435489073692,-0.011021270089276669,0.9159213186227797,-5.343088422946728,-4.334387453449542,-0.8961676924667086,0.07240332183000507,-8.572397451500418e-05
0.3,0.33332431694520614,1.617303765198289,-1.4237690732070347,0.044558778742181254,0.030443195647681182,0.00035713527367771576,1.8861882384768993,0.31732611321599924,0.778595867787347,0.2243533592080211,0.16026086242915827,0.0016690482477138664,3.0943390662430867,0.747460976848884,0.6393080691860049,0.07563727836352774,0.10434214982258716,-0.011522380294267887,0.8859331736885038,-5.4527118808724815,-4.360503245161662,-0.8976249296912248,0.06965006314357193,-0.00013269309863750574
0.31,0.35249324805981863,1.6205518043453322,-1.415920105524908,0.046811650687205594,0.03206180009193471,0.0003737304320466122,1.9168931114612484,0.3248039147043241,0.7848967682126777,0.22528719450243392,0.16186044442535302,0.0016595158368896469,2.8427177198507687,0.6717401762155795,0.5000631558130113,0.036331944098213054,0.07990494505129853,-0.01196950861081314,0.853738814729009,-5.560832720137811,-4.385838576718162,-0.8988635959615555,0.06677987510260842,-0.0001786501517146732
0.32,0.37194422847404607,1.6238670255699956,-1.4080219419753537,0.04906997929459118,0.03369406866879614,0.00039019792062716847,1.945098041422746,0.3315221224663357,0.7898163549554218,0.22583286073855827,0.16322685768614237,0.0016467488580556278,2.589363584948355,0.5922956208674578,0.36266767282884993,-0.001895842831533212,0.05608353580299763,-0.012363198246316376,0.8193757251661118,-5.666977590923647,-4.4102873234608735,-0.8998760396246476,0.06380023441070046,-0.00022340016859330897
0.33,0.39165208590738076,1.6272414631740644,-1.4000882131779329,0.05132998252426293,0.035337709978444654,0.0004065072926924304,1.9707857433334708,0.3374437604068651,0.79337287974209,0.2260003229671753,0.16436413096485192,0.001630937206526195,2.334716638017254,0.5095197440357351,0.22751350135204762,-0.0389460203386065,0.03292238727767405,-0.012704389100580249,0.782903045759828,-5.770699239476269,-4.433756266649799,-0.9006577546153353,0.06071978424428732,-0.0002667564995102901
0.34,0.4115915189672705,1.6306668209211657,-1.3921323282307527,0.05358798798225248,0.036990477179453876,0.00042263004652310645,1.9939433059889713,0.3425357747101298,0.7955884947180043,0.22580054579895523,0.1652767201009226,0.0016122753830676052,2.079229171358848,0.4238178106671001,0.09497946269426483,-0.07472612338836204,0.010459643316579559,-0.012994362767368761,0.7444009007665147,-5.871580115986627,-4.456165730466501,-0.9012073536178398,0.05754822027505822,-0.00030854289817477894
0.35000000000000003,0.43173714211734004,1.6341345125284907,-1.3841674370025339,0.0558404422163539,0.03865017183763389,0.0004385396566794364,2.0145623150069554,0.3467691607325088,0.796489122821895,0.22524542341014195,0.16596946581800126,0.001590961015632995,1.823362462130514,0.3356042589389693,-0.03457193527422053,-0.10915207221116774,-0.01127277487612055,-0.01323468887748569,0.7039693794720181,-5.96923542915709,-4.477449962441582,-0.9015264816579894,0.054296160530062594,-0.00034859546347344955
0.36,0.45206353154467754,1.6376357030622775,-1.376206394045692,0.058083919232664954,0.040314647348724544,0.000454211591198836,2.032638942733749,0.35011905337867477,0.7961042956841933,0.2243477016311057,0.16644755110906545,0.00156719345193996,1.5675834160742914,0.24529913087670335,-0.16079747678758935,-0.14214881741715252,-0.03224899107161949,-0.013427173917021196,0.6617272000355482,-6.063315614705278,-4.497557260016974,-0.9016196744745912,0.05097500219911895,-0.0003867643943226573
0.37,0.47254527159262005,1.6411613508808873,-1.3682617244276267,0.060315128166933935,0.04198181193655819,0.0004696233155225013,2.0481740047942503,0.3525647818609976,0.7944669618065078,0.223120893426898,0.16671645878336486,0.0015411724323665314,1.3123612383787782,0.15332463536203642,-0.2833759037926726,-0.17365084142698461,-0.05244892917925004,-0.013573813421904446,0.6178100905872076,-6.153508200117913,-4.516449852310249,-0.9014941673395213,0.047596768733243755,-0.0004229155229704145
0.38,0.49315700142803903,1.6447022497826287,-1.3603455917460698,0.06253092005796611,0.04364963123343853,0.00048475428402593596,2.061172983541899,0.35408989017412923,0.7916132681556979,0.22157918910321725,0.16678192968803315,0.001513096850343464,1.0581641805876252,0.06010188194911998,-0.40201023844413974,-0.203602517269883,-0.07185801325105956,-0.013676748174435926,0.5723689291971773,-6.239539062704061,-4.534103551930949,-0.9011596610747352,0.04417395070389541,-0.0004569315987015093
0.39,0.5138734616195542,1.6482490710326263,-1.3524697685600435,0.06472829368373978,0.04531613045394696,0.0004995859200794515,2.0716460191515123,0.35468212499976015,0.7875823186026225,0.21973736257736687,0.16664992205084317,0.0014831636053515595,0.8054564080320706,-0.0339521814770144,-0.5164297405681874,-0.23195832763896185,-0.09046682424532948,-0.013738224809441035,0.5255676894507156,-6.321173091936736,-4.550507196727079,-0.9006280528210119,0.040719343911041664,-0.0004887133011410782
0.4,0.5346695403149602,1.6517924049634831,-1.3446456094315267,0.06690440043414311,0.04697939617716672,0.0005141015855969378,2.0796078695406024,0.3543333930856722,0.7824159128516962,0.21761067504033274,0.16632657232197598,0.0014515665517486232,0.5546950271211446,-0.12842759987408062,-0.6263914862445314,-0.2586829489381528,-0.10827072502452983,-0.01376056100203582,0.47758124177453415,-6.398214279808326,-4.5656619054760075,-0.8999131396322941,0.037245888142989986,-0.0005181799699000436
0.41000000000000003,0.5555203187219289,1.655322801867635,-1.3368840267350923,0.06905654820717459,0.04863757775540773,0.0005282865410472239,2.0850778406968713,0.35303969041517497,0.7761582696434283,0.21521477730314806,0.16581815782410111,0.0014184955450286146,0.30632730618081894,-0.22292398958673387,-0.7316815614469316,-0.2837512068550829,-0.12526946436422293,-0.013746115241721455,0.4285930623062677,-6.47050527412744,-4.579580174686159,-0.8990303031988854,0.0337665098110591,-0.000545270044872855
0.42,0.5764011156151879,1.658830811924598,-1.3291954693543842,0.07118220432786342,0.05028888836994095,0.0005421278969041673,2.088079689325907,0.3508010056963052,0.7688557380708061,0.21256561206888172,0.16513106145332168,0.0013841355856943293,0.060788117593136196,-0.317052848654471,-0.8321158720403823,-0.307147911623022,-0.14146676982143758,-0.013697261037186464,0.3787929010032066,-6.537926439107819,-4.592284845800357,-0.8979961839535104,0.03029397141926339,-0.000569941218820167
0.43,0.5972875306152946,1.6623070239331472,-1.3215899043460244,0.07327899750088941,0.05193160575604403,0.0005556145575015537,2.088641500010666,0.34762120085491877,0.7605565008359685,0.20967931730259912,0.1642717386103083,0.001348666059738637,-0.18150237706027514,-0.41043958897686494,-0.9275405782022298,-0.3288675825713261,-0.15686993823391027,-0.013616365284771725,0.3283744589503138,-6.600394475085708,-4.60380797319033,-0.8968283525084447,0.026840730497452104,-0.0005921703107061836
0.44,0.6181554860082138,1.665742102646283,-1.3140768016141053,0.07534471881876409,0.053564072620868555,0.0005687371582389516,2.0867955392919244,0.3435078713135935,0.7513102731919075,0.2065721317874673,0.1632466864824524,0.0013122600737397981,-0.42014078312750497,-0.5027252858498403,-1.0178321674145692,-0.34891407273176656,-0.17148943144075401,-0.01350577043051504,0.2775331216191115,-6.657860654682152,-4.614189623449312,-0.8955449858413053,0.023418810241670224,-0.0006119528744156188
0.45,0.6389812669005847,1.6691268245351023,-1.3066651216023875,0.07737732185734834,0.05518469677831939,0.0005814879970569952,2.0825780892370864,0.33847218888191205,0.7411680011717887,0.20326030385842594,0.16206241574508398,0.001275083881804368,-0.6547422603325601,-0.5935681454212713,-1.1028971854680578,-0.3673001051799192,-0.18533848358903748,-0.013367780038966215,0.22646379036985514,-6.710308736211637,-4.623476635705648,-0.894164554929989,0.02003968368454944,-0.000629302562788426
0.46,0.659741559532241,1.6724521118358733,-1.2993633059772505,0.07937492189932913,0.05679195102535264,0.00059386096106629,2.0760292631656396,0.3325287300770938,0.7301815625137024,0.19976000419807804,0.16072542470332404,0.0012372964009294799,-0.8849420370102888,-0.6826446951808687,-1.1826716493870548,-0.38404673338951945,-0.19843272516858512,-0.01320464732995974,0.17535884903873328,-6.757752616713724,-4.631721371104738,-0.8927055296767246,0.01671417277795066,-0.0006442502712747028
0.47000000000000003,0.6804134875947047,1.675709064762291,-1.2921792712427558,0.08133579433398608,0.05838437278391548,0.0006058514491750969,2.067192806246369,0.325695292641779,0.7184034734494616,0.1960872434656948,0.15924217585628395,0.001199048810880682,-1.1103966515928891,-0.7696507066411657,-1.2571201697904404,-0.3991827382195101,-0.21078982772381138,-0.013018566212919969,0.12440629629011203,-6.800233786795664,-4.6389804773694605,-0.8911861060019528,0.013452363325772586,-0.0006568430888628457
0.48,0.7009746464314902,1.678888991791624,-1.2851204052002452,0.08325837228810667,0.05996056353223756,0.000617456291518852,2.0561158836785602,0.3179927029333034,0.7058866042510581,0.1922577954120602,0.1576190748322084,0.0011604842343755112,-1.3307849262903675,-0.8543018628424378,-1.3262348129535901,-0.412743974213587,-0.22242917208771118,-0.012811664452895388,0.0737880678267325,-6.837818647714363,-4.6453136915934,-0.8896239589751277,0.010263536271371516,-0.000667143086253155
0.49,0.7214031350227083,1.6819834379589411,-1.2781935661389845,0.08514124354823725,0.06151918804840259,0.0006286736664490843,2.0428488591218046,0.3094446167317031,0.6926839061260668,0.1882871260130576,0.15586245161650286,0.0011217374930232401,-1.545808681829671,-0.9363341862080969,-1.3900337347616218,-0.42477267769498184,-0.23337154195702237,-0.012585998525936004,0.023678565814508112,-6.870595748024036,-4.650782701294486,-0.8880360248233066,0.007156115434125128,-0.0006752259725602482
0.5,0.7416775856822304,1.6849842111175188,-1.2714050846216653,0.08698314683859697,0.06305897348814428,0.0006395030157929309,2.0274450659522185,0.3000773158577782,0.678848151731923,0.1841903290359713,0.15397854397416957,0.0010829349343846576,-1.7551932054530701,-1.0155042445903486,-1.4485596198747008,-0.435316748741406,-0.24363884373325284,-0.012343549852887437,-0.025756593752379597,-6.898672992919129,-4.655450080404027,-0.8864383136570845,0.0041376314138656285,-0.0006811796521881561
0.51,0.7617771914202573,1.6878834061456551,-1.2647607677092008,0.08878296752196177,0.0645787083176781,0.0006499449590465027,2.0099605738026893,0.2899195028136323,0.6644316912464546,0.17998206833648092,0.15197348295338314,0.001044194325357172,-1.9586874871228304,-1.0915891550895187,-1.50187795983822,-0.4444290185089672,-0.2532538527659458,-0.012086222078750097,-0.0743616113234083,-6.92217487436624,-4.659378313424126,-0.8848457538091503,0.0012147010483859137,-0.0006851027130185298
0.52,0.7816817309472277,1.690673427100274,-1.2582659054532455,0.09053973279269599,0.06607724112115108,0.0006600012071174626,1.990453952697041,0.27900209546187943,0.6494862255955354,0.17567652707342174,0.14985328034729856,0.0010056248070959976,-2.156064241043047,-1.1643864064371103,-1.5500752036199492,-0.45216651262869423,-0.26223998549431293,-0.011815839162761632,-0.12199131306861052,-6.941239764495602,-4.662628917577557,-0.8832720678192507,-0.0016069784762517015,-0.0006871028757934038
0.53,0.801371591316413,1.6933470073357892,-1.2519252794721973,0.09225260643193545,0.06755347930101024,0.0006696744761840251,1.9689860369185328,0.26735802355153915,0.6340625981048147,0.17128736392394622,0.14762381798591606,0.0009673269066562524,-2.347119731219362,-1.2337135214369057,-1.5932568132381342,-0.45858972050274005,-0.27062109644881716,-0.011534144079323738,-0.1685117456649061,-6.9560173087509805,-4.66526166950428,-0.8817296793398838,-0.004322621996908388,-0.0006872954326825413
0.54,0.8208277882220872,1.6958972276226247,-1.245743173417029,0.09392088319478804,0.06900638768829413,0.000678968402189771,1.9456196905674208,0.2550220286835397,0.6182106055168355,0.1668276762852601,0.14529083872838852,0.0009293926005745899,-2.5316734208650074,-1.299407581207089,-1.6315452558272685,-0.4637618793657019,-0.278421298682181,-0.011242797947042193,-0.21380056748009307,-6.96666594919316,-4.667333940013624,-0.8802296495921761,-0.006928336541752605,-0.000685801700629365
0.55,0.8400319839877431,1.6983175323135373,-1.2397233851270046,0.09554398289840192,0.07043498707857151,0.0006878874564469403,1.9204195765655956,0.24203046909126283,0.6019788290024427,0.16230997036138822,0.14285993902773847,0.0008919054257169313,-2.709567466074015,-1.361324632808735,-1.6650779617704352,-0.46774828093777465,-0.2856648059067979,-0.010943379507282858,-0.2577472506175019,-6.973350602308489,-4.668900137646744,-0.8787816414774793,-0.009421090741026282,-0.0006827475123028097
0.56,0.8589665032943764,1.7006017436174947,-1.2338692402720026,0.09712144427795445,0.07183835270801132,0.0006964368627745022,1.893451930663326,0.22842113039574985,0.5854144855001983,0.15774613795525314,0.1403365629439804,0.0008549406327561875,-2.88066607436713,-1.4193390013361007,-1.6940052764838995,-0.47061560744055075,-0.2923757944307255,-0.010637384854775167,-0.300253111032398,-6.976240509851248,-4.670011259386058,-0.8773939090480999,-0.0117986750054105,-0.0006782617644691974
0.5700000000000001,0.877614346712358,1.7027440740503403,-1.2281836072775747,0.09865291867513447,0.07321561268288618,0.0007046225165523856,1.864784341798165,0.21423304328455334,0.5685632994427863,0.15314743971800193,0.137725997487485,0.0008185653777883419,-3.044854748525865,-1.473342526733746,-1.7184884311544417,-0.4724313026853224,-0.2985782828924446,-0.010326227373602004,-0.34123118586903967,-6.97550727577649,-4.670714544793401,-0.8760733097561297,-0.014059654031519575,-0.0006724750404584714
0.58,0.8959592021118865,1.704739137138948,-1.2226689133307995,0.10013816362062576,0.07456594637470113,0.0007124509060296545,1.8344855399528452,0.19950630886076134,0.551469394677518,0.14852449454912958,0.13503336918149422,0.0007828389477268893,-3.20203943561904,-1.5232437445482483,-1.7386975552761474,-0.473262982907225,-0.30429602777530995,-0.010011237879197221,-0.3806059783393435,-6.9713230972979305,-4.67105322817638,-0.8748253367247527,-0.01620331318740016,-0.0006655183202377817
0.59,0.9139854540364939,1.7065819564611169,-1.2173271612691925,0.10157703636854948,0.07588858279210652,0.0007199290361819378,1.802625192460738,0.18428193221689437,0.5341752061606956,0.14388727479237173,0.1322636417405393,0.0007478130152283259,-3.3521456003470655,-1.568967028570012,-1.7548097512841112,-0.4731778910081923,-0.3095524327274841,-0.009693664940506608,-0.41831309093689556,-6.963859193602554,-4.671066382067914,-0.8736541682108246,-0.018229600288722794,-0.000657521788515907
0.6,0.9316781911316626,1.7082679731072081,-1.2121599471611553,0.10296948743688325,0.0771827989398036,0.0007270643553729272,1.769273709516867,0.1686016646091206,0.5167214108037186,0.13924510683337765,0.12942161476970934,0.0007135319190989455,-3.495117240831514,-1.6104517119164992,-1.76700724898487,-0.4722423969456031,-0.31437046981367445,-0.009374675420816603,-0.45429876763563526,-6.953284431810409,-4.670788844339295,-0.8725627314381061,-0.020139064204428174,-0.0006486137483587022
0.61,0.9490232117263798,1.7097930516516286,-1.2071684783944265,0.10431555420363464,0.07844791817378231,0.0007338646850355628,1.734502059471723,0.15250785444206066,0.4991468766728671,0.13460667667513923,0.12651192339787054,0.0006800329662635567,-3.6309158638121737,-1.6476512016009384,-1.7754756549090511,-0.47052154611247765,-0.31877261095447906,-0.009055355228851925,-0.4885193650529067,-6.939764146403763,-4.6702512206264934,-0.8715527780634124,-0.021932791634828055,-0.0006389196450615164
0.62,0.9660070276695394,1.7111534847228724,-1.202353592098482,0.10561535460409169,0.07968330856144079,0.00074033815255161,1.698381594315951,0.13604330712437912,0.4814886295944471,0.12998004004570468,0.12353903876584812,0.0006473467516047287,-3.759519434920235,-1.680532100054004,-1.7804023091850025,-0.46807865676551863,-0.3227807679742938,-0.008736710337569953,-0.5209407714575405,-6.9234591455594305,-4.669479953398637,-0.8706249686787555,-0.023612343291312766,-0.0006285612025420924
0.63,0.9826168665256156,1.712345996260083,-1.1977157737375628,0.10686908096988149,0.08088838125442037,0.000746493127472837,1.6609838856076287,0.11925115372106959,0.463781836091934,0.12537263657897954,0.12050726929795719,0.0006154974921226907,-3.880921318317936,-1.709073345458041,-1.7819747601030107,-0.46497496683730954,-0.32641623985054125,-0.008419668054461704,-0.5515377910711294,-6.90452489558266,-4.668497448899693,-0.8697789639373847,-0.025179690580340357,-0.0006176556723182795
0.64,0.9988406722351278,1.7133677435421846,-1.1932551757227536,0.10807699404590909,0.08206258888134084,0.0007523381611941496,1.6223805709512253,0.10217472821014009,0.4460598014809244,0.12079130760276123,0.11742076269204751,0.0005845033721312658,-3.9951292185655323,-1.7332653811410579,-1.7803793642322412,-0.4612693298267727,-0.3296996659473983,-0.00810507860057963,-0.5802935094365798,-6.883110872926655,-4.667322253309504,-0.8690135201072664,-0.026637153760279465,-0.0006063151932345022
0.65,1.014667104345217,1.714216318072678,-1.1889716359040547,0.1092394172165876,0.08320542396703307,0.0007578819301577457,1.5826432110089035,0.08485745304932854,0.42835398186988055,0.11624231706785103,0.11428350856922208,0.0005543768963596106,-4.10216413612502,-1.7531093626884078,-1.7758000177794298,-0.45701795892507313,-0.33265098419478534,-0.007793716986099319,-0.6071986537963162,-6.859360072045223,-4.665969269758671,-0.868326587089993,-0.027987342402332936,-0.0005946462585055825
0.66,1.0300855359143257,1.7148897453994008,-1.1848646958164701,0.11035673096815958,0.08431641738432956,0.0007631331826386467,1.5418431569108768,0.06734273267229143,0.41069400875846757,0.11173137515719837,0.11109934172964886,0.0005251252480900897,-4.202059346464159,-1.7686164098813109,-1.7684170228713136,-0.4522742180494719,-0.33528939335625196,-0.0074862851909800465,-0.6322509605095428,-6.833408656518189,-4.6644500082554075,-0.8677154071858941,-0.02923309885003783,-0.0005827492853491883
0.67,1.0450860501926456,1.7153864839440307,-1.1809336185675792,0.11142936760939982,0.08539513684398285,0.0007681006891354999,1.5000514278319887,0.04967385446299641,0.39310772488908824,0.10726366412402374,0.10787194596532997,0.0004967506496853279,-4.294859411304838,-1.7798069090834951,-1.7584060905929424,-0.4470884580722503,-0.3376333186939142,-0.007183414665413945,-0.6554545596086643,-6.805385740456614,-4.66277286110561,-0.8671766131283251,-0.03037744523886663,-0.0005707182814675713
0.68,1.0596594361768084,1.7157054229110427,-1.1771774062676847,0.11245780626861822,0.08644118542782676,0.0007727931963661199,1.4573385984162883,0.031893896701200755,0.37562122998943454,0.1028438659218394,0.10460485838439076,0.00046925072306199124,-4.380619229183692,-1.7867098702787807,-1.7459374809368278,-0.44150789620486997,-0.3397003804948149,-0.006885669120212823,-0.676819384704087,-6.77541328708289,-4.660943396997757,-0.8667063241444363,-0.03142353451077809,-0.0005586406018946061
0.6900000000000001,1.0737971831334057,1.7158458793403448,-1.173594816917257,0.1134425681806849,0.08745420016987102,0.0007772193848454338,1.413774695659724,0.014045642930211783,0.3582589350427711,0.09847619120666808,0.10130147420442483,0.0004426188479313963,-4.4594031311754225,-1.7893623416286761,-1.7311752783069152,-0.4355765362442101,-0.34150736505826984,-0.006593547592491422,-0.696360614638031,-6.743606111536413,-4.65896466755387,-0.8663002390206186,-0.03237460574011703,-0.0005465967892217772
0.7000000000000001,1.0874914741814314,1.7158075943620423,-1.170184380679891,0.11438421227380348,0.08843385068961875,0.0007813878300039654,1.3694291048025715,-0.0038284978302469824,0.34104362373658265,0.09416440931185743,0.09796505197477297,0.0004168445158531608,-4.531284026379543,-1.7878088831706214,-1.7142767998762056,-0.4293351271889767,-0.3430701978652202,-0.006307487776177956,-0.7140981515952418,-6.710071975326684,-4.656837520792571,-0.8659537253541254,-0.033233943978395616,-0.0005346604899299844
0.71,1.1007351790188034,1.7155907287058507,-1.1669444154822162,0.11528333106198518,0.08937983788151252,0.000785306966787505,1.3243704837371915,-0.021686565619154483,0.3239965197674983,0.08991187881816987,0.09459871918937783,0.00039191367835396,-4.596342600598836,-1.782101100125014,-1.695392132910324,-0.4228211575866645,-0.3444039187525192,-0.006027869562526655,-0.7300561388258722,-6.674911760395089,-4.654560916590713,-0.8656619043554449,-0.0340048447270732,-0.0005228984394534892
0.72,1.1135218458728273,1.7151958575117026,-1.1638730418950214,0.11614054684564311,0.09029189266404399,0.0007889850576637402,1.2786666854023938,-0.039487119414805004,0.3071373587194719,0.08572157836579222,0.09120547825314637,0.0003678090876235173,-4.654666570545959,-1.7722972352214361,-1.6746637961313495,-0.41606888287446253,-0.34552265900794765,-0.005755018766528508,-0.7442625197389526,-6.638219711410208,-4.652132239850547,-0.8654197307273389,-0.03469058305990522,-0.0005113705086598895
0.73,1.1258456927489502,1.7146239644821797,-1.160968197262206,0.11695650821944385,0.09116977479169991,0.0007924301639487083,1.2323846876122921,-0.057189302952294976,0.29048446328155625,0.08159613738007437,0.08778821276559186,0.0003445106284968157,-4.706349994911251,-1.758461818494372,-1.65222651930309,-0.4091093829089507,-0.3464396203559801,-0.005489210990600846,-0.7567486388925964,-6.600083735670601,-4.649547607668473,-0.8652220672856972,-0.03529438733982186,-0.0005001298046161968
0.74,1.1377015980464917,1.713876435411644,-1.1582276490559076,0.1177318868835325,0.09201327173256132,0.0007956501203552391,1.1855905297541536,-0.07475290705356344,0.2740548206298313,0.07753786640886524,0.08434969408614193,0.00032199564065307654,-4.7514926427050845,-1.7406653721365775,-1.6282071344517943,-0.4019706468565145,-0.34716705588205343,-0.005230675588988376,-0.7675488843417211,-6.560585750789534,-4.646802167350801,-0.8650637541049119,-0.035819417409383325,-0.0004892228187997979
0.75,1.1490850906043475,1.7129550511214302,-1.155649007447269,0.11846737475149087,0.09282219761401864,0.0007986525126567195,1.1383492557855661,-0.09213842902137315,0.25786416086386177,0.07354878679583596,0.08089258814573165,0.0003002392301480493,-4.790199418460456,-1.7189841672325723,-1.6027245714967697,-0.3946776826048213,-0.34771625296666997,-0.00497959967292072,-0.7767003699035393,-6.519802071159269,-4.643890382626841,-0.8649396720675409,-0.036268747078178266,-0.00047868961627791403
0.76,1.159992339234001,1.7118619798252632,-1.1532297370926667,0.119163681345901,0.09359639223871326,0.00080144465835278,1.090724862965344,-0.10930712961669989,0.24192703546021213,0.06963065944101275,0.07741946246946257,0.0002792145696060421,-4.822579843139612,-1.693500028524869,-1.5758899505310797,-0.38725264788024205,-0.34809751834364633,-0.004736132114524283,-0.7842426551593875,-6.477803825013777,-4.6408063058673585,-0.8648448007761553,-0.03664535068445976,-0.00046856405979805977
0.77,1.170420141791642,1.7105997689442591,-1.150967168144837,0.11982153147016653,0.09433572017246407,0.0008040335902184316,1.042780255764092,-0.12622108810040544,0.2262568947829748,0.06578501242655298,0.07393279337508099,0.0002588931865651713,-4.848747588934043,-1.6643001827892159,-1.5478067625652883,-0.3797150002833387,-0.34832016541499655,-0.0045003875094211665,-0.7902175004198537,-6.434657394708982,-4.637543834526957,-0.8647742708466134,-0.036952093471104175,-0.0004588740631839655
0.78,1.180365913835826,1.7091713363865018,-1.1488585065071077,0.12044166314329154,0.09504006990558352,0.0008064260426146402,0.9945772044184051,-0.14284325577574156,0.21086616377292178,0.06201316731250059,0.07043497331194422,0.00023924523962085155,-4.868820065578143,-1.6314771459116557,-1.5185711302112463,-0.37208166350992755,-0.3483925039738267,-0.004272450032984487,-0.794668653428313,-6.390424873603228,-4.634096950393601,-0.8647234106486177,-0.03719172548683954,-0.0004496418688990038
0.79,1.1898276769119902,1.7075799613023108,-1.1469008433568892,0.12102482578262762,0.09570935308863353,0.0008086284404365368,0.9461763076164145,-0.1591375084190908,0.19576631502184796,0.05831626393360876,0.06692831830500116,0.00022023978218965918,-4.882918055311089,-1.595128643365892,-1.488272139534196,-0.3643672070766266,-0.34832183249212534,-0.004052377172968358,-0.7976416642542226,-6.345164533636081,-4.630459940550054,-0.8646877875937774,-0.03736687870180472,-0.0004408843451071619
0.8,1.1988040465003,1.705829274322978,-1.1450911639716284,0.12157177861817058,0.09634350384331536,0.000810646890574612,0.8976369588309766,-0.17506869793328914,0.1809679385260846,0.05469528355429556,0.06341507546818247,0.00020184501380753024,-4.891165393215815,-1.5553575584836308,-1.4569922341337151,-0.35658403693913954,-0.34811443314139723,-0.0038402032655320273,-0.7991837246197974,-6.298931298363069,-4.626627599234057,-0.8646632440957016,-0.03748006701106096,-0.00043261329801785333
0.81,1.2072942196587946,1.7039232472879602,-1.1434263558966062,0.12208328932081293,0.0969424781488298,0.0008124871757650399,0.8490173158494476,-0.19060270350177122,0.16648080750220995,0.05115107026423503,0.05989743055144303,0.0001840285190427789,-4.893688689337214,-1.5122719026910583,-1.4248076624174422,-0.3487425944686322,-0.34777556971402745,-0.0036359428280947625,-0.7993435277999726,-6.251777216802049,-4.622595410030802,-0.8646459283432009,-0.03753368878992741,-0.00042483579573563025
0.8200000000000001,1.2152979623896434,1.7018661824633252,-1.1419032164992267,0.1225601328260319,0.09750625330368565,0.0008141547507066153,0.8003742730848799,-0.20570648246349807,0.15231393973796664,0.047684350521896256,0.056377515485585346,0.00016675749415754826,-4.890617088729885,-1.4659848017482058,-1.39178896901088,-0.3408515613256977,-0.3473094886163821,-0.0034395936315301245,-0.7981711452240774,-6.203751933981461,-4.618359708047208,-0.864632320038515,-0.03753003166025153,-0.00041755450024152745
0.8300000000000001,1.2228155967525622,1.6996627012526353,-1.140518459958811,0.12300309033380699,0.09803482746257464,0.0008156547403243538,0.7517634362918904,-0.22034812106899213,0.13847565404156326,0.04429575077750953,0.05285741588889857,0.00014999896177383997,-4.882082065406059,-1.4166144919743762,-1.3580015212883858,-0.33291806785723654,-0.34671942311090476,-0.0032511395012622124,-0.7957179159772213,-6.1549031545515,-4.613917821906882,-0.8646192512594868,-0.03747127912632062,-0.00041076800450460784
0.84,1.2298479877460686,1.697317732400459,-1.1392687237443884,0.1234129484651106,0.09852821924757016,0.0008169919400627538,0.7032390993506413,-0.23449688521764392,0.1249736214422664,0.040985813130360524,0.04933917849955234,0.000133719973840004,-4.868217246044382,-1.3642843204681283,-1.3235060621169676,-0.3249479027382103,-0.34600760097585237,-0.0030705528015222416,-0.7920363455393923,-6.105277096227716,-4.609268195572023,-0.864603922609438,-0.03735951874252309,-0.000404471172056916
0.85,1.2363965299743052,1.6948364996882934,-1.13815057463555,0.1237904985550893,0.09898646743254694,0.0008181708180955585,0.6548542228236595,-0.24812327121655348,0.11181491088383644,0.03775500899787079,0.04582481849767797,0.00011788780328047604,-4.849158259275093,-1.309122743432612,-1.2883592800785566,-0.31694572166538393,-0.34517525576774233,-0.0028977966079870576,-0.787180010301148,-6.05491893018598,-4.604410490147488,-0.8645839148225145,-0.03719675148161626,-0.0003986554766611536
0.86,1.2424631341146246,1.6922245091228705,-1.1371605143431573,0.12413653606304617,0.09940963069935686,0.0008191955193426649,0.6066604140319349,-0.26119905654229364,0.09900602923926309,0.03460375079568598,0.04231632668099268,0.00010247012471063815,-4.825042606375052,-1.2512633168949405,-1.2526143886618475,-0.3089152530278545,-0.34422264186141405,-0.0027328265336159507,-0.7812034646471907,-6.003873205822745,-4.599345665956476,-0.864557195996581,-0.036984901982143326,-0.0003933093399583416
0.87,1.2480502131990072,1.6894875356175716,-1.1362949847875585,0.12445186007953306,0.09979778746393536,0.0008200698711892038,0.5587079084382668,-0.2736973505298862,0.0865529555598913,0.03153240164868883,0.038815676457849335,8.743518465388389e-05,-4.7960095492809325,-1.1908446743550434,-1.2163217062128358,-0.30085949857121275,-0.3431490534589656,-0.00257559220735315,-0.7741621476949455,-5.952184257540111,-4.59407604529959,-0.8645221246312383,-0.03672582936586082,-0.00038841846520399606
0.88,1.2531606687206729,1.686631609168985,-1.1355503730920216,0.12473727291125958,0.1001510357701508,0.0008207973908061268,0.5110455521665767,-0.2855926448586514,0.07446116955369297,0.028541283172652296,0.03532483062154437,7.275196169230463e-05,-4.762200011959069,-1.1280104862164224,-1.1795292287751626,-0.29278092721201254,-0.34195284775103474,-0.0024260383980729827,-0.7661122871065781,-5.899896591417701,-4.588605356421681,-0.8644774486557004,-0.03642133833071745,-0.0003839661653885542
0.89,1.2577978765759263,1.6836630005324538,-1.1349230163483648,0.12499357972510719,0.1004694932488484,0.0008213812939759509,0.4637207855253475,-0.2968608636531227,0.06273567436567346,0.02563068138476057,0.03184574786975947,5.839031698241725e-05,-4.723756491348429,-1.0629093962295393,-1.1422831883651006,-0.28468166026189756,-0.34063147242781966,-0.0022841057931577424,-0.7571107977524233,-5.847055249799514,-4.582938759315713,-0.8644223006404985,-0.03607319024175684,-0.00037993368419454927
0.9,1.2619656728503361,1.6805882064027584,-1.1344092062102895,0.12522158823329432,0.10075329713917831,0.0008218245053313118,0.4167796274409796,-0.30747941296953163,0.05138101380752033,0.022800850818712918,0.02838038903299152,4.4321135536086347e-05,-4.680822974316758,-0.995694930615963,-1.1046285896839447,-0.2765636464730594,-0.3391814977330867,-0.002149731417599776,-0.7472151733847323,-5.7937061519601185,-4.5770828540908965,-0.8643561893983256,-0.035683113961134126,-0.0003763005083735171
0.91,1.2656683394577584,1.6774139341088081,-1.1340051933677582,0.12542210840265614,0.10100260436893707,0.0008221296699179883,0.3702666607422299,-0.3174272293950392,0.04040128425314058,0.020052016936181395,0.02493072297587537,3.051645866764085e-05,-4.633544857331721,-0.9265253760325073,-1.0666097187853538,-0.26842882546099656,-0.33759865325950855,-0.0020228487295861353,-0.7364833698762576,-5.739896409128727,-4.571045672724256,-0.8642789881926639,-0.035252816179077995,-0.00037304467023450337
0.92,1.2689105896404547,1.6741470858343235,-1.133707191952947,0.1255959521720667,0.10121759169029049,0.0008222991659972683,0.32422501826963795,-0.32668482744846744,0.029800141481136327,0.017384376941056004,0.021498732135341394,1.6949607928001427e-05,-4.582068865845257,-0.855563623071291,-1.0282706177860232,-0.26027927819851504,-0.3358778696763487,-0.0019033873867764228,-0.7249736789821565,-5.685674612247936,-4.564836655100664,-0.864190919787849,-0.03478399102996882,-0.0003701430390282225
0.93,1.2716975533385906,1.6707947423799414,-1.133511383924907,0.1257439331632288,0.10139845586688724,0.0008223351190055647,0.27869636981358836,-0.3352343454382159,0.01958080280399166,0.014798099116208366,0.018086417659675988,3.5953008296412087e-06,-4.526542970711863,-0.7829769725694007,-0.9896555203128932,-0.25211736346159075,-0.33401332558072383,-0.0017912727199551615,-0.7127445919896763,-5.63109109093386,-4.5584666103258105,-0.8640925385904477,-0.034278328801590194,-0.00036757160009145604
0.9400000000000001,1.2740347624377022,1.667364146485884,-1.1334139234761427,0.12586686637136912,0.10154541390801425,0.0008222394165913733,0.23372090991115868,-0.34305958940574316,0.009746044876422326,0.012293320814033462,0.014695804112700092,-9.570241419147145e-06,-4.467116299307268,-0.7089369026114984,-0.9508092430399024,-0.24394583926135605,-0.3319984996432197,-0.0016864249244694651,-0.6998546530219097,-5.576198142192144,-4.551947664369234,-0.863984710148685,-0.03373752357089507,-0.0003653057206899969
0.9500000000000001,1.2759281359032515,1.6638626857382661,-1.133410941499928,0.12596556782378945,0.10165870334509008,0.0008220137246514171,0.18933734655491977,-0.3501460747617758,0.0002981976214528146,0.00987014524203314,0.01132894370758367,-2.2569193995613085e-05,-4.403939039373546,-0.6336187947429888,-0.9117775293548231,-0.23576796848327408,-0.32982622820824403,-0.0015887580223765685,-0.6863623021535246,-5.521050227536203,-4.5452931951590845,-0.86386858829344,-0.03316327962613741,-0.0003633204015700309
0.96,1.2773839648121141,1.660297875086191,-1.1334985501524075,0.12604085419571842,0.10173858254544213,0.0008216595042884799,0.14558289088625548,-0.3564810652075176,-0.008760865247955624,0.007528637192897972,0.007987920035204349,-3.5422036293723656e-05,-4.337162333986317,-0.5572016185613006,-0.8726073419163802,-0.2275876081440149,-0.3274887684732448,-0.0014981785978394058,-0.6723257088716752,-5.46570413725555,-4.53851775630632,-0.8637455902203861,-0.03255731656273579,-0.0003615905133015206
0.97,1.2784088972917287,1.6566773390009437,-1.1336728475384257,0.12609354237446746,0.10178533105796807,0.000821178029613806,0.10249324796145334,-0.36205360852473256,-0.017429738601818276,0.005268817874904094,0.0046748512525944235,-4.814746746739025e-05,-4.26693816641132,-0.47986757451093753,-0.833347101606832,-0.21940928185876052,-0.32497786734477074,-0.0014145843828765603,-0.6578025967685974,-5.410219120698159,-4.531636990681804,-0.8636173698273697,-0.03192137296853459,-0.0003600910165765558
0.98,1.2790099233786363,1.6530087933127762,-1.1339299225446857,0.12612444896449743,0.10179924998494633,0.0008205704063159217,0.060102608690765925,-0.3668545688167436,-0.025707500626003917,0.0030906590029970596,0.0013918926978256658,-6.076232978842451e-05,-4.1934192339859715,-0.40180169536136556,-0.79404687114027,-0.21123823531535058,-0.3222848360148447,-0.0013378627007829547,-0.6428500606778745,-5.3546569815654,-4.52466753510498,-0.8634857896334319,-0.03125720864291007,-0.0003587971657138583
0.99,1.2791943598092252,1.6493000267649054,-1.1342658598383193,0.1261343897276327,0.10178066237393475,0.0008198375909164334,0.018443643058894482,-0.3708766547870854,-0.033593729363356646,0.000994076313525604,-0.0018587611011579193,-7.328153994883054e-05,-4.1167588105212305,-0.32319140749282155,-0.7547584823510283,-0.2030804747396684,-0.31940063024979537,-0.0012678888426276291,-0.6275243777589417,-5.299082137375015,-4.517626917425852,-0.8633528916152915,-0.030566605323136434,-0.00035768469471994833
