tonegas/nnodely-applications/joint_friction_estimation/dataset/train/mpc_mujoco_episode_12.csv
time,q1,q2,q3,q4,q5,q6,dq1,dq2,dq3,dq4,dq5,dq6,ddq1,ddq2,ddq3,ddq4,ddq5,ddq6,tau1,tau2,tau3,tau4,tau5,tau6
0.0,0.0,1.57,-1.57,0.0,0.0,0.0,0.0,0.0,0.0,0.0,0.0,0.0,4.104034384112616,5.1977094604111524,11.499134237555085,4.396131240473238,0.5868288082707593,-5.029266267442267e-06,0.5721815358563944,0.2492318646798557,-1.856016174617022,-0.38065140926608687,0.051785361932080054,0.0005040570108120828
0.01,0.00040822530685337205,1.5705221208418514,-1.5688540231514028,0.00041150053214017885,4.9798493445978136e-05,7.351673100820078e-07,0.040822530685337206,0.05221208418512735,0.1145976848597293,0.041150053214017886,0.0049798493445978136,7.351673100820078e-05,4.090332495606923,5.156439586281768,11.389088164181077,4.085670500988044,0.4950370675917739,0.007318857334157158,0.5753810640402717,0.18704490083867142,-1.8810296596344411,-0.38597855603707976,0.051981480015259804,0.0005008766490747138
0.02,0.0012230090656617462,1.5715623727503418,-1.5665747208670144,0.001209683464740357,0.00014376720195622355,2.2440942541177125e-06,0.08147837588083742,0.10402519084903404,0.2279302284388348,0.0798182932600178,0.00939687085102454,0.00015089269440357047,4.072393093319236,5.110364464370615,11.254369359289765,3.8332984218610306,0.43774991160063337,0.007592685711546032,0.5815102691630596,0.09982497700607329,-1.9104936175805212,-0.3916825711826034,0.05233587528962584,0.0004953804638278446
0.03,0.00244239082697343,1.57311622879174,-1.5631767573246331,0.0023740849865709693,0.00027833791061868053,4.47906536072007e-06,0.12193817613116834,0.15538560413982253,0.3397963542381308,0.11644015218306122,0.013457070866245696,0.0002234971106602357,4.0511838576622665,5.058693731313182,11.099281330088775,3.6240888737035277,0.40060532361561485,0.006913187334261828,0.5903925350155734,-0.011793184431060588,-1.944329125596627,-0.397746855048411,0.05283286519925436,0.0004874499083314997
0.04,0.004064162644287808,1.5751785587274696,-1.558676487906746,0.0038874625065140086,0.0004511383787774296,7.391170875311749e-06,0.1621771817314378,0.20623299357295297,0.4500269417887162,0.15133775199430394,0.017280046815874906,0.00029121055145916785,4.027151544031124,5.000797256294468,10.927042373748085,3.4466963010716327,0.3749936643269045,0.006133831744460139,0.6018067369254274,-0.14707897324988917,-1.9824068945678084,-0.4041396755723897,0.05345231295371283,0.0004769491436408007
0.05,0.006085883024138837,1.577743575932153,-1.5530917204786956,0.005734933295868832,0.0006604728773306874,1.0937784305652832e-05,0.20217203798510297,0.2565017204683463,0.5584767428050428,0.18474707893548234,0.020933449855325782,0.0003546613430341083,4.000421119200363,4.936178963060169,10.740043245157093,3.2925082096679077,0.35576985385552007,0.0053388292499949586,0.6154871807014628,-0.30519900890815155,-2.0245468240841795,-0.410814623803784,0.0541700343610201,0.00046372297642754815
0.06,0.008504870866459218,1.580804795466859,-1.5464415397604954,0.007903320633792902,0.0009050116175860142,1.50803479653568e-05,0.24189878423203817,0.3061219534705984,0.6650180718200231,0.21683873379240687,0.024453874025532674,0.0004142563659703968,3.9709197308948894,4.8644582750346235,10.54004667991806,3.154999226892137,0.33989024714394134,0.004519218063391506,0.6311230806766206,-0.48521045059704715,-2.0705178931449595,-0.41771115811619997,0.05495820572235974,0.000447600652352168
0.07,0.011318187035886752,1.5843550019864332,-1.5387461794420108,0.010380658382435362,0.0011836070959969094,1.978209024211931e-05,0.28133161694275344,0.3550206519574253,0.7695360318484656,0.24773377486424608,0.027859547841089523,0.000470174227676251,3.9384550030803425,4.78535700614439,10.328342440218524,3.0292378113020106,0.3255885355296009,0.003667036779988031,0.6483580615918508,-0.6860548914113114,-2.1200384391297726,-0.42475526670030694,0.055785793927571575,0.00042840283777590966
0.08,0.014522608483106077,1.5883862265758084,-1.530026930069592,0.013155816534802548,0.0014951876453038692,2.5006613487452568e-05,0.3204421447219325,0.40312245893751913,0.871924937241881,0.2775158152367186,0.031158054930695976,0.0005224523245333256,3.902765633515172,4.69869011537398,10.105868119635517,2.911509794271538,0.31187511539912194,0.0027833218400648008,0.666790128574372,-0.906553243849765,-2.1727768935383196,-0.43186027219714984,0.05661902439251591,0.00040595030967367643
0.09,0.01811459819572446,1.5928897318996038,-1.5203060733351466,0.016218219181391234,0.0018386979830836662,3.071715807404508e-05,0.35919897126183814,0.4503505323795397,0.9720856734445329,0.3062402646588685,0.03435103377797969,0.0005710544586592514,3.8635552164787414,4.604359150489156,9.873303579172395,2.799031404849636,0.298231973080501,0.001875169676572419,0.6859725158968917,-1.1454020077596194,-2.2283530406948837,-0.4389277951077799,0.05742189755740242,0.0003800735036786851
0.1,0.02209027327224259,1.5978560052446278,-1.509606835403352,0.019557633156643175,0.0022130683505159577,3.687630086914222e-05,0.3975675076518131,0.4966273345023993,1.0699237931794614,0.33394139752519403,0.03743703674322918,0.0006159142795097138,3.820515853972383,4.502347474156546,9.631144884862758,2.68973074180699,0.2844259824663631,0.0009525980628648512,0.7054157848506415,-1.4011713310328728,-2.286339891630286,-0.44584889424693697,0.058156760016749354,0.00035062238430575376
0.11,0.026445372814529352,1.6032747591569967,-1.4979533534758656,0.023164010833266344,0.0026172009801835026,4.344591724201035e-05,0.4355099542286763,0.5418753912368919,1.165348192748655,0.3606377676623169,0.040413262966754473,0.0006569616372868125,3.7733454645235134,4.392716609518164,9.379762452074146,2.582081523190446,0.27039402951878344,2.6330029472276806e-05,0.7245914929607582,-1.6723051809930851,-2.3462662172385045,-0.45250538713848687,0.058784932301424564,0.00031747626312388566
0.12,0.031175226962901925,1.6091349394447552,-1.4853706509970557,0.027027374505587547,0.0030499669635099904,5.038729500316665e-05,0.4729854148372573,0.5860180287758422,1.258270247880998,0.3863363672321203,0.04327659833264877,0.0006941377761156297,3.721761047885548,4.275603171215488,9.119446761260804,2.4749766913859546,0.25617182514352876,-0.0008936455821029199,0.7429376868883739,-1.9571239564203635,-2.4076198127586865,-0.4587713573095422,0.05926739090572169,0.0002805532500287011
0.13,0.036274728152391036,1.61542474034271,-1.4718846178615692,0.031137732827645898,0.003510209220844062,5.766132822055145e-05,0.5099501189489114,0.6289800897954879,1.348603313548645,0.4110358322058349,0.04602422573340715,0.0007274033217384801,3.6655091883415856,4.151215991028858,8.850444312175041,2.367632348243127,0.2418494250322638,-0.0017989551780939195,0.7598663872782827,-2.2538297755308396,-2.4698515245863097,-0.4645148431453775,0.05956549814191749,0.0002398190538859126
0.14,0.041738305490539696,1.6221316266306691,-1.4575219927401941,0.0354850220700497,0.00399674888454157,6.522874448179886e-05,0.5463577338148656,0.6706886287959134,1.4362625121375059,0.4347289242403802,0.048653966369750765,0.0007567416261247417,3.604374490185926,4.019833140031652,8.572985797298292,2.2595147242335756,0.2275432090871483,-0.0026833226242111152,0.7747731298239805,-2.5605146125163505,-2.5323800553368194,-0.46959969747138347,0.05964176933427415,0.00019529485757516522
0.15,0.0475599030109846,1.629242362466834,-1.4423103452500137,0.04005906670170409,0.004508393394539671,7.305033595333984e-05,0.5821597520444904,0.7110735836164874,1.5211647490180464,0.4574044631654387,0.051164450999810096,0.0007821591471540979,3.5381863021522166,3.8817986306148877,8.287307996941461,2.150284600557505,0.2133781281322804,-0.0035427635805542756,0.7870485082974733,-2.8751713681100677,-2.5945975354524813,-0.47388759889046594,0.05946066309616428,0.0001470640010722376
0.16,0.0537329624238143,1.6367430466515047,-1.4262780561937,0.044849555119317194,0.0050439452218312125,8.108717579352065e-05,0.6173059412829693,0.7500684184670671,1.6032289056313567,0.47904884176131085,0.053555182729154154,0.000803683984018081,3.4668239031566657,3.7375186488715304,7.99367053519273,2.039754920867015,0.19947646068315095,-0.0043755723961003135,0.796091536414224,-3.1957078645832535,-2.655875820163878,-0.4772401877792307,0.05898937708595635,9.527722062234716e-05
0.17,0.06025041085354974,1.6446191539781705,-1.409454294508088,0.04984602733966209,0.005602210525041665,8.930080909764324e-05,0.6517448429735445,0.7876107326665867,1.6823761685612102,0.4996472220344895,0.0558265303210453,0.0008213633304122593,3.390220230544346,3.5874572247641034,7.692368366758229,1.9278583411300652,0.18595078104421603,-0.005182162954085356,0.8013245129098472,-3.519963654198528,-2.7155734396131455,-0.47952129188044995,0.05819862890729079,4.015621670182051e-05
0.18,0.06710465392470169,1.652855582264376,-1.3918689899137378,0.05503787221412424,0.006182007297096613,9.765341279571992e-05,0.6854243071151945,0.823642828620551,1.758530459435006,0.519184487446215,0.0579796772054947,0.0008352603698076678,3.308364196569141,3.4321312963230546,7.383740668189526,1.8146222427118026,0.172899712102204,-0.005964811947766435,0.8022089461899017,-3.845729426301946,-2.7730430989853607,-0.48059919908402116,0.0570633998929022,-1.800463985993431e-05
0.19,0.07428757442288532,1.6614367045877336,-1.3735528005592694,0.06041433228138396,0.006782172725421904,0.00010610792253605005,0.718292049818363,0.8581122323357682,1.831618935446841,0.5376460067259717,0.06001654283252912,0.000845450974033013,3.2213016354886705,3.2721051661160523,7.068176665838309,1.7001493296453205,0.16040555789648892,-0.00672734328582969,0.7982619803347694,-4.170768696321023,-2.8276395962805925,-0.4803489287510986,0.055563618547228424,-7.88386054355729e-05
0.2,0.08179053662805823,1.6703464261868384,-1.354537075216749,0.06596451478769895,0.007401569601725699,0.00011462812704677807,0.7502962205172905,0.8909721599104818,1.9015725342520569,0.5550182506314995,0.06193968763037943,0.0008520204510728025,3.129134937525142,3.107984384097526,6.746118833521119,1.5846023881936588,0.14853322466651164,-0.007474784147464053,0.7890726722049084,-4.4928413646349945,-2.8787279996304154,-0.47865444828032233,0.0536847605370035,-0.0001419089469972735
0.21,0.08960439628822421,1.6795682454258445,-1.3348538098140987,0.07167740771013284,0.008039091695054136,0.0001231787320922878,0.7813859660165983,0.9221819239006165,1.9683265402650285,0.5712892922433891,0.06375220933284374,0.0008550605045509719,3.032021447675615,2.940409121056672,6.418063824407851,1.468192137462765,0.1373300299132616,-0.00821301606174174,0.7743174083445954,-4.809728649298376,-2.925691905481174,-0.47541077896244477,0.05141834336923211,-0.00020671342525917995
0.22,0.09771951607989358,1.6890853181678325,-1.3145355982917488,0.0775418998430847,0.008693668055926088,0.00013172539715470196,0.8115119791669367,0.951707274198802,2.0318211522349814,0.5864492132951854,0.06545763608719518,0.0008546665062414156,2.9301707311185905,2.77004712137524,6.084561455420534,1.3511673686500352,0.12682611788256715,-0.0089484379918785,0.7537737272774814,-5.119258828339186,-2.9679415849953807,-0.47052593484961797,0.048762296275254136,-0.00027269081772829493
0.23,0.10612578628862912,1.698880524858056,-1.293615577946315,0.08354680417324126,0.009364266257003035,0.00014023474853748526,0.8406270208735542,0.9795206690223498,2.0920020345433734,0.6004904330156561,0.06705982010769465,0.0008509351382783299,2.823840829190308,2.5975863427297714,5.74621203294884,1.2338067764210052,0.11703527674406722,-0.009687652836004368,0.7273318323094247,-5.419333178454771,-3.004921819612311,-0.4639226405324291,0.04572118925187689,-0.00033922934627769535
0.24,0.11481265034173611,1.7089365395854414,-1.2721273695754722,0.08968088388843087,0.010049894601453035,0.00014867437283330902,0.8686864053106996,1.0056014727385376,2.1488208370842674,0.6134079715189616,0.06856283444500008,0.0008439624295823763,2.7133336485553965,2.4237274038753416,5.403662285567623,1.1164120434574443,0.10795600503234759,-0.010437184057954685,0.6950031439086091,-5.707951470957404,-3.036119229265812,-0.45553977859228645,0.0423063095536106,-0.0004056768006002843
0.25,0.12376913473770933,1.719235900370538,-1.250105012866599,0.0959328804539154,0.010749603346951502,0.00015701279471905412,0.8956484395973217,1.029936078509651,2.2022356708873314,0.6251996565484524,0.06997087454984675,0.0008338421885745096,2.5989896401165926,2.2491759697302625,5.057600156680205,0.999301859111366,0.09957271265440326,-0.01120322531490614,0.6569253476389819,-5.983236383494398,-3.0610689073825865,-0.44533352468160337,0.038535578981365864,-0.0004713520818072148
0.26,0.132983882845018,1.7297610799211884,-1.227582897577615,0.10229154325465392,0.011462485003281756,0.00016521944291361456,0.9214748107308663,1.0525179550650443,2.2522115288983793,0.6358662800738516,0.07128816563302551,0.000820664819456043,2.481181932937324,2.0746352059010613,4.708748702456519,0.8828066440892215,0.09185697058927644,-0.011991422983135713,0.6133635386351314,-6.24345620834155,-3.079360195425896,-0.4332781374573553,0.03443331082343716,-0.0005355578333099032
0.27,0.14244519198720615,1.7404945561037246,-1.2045956911418476,0.10874566035103021,0.01218767376638602,0.00017326460791850936,0.9461309142188143,1.0733476182536237,2.2987206435767416,0.645411709637629,0.07251887631042636,0.0008045165004894788,2.360310092106834,1.9007984331285983,4.35785932265895,0.7672638219946961,0.08476874643877252,-0.012806689375312041,0.5647072387602295,-6.487045285651641,-3.0906414573626626,-0.4193663819625187,0.03002981099602854,-0.000597593782459589
0.28,0.15214105319257748,1.7514188813972538,-1.1811782633909664,0.11528408993369352,0.012924344152772712,0.00018111939490235538,0.9695861205371318,1.0924325293529262,2.341742775088123,0.6538429582663312,0.07366703863866923,0.0007854786983846006,2.236793668218528,1.7283421060610298,4.005704539550485,0.6530135293883585,0.07825758199301092,-0.01365304303959114,0.5114632572916791,-6.712621658590828,-3.0946237473498814,-0.40360957736708347,0.025360833509519072,-0.0006567703883328471
0.29,0.1620591929648649,1.7625167506309327,-1.1573656091319047,0.12189579209438169,0.013671708896486974,0.00018875567482187593,0.9918139772287419,1.1097869233678996,2.381265425906184,0.6611702160688174,0.07473647437142632,0.0007636279919520549,2.1110657005297213,1.5579192310068652,3.6530705209666627,0.5403946933135746,0.07226368491913959,-0.014533471780791007,0.45424456788195405,-6.919001534913865,-3.091083301949744,-0.3860372729674483,0.020466905569081338,-0.0007124223802893032
0.3,0.1721871164257407,1.7737710663480089,-1.1331927693367938,0.12856986055664427,0.014429016167314429,0.0001961460366182153,1.0127923460875787,1.1254315717076058,2.4172839795110828,0.6674068462262577,0.07573072708274538,0.0007390361796339397,1.9835663263236,1.3901533241963975,3.3007495399856186,0.42974143131015197,0.06671892017398484,-0.015449813829416792,0.39375557047215043,-7.1052102396357695,-3.0798628261906087,-0.3666965685354696,0.015392542141753979,-0.0007639217785160887
0.31,0.18251215118987538,1.7851650011945024,-1.108694751709477,0.13529555403523977,0.015195546164303294,0.00020326374310326614,1.0325034764134684,1.1393934846493468,2.4498017627316746,0.6725693478595509,0.07665299969888657,0.0007117706485050835,1.8547366366282523,1.2256329970480468,2.949532527223856,0.3213797480832312,0.061547698193301414,-0.016402652818949925,0.33077428401512204,-7.270489456347977,-3.060871585269199,-0.3456511074612423,0.010185373474484182,-0.0008106900121400782
0.32,0.19302149135727945,1.7966820567931754,-1.0839064513815235,0.14206232691689583,0.015970607133746238,0.0002100826929652623,1.0509340167404058,1.151705559867289,2.4788300327953454,0.6766772881656067,0.0775060969442943,0.0006818949861996154,1.7250129034448844,1.0649072377272193,2.6002018635720194,0.21562451408750682,0.05666776664762274,-0.01739122274761129,0.2661321627872617,-7.414300668478754,-3.0340843502842563,-0.3229797809867721,0.00489521166101697,-0.0008522087898245211
0.33,0.20370224104436402,1.8083061186331437,-1.0588625724655765,0.14885985897887546,0.016753530856065353,0.0002165773911795769,1.0680749687084574,1.162406183996828,2.5043878915946998,0.6797532061979631,0.07829237223191172,0.0006494698214314613,1.5948212869819178,0.9084814402602385,2.2535245456473243,0.11277671847810566,0.05199092085534396,-0.01841331998940543,0.20069233661000788,-7.536324825565254,-2.9995392800708998,-0.29877518987685814,-0.0004269161670378205,-0.0008880294304222612
0.34,0.21454145692286727,1.8200215065803298,-1.0335975511557847,0.15567808388582066,0.017543667642128172,0.00022272293000679565,1.083921587850325,1.1715387947186087,2.5265021309791824,0.6818224906945183,0.07901367860628199,0.000614553882721875,1.4645731136617175,0.7568142141435694,1.910245844415974,0.013120992615181848,0.04742365505549184,-0.019465220408891315,0.1353271373253365,-7.63645836737599,-2.9573348489731086,-0.2731419154096336,-0.005729740141181664,-0.0009177804239606027
0.35000000000000003,0.22552618929273166,1.831813020692078,-1.0081454810151262,0.1625072162298264,0.018340380876871138,0.0002284949826906133,1.0984732369864398,1.1791514111748123,2.5452070140658476,0.6829132344005721,0.07967132347429648,0.0005772052683817647,1.334660797510583,0.6103149894936197,1.5710835637632004,-0.08307659813457846,0.04286778286205717,-0.020541600875232047,0.07089578767588733,-7.71480583682704,-2.9076259519239898,-0.24619465460527723,-0.010962698391711961,-0.0009411730626348212
0.36,0.23664352127935998,1.8436659820988723,-0.982540041028955,0.16933777690363275,0.019143041147157317,0.0002338698119230101,1.1117331986628323,1.1852961406794398,2.560543998617129,0.6830560673806355,0.08026602702861783,0.0005374829232396794,1.2054544595151497,0.46934241587915215,1.2367229858064097,-0.17557049648351342,0.038221060508445426,-0.021635465839813836,0.008223095157433136,-7.77166939778215,-2.850619333508964,-0.21805627529902338,-0.016076841027099092,-0.000958005054033728
0.37,0.24788060581561097,1.8555662687955088,-0.9568144269350379,0.17616061662205842,0.019951019991949114,0.00023882429511058444,1.1237084536250992,1.1900286696636508,2.572561409391709,0.6822839718425684,0.08079788447917959,0.0004954483187574339,1.077299282042362,0.33420353745192793,0.9078125618917186,-0.2641373325302703,0.03337785101777602,-0.022738081073769557,-0.05192008343640059,-7.807535643193262,-2.7865684968644358,-0.18885584522174903,-0.02102566492585834,-0.0009681621009449844
0.38,0.25922470014266,1.8675003462617124,-0.931001286265446,0.18296693743205047,0.020763683316504144,0.00024333596843870435,1.1344094327049057,1.1934077466203525,2.5813140669591994,0.6806320809992058,0.08126633245550319,0.0004511673328119926,0.9505136187123713,0.20515371305070657,0.5849603757760824,-0.3485773459162955,0.028229871176914223,-0.02383891826504006,-0.1088339542601443,-7.823060130405317,-2.715768251191221,-0.158726685869661,-0.025765860378114055,-0.0009716175003979125
0.39,0.27066319763976265,1.8794552929066628,-0.9051326574581033,0.1897483120766034,0.021580384518736753,0.00024738309166987053,1.1438497497102609,1.1954946644950357,2.5868628807342695,0.6781374644552917,0.08167012022326094,0.000404712323116617,0.8253878642505619,0.08239723771087687,0.2687313745828859,-0.4287155596484665,0.022667066039004258,-0.024925615760071962,-0.16190396352445505,-7.819050112628587,-2.638549053199265,-0.12780449682126924,-0.030257954582234698,-0.0009684298761023757
0.4,0.28218365686941793,1.891418820401958,-0.8792399133186559,0.19649670110186623,0.022400457385416194,0.0002509447355081189,1.1520459229655264,1.1963527495295119,2.5892744139447395,0.6748389025262828,0.08200728666794423,0.0003561643838248331,0.7021840737584587,-0.033911388464426886,-0.040354658750289055,-0.5044027180319844,0.01657865735610775,-0.02598396238666595,-0.21061168533156818,-7.796445948597085,-2.555271287900426,-0.09622558950609211,-0.03446684125245662,-0.0009587392107086396
0.41000000000000003,0.29377382779990957,1.9033792890321561,-0.8533537090387673,0.20320446761959618,0.023223208828714797,0.0002540008931874629,1.1590170930491617,1.1960468630198238,2.588620427988861,0.6707766517729958,0.0822751443298603,0.00030561576793440055,0.5811363063273226,-0.14366560676318518,-0.34182441945937486,-0.5755160045465191,0.009854412472499519,-0.026997912868480245,-0.2545422305998254,-7.756301667340028,-2.466319617461858,-0.06412526135316013,-0.038362189915351765,-0.0009427613855377695
0.42,0.3054216752402269,1.9153257182503378,-0.827503934905194,0.20986438965844997,0.02404791154989576,0.00025653261767209366,1.1647847440317347,1.194642921818164,2.5849774133573233,0.6659922038853785,0.08247027211809625,0.0002531724484630765,0.4624516543265651,-0.24680443079291317,-0.635251755732815,-0.6419595564581708,0.002386178235272318,-0.027949644770218218,-0.2933881485611266,-7.699765147718406,-2.3720975135270077,-0.031636334410481234,-0.04191873266264198,-0.0009207814661978998
0.43,0.31711539959154833,1.927247792677452,-0.8017196737696101,0.2164696700571218,0.024873796736621427,0.0002585221854615636,1.1693724351321448,1.1922074427114167,2.5784261135583977,0.6605280398671846,0.08258851867256682,0.00019895677894699284,0.34631190551115554,-0.3433096362419707,-0.9202577118462246,-0.7036647963453846,-0.005930280195102444,-0.028819668068500393,-0.3269499412365915,-7.628058336101476,-2.273022058147688,0.0011121279160117396,-0.04511643002903529,-0.0008931459890880732
0.44,0.32884345508334273,1.9391358638280736,-0.7760291632856376,0.22301394387012416,0.025700046923252423,0.00025995328744548874,1.172805549179442,1.1888071150621475,2.5690510483972426,0.654427381300234,0.08262501866309967,0.00014311019839251471,0.23287577199252338,-0.43320258638848713,-1.1965100107890105,-0.7605905967319959,-0.015193103968246358,-0.029586999160095273,-0.35513344085259474,-7.542457888030357,-2.169519085708959,0.033995917933965156,-0.04794052112423072,-0.0008602545121662019
0.45,0.34059456571934915,1.9509809478813056,-0.7504597628631302,0.2294912832730704,0.02652578916912443,0.0002608112465241252,1.175111063600642,1.184508405323196,2.5569400422507416,0.6477339402946221,0.08257422458720061,8.579590786364253e-05,0.12228160621248715,-0.5165407719124483,-1.4637220247643679,-0.8127232936322661,-0.025491809389478814,-0.030229411159333308,-0.3779444050914209,-7.444276569416318,-2.0620187145132522,0.06689659406158605,-0.050381466073083365,-0.0008225506894976383
0.46,0.35235773920777164,1.9627747198437742,-0.7250379252382262,0.23589619996883512,0.02735008873733365,0.0002610832607817448,1.176317348842246,1.1793771962468664,2.5421837624904056,0.6404916695764729,0.08242995682092195,2.7201425761959982e-05,0.01465051013959119,-0.5934141435643137,-1.7216512929269763,-0.8600765611630301,-0.036904399268131965,-0.03072377150539707,-0.39548076242728714,-7.334845700384667,-1.9509512991521538,0.09970220951082642,-0.052434791142577944,-0.0007805131171428891
0.47000000000000003,0.36412227918950474,1.9745095044719663,-0.6997891725121325,0.24222364510920635,0.028171943484839965,0.0002607586698565377,1.1764539981733075,1.1734784628192212,2.5248752726093757,0.6327445140371232,0.08218547475063145,-3.245909252071248e-05,-0.08991027026427513,-0.6639413151282957,-1.9700976512589288,-0.9026911553395252,-0.0494941381447504,-0.03104647593373938,-0.407922988588379,-7.215498869961809,-1.8367438187399254,0.13230786869520567,-0.054100848631487904,-0.0007346461786045462
0.48,0.37587779610657823,1.9861782643336727,-0.6747380764725428,0.24846900675894498,0.028990279202059037,0.0002598292407943587,1.1755516917073485,1.166875986170644,2.505109603958969,0.6245361649738632,0.0818335717219072,-9.294290621789878e-05,-0.19130378736274997,-0.7282657120048209,-2.2089010435179985,-0.9406345304646688,-0.06330604171661836,-0.031173984501512708,-0.41552311633183303,-7.087557094919613,-1.7198167024183262,0.16461612415758015,-0.0553845046762399,-0.0006854710932223519
0.49,0.38761421706877236,1.997774585393232,-0.6499082429794361,0.25462810494093946,0.029803946164419646,0.0002582894681232381,1.1736420962194138,1.1596321059559278,2.4829833493106768,0.6159098181994467,0.08136669623606083,-0.00015397726711205426,-0.28943980644293504,-0.7865517377493115,-2.4379390842499964,-0.9740003263091443,-0.0783631653061514,-0.03108346046870042,-0.41859287668267564,-6.9523155431179084,-1.6005810823689617,0.19653722910928745,-0.05629476862179486,-0.0006335173424004117
0.5,0.39932179507807436,2.00929266050293,-0.6253223001719271,0.26069718431285,0.030611717176977898,0.0002561368811833266,1.1707578009302018,1.151807510969784,2.458594280750897,0.6069079371910511,0.08077710125582514,-0.00021525869399114983,-0.38423133990571795,-0.8389810271232105,-2.657124445006442,-1.0029077187921835,-0.09466281531307719,-0.030753506286082477,-0.41749144418111095,-6.811031892168821,-1.4794364558823105,0.2279892620037436,-0.056844377580273386,-0.0005793146181451536
0.51,0.41099111795706905,2.020727271173682,-0.6010018902348556,0.266672904537775,0.031412287403041854,0.0002533723499633258,1.1669322878994706,1.1434610670752117,2.432040993707153,0.5975720224925009,0.08005702260639587,-0.00027645312200007906,-0.475591457241642,-0.8857488496807931,-2.866402133476082,-1.0275006213573148,-0.1121728493320695,-0.030164982835847287,-0.41261321584745025,-6.664916349355877,-1.3567687317159352,0.2588981400597539,-0.05704934933086758,-0.0005233854076990421
0.52,0.42261311729755524,2.0320737679824887,-0.5769676644527344,0.27255232842454574,0.03220427626550812,0.0002500003789308038,1.1621999340486167,1.1346496808806554,2.4034225782121243,0.587942388677077,0.07919888624662634,-0.00033719710325220194,-0.5634305312755548,-0.9270607226351902,-3.06574673253731,-1.04794671911767,-0.13082827199602054,-0.029301888692953526,-0.4043759981794107,-6.5151233192688975,-1.2329486318105494,0.2891975384476958,-0.056928515891306965,-0.00046623829846802477
0.53,0.4341790776992422,2.0433280499526414,-0.5532392812742515,0.2783329079277339,0.032986231691815374,0.00024602937673267694,1.1565960401686959,1.1254281970152769,2.372838317848294,0.5780579503188162,0.0781955426307252,-0.00039710021981268536,-0.6476540789895477,-0.9631292856996871,-3.255159662489584,-1.064436313565155,-0.15052837048537215,-0.02815226609405136,-0.3932099131784374,-6.362744672008269,-1.108330417126575,0.3188287311094437,-0.05650304900715808,-0.00040836206006185323
0.54,0.44568064650561323,2.054486543215923,-0.5298354071123311,0.2840124681137375,0.03375663693690439,0.00024147188834342822,1.1501568806371052,1.1158493263281883,2.3403874161920397,0.5679560186003563,0.07704052450890155,-0.0004557488389248725,-0.7281613446764891,-0.994171483736844,-3.4346665250291526,-1.0771809527005374,-0.17113466093477414,-0.026709090317423967,-0.3795472674694038,-6.2088045372158644,-0.9832509055776386,0.34774036805200326,-0.05579598755243038,-0.00035022053589201034
0.55,0.45710984416617656,2.065546179234781,-0.506773719612323,0.289589189217668,0.03451392016083692,0.000236344775431241,1.1429197660563304,1.1059636018857801,2.3061687500008112,0.5576721103930526,0.07572832239325313,-0.0005127112912187211,-0.8048447525327165,-1.0204060953228729,-3.6043145819094926,-1.0864118203771014,-0.19246992890126013,-0.024971090451044287,-0.363813561796261,-6.05425552750623,-0.8580287504254104,0.37588820257431915,-0.05483177549856791,-0.0002922483558683745
0.56,0.4684590752636978,2.0765043728274843,-0.48407091313362477,0.2950615869363025,0.03525646685742205,0.00023066933057879564,1.1349231097521222,1.0958193592703065,2.2702806478698228,0.547239771863453,0.07425466965851346,-0.0005675444852445365,-0.8775903239059157,-1.04205163670483,-3.7641704146514567,-1.0923778599250316,-0.2143186378476858,-0.02294344332328188,-0.34641975462701396,-5.89997627881119,-0.7329639487378383,0.40323478037592164,-0.053635817763182596,-0.00023484746445475032
0.5700000000000001,0.4797211401451769,2.087359000201504,-0.46174270620728175,0.30042849112498654,0.035982635127641376,0.00022447131170279488,1.1262064881479148,1.0854627374019563,2.2328206926343017,0.5366904188683999,0.07261682702193238,-0.0006198018876000759,-0.9462791110069672,-1.0593246610955585,-3.914317804128942,-1.0953436111314598,-0.2364289442329981,-0.02063828004773019,-0.3277558356205585,-5.746770184283206,-0.6083375513192355,0.4297491009505228,-0.052234059954794916,-0.00017838444455094067
0.58,0.49088924699107206,2.098108377160751,-0.4398038507530943,0.30568902309073404,0.03669077366927569,0.0002177808846910584,1.1168106845895167,1.0749376959247208,2.1938855454187425,0.5260531965747481,0.07081385416343196,-0.0006690427011736466,-1.0107896449381923,-1.0724384628670514,-4.05485586040187,-1.0955867466325842,-0.2585164931141919,-0.018074947439074077,-0.30818571388705557,-5.59536519219868,-0.48441154767181654,0.45540626015767555,-0.05065259682889161,-0.00012318860699479973
0.59,0.5019570240544498,2.108751237611968,-0.41826814286365577,0.31084257169926105,0.03737924221675384,0.00021063246497853702,1.1067777063377744,1.0642860451217133,2.153570788943856,0.5153548608527029,0.06884685474781434,-0.0007148419712521383,-1.071001333821942,-1.0816021851030286,-4.185897423967332,-1.0933953037928958,-0.2802700738176669,-0.015279975318348779,-0.2880433832151108,-5.446414536172405,-0.3614289018860829,0.4801870814366357,-0.0489173131899289,-6.955080737436122e-05
0.6,0.5129185317070054,2.119286712455615,-0.3971484349886429,0.315888768539436,0.038046434020194315,0.0002030644524844665,1.0961507652555635,1.0535474843647088,2.1119707875012894,0.5046196840174922,0.06671918034404788,-0.0007568012494070548,-1.1267986806072183,-1.0870203173918676,-4.307567750088085,-1.0890646209922785,-0.3013590946795255,-0.012286715662046727,-0.2676302920493544,-5.300498267317601,-0.23961371780193025,0.5040777417986718,-0.047053560022756964,-1.7722945674883945e-05
0.61,0.5237682738492145,2.1297143089082087,-0.3764566493796682,0.3208274624135148,0.03869079980946077,0.00019511885889678696,1.0849742142209082,1.042759645259362,2.0691785608974675,0.49386938740788194,0.06443657892664519,-0.0007945593587679535,-1.1780761251300362,-1.0888925590229024,-4.420003479075716,-1.0828940024719618,-0.3214426967511266,-0.009134640153016287,-0.2472138198076086,-5.158125462129275,-0.11917151436950779,0.5270693974949816,-0.045085867809487326,3.2081900575090447e-05
0.62,0.5345012081839284,2.140033890267428,-0.35620379268324226,0.3256586934442257,0.03931087255899922,0.0001868408314699431,1.0732934334713864,1.031958135921928,2.0252856696425954,0.4831231030710922,0.062007274953845476,-0.0008278027426843854,-1.2247432574701929,-1.0874140113712132,-4.523351890292992,-1.075183152791178,-0.3401801805039819,-0.005868307438139188,-0.2270267425995781,-5.01973698619084,-0.0002895951823697618,0.5491578130252956,-0.04303769826611355,7.968876306278149e-05
0.63,0.5451127548222133,2.1502456560995316,-0.33639997159642665,0.33038266710879255,0.039905292264125224,0.00017827808295133867,1.061154663828494,1.0211765832103414,1.9803821086815612,0.47239736645668257,0.059441970512600736,-0.0008562748518604426,-1.266730106057599,-1.0827756528729482,-4.617770446814788,-1.0662284395545942,-0.3572422819195038,-0.0025360380621843107,-0.20726755978792852,-4.88570870159574,0.11686249898290063,0.5703429955915168,-0.04093123509004234,0.00012495954622207862
0.64,0.5555988026911942,2.1603501228017374,-0.3170544095275411,0.33499972852375315,0.04047282987054422,0.00016948024254984616,1.0486047868980846,1.0104466702205739,1.9345562068885567,0.46170614149605876,0.056753760641900027,-0.00087978404014925,-1.3039921800991485,-1.0751650418711747,-4.70342671374708,-1.0563190603891037,-0.372322721381509,0.0008116392981419307,-0.18810154723750774,-4.756355014036979,0.2321324520608974,0.5906288335086564,-0.03878721370618074,0.0001677913262658327
0.65,0.5659557132478993,2.170348104470979,-0.2981754642403591,0.3395103373111201,0.041012409475504906,0.00016049814755751278,1.0356910556705035,0.9997981669241895,1.8878945287181974,0.4510608787366986,0.05395796049606832,-0.0008982094992333374,-1.3365149455086176,-1.0647671922952668,-4.7804992641722555,-1.0457332055921267,-0.3851493761849538,0.004123685099547213,-0.16966240269161897,-4.631932658458534,0.34538447150984286,0.6100227188859411,-0.036624789329921414,0.00020811423570722833
0.66,0.576180321069839,2.180240693994855,-0.2797706465568594,0.34391504337259543,0.04152312794712263,0.00015138309891362043,1.0224607821939704,0.9892589523875673,1.840481768349974,0.44047060614753325,0.051071847161772356,-0.0009115048643892342,-1.3643174331003245,-1.0517656381653446,-4.849186160304701,-1.0347343031902252,-0.39549440788723245,0.007350289983311262,-0.15205435417408278,-4.51264455595716,0.4564975373086789,0.6285349408660654,-0.03446144094539065,0.00024588884794343063
0.67,0.5862699309893313,2.1900292442637834,-0.2618466409380797,0.34821446386078636,0.04200427119021101,0.00014218610641743263,1.0089609919492402,0.9788550268928614,1.79240056187797,0.4299420488190916,0.04811432430883823,-0.000919699249618781,-1.387454806839638,-1.0363428117217766,-4.909653496596839,-1.0235682069407392,-0.4031826935084888,0.010444555736116912,-0.13535457131702983,-4.398644438096153,0.5653716846675576,0.6461800155070517,-0.032312919922096624,0.00028110470170355736
0.68,0.5962223115511759,2.1997153494711528,-0.24440932287300401,0.352409261795897,0.042455326414056256,0.00013295714883377525,0.9952380561844534,0.9686105207369512,1.7437318065075675,0.41947979351106074,0.045105522384524734,-0.0009228957583657375,-1.406018696098708,-1.0186941790117092,-4.963085789890353,-1.012451180119868,-0.40809831458173695,0.013363997901448738,-0.11961633292471746,-4.290026825804578,0.6717860533774893,0.6629426610504509,-0.030193046416668298,0.00031375301580945667
0.6900000000000001,0.6060356847935001,2.209300825170751,-0.2274638762965465,0.35650012317223445,0.042875990012033516,0.00012374449362185987,0.9813373242324281,0.9585475699598554,1.694544657645752,0.40908613763374885,0.04206635979772564,-0.0009212655211915389,-1.4195533737516788,-1.0097811405595147,-5.836053272331737,-0.9961730654640419,-0.41033492965596996,0.01607235457679862,-0.10523328677406346,-4.174547604843176,0.6645500856601784,0.652322218853416,-0.0279643088840841,0.0003246520723933139
0.7000000000000001,0.6157087641775305,2.2187866883252374,-0.21109603890828849,0.36048492985015723,0.04326623644191599,0.00011460934632796621,0.9673079384030391,0.9485863154486149,1.6367837388257997,0.3984806677922761,0.03902464298824706,-0.0009135147293893662,-1.4286748009398826,-1.0040558039487726,-6.874894767847495,-1.0115394274400984,-0.4086766201279939,0.018728243458605076,-0.09112496156889496,-4.058317655815702,0.6296998945779765,0.6343631005247112,-0.025599980069597364,0.00032907239200767764
0.71,0.625240697853424,2.2281736851901375,-0.19540798188899575,0.3643582935305461,0.04362633987664313,0.00010561208906873456,0.9531933675893418,0.9386996864900109,1.5688057019292743,0.38733636803888727,0.036010343472714285,-0.0008997257259231659,-1.4337225252018413,-0.9955874476443984,-7.5892750565482405,-1.0632220269842065,-0.40283899153809266,0.021144760648713568,-0.07707969488770748,-3.9499196010642,0.6325179212347183,0.6246055880311796,-0.023181132400489496,0.0003382690815483894
0.72,0.6346310370894763,2.237462825900406,-0.18047011764052756,0.36811308541245075,0.04395684671378002,9.680018040354109e-05,0.9390339236052349,0.928914071026883,1.4937864248468198,0.3754791881904661,0.03305068371368915,-0.0008811908665193476,-1.4347847853687001,-0.9844086706164943,-8.041814959166144,-1.1331874882894475,-0.39334540718646094,0.023140516637285613,-0.06356731339952498,-3.850933901993999,0.6650625274412952,0.6214528796369281,-0.020776240153427623,0.0003506720482338552
0.73,0.6438797253010565,2.2466553687944675,-0.16632718465255217,0.3717416786982516,0.0442585444191032,8.820871707906185e-05,0.9248688211580256,0.9192542894061297,1.4142932987975385,0.36285932858008235,0.030169770532318087,-0.0008591463324479233,-1.4320580850161526,-0.9707590873546431,-8.284452429084771,-1.2089555748950787,-0.38070200317803055,0.024689692112314365,-0.05088933604713833,-3.762161629496578,0.7207412041720834,0.6235740232298962,-0.01843638183635576,0.0003650846759130254
0.74,0.6529870768979986,2.2557527897066665,-0.15300330543657847,0.37523677860733723,0.04453242995137047,7.98624743502828e-05,0.9107351596942076,0.9097420912198924,1.3323879215973695,0.3495099909085618,0.02738855322672639,-0.0008346242728779057,-1.425818550123932,-0.9550052758745771,-8.36020203277956,-1.282127611128029,-0.3654231438108836,0.025805048960178434,-0.03922085947952766,-3.6838202884477846,0.794103988278084,0.629860485860912,-0.01619829678573096,0.00038060786736493593
0.75,0.6619537487493796,2.264756742714708,-0.14050618384867888,0.37859195225137376,0.04477967628727308,7.177782086749475e-05,0.8966671851380955,0.9003953008041785,1.2497121587899584,0.33551736440365487,0.024724633590260982,-0.0008084653482788045,-1.416395864493073,-0.9375789657471858,-8.30466923618088,-1.3472843971438628,-0.3480336052285211,0.02651642971940793,-0.02864479529605332,-3.6157097058633694,0.880659754639165,0.6393889692768815,-0.014087070805219329,0.00039657604249017267
0.76,0.6707807067965961,2.2736690172876637,-0.12883058581524814,0.3818019419884101,0.04500159723274689,6.396434770420568e-05,0.8826958047216459,0.8912274572955482,1.1675598033430725,0.32099897370363206,0.02219209454738078,-0.0007813473163289067,-1.404150539703542,-0.9189306826860025,-8.147289618339416,-1.4011662362653823,-0.3290575917681406,0.0268639363265758,-0.01917901482916235,-3.5573469142995733,0.9767221600148057,0.6513913046222937,-0.01211846844647804,0.0004125052922920243
0.77,0.6794691900074629,2.282491495484873,-0.11796122178111768,0.38486282424006474,0.04519961158673519,5.642624499318369e-05,0.8688483210866801,0.8822478197209065,1.0869364034130464,0.3060882251654636,0.019801435398829705,-0.0007538102711021984,-1.3894549157850975,-0.8994967208172225,-7.912348155223155,-1.4420641199091015,-0.30900241405334183,0.026893587146725628,-0.010797334708050733,-3.5080716723889895,1.0792801273020933,0.6652298018015077,-0.010300931369154801,0.00042805178039219123
0.78,0.6880206734872393,2.2912261117439168,-0.10787512856572609,0.38777205959175903,0.04537520804241349,4.9163469072760536e-05,0.8551483479776415,0.8734616259043625,1.0086093215391578,0.29092353516943165,0.01755964556782997,-0.0007262775920423152,-1.3726780151203573,-0.8796771956919786,-7.619822481467904,-1.4693682479115324,-0.2883420128925544,0.02665380249758975,-0.0034453454535089785,-3.467126168010188,1.1858886779119584,0.6803768444586085,-0.008637265888862516,0.00044297867186909287
0.79,0.6964368321768966,2.2998748168767476,-0.09854363172493355,0.39052846797002855,0.045529912166116085,4.217273148923808e-05,0.8416158689657322,0.8648705132830699,0.9331496840792535,0.2756408378269496,0.015470412370259352,-0.0006990737583522456,-1.354174116890246,-0.8598229819171451,-7.286084729078765,-1.483233478152247,-0.2675033408815066,0.026192593561552235,0.0029479478924563816,-3.433713139526524,1.2945766878761578,0.696397827815936,-0.00712604665017685,0.0004571300648746671
0.8,0.70471950620121,2.3084395471625068,-0.08993395612835353,0.39313215376534244,0.045665256542866114,3.544833201500197e-05,0.8282674024313454,0.8564730285759243,0.8609675596580019,0.2603685795313909,0.013534437675003064,-0.0006724399474236112,-1.3342747160455213,-0.8402294549465533,-6.924486045986738,-1.484331660076279,-0.24685698634836303,0.02555546865845476,0.008461798011160124,-3.407036702947275,1.4037691730227606,0.7129368571709785,-0.005762766748198682,0.00047041067001835757
0.81,0.712870668599261,2.3169221988730846,-0.08201054129723272,0.395584399156518,0.04578275483607416,2.898285268730191e-05,0.8151162398050877,0.8482651710577878,0.7923414831120814,0.2452245391175579,0.01174982932080456,-0.0006465479327700059,-1.313283405818959,-0.8211353411639949,-6.545851529241351,-1.4736684732285923,-0.22671230790735927,0.024784020297400622,0.013177939651339697,-3.386329586387346,1.512220953579219,0.7297044924144083,-0.004540764441047757,0.0004827699589963553
0.8200000000000001,0.7208923958887856,2.325324608159591,-0.07473610950334199,0.3978875389689734,0.0458838801581431,2.2767727631701772e-05,0.8021727289524649,0.8402409286506203,0.7274431793890724,0.23031398124554023,0.010112532206893225,-0.0006215125055600136,-1.2914731526168655,-0.8027249498907625,-6.158889329908524,-1.4524486474112877,-0.20731663929623406,0.023915106632510008,0.01717674628277292,-3.3708703386662244,1.6189615296327946,0.7464675522395989,-0.003451959341076862,0.0004941901371789484
0.8300000000000001,0.7287868416890863,2.3336485359660855,-0.0680725263799431,0.4000448267571173,0.04597004783615642,1.6793702423737936e-05,0.7894445800300675,0.8323927806494396,0.6663583123398885,0.2157287788143911,0.008616767801332284,-0.0005974025207963835,-1.2690854453218126,-0.7851327454995038,-5.770540429277757,-1.4219770745381979,-0.18885778550192447,0.022980510677896304,0.020534800917963423,-3.359992938206658,1.7232478569878058,0.7630402645336305,-0.002487426122447552,0.0005046768590891877
0.84,0.7365562134521062,2.341895657462516,-0.06198148809677655,0.40206029906644347,0.0460426024081089,1.1051196527725252e-05,0.7769371763019894,0.8247121496430777,0.6091038283166548,0.20154723093261742,0.0072554571952481335,-0.0005742505896012682,-1.2463308353880285,-0.7684492575502646,-5.386277231316343,-1.3835871521798655,-0.17146888691141182,0.02200695968823413,0.02332348721178677,-3.3530909905265585,1.8245240374163827,0.7792765974487297,-0.001637832680510566,0.0005142521132639861
0.85,0.7442027522234457,2.3500675553976014,-0.056425064216182666,0.4039386427669919,0.046102808507431266,5.530582119278724e-06,0.7646538771339422,0.817189793508551,0.5556423880593884,0.18783437005483788,0.006020609932236565,-0.0005520614408446528,-1.2233904357049872,-0.7527274048490282,-5.010347674566503,-1.338589919252728,-0.15523476496304034,0.02101639339965078,0.025608301857835816,-3.349618448858928,1.9223884023055766,0.7950639517164511,-0.0008937692421947732,0.0005229490465181146
0.86,0.7517287152688488,2.358165716756833,-0.051366120063095724,0.40568506882425215,0.04615184518187627,2.223919102109208e-07,0.7525963045403113,0.8098161359231808,0.5058944153086944,0.17464260572602872,0.004903667444499879,-0.0005308190209067803,-1.2004180489785916,-0.737989037323674,-4.645992439730758,-1.2882385341284177,-0.14019900755731315,0.020026385579070938,0.027448643990621618,-3.3490876508529213,2.01656435247284,0.8103174204050271,-0.00024598674851619804,0.0005308078575766065
0.87,0.759136361346366,2.3661915321100824,-0.046768639847502236,0.40730519468976,0.04619080313893572,-4.882531996402372e-06,0.7407646077517201,0.802581535324913,0.45974802155934863,0.16201258655078346,0.0038957957059451466,-0.0005104923906613292,-1.1775426585729458,-0.7242313273131735,-4.29564139302238,-1.2337048475967265,-0.12637117925239993,0.019050648389472596,0.02889791824371498,-3.3510655592963756,2.1068741026011564,0.824974467609268,0.0003144388039495132,0.0005378724364253095
0.88,0.7664279383739121,2.3741462970618734,-0.042597969775955015,0.40880493655433725,0.04622068440162321,-9.792937033067137e-06,0.7291577027546093,0.7954764951791196,0.41706700715472234,0.1499741864577267,0.0029881262687492926,-0.0004910405036664764,-1.154878869270692,-0.7115300145361337,-3.9671169239997752,-1.1760319110688595,-0.11373463748141327,0.018099565905281972,0.03000090965032659,-3.3550259935227618,2.192414558263308,0.8388009189097976,0.0007972453170553742,0.00054404844284758
0.89,0.7736056724300411,2.382031207370544,-0.03882159070308444,0.4101903914055127,0.046242404424326033,-1.4516991068988806e-05,0.7177734056128945,0.788491030867025,0.3776379072870571,0.13854548511754658,0.002172002270282178,-0.0004724054035921669,-1.1327665338798327,-0.7028263127387157,-3.8443338675794023,-1.1154079779106318,-0.10227077881435179,0.017181477048380217,0.030713624964677298,-3.3562741195292762,2.24887528158527,0.8460335661778979,0.001248892697455597,0.0005451625865884385
0.9,0.7806717335733869,2.389847121759941,-0.035427195298578705,0.4114671073435851,0.046256812116051774,-1.905906652678498e-05,0.7066061143345843,0.7815914389396945,0.33943954045057345,0.1276715938072403,0.0014407691725741034,-0.00045420754577961745,-1.1111825945332188,-0.6961712479145356,-3.787997703580861,-1.060701988158696,-0.09165564488483843,0.016322617178828963,0.03121265860191148,-3.35779008875892,2.294426885895793,0.8508917057606671,0.0016682741836127307,0.000544395538774614
0.91,0.7876282391143199,2.3975947126406214,-0.03240903071628498,0.41263988037319255,0.046264697688322115,-2.342273387691134e-05,0.6956505540932927,0.7747590880680743,0.30181645822937275,0.11727730296074576,0.0007885572270342222,-0.00043636673501263576,-1.0901113703944592,-0.6906030896616384,-3.7307561719601567,-1.0137640065154514,-0.08178521242001144,0.015492418595104557,0.03157282870331664,-3.361039534688656,2.337976679387187,0.8554604134917471,0.0020519065695759745,0.000543317562309959
0.92,0.7944772556730517,2.4052745409364453,-0.029761285664680576,0.41371286033723353,0.046266793240757415,-2.761255777303282e-05,0.6849016558731879,0.7679828295823711,0.2647745051604406,0.10729799640409998,0.00020955524352990603,-0.00041898238961214813,-1.0695851386866022,-0.6861076306256019,-3.669329348921267,-0.9732760754322971,-0.072651650569688,0.014675048614402914,0.03180818404945612,-3.366017997083805,2.3800671128289763,0.8598722170777118,0.002401759698242255,0.0005420480431083378
0.93,0.8012207961283657,2.41288705685429,-0.02747776287201847,0.41468967386815725,0.04626377349732632,-3.163419907692545e-05,0.6743540455314027,0.7612515917844977,0.22835227926621057,0.09768135309236897,-0.0003019743431092787,-0.00040216413038926313,-1.049634751317987,-0.6827381924174916,-3.605454696274939,-0.9379835926705304,-0.06424000367703123,0.013871288543406218,0.03192774897120253,-3.3726041557473403,2.4205729688737563,0.8641022609156662,0.0027203464474368235,0.0005405888523690914
0.9400000000000001,0.8078608166599651,2.4204325955144257,-0.02555204494913201,0.41557352262455066,0.046256257551148115,-3.5494182253671325e-05,0.6640020531599435,0.7545538660135401,0.1925717922886462,0.08838487563934283,-0.0007515946178206429,-0.00038599831767458735,-1.030282959759438,-0.6805145780148969,-3.53918469021944,-0.9069087754236325,-0.05652391012163055,0.013084742163575247,0.03194080223455732,-3.38071863173316,2.459580567649611,0.8681743501771376,0.0030098711274665906,0.0005389765960020274
0.9500000000000001,0.8143992145806168,2.427911375345293,-0.023977495716115668,0.41636726490269566,0.046244811196500396,-3.919968166264417e-05,0.653839792065175,0.7478779830867142,0.15745492330163385,0.07937422781449818,-0.0011446354647717358,-0.00037054994089728453,-1.0115471932541718,-0.6794518703950823,-3.4707766979833927,-0.879232641329379,-0.04947144157085523,0.012318447185684173,0.03185544260403481,-3.390279582706949,2.4971419467814373,0.8721035315617134,0.00327244932719277,0.0005372401706284131
0.96,0.8208378266761555,2.435323496986797,-0.022747282285726096,0.41707348317259935,0.04622994963667225,-4.2758334187416224e-05,0.6438612095538662,0.7412121641503733,0.12302134303895725,0.07062182699036845,-0.0014861559828146225,-0.0003558652524772052,-0.9934400509660768,-0.6795579124584747,-3.400491398708025,-0.8542781194106848,-0.043047014773383324,0.011574840849147588,0.03167887146720098,-3.4012075628661664,2.533302019866123,0.8759024998107887,0.003510092289504004,0.0005354055292143787
0.97,0.8271784280077699,2.4426689428844917,-0.021854398025293348,0.41769453972840276,0.04621214041179399,-4.617808057593271e-05,0.6340601331614422,0.734544589769467,0.089288426043275,0.06210565558033988,-0.0017809224878259922,-0.0003419746388516488,-0.975969991157111,-0.6808343486039077,-3.328623246379214,-0.8314871944162121,-0.037213047879922106,0.010855783206553726,0.03141747808050148,-3.4134248805185914,2.5680952577524168,0.8795808724373786,0.0037247179097044283,0.0005334951790874433
0.98,0.8334227311103207,2.449947577479974,-0.02129168930271641,0.4182326222458631,0.046191806434412536,-4.946703210075923e-05,0.6244303102550884,0.7278634595482174,0.05627087225769361,0.05380825174603322,-0.0020333977381449615,-0.00032889515248265194,-0.9591414463711262,-0.6832730297938173,-3.2552287403985587,-0.8104044649798192,-0.03193109371924954,0.01016263191951211,0.031077071271772224,-3.4268623374012925,2.6015822364658154,0.8831538536241778,0.0039181009919663345,0.0005315345930306928
0.99,0.8395723855784035,2.457159148267676,-0.021051859246137044,0.41868978167477505,0.046169329027236215,-5.263336398774226e-05,0.6149654468082765,0.7211570787701708,0.023983005657936714,0.0457159428911942,-0.0022477407176320296,-0.000316633188698303,-0.942956035587603,-0.6868637975468879,-3.1806066170742766,-0.7906493372422343,-0.02716308241796611,0.009496279786943007,0.030662659320146113,-3.4414475525834245,2.633787036072774,0.886627572139428,0.00409195608562573,0.0005295414652224225
