tonegas/nnodely-applications/joint_friction_estimation/dataset/train/mpc_mujoco_episode_41.csv
time,q1,q2,q3,q4,q5,q6,dq1,dq2,dq3,dq4,dq5,dq6,ddq1,ddq2,ddq3,ddq4,ddq5,ddq6,tau1,tau2,tau3,tau4,tau5,tau6
0.0,0.0,1.57,-1.57,0.0,0.0,0.0,0.0,0.0,0.0,0.0,0.0,0.0,-12.974807476028138,-19.14799589739435,-0.6640156381792295,0.8177806951151609,-2.0601522307887095,8.240034929940521e-07,-1.810428309680923,-14.354921665783069,-8.020821747888501,-1.7384153735256473,-0.16421404556855201,-0.002884695739065455
0.01,-0.0012912911581599966,1.5680912807312313,-1.5700709158486366,7.153129974945927e-05,-0.0001699864542488342,-1.683764292999257e-06,-0.12912911581599965,-0.19087192687686838,-0.007091584863659364,0.007153129974945926,-0.01699864542488342,-0.0001683764292999257,-12.644795460410167,-18.741579132157757,-0.7739892445895862,0.6712192884286807,-1.7210822804641737,-0.016983734199065736,-1.7552170651009733,-14.17892105000091,-7.963070655615782,-1.7272248775801495,-0.16003014894306244,-0.0028350800367957707
0.02,-0.0038399843240116763,1.564314361617559,-1.5702240939520322,0.00020224600100196213,-0.0004883839303401714,-5.114107435155169e-06,-0.254869316585168,-0.377691911367226,-0.015317810339557774,0.013071470125250288,-0.031839747609133724,-0.00034303431421559114,-12.27024000066276,-18.29715702654047,-0.8784272121260273,0.548977396312452,-1.5120141745546363,-0.01809052162209923,-1.6692666313538642,-13.97095552533139,-7.884743128436179,-1.7112623862052563,-0.15387390588637315,-0.002769953635302853
0.03,-0.0076081768170813465,1.5587135363628153,-1.5704701669853998,0.000381701043964538,-0.0009414679208617088,-1.0184862001604733e-05,-0.37681924930696703,-0.560082525474368,-0.02460730333676004,0.017945504296257582,-0.04530839905215373,-0.0005070754566449565,-11.853065219469347,-17.814059994982223,-0.9728659173170016,0.4470360036743699,-1.3858582152946255,-0.017884492986151912,-1.555353431925043,-13.72987192346147,-7.78597413601095,-1.6905935694357432,-0.14583696020833198,-0.0026897224085677698
0.04,-0.012553985187503888,1.5513369451026076,-1.5708186462851756,0.0006010722901417787,-0.001520509296044738,-1.681903712563118e-05,-0.4945808370422542,-0.7376591260207677,-0.034847929977588524,0.02193712461772407,-0.05790413751830293,-0.0006634175124026443,-11.393806870955702,-17.291954300554547,-1.0533516161280367,0.3624873728368243,-1.3140757871474946,-0.01839961502931331,-1.4168313640266215,-13.454540649498792,-7.667019290391931,-1.665317339349571,-0.13602103487785067,-0.002594666078018518
0.05,-0.018631507328161944,1.5422366119582005,-1.5712775567396258,0.0008529528234798413,-0.0022200273706708797,-2.49831661306319e-05,-0.6077522140658056,-0.9100333144407005,-0.0458910454450103,0.02518805333380627,-0.06995180746261419,-0.0008164129005000721,-10.892327975032329,-16.73094066735837,-1.1164348307119667,0.29324313852189476,-1.279290398805216,-0.019847481907623532,-1.2575834228979006,-13.14392159474668,-7.528269695652279,-1.6355685707189271,-0.12454065787983117,-0.0024850144105040255
0.06,-0.025790758537042262,1.5314684384133173,-1.5718531155550817,0.0011312121774632801,-0.003036713458572103,-3.467973003592265e-05,-0.7159251208880318,-1.0768173544883313,-0.05755588154560073,0.027825935398343875,-0.08166860879012233,-0.0009696563905290745,-10.348242558674288,-16.13163213379746,-1.1591811178565798,0.23779967933674584,-1.2708997820690513,-0.022242348371733556,-1.0819616817791302,-12.797127574220266,-7.37026156823609,-1.6015193591177372,-0.11152601322785732,-0.002361011185376986
0.07,-0.03397760829815678,1.5190921449270947,-1.5725494575058063,0.0014308981327771876,-0.003968761180413023,-4.594030639998109e-05,-0.8186849761114522,-1.2376293486222631,-0.06963419507245654,0.029968595531390748,-0.09320477218409202,-0.001126057636405844,-9.76116368631553,-15.495211455757136,-1.179191250926472,0.1950545255105709,-1.2824216175240153,-0.025633007894736437,-0.8947102667349838,-12.413485926129745,-7.193681013259024,-1.5633788905953847,-0.09712554768479845,-0.002222970834880463
0.08,-0.04313373357791707,1.5051711551814653,-1.5733684098450238,0.00174816671812185,-0.00501544301649293,-5.882145249162511e-05,-0.9156125279760285,-1.3920989745629477,-0.08189523392175026,0.03172685853446623,-0.1046681836079906,-0.0012881146091644016,-9.130843175676777,-14.82346746162132,-1.1746243191675063,0.16416408568885998,-1.30986013268042,-0.03012812623830996,-0.700867898533469,-11.992598162828514,-6.99936439778649,-1.5213920326648442,-0.08150804233214409,-0.002071329557429013
0.09,-0.053196597468531684,1.489772419423641,-1.5743093200565177,0.0020802292403774595,-0.006176833897398867,-7.340270109196823e-05,-1.006286389061461,-1.5398735757824167,-0.09409102114939927,0.03320625222556096,-0.11613908809059365,-0.0014581248600343112,-8.457243753085361,-14.118811823479591,-1.1442184235574189,0.1444345086019112,-1.3506697433849268,-0.03589521975077581,-0.5056486120624499,-11.534398113326148,-6.7882952858164245,-1.4758368911696196,-0.06486391312945958,-0.0019066909868801318
0.1,-0.06409945750559835,1.4729661752930925,-1.5753689391675363,0.002425307750144233,-0.007453618685712532,-8.978597255248272e-05,-1.0902860037066668,-1.6806244130548464,-0.10596191110185504,0.03450785097667733,-0.12767847883136654,-0.0016383271460514482,-7.7405714564129475,-13.384272785418144,-1.0873047863604555,0.13523933192063708,-1.4030551678680752,-0.043158276712835786,-0.314301518881256,-11.03920584008052,-6.561598074392852,-1.4270214370946783,-0.04740555982354541,-0.0017298655079420909
0.11,-0.07577140525406495,1.4548256468045533,-1.576541362519464,0.0027825924577207476,-0.008846940967915811,-0.00010809587343089879,-1.1671947748466593,-1.8140528488539196,-0.11724233519277241,0.03572847075765146,-0.1393322282203278,-0.0018309900878416064,-6.981290194276383,-12.623471086609221,-1.0038123512612813,0.13595889275203632,-1.4654407535365266,-0.05219496431729986,-0.13195268343187316,-10.50777831388457,-6.320530018467558,-1.3752796503005171,-0.02936662847529696,-0.001541901912494266
0.12,-0.08813743749928905,1.4354266839257468,-1.5778180288215986,0.0031521963545529737,-0.010358261339876858,-0.0001284804447489859,-1.2366032245224106,-1.9398962878806536,-0.1276666302134555,0.03696038968322263,-0.1511320371961047,-0.0020384571318087107,-6.1801415020663475,-11.840576348637123,-0.8942609312189838,0.14593761360491442,-1.5359939286652065,-0.06332978727442207,0.036565568731350195,-9.94135354888379,-6.0664719251540085,-1.3209673581374521,-0.011000113281944848,-0.0013441099048316623
0.13,-0.1011185597915601,1.4148473471341483,-1.5791877770792164,0.003535103743518967,-0.011989197634264101,-0.00015111191074455464,-1.2981122292271048,-2.0579336791598597,-0.13697482576177297,0.038290738896599306,-0.16309362943872427,-0.0022631465995568752,-5.338197423719327,-11.040246653769849,-0.7597419205130933,0.16445603368378414,-1.612116286787618,-0.07691700480244634,0.18689069179142925,-9.341686492250842,-5.800918372386889,-1.2644580754054604,0.00742472252106488,-0.001138072129799633
0.14,-0.1146319255793737,1.3931674430170538,-1.5806369596816203,0.003933110592121304,-0.013741319240266418,-0.00017618685658277744,-1.3513365787813594,-2.167990411709457,-0.14491826024038462,0.039800684860233734,-0.1752121606002317,-0.0025074945838222803,-4.456983683037038,-10.22755256671324,-0.6018862661621434,0.1907151627381829,-1.6898339991296574,-0.09330369593709165,0.3153026029747107,-8.71107365762389,-5.525467710408487,-1.206139029510141,0.025626572910472697,-0.0009256446718741707
0.15,-0.12859101943901355,1.370468018540965,-1.5821496086204474,0.004348755642528852,-0.015615864119471924,-0.00020392501655937248,-1.3959093859639844,-2.2699424476088716,-0.1512648938827072,0.04156450504075479,-0.18745448792055056,-0.0027738159976595043,-3.5387133338465784,-9.407956857842903,-0.42281899723338157,0.22383149567584582,-1.7630414176540068,-0.11275876906634341,0.41888401841070877,-8.052398628365006,-5.241824116877128,-1.1464099769105724,0.043317447094453385,-0.0007089454051402419
0.16,-0.1429059010151728,1.3468308160861169,-1.5837076504843217,0.004785242143538573,-0.017613341689122864,-0.00023456546184117113,-1.4314881576159262,-2.3637202454848176,-0.15580418638744045,0.04364865010097204,-0.19974775696509392,-0.0030640445281798654,-2.5867271638676423,-8.587009722576255,-0.22510435566414877,0.26284187442200846,-1.8225989452834046,-0.1353490778613171,0.49565599989348147,-7.369021536750799,-4.951750094930613,-1.0856723836226245,0.06020879264938172,-0.0004903289339489481
0.17,-0.15748354263276731,1.3223377197115653,-1.5852911647411865,0.005246350673614271,-0.019732980064202266,-0.00026835843866329114,-1.4577641617594517,-2.4493096374551486,-0.15835142568646768,0.04611085300756975,-0.21196383750794004,-0.0033792976822120003,-1.6061127694253559,-7.770490026661027,-0.011672613369405838,0.30671661657591187,-1.855391476529146,-0.1607429768088009,0.5446845789571223,-6.664878782842408,-4.657099639273652,-1.0243355642035357,0.07601877669273607,-0.0002723507507447128
0.18,-0.17222830645910034,1.2970701787101264,-1.5868786782852895,0.005736344510372931,-0.021971976423029827,-0.0003055504640018332,-1.4744763826333014,-2.5267541001438834,-0.15875135441030333,0.048999383675866065,-0.223899635882756,-0.0037192025338542026,-0.6046023806136033,-6.96413159057779,0.21426114050816025,0.3543845607034264,-1.843651849947317,-0.1879339026421103,0.5661446447018248,-5.94435238617178,-4.3597745818111076,-0.9628076696760822,0.0904801184144245,-5.771579814104323e-05
0.19,-0.18704263119987433,1.2711086358696693,-1.588447488119614,0.006259869622979279,-0.024324523754349958,-0.0003463597557361426,-1.4814324740773985,-2.5961542840457206,-0.15688098343244836,0.0523525112606347,-0.23525473313201306,-0.0040809291734309385,0.40641512357088017,-6.173505773233491,0.4492949821834653,0.40476794093151724,-1.7651708998912394,-0.2149174734978423,0.5613371406106451,-5.212194667235536,-4.06170621732039,-0.9014924117481423,0.10334868028792282,0.00015078602994306558
0.2,-0.20182801228868746,1.2445319722683208,-1.589974002428901,0.006821852245973279,-0.026780628891535544,-0.00039093912185461476,-1.478538108881313,-2.6576663601348387,-0.15265143092871344,0.05619826229939997,-0.24561051371855855,-0.004457936611847217,1.4110669252413288,-5.403852615881485,0.6899525569199998,0.45682802499210773,-1.5953497327163504,-0.23844103047821025,0.5326526078590175,-4.47340023116753,-3.764822191119599,-0.8407833113212334,0.11441259959050809,0.000350360969207636
0.21,-0.21648635734269042,1.2174169854615557,-1.5914340887170444,0.007427397868431714,-0.029324821487101565,-0.00043932493482834987,-1.4658345054002966,-2.7114986806765025,-0.14600862881432428,0.0605545622458435,-0.2544192595566022,-0.00483858129737351,2.388944377360138,-4.659886457470135,0.9328088784493103,0.5096166779574265,-1.3120887836514568,-0.25406354742855997,0.4834763729277916,-3.7330370055188533,-3.4710016578380136,-0.7810560626170462,0.12350165616291486,0.000538311514906555
0.22,-0.2309217570491988,1.1898379202634504,-1.592803416173055,0.008081696181712455,-0.031934988531178106,-0.0004913749021892866,-1.4435399706508367,-2.7579065198105313,-0.13693274560106014,0.06542983132807413,-0.2610167044076539,-0.005204996736093673,3.3165437966653033,-3.9455929351811543,1.174623815451171,0.5623226030367521,-0.9036732804154539,-0.25682955647395933,0.41803247679033445,-2.996046157699774,-3.182020713926092,-0.7226593756745098,0.13049615547248294,0.0007121572214138485
0.23,-0.24504261056810972,1.1618660719118332,-1.5940577785180972,0.008789936654416524,-0.03458172952466527,-0.0005467046227931431,-1.412085351891092,-2.7971848351617177,-0.12543623450421493,0.07082404727040692,-0.2646740993487162,-0.00553297206038564,4.170566982735403,-3.2640457435681864,1.4124704487940578,0.614295396460113,-0.3777401435101968,-0.24269705271185504,0.3411676850593104,-2.2670304849234815,-2.899493513228176,-0.6659053180892833,0.13533396194572397,0.0008697728186074959
0.24,-0.2587638863070414,1.1335694792448785,-1.5951733841275622,0.009557238374473061,-0.03722873119526865,-0.0006046418224618384,-1.3721275738931682,-2.82965926669547,-0.11156056094649845,0.07673017200565363,-0.26470016706033783,-0.005793719966869535,4.932465877494883,-2.617292457833063,1.643837589267989,0.6650331147455111,0.23303901938648508,-0.21035240162905078,0.2580857265259253,-1.5500667804713704,-2.62482030458234,-0.6110612876405355,0.13801369299784355,0.0010095296710157925
0.25,-0.2720091353910071,1.10501271873799,-1.5961271031367887,0.01038859528928373,-0.03983457632563921,-0.0006642224465873696,-1.3245249083965676,-2.855676050688858,-0.09537190092265231,0.08313569148106689,-0.260584513037056,-0.005958062412553128,5.5925245663543945,-2.0063658574217733,1.8666814317358311,0.7141339724766973,0.8732833547881871,-0.16245691285085595,0.17405547448644582,-0.8485869499745585,-2.359157285154533,-0.5583463694648119,0.13859206062787963,0.0011304126350999528
0.26,-0.2847118071808009,1.076256798222446,-1.5968966668773235,0.011288834480005484,-0.0423560368489088,-0.0007242471267935737,-1.2702671789793836,-2.875592051554385,-0.07695637405347484,0.09002391907217555,-0.252146052326959,-0.0060024680206204085,6.151629990658865,-1.431452776263332,2.0794073032630926,0.7612320980068712,1.476360876185483,-0.10535568929471673,0.09413021252270046,-0.16536334504771655,-2.103420273508756,-0.507934127296681,0.13717453517676867,0.0012320757994067682
0.27,-0.2968155315427924,1.047359134016502,-1.5974608224067113,0.0122625821113627,-0.04475234218765633,-0.0007833971406688342,-1.21037243619915,-2.889766420594387,-0.05641555293877257,0.0973747631357215,-0.23963053387475294,-0.00591500138752605,6.6200824969483465,-0.892191628768257,2.280782068034218,0.8059447859944675,1.9805473070315784,-0.0471669899423004,0.022918714999852915,0.4974008097305727,-1.8583222480921624,-0.45996144165349084,0.13390079882027728,0.0013148090155651528
0.28,-0.3082733141730193,1.0183735827030336,-1.5977994517980463,0.01331423083645532,-0.04698945187947626,-0.0008403840927000511,-1.1457782630226903,-2.898555131346849,-0.03386293913350448,0.10516487250926201,-0.22371096918199257,-0.005698695203121686,7.014338118532437,-0.3880090134478457,2.469803489675965,0.8478482826694442,2.342741656258962,0.004725272216249188,-0.035564290701697435,1.1379174593541403,-1.6244299746939348,-0.41454017786643416,0.12892861322607604,0.0013794152304122357
0.29,-0.31904590049291304,0.9893504947741042,-1.5978936697136084,0.0144479041331494,-0.04904329707466526,-0.0008940928146411495,-1.0772586319893769,-2.9023087928929416,-0.00942179155620142,0.11336732966940809,-0.20538451951890052,-0.005370872194109843,7.35321516292858,0.08160656961578248,2.645568128204899,0.886481867680537,2.5448266873361405,0.04547782797491884,-0.07796588793147083,1.7546579643107556,-1.4022180721426756,-0.37176738024654576,0.12242020726635969,0.0014270322377121095
0.3,-0.3290997435320238,0.960336763258621,-1.5977259124214416,0.01566741612165461,-0.05090133311430328,-0.0009436819110354277,-1.0053843039110788,-2.901373151548311,0.016775729216684365,0.121951198850521,-0.18580360396380197,-0.00495890963942781,7.654731747396069,0.5169542016776768,2.8071736311222897,0.9213691903459953,2.5922639377849546,0.07328208794588953,-0.10160125962546557,2.3462439554574663,-1.1921039569570695,-0.33173098471302165,0.11453375896675014,0.001458950200795878
0.31,-0.3384050051966433,0.9313758523744882,-1.5972800276739705,0.016976228117985992,-0.05256232331070474,-0.0009886259211859796,-0.930526166461947,-2.8960910884132907,0.044588474747115574,0.13088119963313805,-0.16609901964014612,-0.004494401015055195,7.93406353483044,0.9180950263293507,2.953670837233742,0.9520444250173004,2.5076738243376218,0.08879541243796396,-0.10442740572320194,2.9114020609423847,-0.9944584679357698,-0.2945104269412552,0.10542017951512829,0.00147646883480115
0.32,-0.34693388585007695,0.9025078034821985,-1.5965413698214015,0.018377404505512444,-0.05403474663403745,-0.00102870394650424,-0.8528880653433666,-2.88680488922897,0.0738657852569084,0.1401176387526452,-0.14724233233327072,-0.004007802531826034,8.202615777725606,1.284914402161885,3.084060927931196,0.9780746635727251,2.3228270446707295,0.09413510706216588,-0.08500765813937972,3.448972832961081,-0.8095966300604849,-0.2601733862939377,0.09522367002340787,0.0014808145208339272
0.33,-0.35465941104383847,0.8737692242483629,-1.5954969000894685,0.019873570513880938,-0.055334432497553265,-0.001063951997140849,-0.7725525193761525,-2.873857923383562,0.10444697319328916,0.1496166008368493,-0.12996858635158132,-0.0035248050636609235,8.467959794008824,1.6172244796972688,3.197322344888218,0.9990748343821352,2.0715538919817216,0.09194625135130696,-0.042478678026329764,3.9579518189161593,-0.6377572709403102,-0.22877060083349082,0.08408400252724402,0.0014731138854493556
0.34,-0.36155467406302016,0.84519327093094,-1.594135289072722,0.02146687379311985,-0.056481996604937044,-0.0010945986605734835,-0.6895263019181699,-2.857595331742292,0.13616110167464646,0.15933032792389099,-0.1147564107383778,-0.0030646663432634387,8.734302535534486,1.9149539718837887,3.292448509208106,1.014714349539247,1.784758194751584,0.08477034533908867,0.023478112355917458,4.437583611589552,-0.47906508366459266,-0.20032754289124732,0.07213893636984524,0.0014544070122903083
0.35000000000000003,-0.36759246062174783,0.8168096424168151,-1.5924470174550294,0.023158950705165476,-0.057500491690351804,-0.0011209996482639598,-0.6037786558727669,-2.838362851412485,0.1688271617692601,0.16920769120456264,-0.10184950854147629,-0.002640098769047626,9.003253204097598,2.1778553964252407,3.368502277359239,1.0247218625482368,1.4876847201535055,0.07472418106149359,0.11266701619063718,4.887216115936694,-0.3335776265197635,-0.17485332361722047,0.05952540185914477,0.001425676680302109
0.36,-0.37274515214164994,0.7886445566467057,-1.5904244697030996,0.0249508983148631,-0.05841349968330025,-0.0011435806778721759,-0.5152691519902117,-2.8165085770109295,0.20225477519296725,0.17919476096976258,-0.09130079929484461,-0.002258102960821616,9.274522749497912,2.4062208079839045,3.4246306440096523,1.028880408296036,1.1990150216659639,0.06340346258342056,0.22440860838406457,5.3066653378666615,-0.2011535168703098,-0.15231409586603656,0.046380356180350774,0.0013878875725220766
0.37,-0.37698481850404814,0.7607207806033457,-1.5880620187951755,0.02684325124395134,-0.05924373780072171,-0.0011627927936800522,-0.42396663623981956,-2.792377604336001,0.23624509079240857,0.1892352929088241,-0.0830238117421461,-0.001921211580787627,9.54664535518608,2.6003998527003276,3.4601102000152677,1.0270260223528815,0.9311832980802852,0.0519143604380119,0.35758346760512416,5.695970910513722,-0.08153890098425132,-0.13265040767745762,0.032839635701902986,0.001342008458701156
0.38,-0.3802834180692044,0.7330576658140824,-1.5853560978609964,0.02883596380511002,-0.0600121501157517,-0.001179080544361125,-0.32985995651562533,-2.7663114789263354,0.27059209341791135,0.19927125611586793,-0.07684123150299903,-0.001628775068107285,9.81749455191544,2.760979688230428,3.4743608954170178,1.019044913717451,0.6913477197373421,0.040961029749423616,0.5106823039318831,6.0554819485955464,0.025664086059922875,-0.11577089212592301,0.01903664352067953,0.0012890287489371488
0.39,-0.38261304985057537,0.7056712073016207,-1.5823052573038243,0.030928397062347457,-0.06073740396606612,-0.001192861451369166,-0.23296317813709422,-2.738645851246169,0.3050840557172076,0.20924332572374355,-0.0725253850314419,-0.0013780907008040895,10.084664722200314,2.888784491359086,3.4669579905519416,1.004870744041657,0.48259809282215116,0.030945032654208227,0.6818652101642707,6.385846368597065,0.12099287424714711,-0.10155329897831333,0.005100492176271589,0.0012299611918929817
0.4,-0.3839462201852041,0.6785741259788266,-1.5789102062897806,0.0331193106020035,-0.06143569363064256,-0.00120451441435224,-0.13331703346287072,-2.709708132279409,0.33950510140435824,0.21909135396560436,-0.069828966457644,-0.0011652962983074184,10.345722189253776,2.9848671586324262,3.437638092431066,0.9844824385656956,0.30513517879493435,0.022055169041362177,0.8690270477628416,6.687991331810631,0.20511612384374867,-0.08984635332036228,-0.008845950427772607,0.0011658345360935642
0.41000000000000003,-0.38425610111053127,0.6517759737185542,-1.575173838075008,0.03540685882744021,-0.062120758041820906,-0.0012143746456727918,-0.030988092532719447,-2.6798152260272428,0.3736368214772666,0.2287548225436713,-0.06850644111783463,-0.0009860231320551578,10.59835389974247,3.0504966648746845,3.3863009985800465,0.9579024948630384,0.15728396934759026,0.014339735053563452,1.06986590843482,6.963097378135871,0.27882254984275523,-0.08047221828732792,-0.022687884109540563,0.0010976791793279321
0.42,-0.3835167683839511,0.6252832598961731,-1.571101239047732,0.03778859162269892,-0.06280403401093489,-0.0012227330353927872,0.07393327265801407,-2.6492713822381138,0.4072599027276,0.23817327952587006,-0.06832759691139804,-0.0008358389719995325,10.840441822125591,3.087143455720148,3.31300885744404,0.9251956931778693,0.036290837825974975,0.0077604687086703095,1.2819514069930693,7.212568490642115,0.34300783426329173,-0.0732293668733352,-0.03632011581672036,0.0010265089086069522
0.43,-0.3817034142959634,0.5990995979983342,-1.5666996816158452,0.04026145925907227,-0.06349488437885836,-0.0012298382856597329,0.18133540879877302,-2.6183661897838846,0.44015574318867245,0.2472867636373352,-0.06908503679234762,-0.0007105250266945679,11.070087078525402,3.0964643645582983,3.217983846600828,0.8864681117483748,-0.06109309060877166,0.0022306145043824444,1.5027897893701423,7.437999910794926,0.398660399187066,-0.06789569999774703,-0.049648227763490746,0.0009533014265403343
0.44,-0.3787925349606126,0.5732258708328296,-1.561978601204775,0.04282182144246124,-0.06420085762008651,-0.0012359005895262963,0.2910879335350768,-2.587372716550465,0.47210804110702725,0.2560362183388968,-0.07059732412281434,-0.0006062303866563374,11.285602467619048,3.0802878696041813,3.101605253617075,0.841866372844251,-0.13821369079031953,-0.0023595152631878946,1.729883326556894,7.641145092050568,0.44684664852801725,-0.06423178049179767,-0.06258933750294418,0.0008789797542346321
0.45,-0.37476209438771846,0.5476604128968608,-1.556949557678254,0.04546546041945397,-0.06492794986372452,-0.0012410960042143805,0.4030440572894125,-2.556545793596871,0.5029043526521022,0.2643638976992732,-0.07270922436380158,-0.0005195414688084117,11.485486942317388,3.040600023234721,2.964406559603911,0.7915770693235196,-0.19826267749910187,-0.006126223877603643,1.9607820831243716,7.823882785184631,0.4886961294314396,-0.06198408312678039,-0.07507244985013294,0.0008043959701149574
0.46,-0.369591668968772,0.5223992085179936,-1.5516261814851586,0.04818759807744187,-0.06568085150891394,-0.0012455709641724896,0.5170425418946462,-2.5261204378867244,0.5323376193095333,0.2722137657987901,-0.07529016451894169,-0.0004474959958109066,11.668391398645984,2.979531058013742,2.8070728860265293,0.7358263384897867,-0.2441358152451194,-0.009182633248538963,2.1931268030521434,7.988184916758431,0.525386923500145,-0.06088818824543646,-0.08703842528903043,0.0007303181800880112
0.47000000000000003,-0.36326257649998794,0.4974361044414647,-1.54602410479266,0.05098291698947148,-0.06646316877961572,-0.0012494465976863468,0.6329092468784051,-2.4963104076528935,0.5602076692498723,0.27953189120296074,-0.07823172707017881,-0.0003875633513857131,11.8330819379996,2.899342464045231,2.630438970812854,0.6748795576819813,-0.27836778859015254,-0.011633301789628625,2.424682281144687,8.136085660288114,0.5581314572204904,-0.06067187070826388,-0.09843960483822298,0.0006574211548213919
0.48,-0.3557579938415515,0.4727630355784549,-1.5401608778086036,0.053845585367959456,-0.06727761617114722,-0.00125282266408954,0.7504582658436474,-2.467306886300982,0.5863226984056492,0.2862668378487975,-0.08144473915314977,-0.00033760664031933077,11.978404349062599,2.8024156897248425,2.4354876328418493,0.6090411212824485,-0.3031176430460789,-0.013571715091796221,2.6533611254728506,8.269652625811641,0.5881630642770292,-0.061058010421957604,-0.10923913759539317,0.0005862807348533641
0.49,-0.3470630669979135,0.4483702627873887,-1.5340558704435054,0.05676928589983603,-0.0681261793563481,-0.0012557810309866007,0.8694926843637988,-2.439277279106621,0.6105007365098191,0.2923700531876575,-0.08485631852008764,-0.00029583668970607004,12.103252899771338,2.691233179471125,2.2233489158347393,0.5386543345212402,-0.3201852274757577,-0.015079564177301386,2.8772384097328803,8.390955919576612,0.616721833929815,-0.06176759649460592,-0.11941007529311772,0.0005173717576071511
0.5,-0.33716501684709116,0.4242466207940764,-1.5277301593981076,0.059747248454360406,-0.06901025027421388,-0.0012583886755121983,0.9898050150822327,-2.412364199331231,0.6325711045397917,0.2977962554524376,-0.08840709178657824,-0.0002607644525597659,12.206542884820243,2.568373892420144,1.9952989151522065,0.4641012352328193,-0.3310447516234696,-0.016227073055876673,3.0945577385739975,8.502046057637575,0.6450434736791082,-0.06252210559456103,-0.12893425682512072,0.0004510693893260791
0.51,-0.3260532432919484,0.4003797757971411,-1.5212064007829855,0.0627722866362876,-0.0699307372583737,-0.001260700231939934,1.111177355514274,-2.3866844996935255,0.6523758615122033,0.3025038181927191,-0.0920486984159817,-0.0002311556427735735,12.287189997113066,2.4364930432709735,1.7527590204190249,0.38580241136890336,-0.33688600489340814,-0.01707389135510784,3.3037300437492965,8.60492613818467,0.6743460395658902,-0.06304624360959046,-0.13780107006212786,0.00038765316030792954
0.52,-0.31371942987950663,0.3767564907323328,-1.5145086883452092,0.0658368381702609,-0.07088815352441644,-0.001262760127922306,1.2333813412441752,-2.3623285064808295,0.6697712437776231,0.30645515339732876,-0.0957416266042733,-0.000205989598237178,12.344095362993492,2.2983057572832135,1.4972944887697412,0.30421669125574624,-0.33865725979719485,-0.017670241822680843,3.503326191442085,8.701528063485586,0.7058178659079712,-0.06307040765858885,-0.14600611706507866,0.0003273134167764809
0.53,-0.3001576503442389,0.3533628965584722,-1.507662397439889,0.0689330090849641,-0.07188268737533324,-0.0012646043601842948,1.3561779535267724,-2.3393594173860617,0.6846290905320124,0.3096170914703197,-0.09945338509167974,-0.00018442322619888942,12.376133612056336,2.1566128309628683,1.2306107620498734,0.21984025442421284,-0.3371062962433413,-0.01805813717760074,3.692064195719409,8.793710993566958,0.7406125974888337,-0.06233178509893267,-0.1535497659128783,0.0002701601334245356
0.54,-0.2853644782165065,0.3301847721219,-1.5006940150815513,0.07205262157503635,-0.07291425727684774,-0.0012662619622589393,1.4793172127732386,-2.3178124436572163,0.6968382358337784,0.3119612490072258,-0.10315699015144954,-0.00016576020746445332,12.289285948464816,3.6737823600551573,0.9032978444863495,0.12039433810381439,-0.3340579925154046,-0.018272420649390497,3.851077981412308,9.666148609998888,1.0410544679951954,-0.012193944445397092,-0.15801338405412046,0.00023622489966524198
0.55,-0.2693483309887579,0.30737315072966903,-1.4936350125460993,0.0751847203776631,-0.0739823998471031,-0.0012677706579177748,1.6016147227748634,-2.281162139223099,0.7059002535451911,0.31320988026267593,-0.10681425702553611,-0.00015086956588355527,12.112905160339965,5.991339308857013,0.540793913450468,-0.002317519027691617,-0.3271577965017727,-0.018336692686693468,3.9707981163272748,10.89794013644801,1.4523528688096485,0.05711560480242742,-0.15951104200523758,0.00022042383638332585
0.56,-0.2521265602167902,0.28515881047502123,-1.4865199583176758,0.07831571601505342,-0.07508620527051907,-0.001269167552105409,1.7221770771967682,-2.2214340254647826,0.7115054228423502,0.3130995637390314,-0.11038054234159649,-0.00013968941876342522,11.911385383785067,7.734757417471206,0.18419379533255054,-0.14173554911499053,-0.31517507021855806,-0.018107661885962578,4.053138138145743,11.837206540160171,1.7513764309251807,0.10393178187703866,-0.15937062432757043,0.00021038363267919101
0.5700000000000001,-0.23371905281933297,0.2637153456106074,-1.4793833140778316,0.08143116775418019,-0.0762244198061139,-0.0012704747384981593,1.8407507397457235,-2.1443464864413855,0.7136644239844142,0.3115451739126761,-0.11382145355948328,-0.00013071863927502215,11.685238333160912,9.001238746602024,-0.16922862930749005,-0.28894880216642704,-0.2998844559367839,-0.017518470217376958,4.098850925150327,12.533363949707619,1.9600584524401743,0.13296723172398242,-0.15769289716607535,0.000207048159961537
0.58,-0.21414817693473748,0.24316884238357572,-1.4722595799404388,0.08451639387483728,-0.0773955668464268,-0.0012717012073469151,1.9570875884595502,-2.054650322703168,0.7123734137392909,0.3085226120657091,-0.11711470403128982,-0.00012264688487559084,11.435147112864243,9.874106991226597,-0.5208345542072657,-0.4378288035009774,-0.28249321423739104,-0.016653200954024783,4.109892009440872,13.02900999845005,2.0970785290352736,0.14821120396941034,-0.15462655247611923,0.00021059963399875693
0.59,-0.19343871082297123,0.22360617509710135,-1.4651833343201666,0.0875568832392356,-0.07859802852858798,-0.0012728463111681173,2.0709466111766233,-1.9562667286474362,0.7076245620272233,0.3040489364398319,-0.12024616821611751,-0.00011451038212023046,11.161918036776232,10.424577157483311,-0.8709595364721814,-0.584239685598579,-0.26380164270998563,-0.01559975339621289,4.089086347023441,13.360717315537592,2.178128104320285,0.1529843329865681,-0.15034896594473962,0.0002206525532388047
0.6,-0.17161775968208298,0.20508209790518295,-1.4581891950275878,0.0905385662411208,-0.07983009907250842,-0.0012739027055329857,2.1820951140888236,-1.852407719191839,0.6994139292578694,0.2981683001885196,-0.12320705439204417,-0.00010563943648683806,10.86643965223285,10.713328644255983,-1.2191773963492736,-0.7254588853760993,-0.24432211153836647,-0.014430244334835862,4.039823279418374,13.559754148936625,2.2162312503720103,0.15000992547536046,-0.14505128281496737,0.00023642199267591565
0.61,-0.14871466449815757,0.1876252884625711,-1.451311722373455,0.09344798747009427,-0.08109001820855477,-0.001274858611706116,2.2903095183925406,-1.745680944261185,0.6877472654132734,0.2909421228973461,-0.12599191360463544,-9.559061731301567e-05,10.549647827082076,10.791889895842727,-1.5645057298163394,-0.8597545313233859,-0.22436797784531137,-0.013200999036694139,3.965792707596152,13.65273085887328,2.2220804139806516,0.1414909978469565,-0.1389271772691895,0.00025686485471819074
0.62,-0.12476090641789392,0.17124348093135416,-1.4445852805470982,0.09627241074984816,-0.08237599094110866,-0.001275699515840084,2.395375808026364,-1.6381807531216932,0.6726441826356834,0.2824423279753891,-0.12859727325538944,-8.409041339679969e-05,10.21247992632487,10.703855483095614,-1.905565528764388,-0.9860787720148423,-0.20411961777019272,-0.011955214729105101,3.8707642841276266,13.662178563061612,2.204363593034744,0.12918653672170582,-0.13216449905748912,0.0002807939032824573
0.63,-0.09979001120311573,0.15592780926649144,-1.4380438699509575,0.09899987860369086,-0.08368619825660052,-0.0012764094340717948,2.497089521477819,-1.5315671664862727,0.6541410596140744,0.2727467853842702,-0.1310207315491869,-7.099182317108999e-05,9.855322611525326,10.48595892967448,-2.2406784483227753,-1.1038378925932353,-0.18367663087922992,-0.010725619750047155,3.758280878619493,13.607071650346278,2.170073225241393,0.11448400861988223,-0.1249345698057,0.00030694068860007335
0.64,-0.0738375087382085,0.1416564674246304,-1.4317209377229598,0.10161924272329292,-0.08501880184151225,-0.0012769718788610092,2.595250246490722,-1.4271341841861034,0.6322932227997716,0.26193641196020667,-0.13326035849117365,-5.624447892144181e-05,9.478644702784784,10.16900373118403,-2.567998214808867,-1.212746214068643,-0.1630814717223643,-0.009536974607608606,3.6316940902535073,13.50327601737427,2.124771471996824,0.09846189711190519,-0.1173941192051137,0.00033406140471558155
0.65,-0.046940884578130886,0.1283977790643172,-1.4256491776361486,0.10412017538722243,-0.08637194516277537,-0.0012773705726525622,2.689662416007762,-1.325868836031319,0.6071760086811184,0.25009326639295115,-0.13531433212631172,-3.986937915529466e-05,8.821614811257039,9.780772678746585,-2.8722653956595057,-1.3082950538162077,-0.14463499984913142,-0.008407093146930666,3.4244811216582374,13.366695941092711,2.07490722435326,0.08242595362742129,-0.10718418833765389,0.00034771163731696337
0.66,-0.019165551270421907,0.1161129694619751,-1.4198590023694728,0.10649359482905997,-0.0877436265202898,-0.0012776040901780685,2.777533330770898,-1.2284809602342113,0.5790175266675809,0.23734194418375465,-0.13716813575144352,-2.335175255063283e-05,7.7823829180649655,9.343227476252457,-3.1459945446634556,-1.3888085921719657,-0.12632630608997175,-0.0074821521462986595,3.1086564277801614,13.2064883907895,2.022482604175685,0.06674484700413795,-0.09331687327330963,0.00034250256805362536
0.67,0.00938500459169097,0.10475835601918791,-1.4143777921846856,0.10873182519603679,-0.0891314466978851,-0.0012776909898247703,2.8550555862112876,-1.1354613442787183,0.5481210184787172,0.2238230366976822,-0.13878201775952986,-8.689964670170589e-06,6.715309747868508,8.871046832265664,-3.4035864768153754,-1.4599625465980273,-0.10171539310506716,-0.006811728254296767,2.77904152547852,13.024072164221328,1.964103586078814,0.05060351616591571,-0.07920386644851457,0.0003356576401209359
0.68,0.03860450554802706,0.09428680856577351,-1.409231320474879,0.11082805330192146,-0.09053254724082196,-0.0012776486810080465,2.921950095633609,-1.0471547453414405,0.5146471709806604,0.20962281058846735,-0.14011005429368692,4.230881672366173e-06,5.659159026602758,8.378164926770053,-3.645506501889292,-1.522627682057081,-0.07236437553040886,-0.006191884283923699,2.4489102337271174,12.82564888195013,1.9007339300472745,0.034119095272117844,-0.06534472120665519,0.00032776490030751634
0.6900000000000001,0.06838774746597324,0.08464913784322167,-1.4044437958293896,0.11277624699943326,-0.09194375976286147,-0.0012774900315239014,2.978324191794618,-0.9637670722551831,0.4787524645489445,0.19481936975118047,-0.14112125220394992,1.5864948414511127e-05,4.628131554272884,7.8759594798825905,-3.871387437713917,-1.5773668362590199,-0.03990017712362537,-0.005594468861673141,2.1246359647334674,12.61666730405322,1.8334014088057038,0.017429933507906288,-0.05198387004748252,0.00031839204293084646
0.7000000000000001,0.09863201744576813,0.07579522941674426,-1.4000378228682757,0.11457110448007835,-0.09336173306663094,-0.0012772238678003948,3.024426997979489,-0.8853908426477416,0.4405972961113794,0.17948574806450857,-0.1417973303769472,2.6616372350652275e-05,3.6374539186421884,7.373509339117772,-4.080848867593264,-1.624698319011592,-0.005596746761039384,-0.005027826210722175,1.8124135604667027,12.401627754237804,1.7629943898002407,0.0006548115571469726,-0.039350706939638436,0.0003074104148293125
0.71,0.12923861330342168,0.06767494855666469,-1.3960343629192817,0.11620800874920277,-0.09478303696186398,-0.0012768556673892783,3.060659585765354,-0.8120280860079572,0.4003459948994022,0.16369042691244307,-0.14213038952330387,3.682004111165054e-05,2.7101699466781466,6.8779506934393195,-4.27355256582075,-1.6651028024371457,0.02951352205256441,-0.004500189794422793,1.520190222094884,12.184275378613119,1.6903594264039534,-0.016085715411560605,-0.02772916825250073,0.0002953044695975131
0.72,0.16011514122783221,0.06023885157513783,-1.392452699741182,0.11768298621060104,-0.09620425793698305,-0.0012763876730492291,3.0876527924410526,-0.7436096981526853,0.3581663178099907,0.14749774613982702,-0.14212209751190638,4.6799434004920364e-05,1.8861086111072245,6.394799268519904,-4.449182311111554,-1.6990097368446935,0.06447451171038932,-0.004012473342135947,1.2602944589855467,11.967857116852905,1.6164576767536991,-0.03263570755605303,-0.017552186744999827,0.0002835611225558181
0.73,0.19117948513017477,0.05343873574718933,-1.3893104080508267,0.11899267041126821,-0.09762210794931163,-0.0012758180718214945,3.106434390234255,-0.6800115827948494,0.3142291690355081,0.13096842006671755,-0.14178500123285745,5.696012277346967e-05,1.2027167230388622,5.928258531812255,-4.607327712533891,-1.726755228608937,0.09816791315041207,-0.003555183952727914,1.044240236361183,11.75544145541972,1.5425801813311961,-0.04876338552819782,-0.009216981321097235,0.0002737362196817884
0.74,0.22236353890131735,0.0472280584540031,-1.3866233131022674,0.12013427468013003,-0.0990335419531099,-0.0012751402560562154,3.1184053771142572,-0.621067729318623,0.26870949485592655,0.11416042688618194,-0.1411434003798276,6.778157652790511e-05,0.6330770147913748,5.481411595756189,-4.747620636838217,-1.7486290721997726,0.12941590450213042,-0.003118709655670404,0.8652438218626057,11.549882795702986,1.4702633320130412,-0.0641917838984579,-0.002463004342531003,0.0002645786564893209
0.75,0.2536105275343446,0.04156224436782537,-1.3844054547238924,0.1211055686535638,-0.10043580940757743,-0.0012743449541963783,3.1246988633027235,-0.5665814086177728,0.2217858378375058,0.09712939734337625,-0.14022674544675248,7.953018598369847e-05,0.29135905081007085,5.056400234557725,-4.869782782418277,-1.7648965144196813,0.1577143522018618,-0.0027212014492388747,0.7560433603823009,11.353446647926527,1.400894228421274,-0.07863905820740014,0.0015650550472334455,0.00026146384552863975
0.76,0.28488638080376055,0.03639889948643515,-1.382669060581239,0.12190485764646446,-0.10182661326949245,-0.001273416018089461,3.1275853269415954,-0.5163344881390227,0.1736394142653429,0.0799288992900655,-0.13908038619150223,9.289361069172831e-05,0.12004557619277564,4.654613578832853,-4.973599903079636,-1.7757833711130147,0.1814835838619433,-0.002317550147521108,0.7010753597206395,11.169016156298968,1.3367459786899263,-0.09167174470279243,0.0034464121769109193,0.00026199008012068356
0.77,0.3161740067071753,0.03169794925828551,-1.381424525788143,0.1225309645271477,-0.10320415616674916,-0.0012723336689666916,3.128762590341475,-0.4700950228149637,0.12445347930961087,0.06261068806832444,-0.1377542897256702,0.00010823491227693738,0.034074168997952,4.276864665682467,-5.058821409679204,-1.7814559318533396,0.20023979663904434,-0.0019365024764581018,0.676391814115799,10.998531369551277,1.2794771304146286,-0.10297996868444453,0.004058708951851238,0.00026260644420543147
0.78,0.34746481945304597,0.02742171928458704,-1.380680388980299,0.12298321666689334,-0.10456708070021792,-0.0012710791110158194,3.1290812745870613,-0.42762299736984666,0.07441368078441254,0.04522521397456288,-0.13629245334687562,0.00012545579508720415,-0.009204526662497166,3.9236658160928988,-5.125212041831493,-1.7820453587435816,0.21456934696881236,-0.0016198171801847794,0.6696151084587829,10.842922870407476,1.229943416773144,-0.11240403193351532,0.003866539005097149,0.00026172518733996524
0.79,0.37875449071379774,0.023534986347508034,-1.380443309895359,0.12326143591440099,-0.10591438198031415,-0.001269636554901847,3.128967126075175,-0.3886732937079004,0.023707908493994213,0.027821924750764785,-0.1347301280096238,0.00014425561139724534,-0.03139394384946113,3.7417733826126844,-5.174171265742129,-1.7779525464298453,0.22528148483914623,-0.0013831877076331822,0.6743368725434951,10.765747320801458,1.2087792429989348,-0.11644341402422675,0.0033447177126676424,0.0002605280583112284
0.8,0.410040797574176,0.02001959972115471,-1.380718126876459,0.12336578498019864,-0.10724531036200702,-0.0012679949373327005,3.1286306860378277,-0.3515386626353322,-0.027481698109994027,0.010434906579764244,-0.1330928381692867,0.00016416175691463808,-0.04309643425090966,3.6564367634157633,-5.20455148628065,-1.7704062916649557,0.23341074786171023,-0.0012288481071822122,0.6854423321257855,10.734969517484842,1.2056151464518736,-0.11688069753193736,0.0026483075043092705,0.00025898974491631694
0.81,0.4413225649865858,0.0168670350647431,-1.3815077939256686,0.12329673480003027,-0.10855929612930902,-0.001266146679475401,3.1281767412409787,-0.3152564656411614,-0.07896670492095853,-0.006905018016836791,-0.1313985767302,0.00018482578572995517,-0.049661555213576465,3.5371698380800347,-5.214848613933144,-1.7595719495093212,0.23974059057392982,-0.0011349588418421708,0.7000029901687426,10.694483157836778,1.2024420796678057,-0.11677680294047436,0.0017310796100556067,0.0002560920553765991
0.8200000000000001,0.4725991314408415,0.014065394603341424,-1.3828133074367366,0.12305516082975283,-0.10985590470041015,-0.0012640857332770386,3.127656645425568,-0.28016404614016754,-0.13055135110679986,-0.024157397027744037,-0.12966085711011235,0.00020609461983624517,-0.05513592749619324,3.4014148013483108,-5.205352080627302,-1.7446749571812692,0.2446781920197698,-0.0010819594165437652,0.7169648134661479,10.65179870314744,1.2017848027960558,-0.11569553512788615,0.000652373955521467,0.00025176196171567935
0.8300000000000001,0.5038699455045408,0.011601144232650955,-1.3846337201031653,0.12264238854260627,-0.11113480210981261,-0.0012618074144239418,3.127081406369928,-0.2464250370690468,-0.1820412666428825,-0.04127722871465594,-0.12788974094024516,0.00022783188530968625,-0.063452243728275,3.229431419857485,-5.176085890637079,-1.725238847199762,0.2485753869680054,-0.0010670402350064778,0.7350542765341139,10.5982834284421,1.2009115067168807,-0.11409993739563631,-0.0005719449297514334,0.00024559390002981435
0.84,0.5351341735680514,0.00945714640216887,-1.3869661514838938,0.12206024586012429,-0.11239572895214639,-0.0012593081555237443,3.1264228063510586,-0.21439978304820834,-0.23324313807283686,-0.058214268248198225,-0.12609268423337783,0.0002499258900197416,-0.09606745807965299,3.022208382194543,-5.127309483923274,-1.7007643075472103,0.25165569882720673,-0.0010880731390236487,0.7480281716194235,10.534106636206461,1.19988378717968,-0.11198528506486595,-0.0017245921860013069,0.00023654358057355448
0.85,0.5663885619770571,0.007612758075090317,-1.3898058099841455,0.12131109994200721,-0.11363846150411468,-0.0012565863146058133,3.125438840900574,-0.1844388327078554,-0.283965850025176,-0.07491459181170695,-0.12427325519682837,0.00027218409179310726,-0.12502346580595725,2.7975047180285753,-5.059372995166731,-1.6709130612295766,0.2543322703981574,-0.0011534643213357842,0.7641288597432949,10.466527890344974,1.2009315819946353,-0.10897375307460158,-0.003075889678987899,0.00022588538093825885
0.86,0.5976302218629257,0.006045599946399792,-1.3931460154292166,0.12039786815467986,-0.11486281180652244,-0.0012536410141581003,3.1241659885868533,-0.15671581286905242,-0.334020544507104,-0.09132317873273593,-0.12243503024077579,0.0002945300447713095,-0.17070650897920112,2.563990063492918,-4.972498993752085,-1.6355702499099891,0.2564677769378334,-0.0012508978789406433,0.7772376255549928,10.39913638237417,1.2052260950195512,-0.1048732841457526,-0.004391790103125558,0.00021285432910384574
0.87,0.6288545983320595,0.004732420017383592,-1.3969782156320583,0.1193240191189017,-0.11606861377976839,-0.0012504730443224285,3.12243764691338,-0.13131799290162,-0.3832200202841611,-0.10738490357781556,-0.12058019732459511,0.0003167969835671749,-0.3085402045500797,2.3008386861569767,-4.866873184970327,-1.5947264189282215,0.257690128042114,-0.0013879332475138506,0.7644048651241502,10.322345778532219,1.2094578564360663,-0.10028566430078004,-0.004883788310202364,0.0001941224460159294
0.88,0.6600479563067924,0.0036470182565812408,-1.4012920165134823,0.11809358820014103,-0.11725566864950387,-0.0012470882732450546,3.1193357974732874,-0.10854017608023517,-0.4313800881424002,-0.12304309187606757,-0.11870548697354863,0.00033847710773739746,-0.7609628847713724,2.0405262177557564,-4.743521554804833,-1.5484585171178615,0.25698503859073707,-0.0015977214935577744,0.6577923703211469,10.248737899471363,1.2167910485026403,-0.09477932908098653,-0.0020810994527300413,0.00016100464490681376
0.89,0.691165219554313,0.002763480637003356,-1.406075264602895,0.11671113918962249,-0.11842356533126563,-0.001243508551177064,3.1117263247520626,-0.08835376195778846,-0.47832480894124824,-0.13824490105185422,-0.11678966817617582,0.0003579722067990617,-1.2467869078214726,1.7822541776160445,-4.604054025739568,-1.497418640002838,0.25983999730407525,-0.001984321683382962,0.5396961291606823,10.174727317105354,1.2239374733189994,-0.08898789994523502,0.0011072515754805357,0.00012544575201873487
0.9,0.722157978143522,0.0020561015122069664,-1.4113142087559276,0.11518170504302176,-0.11957161086673987,-0.0012397568117281897,3.0992758589208997,-0.07073791247963893,-0.5238944153032755,-0.15294341466007247,-0.11480455354742293,0.00037517394488742115,-1.7303481943706878,1.5139863881004056,-4.449571201767265,-1.4420160793837393,0.26561178873036173,-0.002395368043777102,0.42020265075719204,10.094390800824133,1.2286031142024818,-0.08334203979144676,0.004316544650264772,8.90141415059936e-05
0.91,0.7529780421305049,0.0014981844313892254,-1.4169936170916,0.11351075898159584,-0.12069891581104929,-0.0012358536248532946,3.0820063986982853,-0.05579170808177409,-0.5679408335672366,-0.16709460614259253,-0.1127304944309413,0.00039031868748950674,-2.2098522685201814,1.2849849976996137,-4.281337260875555,-1.3825642444420865,0.27322744512455266,-0.002794531844925646,0.2995564612216132,10.029314866197693,1.2377189515319942,-0.07666722019146545,0.007632797327691064,5.2605430300140465e-05
0.92,0.7835776216655623,0.0010669499371130332,-1.4230968744911185,0.11170414477645378,-0.12180446376506483,-0.0012318179131077822,3.0599579535057444,-0.043123449427619226,-0.6103257399518641,-0.18066142051420594,-0.11055479540155391,0.0004035711745512401,-2.6841700112982916,1.0494120242598945,-4.100390325094922,-1.3197809204343862,0.28199758769464545,-0.003183524358841172,0.1771734672550812,9.9591102065859,1.2444604667291923,-0.07018433572954742,0.011025473497346016,1.623365606703069e-05
0.93,0.8139094399052736,0.0007389686913028684,-1.4296061144628758,0.10976804999008472,-0.12288716642905934,-0.0012276669899712019,3.0331818239711352,-0.03279812458101648,-0.650923997175719,-0.19360947863690703,-0.10827026639945075,0.0004150923136580168,-3.1522419170345173,0.8586372677961368,-3.9081415278163694,-1.2539586038407737,0.2913794337498956,-0.003560500756425722,0.05307693020476889,9.906619297679452,1.2562247544699203,-0.06262954055000396,0.014593644755280848,-1.9149975363765417e-05
0.9400000000000001,0.843926839360137,0.0004952792308547281,-1.4365023292930086,0.1077089353547269,-0.12394589522881189,-0.0012234174279120698,3.001739945486342,-0.02436894604481403,-0.6896214830132809,-0.20591146353578055,-0.10587287997525573,0.00042495620591321745,-3.613024580717517,0.6813066515699839,-3.7057449229102772,-1.1858192511140508,0.3010668058441155,-0.003928164853079119,-0.07333256921169451,9.857956633086577,1.2683133599277885,-0.054858919145438584,0.01833166307140579,-5.329413041955383e-05
0.9500000000000001,0.8735838859606154,0.0003182641616448819,-1.4437655050228053,0.10553349578815452,-0.12497950786357144,-0.0012190849223919528,2.965704660047845,-0.017701506920984614,-0.7263175729796713,-0.21754395665723908,-0.10336126347595502,0.0004332505520117039,-4.065489731683431,0.5294382115304967,-3.4945985092054777,-1.115765574206133,0.3108029190093369,-0.004281423563091913,-0.20223797203468474,9.818601969300406,1.282427752843741,-0.04660444756836886,0.022281885744642564,-8.561144875842807e-05
0.96,0.9028354718188767,0.00019284727658069273,-1.4513747533205985,0.10324861150910337,-0.1259868654781264,-0.0012146844821404224,2.9251585858261318,-0.012541688506418916,-0.7609248297793114,-0.2284884279051151,-0.1007357614554974,0.0004400440251530511,-4.508622589576514,0.422712991366271,-3.2760535952659735,-1.0442947135176617,0.3204245828099985,-0.0046176587367685595,-0.33389263990266704,9.79776043922492,1.3015257424704831,-0.03737007713407456,0.026506750160206156,-0.00011531280274017697
0.97,0.9316374166145123,0.00010845425346265489,-1.459308434708654,0.1008612861366954,-0.12696684217373988,-0.001210230623573802,2.8801944795635563,-0.008439302311803783,-0.7933681388055478,-0.23873253724079768,-0.09799766956134691,0.0004453858566620224,-4.94142793667388,0.3156802506214546,-3.0513620061469147,-0.972029807565538,0.32984467393026407,-0.004933008685842677,-0.46879090021734715,9.774977562535192,1.3186954516369442,-0.028419133126845464,0.03096310262394046,-0.00014238503946889953
0.98,0.9599465666231789,5.448422762842499e-05,-1.4675443109207793,0.09837862562678056,-0.12791833858155457,-0.0012057368454896384,2.8309150008666646,-0.00539700258342299,-0.8235876212125314,-0.24826605099148466,-0.09514964078146944,0.00044937780841635956,-5.362936738143682,0.228549591268514,-2.8220510439898545,-0.8991802809627538,0.33893402056476774,-0.005219878437693115,-0.6068201631945962,9.759575733436309,1.3369621480689489,-0.019243259525292156,0.035686609758127014,-0.0001662703214978485
0.99,0.9877208915730182,2.2322798327883097e-05,-1.4760596831593689,0.09580779733514345,-0.1288402889800388,-0.0012012158115170723,2.777432494983935,-0.003216142930054189,-0.8515372238589587,-0.2570828291637102,-0.0921950398484229,0.0004521033972566137,-7.966007821107222,10.402216159504242,-1.6288102939723075,-0.6293718395820349,0.3692319550477947,-0.005476715859001502,-1.4562137212155675,14.684597792849786,3.099112361468136,0.3150038920910613,0.08567692002999683,-0.00010935028735523263
