tonegas/nnodely-applications/joint_friction_estimation/dataset/train/mpc_mujoco_episode_11.csv
time,q1,q2,q3,q4,q5,q6,dq1,dq2,dq3,dq4,dq5,dq6,ddq1,ddq2,ddq3,ddq4,ddq5,ddq6,tau1,tau2,tau3,tau4,tau5,tau6
0.0,0.0,1.57,-1.57,0.0,0.0,0.0,0.0,0.0,0.0,0.0,0.0,0.0,3.484737194608691,1.7399635466546262,11.687961138443203,4.68339610556945,0.5049108816978283,-4.734559298391616e-06,0.48602879672356764,-1.4569186630463844,-2.431341312001471,-0.49500847007887927,0.043939287743228216,0.0003475578123620115
0.01,0.00034664876902324604,1.5701775448190645,-1.5688360092666815,0.0004372284142680158,4.267303668986191e-05,6.782389648807842e-07,0.0346648769023246,0.017754481906441764,0.11639907333184925,0.04372284142680158,0.004267303668986191,6.782389648807841e-05,3.474754137261759,1.779111101695293,11.641470962690368,4.371861299985021,0.4265346485776753,0.006761873270118457,0.48806703091214,-1.4647932770953704,-2.432321589404722,-0.4948678922139791,0.04408422907991508,0.0003474544794687481
0.02,0.0010386903511212591,1.5705366959024152,-1.5665144726035254,0.001287137600922277,0.00012322606422736335,2.0726595698048578e-06,0.06920415820980132,0.03591510833508167,0.23215366631561368,0.08499091866542613,0.008055302753750144,0.00013944206049240737,3.4620517630665844,1.8191316424963535,11.574392780596344,4.124055463656177,0.3782288924782158,0.0070680169992929365,0.4914219234203808,-1.4870450591751658,-2.4357195949954504,-0.4947875606806935,0.044301133342234914,0.0003452419788690658
0.03,0.002074706251137054,1.5710815413767658,-1.5630434096755261,0.0025299960188513862,0.00023867158693261035,4.142181805823941e-06,0.10360159000157948,0.05448454743505893,0.3471062927999337,0.12428584179291093,0.011544552270524698,0.00020695222360190836,3.447520436154911,1.85908657844331,11.49112774792866,3.9239326532488263,0.34779111923474204,0.006519214571778065,0.49602357669726443,-1.5237046505288765,-2.4415981054139904,-0.49477826527370894,0.044583533650650764,0.0003408559190751192
0.04,0.0034531615325882744,1.5718161158045718,-1.5584320909153029,0.0041496682075425045,0.00038709356371221984,6.845381026594211e-06,0.13784552814512205,0.0734574427806035,0.46113187602233063,0.16196721886911183,0.014842197677960947,0.0002703199220770269,3.4316016079976435,1.898176208452314,11.394876840910495,3.7592377359202516,0.3278803053474135,0.005899676185227243,0.5017717961484723,-1.574780193575405,-2.4499983521217263,-0.49484196376511413,0.04492229109880224,0.00033421775552969376
0.05,0.005172422988215835,1.5727443306588418,-1.552690806120167,0.006132682220251823,0.0005672041291434289,1.0147545456271745e-05,0.17192614556275607,0.09282148542698711,0.5741284795135971,0.19830140127093188,0.018011056543120907,0.00033021644296775344,3.4144565337986537,1.9357094486893596,11.28791089698475,3.620608130448886,0.31407415009996953,0.005282217214568341,0.5085361496756017,-1.640247613640121,-2.460938164854508,-0.4949716848361455,0.045305712890462,0.0003252315197447555
0.06,0.0072307595910418715,1.573869913248894,-1.545830705114563,0.008467516353504444,0.0007780761492777223,1.4018622594758457e-05,0.20583366028260364,0.11255825900523056,0.6860101005604079,0.23348341332526204,0.021087202013429337,0.0003871077138486712,3.396069369472209,1.971081750305686,11.171779510807767,3.5008880241681837,0.3037163667221918,0.004651131395143615,0.5161557554630124,-1.7200403336044237,-2.4744102103877412,-0.4951514444947478,0.04571966361376271,0.0003137846766929213
0.07,0.009626331490281687,1.575196352461536,-1.5378636944733681,0.011144053041124003,0.0010189823516128223,1.8430978304091418e-05,0.23955718992398156,0.13264392126420588,0.7967010641194818,0.26765366876195584,0.024090620233510003,0.00044123557093329603,3.376310640785618,2.0037590941721457,11.047473338783776,3.39460418467322,0.2952221948781588,0.0039902096614117255,0.5244389908001873,-1.8140384790797404,-2.4903802971884637,-0.49535619303949663,0.04614768188917678,0.00029975129566583373
0.08,0.012357171440553136,1.5767268501530212,-1.5288023778305755,0.014153160089849858,0.0012892991478468435,2.3357886883472115e-05,0.2730839950271449,0.15304976914852497,0.9061316642792724,0.3009107048725855,0.02703167962340212,0.0004926908579380696,3.3549768505288915,2.033266539620192,10.915550812000852,3.2975657998703767,0.287658237283102,0.003291182120833902,0.5331633077248649,-1.9220577030396582,-2.508785746362416,-0.49555180885302896,0.04657111318059226,0.0002829965807546156
0.09,0.015421161130989007,1.578464277379333,-1.5186600299874813,0.017486368892982357,0.0015884497940249333,2.877260984294994e-05,0.30639896904358715,0.1737427226311844,1.0142347843094264,0.33332088031325,0.02991506461780898,0.0005414722959477825,3.331815804555863,2.059180200945859,10.776237704576992,3.206559572090974,0.28048783214963,0.002551792161636257,0.5420753413661632,-2.0438378173458767,-2.529533852558548,-0.4956951555603484,0.04696926818900793,0.0002633822646328902
0.1,0.018816004038705363,1.5804111349167351,-1.5074505970785326,0.02113562652088138,0.0019158715240077473,3.464786527886204e-05,0.33948429077163556,0.19468575374022165,1.120943290894867,0.36492576278990246,0.0327421729982814,0.0005875255435912098,3.3065434648457153,2.0811218061455232,10.629506044429778,3.1191178980363787,0.27341648170914823,0.0017734370644975073,0.5508914991360532,-2.1790314693347894,-2.552500476898964,-0.4957342197459864,0.0473196150456809,0.00024077260053376225
0.11,0.022539195939593696,1.5825695177230192,-1.4951887166022613,0.02509310415633827,0.002270997333230544,4.095554689753605e-05,0.37231919008883335,0.2158382806284012,1.2261880476271245,0.39574776354568886,0.03551258092227966,0.0006307681618674012,3.2788558315877636,2.0987551946414444,10.475137328868268,3.0333430592617674,0.26629776994654897,0.0009594524339875399,0.5592992193648031,-2.327193146492113,-2.5775288284783846,-0.49560834701870715,0.047598012351431435,0.00021504079465646617
0.12,0.02658799392828351,1.5849410831381465,-1.481889752296833,0.029351048608739442,0.00265324674159018,4.766660076356199e-05,0.40487979886898157,0.2371565415127268,1.329896430542827,0.4257944452401173,0.03822494083596358,0.0006711053866025942,3.2484379452057612,2.111784257815526,10.312773819262352,2.9477742845566937,0.25907585161534286,0.00011393720533314777,0.5669590833387415,-2.4877688312087485,-2.604428501892203,-0.49524859438134783,0.04777898883459363,0.00018607576151978263
0.13,0.03095938464225303,1.587527022732332,-1.467569839726369,0.03390166690468089,0.003062022071767245,5.47510002241266e-05,0.4371390713969522,0.25859395941854446,1.4319912570464077,0.45506182959414454,0.0408775330177065,0.0007084399460564608,3.214971234973106,2.1199519336713255,10.141960763399258,2.8612875834633655,0.25175006233424035,-0.0007590552326370847,0.5735079522598215,-2.6600866595194823,-2.6329748456453994,-0.49457821632770604,0.04783607391639898,0.00015378908923671165
0.14,0.035650052299470866,1.5903280377882254,-1.452245939116862,0.038737036446309964,0.003496708114113714,6.2177779959906e-05,0.4690667657217838,0.28010150558935415,1.5323900609506944,0.4835369541629076,0.04346860423464688,0.00074267797357794,3.178139911008359,2.123039945918996,9.962181673538854,2.773020589453914,0.2443529267876876,-0.0016560805335728013,0.5785632781796591,-2.843348960756132,-2.662908740027625,-0.4935133006406922,0.04774218171128895,0.00011812208767008475
0.15,0.0406563471119507,1.593344318457679,-1.4359358924949452,0.0438490351305636,0.003956673857230568,6.991510312696103e-05,0.5006294812479832,0.3016280669453568,1.6310046621916894,0.5111998684253639,0.045996574311685336,0.0007737323167055023,3.1376367715166076,2.1208690362097684,9.772888227557427,2.682316449142924,0.23693630392826925,-0.0025746965560990986,0.58172870378588,-3.0366260670764404,-2.6939368629321776,-0.4919635673734056,0.04747004892050632,7.9052769875427e-05
0.16,0.04597425460900309,1.5965755266670068,-1.418658482582425,0.04922928726955143,0.0044412754535272415,7.793034395294607e-05,0.5317907497052388,0.32312082093278227,1.727740991252003,0.5380252138987828,0.048460159629667376,0.0008015240825985049,3.093168598346755,2.1132994820401105,9.573525923843636,2.5886821735969825,0.22956249835962694,-0.0035137328197745177,0.5826010190347877,-3.2388522807810123,-2.7257325180995458,-0.489833340923736,0.046992724707278784,3.660259218122696e-05
0.17,0.051599366381326256,1.6000207828609199,-1.4004334912183056,0.05486912224952127,0.004949859887588577,8.619017369500106e-05,0.5625111772323164,0.34452561939131,1.8224991364119463,0.5639834979969834,0.05085844340613357,0.0008259829742054992,3.044461193378893,2.100231726444111,9.363556276769607,2.4917579253903064,0.2222984273105606,-0.0044734663716696765,0.580778482886731,-3.4488243716325573,-2.75793709279891,-0.48702270060102665,0.046284108014346514,-9.157245324762655e-06
0.18,0.05752685273281253,1.603678656676952,-1.3812817553448609,0.060759543693447056,0.0054817689981718955,9.46606416218267e-05,0.5927486351486271,0.36578738160321783,1.9151735873444746,0.5890421443925784,0.05319091105833183,0.0008470467926825648,2.9912640369422614,2.0816069724219193,9.142476053792658,2.3912945253250193,0.21521169089379732,-0.005455724838852927,0.5758704467120782,-3.6652029460553646,-2.790162202972086,-0.48342881019618034,0.045319524978695354,-5.810015548642945e-05
0.19,0.06375143769661573,1.6075471616312242,-1.361225218827938,0.06689120751164448,0.006036343617927955,0.00010330724529337764,0.6224584963803199,0.3868504954272133,2.005653651692291,0.6131663818197424,0.0554574619756059,0.000864660367155093,2.9333545099979896,2.0574076177977134,8.909833786324333,2.2871370830421363,0.20836784834889777,-0.006463932152122709,0.5675081344180991,-3.8865169865549714,-2.821992577085925,-0.47894742285696223,0.044076336228231164,-0.00011003940869794759
0.2,0.07026737683328871,1.611623753874574,-1.3402869786063585,0.07325440768259513,0.0066129276660008085,0.00011209498627075078,0.6515939136672975,0.4076592243349705,2.09382402215794,0.6363200170950647,0.057658404807285395,0.0008787740977373133,2.8705416048869297,2.027657427750007,8.665243369408154,2.179213131143417,0.2018284749967041,-0.007503109338317326,0.5553563465897883,-4.111171820625623,-2.85298974715179,-0.4734745596413759,0.04253456107089353,-0.00016472450406843932
0.21,0.07706843818092497,1.6159053350470707,-1.3184913239186948,0.07983906893684653,0.0072108720739955156,0.00012098840873931696,0.680106134763627,0.4281581172496748,2.1795654687663575,0.6584661254251407,0.05979444079947071,0.0008893422468566176,2.802669052522919,1.9924213662772656,8.408393658765112,2.0675240028643955,0.19564973653776185,-0.00857984076584728,0.5391257672757808,-4.337460777190525,-2.882696703817163,-0.4669083804979017,0.040677503135988155,-0.000221838912998252
0.22,0.08414788667109883,1.6203882592205012,-1.295863767723892,0.08663474574319188,0.00782953845526471,0.00012995161952891138,0.7079448490173866,0.44829241734305747,2.262755619480291,0.6795676806345351,0.06186663812691941,0.0008963210789594429,2.729617139993429,1.9518044521855864,8.139129015280421,1.9521372634554126,0.18988130739258402,-0.009702214626921446,0.5185853681231885,-4.563571191580515,-2.910633056376602,-0.45914861411155017,0.03849235042751543,-0.0002809979556499854
0.23,0.09149847219559798,1.6250683438551707,-1.2724310625158053,0.0936306274958964,0.008468302444216317,0.00013894828792141803,0.735058552449914,0.46800846346694835,2.343270520808669,0.6995881752704514,0.06387639889516072,0.0008996668392506647,2.6513059716759004,1.9059524058192796,7.857250892697515,1.8331889543407733,0.18456552789310265,-0.010879758157929853,0.4935748121388001,-4.787629284906597,-2.9363291048867737,-0.4501055831013459,0.0359707680193815,-0.00034175378280414776
0.24,0.09911242165209655,1.6299408847311179,-1.2482212198332423,0.10081554891049202,0.00912655665287886,0.00014794162730458917,0.7613949456498572,0.48725408759472133,2.420984268256288,0.7184921414595612,0.06582542086625433,0.000899333938317114,2.56769448030738,1.8550477519780033,7.56277518316624,1.7108671115849639,0.179736743670734,-0.01212331760280927,0.4640155769216382,-5.007688704595591,-2.9592973736314407,-0.43969358011852444,0.03310939121988694,-0.0004035932153504283
0.25,0.10698143487628985,1.6350006745998347,-1.2232635085059353,0.10817800587504656,0.009803713188877645,0.0001568943557792822,0.7869013224193299,0.5059789868716857,2.495771132730684,0.7362456964554537,0.06771565359987845,0.0008952728474693023,2.478781448857074,1.799309206538701,7.255787898634014,1.5854184711524155,0.17542069216098888,-0.013445000376748562,0.42992099765060865,-5.2217743564222925,-2.9790592536671086,-0.4278377693279112,0.02991027519066918,-0.00046594537936662356
0.26,0.11509668456639076,1.6402420254148817,-1.1975884456438988,0.11570617642950363,0.010499205690685211,0.00016576863766160107,0.8115249690100915,0.5241350815047031,2.5675062862036535,0.7528170554457081,0.0695492501807567,0.0008874281882318869,2.384604797623173,1.7389889679867778,6.936445110156821,1.4571429148734296,0.17163397235771072,-0.014858059782626443,0.3914042117796187,-5.427908298333461,-2.99515204458793,-0.4144760922958399,0.0263812388929133,-0.0005281883601078299
0.27,0.12344882013376085,1.6456587938729448,-1.1712277804134117,0.12338794644876047,0.011212490836356455,0.00017452600648324042,0.8352135567370089,0.5416768458063004,2.6360665230487172,0.7681770019256843,0.07132851456712434,0.0008757368821639345,2.285244144498787,1.6743725425292564,6.604598949553716,1.3263950835782445,0.1683835350563232,-0.016376793471416073,0.348684156416669,-5.624175152312706,-3.00718758898278,-0.3995738384528976,0.022536156113357075,-0.0005896650385021888
0.28,0.1320279757368334,1.6512444100791477,-1.1442145070811158,0.1312109380394703,0.011943049297044019,0.00018312727476476327,0.8579155603072548,0.5585616206202809,2.7013273332295884,0.7822991590709826,0.07305584606875641,0.0008601268281522843,2.180793934668163,1.6057558831195036,6.2620858834344855,1.1935185100459123,0.16566607285901291,-0.01801636650698102,0.3020847036915667,-5.808515341784329,-3.01454272708548,-0.38304674341794714,0.018394725816269053,-0.0006496474723741985
0.29,0.1408237798411127,1.6569919081134798,-1.116582684465879,0.13916254846537424,0.012690385992663585,0.000191532400914688,0.8795804104279289,0.5747498034332207,2.763182261523682,0.7951610425903949,0.07473366956195669,0.0008405126149924736,2.071623053812183,1.5336301359134377,5.8899330327126656,1.0593708890906193,0.1634679934222394,-0.019793155916556504,0.2520694046257671,-5.980926741060536,-3.019514090166723,-0.36554253936447567,0.01398615514310467,-0.0007078057267883035
0.3,0.1498253920071432,1.6628939667880218,-1.0883692836979104,0.14722991327724233,0.013454030630781188,0.00019970062113755995,0.9001612166030523,0.5902058674542029,2.821340076796874,0.8067364811868094,0.07636446381176033,0.0008168220222871952,1.9604367911339904,1.4599083854379027,5.288721886661921,0.9272285556502879,0.16177936220308808,-0.021719785165261074,0.19954476326084233,-6.156823279848739,-3.0494452010460895,-0.3539337368201173,0.009381087776602785,-0.0007674204087881706
0.31,0.1590217710331769,1.6689430164775796,-1.0596336474116759,0.1553990675839457,0.014233547389987148,0.00020759305002761758,0.919637902603371,0.6049049689557814,2.873563628623456,0.8169154306703366,0.0779516759205959,0.000789242889005762,1.8464105713104504,1.3832657858830062,4.600101012884339,0.7834863946973982,0.16062646775785971,-0.023766222979650364,0.1452430558822184,-6.317645331542481,-3.0851268057122625,-0.34368502539507767,0.0046235533942269105,-0.000824665618861764
0.32,0.16840159393992107,1.675131180774936,-1.0304437504606951,0.16365468207224398,0.015028532834579621,0.00021517034626818566,0.9379822906744167,0.6188164297356404,2.9189896950980714,0.8255614488298273,0.07949854445924737,0.0007577296240568095,1.7286404111382696,1.30316602378862,3.9371717803886046,0.6255677167705862,0.15993776007961458,-0.025960489889903626,0.08989039926634407,-6.451132828537692,-3.1108958274596294,-0.33109322958828913,-0.0002450459171060085,-0.0008763936476258609
0.33,0.1779531669003853,1.6814502723419285,-1.0008651671478836,0.17198048341123426,0.01583860729723555,0.00022239062239581413,0.9551572960464207,0.6319091566992323,2.9578583312811517,0.8325801338990271,0.08100744626559282,0.0007220276127628476,1.6071940728856071,1.22021284741327,3.3116587347999085,0.4591777470506475,0.1595825548496812,-0.02833616572524722,0.03428559155883998,-6.556041966366361,-3.1248620567004584,-0.3158052241057714,-0.005174680692055549,-0.0009216989199927178
0.34,0.18766443225078022,1.687891853160646,-0.9709598880904701,0.18035976287858496,0.0166634064390862,0.0002292092240108452,0.9711265350394934,0.6441580818717535,2.9905279057413576,0.8379279467350698,0.08247991418506503,0.0006818601615031078,1.4821645335430027,1.1350221753063918,2.732183902012409,0.2894384718487615,0.15942402837129865,-0.030907912218106348,-0.020772569995747614,-6.632071809863334,-3.1256638039664666,-0.2975893967614586,-0.01011489156374486,-0.0009598477278847772
0.35000000000000003,0.19752297808494748,1.6944472946684883,-0.9407854431156992,0.18877582118577588,0.017502572352881732,0.0002355788027722476,0.9858545834167267,0.655544150784231,3.017444497477087,0.8416058307190926,0.08391659137955315,0.0006369578761402368,1.3536388672570892,1.0481876156059318,2.2088371045188673,0.12077867378365958,0.15931747930230067,-0.03368708057915673,-0.07451315003915748,-6.679427450388034,-3.111833415317391,-0.27617815677093827,-0.01501658939866123,-0.00099019122622551
0.36,0.20751604735609222,1.701107836230397,-0.9103938841662875,0.19721236533817219,0.018355743918129226,0.00024144936789516,0.9993069271144727,0.6660541561908765,3.0391558949411714,0.8436544152396314,0.08531715652474932,0.0005870565122912424,1.221757265216467,0.96031746294483,1.7394294870308666,-0.042774208388034474,0.15910814722387023,-0.03668529871536305,-0.1262149809747275,-6.699653027248486,-3.083682116118954,-0.251728504614239,-0.019832378721180557,-0.0010124650119449497
0.37,0.21763055229780282,1.7078646405466027,-0.879831971764017,0.2056538092078544,0.019222546722129207,0.000246768477901214,1.011450494171061,0.6756804316205635,3.0561912402270557,0.8441443869682203,0.08668028039999813,0.0005319110006053988,1.086575868456732,0.871912804515624,1.3348956980807276,-0.19835161161949388,0.15863221602188649,-0.03991165675750596,-0.17522273434429295,-6.693744121020166,-3.039806397857936,-0.22396885018650134,-0.024518830440251833,-0.001026236477742974
0.38,0.22785308064553209,1.7147088436393452,-0.8491400840388672,0.2140855503589535,0.020102581694888898,0.00025148118918977264,1.0222528347729274,0.6844203092742489,3.0691887725149773,0.8431741151099111,0.08800349727596901,0.0004712711288558625,0.9482246949966826,0.7835052455387466,0.9835769300321447,-0.343099134576899,0.1577103597119902,-0.043378379380754374,-0.22096820376700688,-6.664351810098045,-2.981969151296892,-0.19338821561203406,-0.02903558677075349,-0.0010316795129140814
0.39,0.23816990920155443,1.7216315999673903,-0.8183533380631969,0.2224941306238674,0.02099541333716298,0.00025553028925454394,1.0316828556022337,0.6922756328045085,3.078674597567032,0.8408580264913897,0.08928316422740805,0.000404910006477128,0.8067302028171245,0.6954863043253339,0.6973807218207663,-0.47556408800931194,0.1561518141781706,-0.047092733007645105,-0.2629582184032845,-6.612821564803941,-2.9087700572501887,-0.159697707252341,-0.03334711181721976,-0.001028550251535235
0.4,0.2485670073193479,1.7286241224128474,-0.7875004119640201,0.23086740531169592,0.021900556152473164,0.0002588561351243538,1.0397098117793473,0.6992522445457019,3.085292609917675,0.8373274687828526,0.0905142815310185,0.0003325845869809826,0.6621519542205826,0.6082654617295672,0.46385673013057754,-0.5940170886945054,0.15374362456993795,-0.051067151140518324,-0.3008115479882094,-6.541937294727822,-2.8221804594631577,-0.12341559636236056,-0.03742240276926742,-0.0010172390664057928
0.41000000000000003,0.25903004369667754,1.735677715915065,-0.7566047519326355,0.23919461325044256,0.022817460274189585,0.00026139680893763677,1.0463036377329653,0.7053593502217665,3.0895660031384504,0.8327207938746646,0.09169041217164199,0.00025406738132830115,0.5145238467031298,0.522159980127451,0.27233543642938474,-0.6977845825386503,0.15025466526981401,-0.05530855094231438,-0.33422246774818226,-6.454098247990052,-2.7239831851682688,-0.08501197124420055,-0.041233331379324174,-0.0009981631677777403
0.42,0.2695443907587345,1.7427838037220262,-0.7256856121295271,0.24746637459378187,0.02374549572567686,0.00026308823562457316,1.0514347062056972,0.710608780696135,3.0919139803108435,0.8271761343339317,0.09280354514872759,0.0001691426686936373,0.36384858166900386,0.4374131516964384,0.11474682561988248,-0.7869074140270085,0.14542816151416926,-0.059821300083334666,-0.36296058265299314,-6.351327814594721,-2.6156404770582107,-0.04487669057060675,-0.04475469608750964,-0.0009717390707439054
0.43,0.28009512609988413,1.7499339479850768,-0.6947588448634326,0.25567464661938255,0.024683934766082105,0.0002638642287902843,1.0550735341149626,0.7150144263050529,3.092676726609447,0.8208272025600679,0.09384390404052428,7.759931657111306e-05,0.2101145655546608,0.35421997739412664,-0.019391395982900933,-0.8618123095628488,0.13897438385493843,-0.06460694148557906,-0.3868712242925124,-6.2354912879970685,-2.4989651380320166,-0.003482311040581068,-0.04796382772658067,-0.0009384852986418084
0.44,0.29066703265556104,1.7571198655965694,-0.6638379303847839,0.26381263928645193,0.025631932069260836,0.0002636565728536584,1.0571906555676929,0.7185917611492479,3.0920914478648753,0.81379926670694,0.09479973031787298,-2.0765593662588878e-05,0.0533364150801125,0.27274219278480644,-0.1490087826581661,-0.923263246753978,0.13056510911316832,-0.06966122909833257,-0.4058657476512384,-6.108376579150751,-2.376943001020283,0.038413311788505544,-0.05083891543702343,-0.0008991442038807346
0.45,0.30124460160053157,1.7643334394899242,-0.632935838303085,0.2718746671285512,0.026588502783900403,0.0002623952790967727,1.0577568944970532,0.7213573893354679,3.090209208169892,0.8062027842099239,0.09565707146395666,-0.00012612937568857126,-0.10646883932099209,0.19308609509328165,-0.2843597359560061,-0.9726835675722523,0.11983035604504225,-0.0749686694519754,-0.41990128733635385,-5.971100607743832,-2.251397569410457,0.08032754455535224,-0.053358672791430875,-0.0008542918172310257
0.46,0.31181203572249,1.7715667279765837,-0.6020660425434814,0.2798559916526757,0.02755249749088464,0.00026000878828903045,1.0567434121958403,0.7233288486659536,3.0869795759603633,0.7981324524124553,0.09639947069842383,-0.0002386490807742264,-0.2679643601547609,0.1156964564112424,-0.5392901037496755,-1.0098183397377223,0.10633676322997432,-0.08050352854190529,-0.42892096783675543,-5.826344305080592,-2.138268748338248,0.1183556243814385,-0.05548301395484074,-0.0008068905613463699
0.47000000000000003,0.32235338256332413,1.778811985898301,-0.5712536985328925,0.287752337735108,0.02852258216925746,0.000256425939930817,1.054134684083413,0.7245257921717185,3.0812344010588864,0.7896346082432282,0.09700846783728202,-0.00035828483582134557,-0.4307258208735621,0.04043046382072984,-0.9088967460933621,-1.0406498627822658,0.08967329549706071,-0.08617944824648488,-0.43281909211842046,-5.672653695144391,-2.03753093795618,0.1523762606084449,-0.057171123593691434,-0.0007571721894878251
0.48,0.33285257826967324,1.786061661725068,-0.5405351988040531,0.2955594543499923,0.029497211464589848,0.00025157637139466973,1.049919570634912,0.7249675826767111,3.071849972883946,0.7807116614884296,0.09746292953323885,-0.0004849568536147299,-0.5956826859675949,-0.03306139226932533,-1.2925815514881127,-1.0713650989754382,0.06936348393703762,-0.0919015150365307,-0.4316741271759378,-5.5080184592434955,-1.9361444781694235,0.18541289890412044,-0.058406557447123024,-0.0007032461597907993
0.49,0.3432933588722736,1.7933083905693907,-0.5099483280646717,0.30327306936266385,0.03047458794297096,0.000245389642650061,1.0440780602600357,0.7246728844322693,3.0586870739381333,0.7713615012671559,0.09773764783811105,-0.0006186728744608761,-0.7629834611946871,-0.10461048154896285,-1.6696937991448213,-1.1014956480457334,0.04479207842942401,-0.09758964584831328,-0.4257851858595114,-5.333374618397782,-1.8317410324006251,0.2179930545274331,-0.059184339306416825,-0.0006452151272504034
0.5,0.35365924842980134,1.8005450153952898,-0.4795302320435481,0.3108890172296517,0.0314526182912008,0.00023779600958513767,1.036588955752777,0.723662482589898,3.0418096021123593,0.7615947866987841,0.09780303482298447,-0.0007593633064923318,-0.932556695647408,-0.17395878483442112,-2.0361518563971006,-1.1296569585823741,0.015326579892168901,-0.10313128887837199,-0.4155552753879612,-5.150207014850903,-1.7241783827169705,0.2501313333626534,-0.059506638329524186,-0.0005836322865382414
0.51,0.3639335693191547,1.8077646129175557,-0.44931700871165453,0.318403366764668,0.03242886980935059,0.0002287280891553213,1.0274320889353357,0.7219597522265984,3.0213223331893553,0.7514349535016347,0.09762515181497926,-0.0009067920429816369,-1.1039510403952868,-0.24080505914828917,-2.41749291621022,-1.1543139827630027,-0.019649137908325454,-0.10838362778380561,-0.40145008868143794,-4.96011436094517,-1.6173329795605509,0.2808873738580226,-0.05937697932303392,-0.0005197751135238029
0.52,0.37409949031530454,1.8149605202208,-0.41934620948044643,0.3258124370677923,0.033400531114716116,0.00021812349016713537,1.0165920996149833,0.7195907303244136,2.9970799231208107,0.7409070303124252,0.09716613053655221,-0.0010604598988185933,-1.244836543154928,-0.301695519256741,-6.1034958482679516,-1.1340730656321032,-0.061204305924885016,-0.11315921707928386,-0.38351732490045,-4.7580904378212034,-1.9567514863840538,0.2032664907325774,-0.05820685968180786,-0.0005305899049756077
0.53,0.3841431734695559,1.822126373288786,-0.38997999641630343,0.33310262538686125,0.034364665251197316,0.00020597734565017014,1.0043683154251362,0.716585306798605,2.936621306414299,0.7290188319068978,0.09641341364811995,-0.0012146144516965228,-1.3856756779268937,-0.36271654430324785,-8.918926411970718,-1.2520815289239948,-0.1061332706575775,-0.11537094968235362,-0.35832311017987145,-4.519378439654575,-2.1850441996206302,0.14817244147196237,-0.056053364182045776,-0.0005182795226497967
0.54,0.3940508224605223,1.8292560749980507,-0.3614956173610383,0.3402527927255494,0.035318046019395026,0.0001922930822726272,0.9907648990966422,0.7129701709264714,2.8484379055265103,0.7150167338688183,0.09533807681977101,-0.001368426337754295,-1.5245274967637428,-0.4200068635438814,-10.996203372111633,-1.4453600217810916,-0.15580349199256016,-0.11538533230757325,-0.3284829661001294,-4.2635563730307755,-2.319330134115101,0.11227552023186588,-0.053127998656438254,-0.0004882390890872701
0.55,0.40380887148561695,1.8363440785389902,-0.33409809928883116,0.3472387309526734,0.03625707830006158,0.00017708510565087442,0.9758049025094659,0.7088003540939534,2.739751807220716,0.6985938227123978,0.09390322806665546,-0.0015207976621752779,-1.6590983507649797,-0.47101347226402335,-12.47181432255909,-1.6702922391757689,-0.21017236391288208,-0.11312784747253435,-0.2961897381121747,-4.005543982128043,-2.3777192653993424,0.09198224837582031,-0.04962604599156617,-0.00044558305898802003
0.56,0.4134042105655379,1.8433855631564768,-0.30793344913025866,0.354036087320925,0.03717781691327389,0.00016038731078399924,0.9595339079920956,0.7041484617486763,2.6164650158572478,0.6797356368251632,0.09207386132123135,-0.0016697794866875192,-1.7870263752317797,-0.5142702771334708,-13.458446285292867,-1.8985290542400932,-0.2681294008180197,-0.10855875412725102,-0.2631751305185636,-3.7559459103619353,-2.375397942814811,0.08431815223972361,-0.045723215161465214,-0.0003944671545934844
0.5700000000000001,0.4228244180757282,1.8503765232582108,-0.2830995971914754,0.360622179044051,0.03807605861811427,0.0001422596149903059,0.9420207510190307,0.6990960101733911,2.483385193878321,0.6586091723126021,0.08982417048403828,-0.0018127695793693332,-1.905963665605339,-0.5491468474821855,-14.04950209216813,-2.1124201945314667,-0.32781700304012995,-0.10176532358993717,-0.23074489934315648,-3.5217972683238767,-2.325087039806799,0.08680698980791612,-0.041574058452971144,-0.0003382093714623736
0.58,0.4320579910519725,1.8573137912958155,-0.25965550116743774,0.3669770393840037,0.03894748581127005,0.00012279128745892114,0.9233572976244356,0.6937268037604681,2.344409602403769,0.6354860339952718,0.08714271931557742,-0.0019468327531384775,-2.0136891954101444,-0.5756359562398932,-14.322630911223087,-2.301683094814102,-0.386919039188794,-0.092973000193465,-0.19982972390774068,-3.3073160537036,-2.2374188497544,0.097379267868208,-0.03731119208413822,-0.00027940415033261747
0.59,0.44109456115695506,1.8641950118315915,-0.2376287389832783,0.3730839430474708,0.039787841838841875,0.00010210104826949726,0.903657010498252,0.6881220535776019,2.202676218415945,0.6106903663467058,0.08403560275718258,-0.0020690239189423867,-2.1082341659386215,-0.594174790675123,-14.342504136818182,-2.4610092532945984,-0.4429347662048979,-0.08252984062892321,-0.1710439163662782,-3.114590906964465,-2.121251214372905,0.11430173345851596,-0.0330453336675456,-0.0002200301120877421
0.6,0.44992508340654624,1.8710185815553553,-0.21702184997746726,0.37892958789260056,0.040593118201963777,8.033428767724422e-05,0.8830522249591182,0.6823569723763754,2.0606889005811024,0.5845644845129808,0.08052763631218995,-0.0021766760592253054,-2.18800069995109,-0.6054962179258748,-14.163016931555134,-2.5883717389168837,-0.49343587585275595,-0.07087525515444815,-0.1447456213908425,-2.9441703162362325,-1.9839323218815283,0.13612204937606048,-0.028866066808909106,-0.0001615506254055245
0.61,0.4585419858947564,1.877783567586456,-0.19781763157734386,0.384504057139011,0.041359734766164565,5.765798898110814e-05,0.8616902488210174,0.6764986031100854,1.9204218400123394,0.5574469246410437,0.076661656420079,-0.0022676298696136074,-2.2518566420874415,-0.610507496501125,-13.829053312143882,-2.6838490750701354,-0.5362925582669177,-0.05849921764239435,-0.12109393620046678,-2.795543290853485,-1.8315259235848245,0.16162460206959917,-0.024843196064209053,-0.00010500613333512646
0.62,0.46693927158364007,1.8844896141179068,-0.17998355872485025,0.3898006475141073,0.04208469621878594,3.425409565725107e-05,0.8397285688883638,0.6706046531450798,1.7834072852493599,0.5296590375096325,0.07249614526213709,-0.002340389332385707,-2.299193703435867,-0.6101942279221945,-13.377918901468655,-2.7488227525137177,-0.5698506992745563,-0.04589838459229445,-0.10010006350417294,-2.667515716749461,-1.669004129373237,0.1897945835890853,-0.021028540537370122,-5.109724375544888e-05
0.63,0.4751125672193143,1.8911368453213484,-0.16347546280701145,0.3948156208485346,0.04276571167805227,1.0312130743290244e-05,0.8173295635674217,0.664723120344157,1.650809591783881,0.5014973334427291,0.06810154592663366,-0.0023941964913960826,-2.3299425329204824,-0.6055472903640023,-12.840519039569811,-2.7854397932520953,-0.5930455577731858,-0.0335354809447711,-0.08167100747275789,-2.55849412804011,-1.5004131389512665,0.2197883183843949,-0.01745801664101243,-2.5787756997608683e-07
0.64,0.4830591189040826,1.8977257704602013,-0.14824058333281276,0.3995479169452414,0.043401269221273034,-1.3978156676969186e-05,0.7946551684768305,0.6588925138852791,1.5234879474198677,0.4732296096706801,0.06355575432207637,-0.002429028742025943,-2.3445452030599108,-0.5975102150778479,-12.242339624542762,-2.796259348316937,-0.6054452388070042,-0.021807089071045088,-0.06564537632298675,-2.4666917533278347,-1.3290160135517937,0.250908387545698,-0.014153871829133174,4.7281845902100085e-05
0.65,0.4907777380840398,1.9042571953959504,-0.13422008724069848,0.4039988519849242,0.04399066248887309,-3.843346634133445e-05,0.7718619179957203,0.6531424935748991,1.4020496092114276,0.4450935039682777,0.058939326760005684,-0.0024455309664365263,-2.3438916420407163,-0.5869441616826387,-11.604272735486578,-2.784024228886068,-0.6072270608635122,-0.011022894333508254,-0.0518215803420383,-2.3902720863938884,-1.1574157243143426,0.28258251352149255,-0.011126947627260863,9.144289278870723e-05
0.66,0.49826870511816806,1.9107321431573538,-0.1213511361435965,0.4081718176205954,0.04453397163518028,-6.288247628367512e-05,0.7490967034128261,0.6474947761403472,1.286895109710198,0.4172965635671211,0.05433091463071942,-0.0024449009942340673,-2.3292306452444334,-0.5746074580243509,-10.943317789432108,-2.7515153499563603,-0.5990986900846998,-0.0013970902962033988,-0.0399791622516434,-2.3274440668582823,-0.9876611072274037,0.3143454580037699,-0.008378870315828974,0.00013225428243435
0.67,0.505533639825352,1.917151784997233,-0.10956857001279985,0.4120719899508866,0.04503200504112818,-8.716996873280043e-05,0.7264934707183928,0.6419641839879305,1.1782566130796641,0.39001723302912233,0.04980334059478934,-0.0024287492449125304,-2.3020677828193707,-0.5611466569619066,-10.27318083465801,-2.7014600456226994,-0.5821816769840272,0.0069493852196105,-0.029894229189919443,-2.276521036932523,-0.821337924339022,0.3458233891960937,-0.005904089999231872,0.00016981892564180655
0.68,0.5125753493645774,1.9235173823893585,-0.09880626604559438,0.41570605375583164,0.045486210942554346,-0.00011115949052508944,0.7041709539225336,0.6365597392125434,1.0762303967205467,0.36340638049450286,0.04542059014261715,-0.002398952179228901,-2.2640619442370227,-0.5470962276890821,-9.604788825761885,-2.6364747944563938,-0.5578769714303592,0.013978443862481385,-0.021350031112460754,-2.235953480409378,-0.6596469157214015,0.3767203167788025,-0.0036917121561958087,0.00020428728545640959
0.6900000000000001,0.5193976636166929,1.929830239703326,-0.08899822324678079,0.4190819450028487,0.0458985693378455,-0.0001347346438308039,0.6822314252115534,0.6312857313967563,0.9808042798813585,0.3375891247017059,0.04123583952911537,-0.0023575153305714445,-2.216930040655235,-0.5328843060536697,-8.94673174140124,-2.5590297336817187,-0.5277304282720181,0.01971945330636886,-0.014143699721091528,-2.20434345652667,-0.5034704870106936,0.4068062909205286,-0.0017270884762912676,0.0002358376850629728
0.7000000000000001,0.5260052671738434,1.936091666808944,-0.0800794162317432,0.4222086131684136,0.04627147437308804,-0.00015779920916675865,0.6607603557150461,0.6261427105618097,0.8918807015037599,0.312666816556494,0.03729050352425398,-0.0023064565335954757,-2.1623663248449105,-0.5188423231240017,-8.305642657851548,-2.4714270493247064,-0.4933123193241662,0.0242518721364125,-0.00809006598511279,-2.180446777690958,-0.3534294829651584,0.4359071294329853,6.845787712304787e-06,0.0002646620638925053
0.71,0.5324035354333689,1.9423029505661937,-0.07198645568773276,0.42509580402074776,0.04660761619613509,-0.00018027635674738298,0.639826825952547,0.6211283757249612,0.8092960544010428,0.2887190852334157,0.03361418230470521,-0.002247714758062435,-2.101979632642763,-0.5052167603404636,-7.686524059786846,-2.3757884384358583,-0.45611977032482975,0.027688315537226615,-0.0030233443285624527,-2.163167411921899,-0.20993134126550328,0.46389548185053897,0.0015284838756525218,0.00029095604411861304
0.72,0.5385983804506356,1.9484653340123108,-0.06465808765006502,0.4277538629414428,0.04690986943021464,-0.00020210721244241973,0.6194845017266607,0.6162383446117076,0.732836803766775,0.2658058920695062,0.030225323407955033,-0.0021830855695036755,-2.037249138870569,-0.4921816984433281,-7.093027250120209,-2.274048802336271,-0.4175060292652257,0.030159658606438766,0.001202669650753328,-2.1515473319472984,-0.0732107645557264,0.49068307430057007,0.0028566923034275076,0.00031491229470614434
0.73,0.5445961103830514,1.9545800020255157,-0.0580355591337735,0.4301935584877333,0.04718119333030502,-0.00022324902351637932,0.5997729932415928,0.6114668013204829,0.662252851629152,0.24396955462904607,0.0271323900090384,-0.0021141811073959577,-1.9694972310579315,-0.4798512063058107,-6.527690939086189,-2.1679544941095443,-0.3786363515078369,0.031803013958182746,0.004715377856920889,-2.1447540486494536,0.05663605647471559,0.5162139961591227,0.004010163486270503,0.0003367163313727035
0.74,0.5504033047287439,1.960648072291232,-0.05206287363930489,0.43242592562954807,0.04742454666017573,-0.00024367312996761615,0.5807194345692457,0.6068070265716425,0.597268549446861,0.2232367141814782,0.024335332987071103,-0.002042410645123683,-1.8998769054179687,-0.4682909347503205,-5.992143456459151,-2.0590651134602798,-0.3404674312858147,0.032752800360515866,0.00762474814847994,-2.1420673508167973,0.17962287215338557,0.5404589338630499,0.005006946820535724,0.0003565440770114783
0.75,0.5560267062220016,1.9666705904927972,-0.04668695646607484,0.4344621278943016,0.0476428185703954,-0.0002633629007299725,0.5623401493257718,0.6022518201565288,0.5375917173230047,0.20362022647535394,0.021827191021967004,-0.001968977076235632,-1.8293705182302102,-0.4575285490421446,-5.487277262407645,-1.9487580799235946,-0.30374574032966195,0.033134695054530316,0.010024989236621906,-2.142866110945097,0.2958491284002215,0.5634101211528394,0.0058641287009579355,0.00037456054667729
0.76,0.5614731292289823,1.9726485287725384,-0.04185774703745259,0.4363133374863038,0.04783877537393785,-0.000282311748139732,0.5446423006980694,0.5977938279741125,0.48292094286222487,0.18512095920022165,0.019595680354245325,-0.0018948847409759498,-1.7587968458142835,-0.44756279221209033,-5.013390416567035,-1.8382357180700062,-0.26901962582098915,0.033062026502968744,0.01199633870829586,-2.1466159707985644,0.40548059353555443,0.5850772000963157,0.006597630631424748,0.00039091948260913293
0.77,0.5667493837648171,1.9785827866438634,-0.03752823218860948,0.4379906323294565,0.04801502213077034,-0.0003005212938956965,0.5276254535834842,0.5934257871324992,0.4329514848843114,0.16772948431527324,0.017624675683249182,-0.0018209545755964519,-1.6888235695122336,-0.4383711671780556,-4.570306403672287,-1.7285340429463698,-0.23666030983632683,0.03263407087615716,0.013606829131073781,-2.1528580294761723,0.5087332405052931,0.605483671720242,0.0072220999957408405,0.00040576346463514596
0.78,0.5718622138013986,1.984474193668451,-0.03365443223784718,0.43950490889510857,0.04817397733635195,-0.00031799972722193096,0.5112830036581432,0.5891407024587363,0.3873799950762297,0.15142765656520363,0.015895520558160802,-0.0017478433326234436,-1.6199827126897495,-0.4299163220531549,-4.157487227843668,-1.6205326992386553,-0.20688764174070207,0.031935729614336106,0.014913950153524013,-2.161198358992917,0.6058583156301939,0.6246634970049979,0.007750873456766869,0.0004192240110244854
0.79,0.5768182483091117,1.9903235133384656,-0.030195350998229196,0.44086680958586427,0.04831785870149102,-0.0003347603713608805,0.4956034507713094,0.5849319670014729,0.3459081239617982,0.13619006907557177,0.014388136513907086,-0.0016760644138949544,-1.5526875592767784,-0.422151136021155,-3.7741135026829156,-1.514966642454043,-0.1797973364924364,0.03103813363377872,0.015966171682037233,-2.1712991067054337,0.6971319506784313,0.6426586655459521,0.008195988659813719,0.00043142223864496695
0.8,0.5816239633776528,1.9961314477194223,-0.027112897644005818,0.4420866634095849,0.04844867793765338,-0.0003508204577206646,0.4805715068541149,0.5807934380956713,0.30824533542233784,0.12198538237206401,0.013081923616236096,-0.001606008635978408,-1.4872492716889245,-0.4150228121408582,-3.4191818066752293,-1.41243778578316,-0.1553874344327299,0.029999799957657558,0.01680429191690131,-2.1828699153450044,0.7828426601436451,0.6595162085555625,0.008568237707509897,0.0004424688431513873
0.81,0.5862856538210658,2.0018986425089125,-0.024371790041347322,0.4431744386057275,0.0485682425548264,-0.0003662000956354281,0.4661690443413009,0.5767194789490034,0.27411076026584963,0.10877751961425966,0.01195646171730149,-0.0015379637914763476,-1.423893899979889,-0.40847563310415075,-3.0914468218704623,-1.3134297676548314,-0.1335824008938849,0.02886807547719772,0.017462662209648816,-2.195664116936638,0.8632993606198635,0.6752899594230608,0.008877213841583657,0.0004524675275861907
0.8200000000000001,0.5908094126552993,2.0076256922451656,-0.021939433903542024,0.4441397062009804,0.048678162861997644,-0.0003809214215554206,0.4523758834233536,0.5727049736252943,0.24323561378053,0.09652675952529019,0.0109920307171243,-0.001472132591999255,-1.3627720838876274,-0.40245490452515675,-2.7900885564514972,-1.2183095084779776,-0.11425449879207528,0.027680637320851964,0.017970009195675433,-2.2094566312131443,0.938744056095838,0.6900200440232965,0.009131527604678849,0.0004615008700941708
0.8300000000000001,0.595201117546887,2.013313145508343,-0.019785843366416374,0.4449916118500777,0.048779862661616234,-0.00039500789769844,0.4391704891587698,0.5687453263177347,0.21535905371256486,0.08519056490972406,0.010169979961858993,-0.0014086476143019418,-1.302955553379513,-0.39720164669837194,-2.6505921654245372,-1.1259034808675876,-0.09726857575081166,0.026467184065393112,0.018309972040454987,-2.220455109800994,0.9914199819483451,0.6995446107813931,0.009369880002289542,0.0004663940854652549
0.84,0.5994665201288607,2.018961524517747,-0.01789695629930265,0.4457384644281183,0.048874605198512125,-0.00040848170234160234,0.4265402581973691,0.5648379009404089,0.18888870671137248,0.07468525780406468,0.009474253689588758,-0.0013473804643162317,-1.2444801354077328,-0.39224901098258996,-2.6356763357176427,-1.0417767358279724,-0.08221161839002405,0.025279393837432163,0.018554806283998103,-2.229393944883611,1.026017727438118,0.7049227086111188,0.00960252305461586,0.0004680319755484228
0.85,0.6036112434349803,2.024571357672499,-0.016270989836614572,0.4463874075762538,0.048963518890642745,-0.0004213640172114778,0.41447233061195776,0.5609833154752148,0.16259664626880785,0.06489431481354793,0.008891369213061915,-0.0012882314869875461,-1.1880182500557819,-0.38705346148119474,-2.621884780244105,-0.9702456074949479,-0.06871520062201111,0.024129345177637207,0.018785794996573638,-2.239405820556284,1.058641135404934,0.7098935665481247,0.009814966135845336,0.00046935046745744547
0.86,0.6076407182459252,2.030143192152595,-0.014906319340350206,0.44694452074280516,0.049047610655877316,-0.00043367698095190735,0.40294748109450007,0.5571834480095958,0.13646704962643666,0.05571131665513615,0.008409176523457297,-0.0012312963740429544,-1.1335540367439494,-0.38167081534615505,-2.604692181151609,-0.9093851915281208,-0.05664463218646029,0.023000962478845366,0.01901090838628224,-2.2505934824875764,1.0899740680546253,0.714622518028848,0.01000852091388041,0.00047048789270863283
0.87,0.6115601848437785,2.0356775875919997,-0.013801026239969117,0.44741499814298696,0.04912777639823969,-0.0004454436647519255,0.39194665978532045,0.5534395439404733,0.11052931003810897,0.047047740018178005,0.008016574236237342,-0.0011766683800018133,-1.0810601414478735,-0.3761645270850224,-2.580893989852056,-0.8574042974970517,-0.04587950881381905,0.02189675182519335,0.019235756464469924,-2.2630272658107327,1.1205254464838275,0.7192341334347396,0.010184228994949727,0.00047154932130039534
0.88,0.6153746957891102,2.041175109418892,-0.012952576230509345,0.44780331154616904,0.04920481051922057,-0.0004566877779682227,0.38145109453316667,0.549752182689266,0.08484500094597716,0.0388313403182053,0.007703412098088035,-0.0011244113216297214,-1.0304666142521355,-0.37061279955187804,-2.5535327504960197,-0.8126222384369992,-0.03631236565346921,0.020821111861008157,0.019462617371363653,-2.2766110206597663,1.1499791087754598,0.7236600341277855,0.010344165599907766,0.00047248978718232473
0.89,0.619089122713317,2.0466363227641233,-0.012358112043679072,0.4481133402799063,0.04927941507556713,-0.00046743328576814266,0.37144269242067174,0.546121334523108,0.05944641868302732,0.03100287337372557,0.007460455634656022,-0.0010745507799919919,-0.9817159863719528,-0.3650711697301712,-2.522537758963256,-0.7737623817481705,-0.027837042492709574,0.019778907253532596,0.019695018690921953,-2.2913273289969602,1.1784150196346186,0.7279229561473343,0.01048980126709902,0.00047333480619263983
0.9,0.6227081618830822,2.0520617874682556,-0.012014441675327446,0.44834847895025143,0.04935220835157297,-0.0004777041280206947,0.3619039169765247,0.5425464704132378,0.034367036835162665,0.0235138670345128,0.007279327600583858,-0.0010270842252552038,-0.9347458900508652,-0.35958975672227433,-2.4882005532171014,-0.7397445558027274,-0.02035456546483594,0.0187734823711366,0.019935890193799065,-2.3071477926207904,1.2058595172559554,0.7320324348506724,0.010622559573209499,0.00047409913487980797
0.91,0.6262363401999801,2.057452053685701,-0.011918062963762303,0.44851172726731264,0.04942373284252178,-0.0004875239924708431,0.3528178316897849,0.5390266217445014,0.009637871156514353,0.016324831706123265,0.007152449094881175,-0.0009819864450148388,-0.8894923273509266,-0.35421190905967215,-2.450770886353048,-0.7096704525455477,-0.013772475702849535,0.017807221382199423,0.0201878284742566,-2.3240437388913233,1.232338821560099,0.7359972941422713,0.01074376181863866,0.0004747964598845085
0.92,0.6296780213297365,2.0628076580855725,-0.012065184743878242,0.44860576472030605,0.0494944626613969,-0.000496916135627725,0.3441681129756447,0.5355604399871831,-0.014712178011593836,0.009403745299339326,0.007072981887511838,-0.0009392143156881929,-0.8458896828121707,-0.34897525534239854,-2.4106095701652537,-0.6827918983189329,-0.00800482401425337,0.016881679459713847,0.02045308157530438,-2.3419823946729577,1.257859855245135,0.7398212382001816,0.010854666954214933,0.0004754359768265325
0.93,0.6330374119655157,2.0681291206020203,-0.01245175948389149,0.44863301219539464,0.0495648103968231,-0.0005059032415300027,0.3359390635779211,0.5321462516447745,-0.03865747400132494,0.002724747508859533,0.007034773542620594,-0.0008987105902277772,-0.8038740624136116,-0.343910937501351,-2.3677570111827633,-0.6584951472531548,-0.002971754187893222,0.01599774445330958,0.020733740469394156,-2.360938528181027,1.2824675777486818,0.7435162762362352,0.010956385881795936,0.0004760327560019695
0.9400000000000001,0.6363185679104341,2.0734169416709163,-0.01307348492845072,0.4485956834802372,0.04963513341347176,-0.0005145073188477514,0.3281155944918396,0.5287821068896041,-0.0621725444559229,-0.003732871515743339,0.0070323016648660246,-0.0008604077317748636,-0.7633802400167963,-0.3390465540382014,-2.322591486837494,-0.6362622075231643,0.0014001184897171337,0.015155678596547387,0.02103149883861377,-2.3808772225222032,1.306159553610601,0.7470828738464844,0.011050017889140434,0.0004765923906284933
0.9500000000000001,0.6395254002752189,2.078671599889874,-0.013925839318115986,0.44849582743432675,0.04970573965180914,-0.0005227496200026118,0.3206832364784825,0.525465821895767,-0.08523543896652645,-0.009985604591043869,0.007060623833737618,-0.0008242301154860501,-0.7243445566280253,-0.3344046034749824,-2.2753616940752472,-0.6156720052420139,0.005178589947699125,0.01435533921743791,0.0213479040234551,-2.401766304345125,1.3289472470538568,0.7505242615757665,0.011136570718276832,0.00047712208984691806
0.96,0.6426616815173578,2.0838935500989217,-0.01500410423486352,0.4483353624855244,0.04977689294433209,-0.0005306505849234256,0.3136281242138897,0.522195020904757,-0.10782649167475344,-0.016046494880233617,0.007115329252294788,-0.0007900964920813696,-0.6867059346489345,-0.3300031145604361,-2.2261159832269737,-0.5963812880859507,0.00842595959924139,0.013596190857920902,0.02168437082272532,-2.423578433346343,1.3508660439867173,0.7538488388357537,0.011216939597099811,0.00047763252878145793
0.97,0.6457310512269027,2.0890832218040276,-0.016303368044512597,0.4481161053263074,0.04984881785556681,-0.0005382298070918543,0.3069369709544873,0.5189671705105665,-0.12992638096490783,-0.021925715921701186,0.007192491123471726,-0.0007579222168428646,-0.6504040585470581,-0.3258575439307704,-2.175095526780676,-0.5781017009744343,0.011198985680391266,0.012877362298021413,0.022042043935648903,-2.44628081346616,1.3719242197998012,0.7570583196473155,0.011291990482356126,0.0004781287024812995
0.98,0.6487370218352427,2.0942410178922306,-0.01781854850288135,0.4478397942620494,0.049921704094486374,-0.0005455060115567901,0.3005970608340028,0.5157796088202897,-0.15151804583687545,-0.027631106425801716,0.007288623891956392,-0.0007276204464935825,-0.6153810793628715,-0.32197989078156763,-2.122444400119821,-0.5606006281749529,0.013549572190480724,0.0121977859565452,0.02242194875864143,-2.4698428777976114,1.392140963956817,0.7601566213054445,0.011362509198600625,0.0004786168273320222
0.99,0.6516829840855654,2.099367313630342,-0.01954440602676075,0.44750810823067033,0.04999571052089105,-0.0005524970466127302,0.2945962250322617,0.5126295738111536,-0.17258575238793977,-0.033168603137908204,0.007400642640467551,-0.0006991035055940043,-0.5815813687597541,-0.3183795146925039,-2.0682993803238,-0.5436882194647517,0.015524933245033457,0.011556206210673983,0.022824961141447248,-2.4942340145799755,1.411534983561182,0.7631472477387088,0.01142922004233975,0.000479102336721394
