tonegas/nnodely-applications/joint_friction_estimation/dataset/train/mpc_mujoco_episode_28.csv
time,q1,q2,q3,q4,q5,q6,dq1,dq2,dq3,dq4,dq5,dq6,ddq1,ddq2,ddq3,ddq4,ddq5,ddq6,tau1,tau2,tau3,tau4,tau5,tau6
0.0,0.0,1.57,-1.57,0.0,0.0,0.0,0.0,0.0,0.0,0.0,0.0,0.0,9.77479016678177,8.992116296437182,12.474594185157137,4.566705714908082,1.3779876194367588,-6.439759818732682e-06,1.362227008556152,2.3483769719084604,-1.039451669981586,-0.2067993326511226,0.12317955696800001,0.0014759121434516243
0.01,0.0009722191133460686,1.5709006620539794,-1.5687560396036924,0.0004285398597243081,0.00011744877117012109,1.4350891363032581e-06,0.09722191133460686,0.09006620539792151,0.12439603963076326,0.04285398597243081,0.011744877117012109,0.0001435089136303258,9.748267950535489,8.950294602121684,12.285570977751131,4.217253380495599,1.1621257663601057,0.01424433715321527,1.373619787504432,2.2645680007119875,-1.0769495513440535,-0.2152606027539119,0.12386831699510252,0.0014717188553212102
0.02,0.002913309648952918,1.5726979166033963,-1.5662886741516953,0.0012572659729666172,0.00033910877974006794,4.373729334536347e-06,0.19410905356068495,0.17972545494169623,0.24673654519972066,0.0828726113242309,0.022166000856994685,0.0002938640198233089,9.708049424374861,8.898030112189218,12.060035140322505,3.924738213903616,1.025789097765525,0.014572855450957434,1.3957735799897402,2.137617484354787,-1.1217439937386704,-0.2244253232353628,0.12513341531945218,0.00146220639050298
0.03,0.005818868481228827,1.57538658838255,-1.562621630665192,0.0024620152759185533,0.0006564548385753297,8.715432237197596e-06,0.29055588322759085,0.26886717791537096,0.3667043486503193,0.1204749302951936,0.03173460588352618,0.0004341702902661249,9.65577866174522,8.833209856745604,11.80190637214815,3.673545654641906,0.9348007066304405,0.012943004812225212,1.4280839431019146,1.9680050154158,-1.1739348786500554,-0.2343162075716576,0.12691392915781222,0.0014468381685061274
0.04,0.00968348093506583,1.5789601989577868,-1.5577815292333095,0.004021627652336036,0.0010636152463459338,1.435517009814713e-05,0.3864612453837003,0.3573610575236808,0.48401014318825164,0.1559612376417482,0.04071604077706041,0.0005639737860949534,9.591874624534254,8.753948266238146,11.51408327531472,3.4518550735712665,0.8687349278444501,0.011021249152625145,1.469790553711019,1.756481760835685,-1.2334877306600345,-0.24491950780407612,0.12913140848480265,0.001425009603254793
0.05,0.014500689427623885,1.5834107889792923,-1.5517976797545148,0.005917046890892977,0.001556138966783944,2.119662642647009e-05,0.4817208492558054,0.4450590021505405,0.5983849478794712,0.18954192385569416,0.04925237204380103,0.0006841456328322959,9.516016021618288,8.658582045415535,11.198738706540382,3.2507582627884304,0.8154998955353108,0.008985498918629986,1.5199675824076961,1.5041071045011138,-1.3002265837540876,-0.25618494035164385,0.13169153266646294,0.001396054960620932
0.06,0.02026291708874711,1.5887287603742708,-1.5447019308110814,0.008130643766782417,0.0021302661243045853,2.9147527714728304e-05,0.5762227661123225,0.5317971394978463,0.7095748943433344,0.22135968758894403,0.05741271575206411,0.0007950901288258217,9.427454810504697,8.545675107054016,10.857552927987069,3.063590280816868,0.7680864233478459,0.006846088856056198,1.5775128614632936,1.2122832921880269,-1.373827937923974,-0.2680259829675721,0.1344859641895274,0.0013592732407216846
0.07,0.026961366427500754,1.5949027395242676,-1.5365285521604264,0.010645710582996525,0.002782506069643846,3.811553683474003e-05,0.6698449338753645,0.6173979149996893,0.8173378650655078,0.2515066816214108,0.06522399453392608,0.0008968009120011722,9.325224789649244,8.414029267316034,10.491897911781725,2.8854184799321985,0.7225903908158884,0.004622702120284927,1.6411386963144043,0.8827852214354568,-1.453816755268217,-0.2803207778471629,0.1373944891815314,0.0013139646114119163
0.08,0.0345859069347821,1.6019194629085156,-1.5273141360955196,0.013446088500510898,0.0035094037100493803,4.800624377563409e-05,0.7624540507281347,0.7016723384247974,0.921441606490682,0.2800377917514372,0.07268976404055343,0.0009890706940894067,9.208285562788706,8.262697479104373,10.102982321654759,2.7126517076531442,0.6770018863517606,0.002354011869943662,1.7093670525975841,0.5177827534616339,-1.5395653684758073,-0.2929138346525041,0.14028750210365779,0.0012594722409171957
0.09,0.043124961716948546,1.6097636868467047,-1.5170975060044833,0.016515898117023718,0.00430742105539224,5.872266793764802e-05,0.853905478216645,0.7844223938189084,1.0216630091036194,0.3069809616512818,0.07980173453428596,0.0010716424162013926,9.0756258830659,8.090997084750594,9.69196426065536,2.542740887796768,0.6304589301301959,8.770216740572323e-05,1.7805316477657052,0.119853226538158,-1.6302960659222903,-0.3056186816565639,0.14302885775349103,0.0011952260661086873
0.1,0.052565400843785456,1.6184181228990278,-1.505919623024571,0.0198393506805676,0.005172888960263631,7.016566350735751e-05,0.9440439126836913,0.8654436052323037,1.1177882979912255,0.33234525635438833,0.0865467904871391,0.001144299556970949,8.926340306814168,7.8985210999416955,9.260037131499816,2.373948882608495,0.5827836497874372,-0.002128391904040683,1.8527891306689583,-0.30801775535115716,-1.725087966374292,-0.31822155985533673,0.14547907844545402,0.0011207858545497149
0.11,0.06289244744799898,1.6278634002255012,-1.4938234838671027,0.023400622556116003,0.006102001058841629,8.22348050718328e-05,1.0327046604213517,0.9445277326473482,1.2096139157468333,0.35612718755484024,0.09291120985779977,0.0012069141564475293,8.759686959187823,7.685145985250479,8.808492703277237,2.2051726946898995,0.5341910913413983,-0.004252084971160031,1.924141011179056,-0.7624486863016902,-1.8228885980830891,-0.33048619256605616,0.14749886882098068,0.0010358813139337438
0.12,0.07408960136113699,1.6380780558104375,-1.4808540047787035,0.027183779496799385,0.0070908322687245895,9.482947923135288e-05,1.1197153913138018,1.0214655584936356,1.2969479088399103,0.3783156940683381,0.09888312098829602,0.0012594674159520068,8.575130595984165,7.451034757386222,8.33876457768496,2.0358050796582248,0.4851045454378635,-0.006250091818428949,1.9924672963947272,-1.2396885110268272,-1.9225303591060512,-0.34215959396716145,0.14895285651672563,0.0009404472222300669
0.13,0.08613858399882675,1.6490385529578715,-1.467057888263817,0.031172740215640225,0.00813537062848495,0.00010785000908137068,1.2048982637689758,1.096049714743395,1.3796116514886443,0.39889607188408416,0.10445383597603591,0.0013020529850017802,8.372373250573004,7.1966347256605845,7.85245484134146,1.8656257585613076,0.4360375858072345,-0.00809937182165843,2.055571944312707,-1.7356570682013874,-2.0227517244890536,-0.35297879721851977,0.14971344770037914,0.000834651762590955
0.14,0.09901930721732895,1.6607193279007042,-1.4524834706445386,0.03535127095053363,0.009231555225479061,0.00012119870631844962,1.2880723218502195,1.168077494283264,1.4574417619278295,0.41785307348934037,0.10961845969941127,0.0013348697237078942,8.151373467733196,6.922669356625545,7.351345814090619,1.694714856936642,0.3875187764875676,-0.009787100624975231,2.1112392261453294,-2.245999150504815,-2.1222228635120226,-0.36267833039646014,0.1496646579850519,0.0007189164379644555
0.15,0.11270986788023526,1.6730928637599563,-1.437180549846575,0.039703004349922806,0.010375315518769029,0.00013478079178398422,1.369056066290631,1.237353585925196,1.5302920797963666,0.43517333993891805,0.11437602932899668,0.0013582085465534608,7.912355210150571,6.630124359467232,6.837399418417025,1.523383043150936,0.3400443719483661,-0.011309703802638182,2.1572991565451956,-2.766150714620032,-2.219574877422157,-0.3709981627158623,0.1487057686494564,0.0005939263505656102
0.16,0.12718656894020774,1.6861297904987316,-1.4212001939031593,0.044211477227174,0.011562609035175532,0.00014850515666949026,1.4476701059972483,1.3036926738775236,1.5980355943415647,0.4508472877251191,0.1187293516406503,0.0013724364885506033,7.655807026466787,6.3202281642739475,6.312745780950152,1.352114319390516,0.2940498850565021,-0.012671310879362352,2.1916991261991834,-3.2914153240148054,-2.3134317433622775,-0.37769182164939785,0.146754645632274,0.0004606299712701758
0.17,0.14242396692736317,1.6997990089447035,-1.4045945316415154,0.04886018264809213,0.012789455548473473,0.00016228495780331955,1.5237397987155439,1.3669218445971807,1.6605662261644036,0.4648705420918131,0.12268465132979414,0.0013779801133829291,7.3824724594723605,5.99442738067801,5.779663087384838,1.1815184962382688,0.2498946621997291,-0.013881920551410687,2.2125781125876913,-3.817048153748914,-2.4024437349966536,-0.3825343218173346,0.14375056646238538,0.00032022806990341214
0.18,0.1583949448949912,1.7140678364460116,-1.3874165278120016,0.053632632514838616,0.014051966639812506,0.00017603805426665912,1.5970977967628026,1.4268827501308108,1.717800382951367,0.47724498667464876,0.12625110913390328,0.001375309646333956,7.09333277274405,5.654358003918698,5.24055052196762,1.012291226688923,0.20785554895537217,-0.01495550405173418,2.2183392755919846,-4.3383444628165115,-2.4853209593241834,-0.3853295368553011,0.139656414841457,0.0001741520121330642
0.19,0.17507080912329778,1.7289021712955561,-1.369719745551268,0.05851242735537321,0.015346370097381856,0.00018968730100939576,1.6675864228306587,1.4834334849544468,1.7696782260733577,0.4879794840534593,0.12944034575693503,0.0013649246742736627,6.789583259319195,5.301813307951685,4.69789609873715,0.8451800961176268,0.1681269052706753,-0.015908212748741768,2.207716508368075,-4.850729135285485,-2.560865571261849,-0.3859166541792496,0.13446012882122527,2.4032193300627894e-05
0.2,0.19242140724705142,1.7442666727244747,-1.3515580995356862,0.06348333046856802,0.016669029014368515,0.0002031607195974319,1.7350598123753656,1.5364501428918649,1.8161646015581845,0.4970903113194806,0.13226589169866584,0.001347341858803614,6.472604520124478,4.9387094690132,4.154241122904913,0.6809557199208669,0.13082497134573146,-0.016756800517932824,2.179830637807005,-5.34984379199182,-2.6280012489285944,-0.38417538891281294,0.1281753233060169,-0.0001283420875600582
0.21,0.2104152649698221,1.7601249530370024,-1.3329856034834993,0.06852934394624817,0.01801645572918772,0.00021639156783826927,1.7993857722770688,1.5858280312527873,1.8572496052186833,0.5046013477680141,0.13474267148192076,0.0013230848240837353,6.143930157403097,4.56705000475569,3.6121429192397807,0.5203871250791963,0.09599508363373133,-0.017517323745727786,2.134231461940707,-5.831628081953529,-2.6857986308546113,-0.3800296945037274,0.12084104856237542,-0.00028106954841331335
0.22,0.22901973816458035,1.7764397783397252,-1.314056115811104,0.07363478441909872,0.01938532094887916,0.00022931832967998703,1.8604473194758255,1.6314825302722842,1.8929487672395287,0.5105440472850554,0.13688652196914375,0.0012926761841717757,5.805212315667393,4.188890097820607,3.074137327408713,0.36422091549169267,0.06362059974470924,-0.018204143535560657,2.070922640907312,-6.292392069259321,-2.733495624373156,-0.37344978944410057,0.11252069043013538,-0.0004321885196917738
0.23,0.24820117693855992,1.7931732743065258,-1.2948230872523132,0.07878435667003593,0.020772458525349334,0.00024188464515057637,1.918143877397956,1.6733495966800667,1.9233028558790615,0.5149572250937208,0.1387137576470175,0.0012566315470589338,5.458186427952637,3.8063018062956124,2.5427022957456504,0.2131638677034342,0.033632667375680825,-0.01882922617049987,1.9903675538763987,-6.728877112875512,-2.7705117763899034,-0.36445241555395946,0.10330006170373336,-0.0005797308731567306
0.24,0.2679250981534508,1.8102871335094033,-1.275339314124651,0.0839632235364712,0.02217486642998694,0.0002540391977314666,1.9723921214890834,1.7113859202877437,1.9483773127662167,0.5178866866435269,0.14024079046376062,0.0012154552580890213,5.104636397563797,3.4213410559992616,2.0202237097983824,0.06786869348626112,0.005920194013928182,-0.019401718710709392,1.8934754966624625,-7.138303256693795,-2.7964562313654326,-0.35309934566172335,0.09328477442532744,-0.0007217758694773846
0.25,0.2881563629283856,1.827742821023885,-1.2556567006919999,0.0891570707874933,0.02358970450733081,0.0002657355738338629,2.0231264774934794,1.745568751448188,1.9682613432651086,0.5193847251022095,0.14148380773438696,0.0011696376102396282,4.746361275734971,3.0360171719317135,1.5089643798593428,-0.07107724548613881,-0.019660445133073523,-0.019927765163193945,1.7815689057325286,-7.518401857758915,-2.8111291595584396,-0.33949425867938154,0.08259701672331198,-0.0008565015863348008
0.26,0.308859355796426,1.8455017752720622,-1.2358260337485691,0.0943521659156507,0.025014289593068808,0.0002769321062497558,2.0702992868040417,1.7758954248177048,1.9830666943430653,0.5195095128157403,0.1424585085737999,0.0011196532415892967,4.385144312750102,2.652265551054908,1.0110368942353505,-0.20316046524105325,-0.04327627710139126,-0.02041052359450668,1.6563335365227072,-7.867432928738255,-2.8145168923114996,-0.3237781897426574,0.07137188336276065,-0.0009822318026852927
0.27,0.32999816241735963,1.8635256013807335,-1.2158967721562037,0.0995354100257906,0.026446088564123445,0.0002875917107655126,2.113880662093367,1.8023826108671293,1.9929261592365373,0.5183244110139898,0.14317989710546378,0.0010659604515756789,4.022725054131464,2.271923913706823,0.5283808265010492,-0.32794732125231896,-0.06510937852437948,-0.020850343832074847,1.5197545828026917,-8.18418740562034,-2.806781324245064,-0.3061238355116652,0.05975342465078948,-0.001097476545850403
0.28,0.3515367430500951,1.8817762546902206,-1.1959168536268368,0.10469438223398245,0.027882709855819122,0.00029768172266954996,2.153858063273545,1.8250653309487064,1.9979918529366991,0.5158972208191847,0.14366212916956778,0.0010090011904037345,3.660774956738869,1.896712408523265,0.06274457958493151,-0.44508760436837136,-0.08534941036583632,-0.021245067627939873,1.374042516828297,-8.467975223421517,-2.788244410471169,-0.28672904458626913,0.04789058355280798,-0.0012009649242531513
0.29,0.37343909933707237,1.9002162124348083,-1.1759325205745388,0.10981737620587344,0.02932189393860407,0.0003071737377168711,2.1902356286977294,1.8439957744587778,1.9984333052297902,0.5122993971890989,0.1439184082784947,0.0009492015047321107,3.3008768106408906,1.5282176920262962,-0.3843280391495716,-0.5543159836245191,-0.1041870840406176,-0.0215904171026563,1.2215528999807876,-8.718600653083035,-2.7593687841395877,-0.26580984770053373,0.03593318603663963,-0.0012916693361281397
0.3,0.3956694323318677,1.9188086320131201,-1.1559881663857052,0.11489342866362443,0.030761503198711106,0.0003160434602537616,2.223033299479531,1.8592419578311878,1.9944354188833464,0.5076052457750995,0.14396092601070334,0.0008869722536890526,2.9445080816447047,1.16788096550593,-0.8115065833099965,-0.6554515218299433,-0.12180855709905636,-0.021880441610143686,1.0647045417664045,-8.936326793282884,-2.720735636222858,-0.24359338164182706,0.024028135917940844,-0.00136882062728115
0.31,0.41819229009229186,1.937517494662184,-1.1361262029877974,0.11991233987172446,0.03219951161654808,0.0003242705596571844,2.25228577604242,1.8708862649063887,1.9861963397907718,0.5018911208100033,0.14380084178369704,0.0008227099403422823,2.593028140800581,0.8169898325544619,-1.2176782842610239,-0.7483955006539298,-0.13839072728666046,-0.02210799778697152,0.9059001868263141,-9.121831406188099,-2.6730210339052496,-0.22031103678591368,0.0123159445033411,-0.0014319142355698324
0.32,0.44097270354972185,1.9563077337305868,-1.1163869501505028,0.12486468627272405,0.033633994585614176,0.0003318385349878815,2.278041345743001,1.8790239068402805,1.9739252837294579,0.4952346400999589,0.1434482969066102,0.0007567975330697122,2.247669223750151,0.4766737429958679,-1.6019482417465363,-0.8331277987381474,-0.15409737726811912,-0.022265241458419086,0.7474534302874243,-9.276156433419759,-2.6169718119113723,-0.1961921147366985,0.0009276991597254453,-0.0014807077777464447
0.33,0.463976309738633,1.9751453471042077,-1.0968085465392454,0.1297418255830235,0.03506311916466869,0.00033873458677414537,2.3003606188911174,1.8837613373620894,1.9578403611257398,0.48771393102994365,0.14291245790545196,0.0006896051786263836,1.9095308653983891,0.1479027138261567,-1.9636358944728616,-0.9097020682196044,-0.1690761151781981,-0.022344113553129957,0.5915248684486514,-9.400653536199796,-2.553382064107281,-0.171458225095464,-0.01001745422764435,-0.0015152108840571228
0.34,0.4871694618184191,1.9939974936650815,-1.0774268821679551,0.13453589477564912,0.03648513500746813,0.0003449494941102496,2.3193152079786055,1.8852146560873653,1.9381664371290257,0.47940691926256185,0.14220158427994414,0.0006214907336104223,1.5795774835580392,-0.16851103530153744,-2.3022682337864664,-0.9782399517511342,-0.18345605534776155,-0.022336804981784975,0.4400696636475631,-9.496927889391715,-2.483071106297579,-0.14631858477022697,-0.020414269964853883,-0.0015356683536527746
0.35000000000000003,0.510519325635272,2.0128325739546917,-1.0582755515715385,0.13923980147138632,0.03789836616795123,0.0003504774947467758,2.3349863816852956,1.88350802896103,1.915133059641655,0.47039066957371944,0.1413231160483103,0.0005528000636526205,1.2586387373528711,-0.47190892700982784,-2.617570256136666,-1.038924573861359,-0.19734618640351798,-0.02223618767434654,0.2947978207362153,-9.5667822468417,-2.40686359293016,-0.1209663153439976,-0.030172786428426742,-0.0015425378833830302
0.36,0.5339939628502531,2.0316202954642124,-1.0393858267418048,0.1438472093322072,0.03930120393434186,0.00035531616554902327,2.347463721498108,1.878772150952066,1.8889724829733767,0.4607407860820896,0.14028377663906266,0.0004838670802247483,0.9474122599254196,-0.7617797605860228,-2.9094531610161862,-1.0919935278753972,-0.21083437829838214,-0.022036200860713118,0.15714761317996923,-9.612163012330447,-2.3255722681060504,-0.0955757691216565,-0.039219145395167486,-0.001536463714920071
0.37,0.5575624008980115,2.0503317231845113,-1.0207866486447619,0.1483525181026169,0.040692100803181246,0.00035946630058516225,2.356843804775836,1.8711427720298868,1.8599178097042837,0.4505308770409684,0.1390896868839383,0.00041501350361389564,0.6464683575441617,-1.0377517431456842,-3.178000793824605,-1.1377315633315899,-0.22398698400329797,-0.021732183339137512,0.028271821793994456,-9.635109724400088,-2.2399836310209267,-0.07030085682222494,-0.04749587953904006,-0.0015182475573127484
0.38,0.5811946902381018,2.0689393162183136,-1.0025046359614669,0.1527508389767369,0.042069565663699786,0.0003629317841601153,2.363228934009029,1.8607593033802459,1.828201268329494,0.4398320874120009,0.13774648605185433,0.00034654835749530735,0.35625627545748323,-1.2995832102131595,-3.4234548110603624,-1.176463159730293,-0.23684899444998075,-0.021321144057812047,-0.0909641959469133,-9.637709020404097,-2.150846611111937,-0.045274302473980635,-0.054961718656694795,-0.0014888180852279489
0.39,0.6048619495183079,2.087416951387263,-0.9845641095667625,0.1570379659833563,0.04343216022416182,0.0003657194563172669,2.366725928020604,1.847763516894908,1.7940526394704297,0.42871270066193823,0.13625945604620343,0.0002787672157151556,0.0771116516303969,-1.5471524036016517,-3.6461990118359227,-1.208545151413695,-0.2494447061196694,-0.020801965049206173,-0.199974076161541,-9.62205380792022,-2.0588641886341086,-0.02060771557995625,-0.061590978113220216,-0.001449200201259691
0.4,0.6285363993888657,2.105739934860209,-0.9669871311769148,0.1612103440797396,0.04477849667494914,0.00036783896866926047,2.36744498705579,1.8322983472946122,1.7576978389847704,0.4172378096383318,0.1346336450787322,0.00021195123519935824,-0.19073519028126493,-1.7804466423733407,-3.846743238171836,-1.234359546166477,-0.26177885912321824,-0.020175532588535883,-0.2984334501717898,-9.590208058157854,-1.9646877683045334,0.0036076525129549036,-0.06737260105865522,-0.0014004850989024382
0.41000000000000003,0.6521913857910209,2.1238850028891303,-0.9497935545542016,0.16526503462975814,0.046107236548421825,0.0003693026288716309,2.3654986402155136,1.8145068028921225,1.7193576622713211,0.40546905500185415,0.13287398734726824,0.00014636602023704076,-0.4471504206330195,-1.999551185737788,-4.025707199764317,-1.2543066575851718,-0.2738381998637185,-0.019444794536983556,-0.3862563303287643,-9.544177359126849,-1.8689140196430925,0.02729961249743182,-0.07230892949820403,-0.0013438019860601922
0.42,0.6758013935966375,2.1418303127693226,-0.9330010876492081,0.16919967891502932,0.04741709070338351,0.0003701252325958402,2.3610007805616604,1.7945309880192084,1.6792466904993524,0.39346442852711744,0.1309854154961689,8.226037242093487e-05,-0.6920876274933107,-2.2046380472122693,-4.183804529520877,-1.2687986489298435,-0.28559341674973737,-0.018614744128235272,-0.4635668509382495,-9.485885134089417,-1.7720838372575094,0.05041334674209111,-0.07641427886886301,-0.0012802921410526192
0.43,0.6993420515016874,2.1595554251448625,-0.9166253640849993,0.17301246029132752,0.048706820332788364,0.0003703238824655902,2.3540657905049924,1.772511237553984,1.6375723564208762,0.3812781376298201,0.1289729629404851,1.9864986974999475e-05,-0.9255787135218964,-2.3959549791003676,-4.321827326243341,-1.2782535646872937,-0.297001390648572,-0.017692332837134894,-0.5306682354626302,-9.417154246679818,-1.6746830447332461,0.07290946278779206,-0.07971338708394951,-0.001211085785808839
0.44,0.722790129079615,2.177041278762865,-0.9006800224364595,0.1767020655586148,0.049975238867749225,0.0003699177940644958,2.3448077577927613,1.748585361800236,1.5945341648539784,0.36896052672872826,0.1268418534960859,-4.060884010944374e-05,-1.1477249534346554,-2.5738148068612796,-4.440631392159069,-1.2830899058078913,-0.3080076946108701,-0.016686317471499068,-0.5880106729790379,-9.339693577798787,-1.5771444625224311,0.09476191512633014,-0.08223980281886406,-0.0011372820838132563
0.45,0.746123526885008,2.194270158744666,-0.885176791828026,0.180267646063568,0.051221214629568246,0.0003689280897735996,2.333339780539305,1.722887998180091,1.5503230608433494,0.35655805049531863,0.12459757618190238,-9.897042908961903e-05,-1.3586883596131318,-2.738585255424776,-4.541122326894957,-1.28372178585386,-0.31854927078237427,-0.015607048911437715,-0.6361595399860676,-9.255089067860071,-1.4798509778985567,0.11595590186265572,-0.08403426988888114,-0.0010599324103698008
0.46,0.7693212604677043,2.211225659392524,-0.870125582459178,0.18370877900024227,0.05244367406501012,0.000367377581824263,2.3197733582696234,1.6955500647858095,1.5051209368847986,0.3441132936674285,0.1222459435441872,-0.00015505079493366078,-1.5586834666444946,-2.890679374812444,-4.624242596915604,-1.2805546883747159,-0.32855720720133874,-0.014466212079651264,-0.675765125813943,-9.164798666106291,-1.383139288002854,0.13648582288810282,-0.08514315562422378,-0.0009800269045160445
0.47000000000000003,0.7923634391161211,2.227892642490197,-0.8555345797650943,0.1870254293191313,0.05364160538888143,0.0003652905465251508,2.304217864841676,1.6666983097672905,1.45910026940838,0.33166503188890395,0.1197931323871314,-0.00020870352991121864,-1.7479696126867703,-3.0305466411259743,-4.690959661068142,-1.273981830781974,-0.33795953415308855,-0.013276528367480445,-0.7075347349789769,-9.070150610298057,-1.2873040298400393,0.15635336576027078,-0.08561696180452238,-0.0008984841978731505
0.48,0.8152312400995044,2.244257191987947,-0.8414103410260165,0.19021791259880153,0.054814062452523224,0.0003626924921153349,2.2867800983383324,1.6364549497750385,1.4124238739077783,0.3192483279670223,0.11724570636417954,-0.00025980544098159217,-1.9268437670294145,-3.1586647813865945,-4.7422551990370945,-1.264381126943153,-0.34668395950327824,-0.012051432936323492,-0.7322077668298732,-8.972344468449487,-1.1926020589703519,0.17556576593445458,-0.08550894749279285,-0.0008161441264827868
0.49,0.8379068791248051,2.2603065658899135,-0.8277578933496533,0.1932868591787441,0.05596016865722252,0.0003596099230861656,2.2675639025300685,1.6049373901966424,1.3652447676363175,0.306894657994259,0.11461062046992938,-0.0003082569029169256,-2.095633929260692,-3.275532346975565,-4.779115460355845,-1.2521127296369627,-0.3546604653278056,-0.01080473989076114,-0.7505341255588629,-8.872454402879407,-1.0992566875941807,0.1941342702882953,-0.08487388441209355,-0.0007337631664189465
0.5,0.8603735776673868,2.276029146086712,-0.8145808320634997,0.19623317979816263,0.05707912073772469,0.0003560701040856312,2.2466698542581676,1.5722580196798615,1.317706128615358,0.2946320619418516,0.11189520805021744,-0.00035398190005343555,-2.2546931060246016,-3.3816620404908004,-4.802522727091775,-1.2375171248391528,-0.3618236942881792,-0.009550308236883742,-0.763256100907799,-8.771434159618268,-1.0074617396464232,0.21207281763855312,-0.08376695762643832,-0.0006520122907754646
0.51,0.8826155277776809,2.2914143868006045,-0.8018814186657734,0.19905803293397448,0.05817019225265577,0.0003521008266605777,2.2241950110294146,1.5385240713892705,1.2699413397726274,0.28248531358118567,0.10910715149310767,-0.00039692774250535016,-2.4043938562208576,-3.477574784533794,-4.813447863214989,-1.220913742521299,-0.36811506338667144,-0.008301720828818832,-0.7710936860984352,-8.670123337857822,-0.917385323225046,0.22939693746894668,-0.08224281740705719,-0.0005714769219035452
0.52,0.9046178549097168,2.3064527622362028,-0.789660677592756,0.20176279398304722,0.059232736635174484,0.0003477301821017264,2.2002327132035857,1.5038375435598477,1.2220741073017443,0.270476104907275,0.10625443825187197,-0.00043706445588512726,-2.5451233842946834,-3.5637945080126,-4.812843907689256,-1.202600043061583,-0.37348455454397733,-0.00707198723555813,-0.7747331654611367,-8.56925455023556,-0.8291732578100472,0.2461228584207825,-0.08035478238033804,-0.0004926586455287927
0.53,0.9263665792632666,2.3211357139577653,-0.777918491165072,0.20434902638914876,0.06026618967778588,0.0003429863435382723,2.1748724353549846,1.468295172156249,1.1742186427684098,0.2586232406101526,0.1033453042611397,-0.0004743838563454109,-2.677279153504364,-3.6408436156788864,-4.801640656108486,-1.1828510344286425,-0.3778921452100512,-0.005873279691686939,-0.774818708000915,-8.469461141801222,-0.7429521246255778,0.26226681110290995,-0.0781541893842728,-0.0004159783594764858
0.54,0.9478485760799101,2.3354555984456686,-0.7666536921746147,0.20681845477464045,0.06127007134900739,0.0003378973601944065,2.1481996816643547,1.4319884487903314,1.1264798990457283,0.24694283854916899,0.10038816712215082,-0.0005088983343865817,-2.8012649862068977,-3.7092390994540407,-4.78074016684355,-1.1619191728160239,-0.3813088571767018,-0.004716709221172611,-0.7719466409212316,-8.371285190877375,-0.6588319330575354,0.2778445051835483,-0.07568988186721715,-0.00034178054613403293
0.55,0.9690515352850988,2.3494056352203163,-0.7558641536665429,0.2091729401008221,0.06224398686541687,0.00033249096638588376,2.1202959205188616,1.3950036774647772,1.0789538508071757,0.2354485326181662,0.09739155164094834,-0.0005406393808522728,-2.9174876157158414,-3.769489245283164,-4.751013121733155,-1.140034598256431,-0.38371741702953166,-0.0036121467038867303,-0.7666620440101903,-8.275185566841415,-0.5769084145730885,0.29287075818621316,-0.07300782606528632,-0.00027033838164027793
0.56,0.9899639208235216,2.3629798558620574,-0.7455468755564285,0.21141445684915855,0.06318762696941092,0.00032679440742227,2.0912385538422837,1.3574220641740915,1.0317278110114407,0.22415167483364443,0.09436401039940509,-0.0005696558963613755,-3.0263536536226927,-3.8220908864238674,-4.713295967927699,-1.117405656759793,-0.3851125364030388,-0.002568091373940831,-0.7594572963884079,-8.181545866928882,-0.4972649686862187,0.30735925254534463,-0.07015084248411113,-0.0002018594235836618
0.5700000000000001,1.0105749299937958,2.376173054200917,-0.7356980678008933,0.21354507218838276,0.06410076738965856,0.00032083428411263667,2.061100917027418,1.319319833885993,0.98488077555352,0.21306153392242147,0.09131404202476401,-0.0005960123309633364,-3.128266937137836,-3.8675271528894717,-4.668388766167521,-1.0942196615482533,-0.3855008336182575,-0.0015915869783093561,-0.7507722160432326,-8.090682095839854,-0.4199742939252496,0.32132239790596456,-0.06715843926306334,-0.00013649165055218428
0.58,1.0308744530506497,2.3889807379002166,-0.7263132299107942,0.21556692706958702,0.06498326748672421,0.0003146364170742442,2.029952305685384,1.2807683699299266,0.9384837890099158,0.20218548812042764,0.08825000970656509,-0.0006197867038392482,-3.223626222564979,-3.9062656669037708,-4.617053671167495,-1.0706438478386815,-0.38490042973533534,-0.0006881838608411572,-0.7409954548103665,-8.002849987996097,-0.34509974130196275,0.33477127702307174,-0.06406673368630468,-7.432965941879077e-05
0.59,1.0508530333081867,2.401399081613435,-0.7173872266592416,0.2174822191727103,0.06583506810975844,0.00030822573153834316,1.9978580257537006,1.241834371321868,0.8926003251552627,0.19152921031232714,0.08518006230342207,-0.0006410685535901039,-3.3128231931092706,-3.938757135401196,-4.56001397153684,-1.046826478193429,-0.38334026109079034,0.00013805646864906151,-0.7304668425728881,-7.918251902836734,-0.2726964292710118,0.3477156556189277,-0.06090844829848631,-1.5420858351862147e-05
0.6,1.0705018279463077,2.413424881853889,-0.7089143598926477,0.21929318761307248,0.0666561887107885,0.00030162616285658514,1.9648794638120897,1.2025800240453965,0.8472866766593858,0.1810968440362176,0.08211206010300731,-0.0006599568681758003,-3.396240751547472,-3.965434292568577,-4.497953619474959,-1.022898058575569,-0.38085915672826864,0.0008845189995690395,-0.7194804106871496,-7.837043248860449,-0.20281215836256372,0.36016403892711163,-0.05771296866503417,4.022847585491432e-05
0.61,1.0898125696937073,2.4250555136816923,-0.7008884364018778,0.22100209930551035,0.06744672378045174,0.0002948605824536932,1.9310741747399647,1.1630631827803233,0.8025923490769905,0.1708911692437861,0.07905350696632453,-0.0006765580402891918,-3.4742515706437156,-3.9867111479525614,-4.431517184077116,-0.9989726287524316,-0.3775047327304577,0.0015499607740455668,-0.7082878630026682,-7.759338412670325,-0.13548816124519436,0.37212376017968724,-0.05450645068078139,9.264737919382784e-05
0.62,1.1087775295348343,2.4362888892818555,-0.693302831852788,0.222611236875915,0.06820683868267388,0.0002879507435620001,1.896495984112692,1.1233375600163087,0.7585604549089855,0.16091375704046526,0.07601149022221303,-0.0006909838891693137,-3.5472168764337706,-4.00298249856712,-4.361310166219796,-0.9751490944604715,-0.37333215639846173,0.002134410471379744,-0.6971023010101076,-7.685216185574211,-0.0707597205030408,0.38360108881582755,-0.05131196638306021,0.00014189469806032267
0.63,1.1273894805645972,2.447123418480916,-0.6861505508113948,0.22412288800521504,0.06893676497567511,0.00028091724572126885,1.861195102976293,1.083452919906036,0.7152281041393238,0.1511651129300043,0.072992629300122,-0.0007033497840731242,-3.615485441535943,-4.0146236665721275,-4.287899617477049,-0.9515125726505165,-0.3684028317858754,0.002639048340600081,-0.6861020459571755,-7.614724692890711,-0.008656682358904932,0.39460134858924123,-0.04814967838758534,0.00018805395796107408
0.64,1.145641663093242,2.4575579712268993,-0.6794242829290881,0.22553933608873822,0.06963679531284313,0.00027377951673949774,1.8252182528644854,1.0434552745983223,0.6726267882306717,0.1416448083523177,0.07000303371680174,-0.0007137728981771107,-3.679392767440976,-4.021990427337423,-4.211815010180491,-0.9281357250624591,-0.36278305464860416,0.00306607261731362,-0.6754344340980778,-7.547885840552451,0.050796109691794045,0.40512903794905897,-0.04503703427327517,0.0002312286387218135
0.65,1.1635277510845439,2.467591842038349,-0.6731164553781446,0.22686285209406154,0.07030727801965693,0.00026655581058928344,1.788608799130197,1.0033870811449555,0.6307827550943472,0.13235160053233314,0.06704827068137974,-0.0007223706150214283,-3.7392604362829456,-4.025419095954541,-4.133549310443472,-0.9050800592367043,-0.3565426798440239,0.00341855816287695,-0.6652194909245721,-7.484699300399513,0.10757844158029684,0.4151879470176595,-0.04198897344484943,0.00027153787518214493
0.66,1.181041819993126,2.4772247164123082,-0.6672192816478015,0.2280956875025772,0.07094861144231633,0.0002592632195590574,1.75140689085822,0.9632874373959441,0.5897173730343034,0.12328354085156634,0.0641333422659403,-0.0007292591030226079,-3.795395613920419,-4.02522674344158,-4.053560210619429,-0.8823971797778292,-0.3497538380992644,0.0037003124616818983,-0.6555534159629075,-7.425146060188147,0.16167439990161536,0.4247812671679019,-0.03901814016120976,0.00030911258884489467
0.67,1.1981783160512112,2.486456639168177,-0.661724806826781,0.22924006822372445,0.0715612381604577,0.0002519176988853531,1.7136496058085164,0.9231922755868796,0.549447482102051,0.11443807211472408,0.06126267181413742,-0.0007345520673704256,-3.84809068729866,-4.021711516946582,-3.972271482175321,-0.8601299761761183,-0.34248973230261726,0.0039157333808447214,-0.6465118314801762,-7.369191567222453,0.21307207548299256,0.43391169060916684,-0.036135097505649943,0.0003440920451078123
0.68,1.2149320270413353,2.4952879846939813,-0.6566249495098738,0.23029818937585222,0.07214563915079962,0.0002445341020552625,1.675371099012409,0.8831345525804263,0.5099857316907191,0.10581211521277904,0.0584400990341916,-0.0007383596830090615,-3.8976230200627144,-4.015153041156838,-3.8900744142747534,-0.8383137367172608,-0.33482353649707086,0.0040696723317350525,-0.6381527663893883,-7.316788496015305,0.2617632902258983,0.4425814985380325,-0.03334853807244737,0.0003766208222828524
0.6900000000000001,1.2312980545794112,2.5037194290535125,-0.6519115404744343,0.23127221083369326,0.07270232798127063,0.00023712622498047616,1.6366027538076002,0.8431444359531435,0.4713409035439501,0.09740214578410405,0.05566888304710056,-0.0007407877074786315,-3.9442548112901203,-4.005812880839489,-3.8073293074381347,-0.8169771809384212,-0.3268274139276972,0.00416730566900414,-0.6305193610675163,-7.26787917081116,0.3077433408456407,0.45079263731599506,-0.03066548804256923,0.0004068461723132718
0.7000000000000001,1.2472717879219448,2.5117519239067194,-0.6475763582778196,0.23216425344918398,0.07323184510662573,0.00022970685729765486,1.5973733342533547,0.803249485320697,0.43351821966147186,0.08920426154907371,0.05295171253550961,-0.0007419367682821289,-3.9882330430513497,-3.993935046960216,-3.7243669954594476,-0.7961434056869905,-0.318571664103505,0.004214016399361142,-0.6236422900737305,-7.222397673419349,0.35101075535181236,0.4585467828294072,-0.028091502114378122,0.0004349157486424997
0.71,1.2628488793020904,2.5193866721914295,-0.6436111619293129,0.23297639585962399,0.07373475232723208,0.00022228783913613167,1.5577091380145718,0.7634748284710191,0.39651963485066277,0.08121424104400132,0.050290722060635264,-0.0007419018161523188,-4.029789503316064,-3.979746531147652,-3.6414903722860545,-0.7758307421199806,-0.31012400310448385,0.004215287581232019,-0.6175419082803217,-7.180271665828203,0.3915670598952332,0.4658453936944087,-0.02563084744338539,0.0004609756737852927
0.72,1.2780252207915193,2.5266251055117106,-0.6400077207902615,0.233710671804726,0.07421162746302536,0.0002148801218052699,1.517634148942871,0.7238433320280995,0.3603441139051382,0.0734275945102008,0.04768751357932798,-0.0007407717330861775,-4.069140871530086,-3.963457855392417,-3.558975903816434,-0.75605352292453,-0.301548976431004,0.004176608166973295,-0.6122301321159396,-7.14142395567341,0.4294165549918928,0.4726897543208822,-0.023286675331827048,0.0004851689175346158
0.73,1.29279692267866,2.533468863176719,-0.6367578418543594,0.23436906788178966,0.07466305928497614,0.00020749383098259228,1.4771701887140665,0.6843757665008381,0.3249878935902132,0.0658396077063653,0.0451431821950787,-0.0007386290822677617,-4.1064888550056615,-3.9452636257975655,-3.4770751075347652,-0.7368227606739026,-0.29290749962741636,0.004103391523932354,-0.6077120718630613,-7.105773830958592,0.46456610116875263,0.47908100907216283,-0.02106117990017016,0.0005076339561616892
0.74,1.307160293348702,2.539919772833556,-0.6338533945565199,0.23495352167589034,0.07508964273706807,0.00020013833112354182,1.4363370670042122,0.645090965683709,0.2904447297839493,0.05844537941006983,0.0426583452091933,-0.0007355499859050461,-4.1420203651067045,-3.9253430809444434,-3.3960159855952936,-0.7181467395591028,-0.2842565187370294,0.004000906434103446,-0.6039874336127782,-7.073238188583509,0.4970249148101178,0.48502018887694126,-0.01895574337627767,0.0005285036832128611
0.75,1.3211118206467065,2.5459798326382628,-0.6312863332538783,0.23546592020948778,0.07549197447301705,0.00019282228995854328,1.3951527298004376,0.6060059804706724,0.25670613026416444,0.051239853359744084,0.040233173594897066,-0.0007316041164998531,-4.175907723072712,-3.903860627014363,-3.3160043994009487,-0.7000315237983479,-0.27564878031413187,0.00387422004375626,-0.6010517108855644,-7.043732479310395,0.5268043754658104,0.49050823168927443,-0.01697106796247148,0.0005479045433834383
0.76,1.334648154702184,2.5516511949104883,-0.6290487175163887,0.23590809866313048,0.07587064872393229,0.00018555374208818187,1.3536334055477466,0.5671362272225648,0.22376157374895764,0.044217845364269974,0.037867425091523965,-0.0007268547870361419,-4.208308886208468,-3.880966353227507,-3.2372253759129332,-0.6824813868205464,-0.2671326991803742,0.003728151988662942,-0.5988971863610113,-7.017171489857286,0.5539178461602579,0.49554599817164846,-0.015107294495138469,0.0005659558622910784
0.77,1.3477660921914698,2.5569361512194146,-0.6271327303574541,0.23628183932588817,0.07622625350595479,0.0001783401508289461,1.3117937489285743,0.528495630892655,0.1915987158934566,0.03737406627577027,0.03556047820224966,-0.000721359125923578,-4.239367686066478,-3.856796522439981,-3.159844337890358,-0.6654991659040039,-0.2587523112591441,0.003567238752094748,-0.5975137638648428,-6.993469980896618,0.5783805083570767,0.5001342839113239,-0.013364108304798127,0.0005827693466413452
0.78,1.36046256201305,2.5618371188510807,-0.6255306945272443,0.2365888707407284,0.07655936717067376,0.0001711884675971164,1.2696469821580114,0.4900967631666103,0.16020358302098436,0.030703141484023207,0.03331136647189737,-0.0007151683231829703,-4.269214071158404,-3.8314740328951005,-3.084008252017829,-0.6490865473378431,-0.2505472985602566,0.003395707220707034,-0.5968896499401598,-6.972543197893243,0.6002092132237788,0.5042738293854889,-0.011740832825336552,0.0005984487311617374
0.79,1.3727346123505912,2.566356628610211,-0.6242350869829967,0.2368308670162285,0.07687055529584082,0.00016410518824499116,1.2272050337541345,0.45195097591303307,0.1295607544247575,0.02419962755000936,0.031118812516705636,-0.0007083279352125243,-4.297964347643356,-3.805108848166673,-3.0098466904508623,-0.6332442873888589,-0.24255307360349398,0.003217456348037273,-0.5970119031471265,-6.954307269961642,0.6194223507375317,0.5079653287770536,-0.010236511597530432,0.0006130895506855395
0.8,1.3845793990986897,2.5704973139129126,-0.6232385516418117,0.2370094472817571,0.07716036790956053,0.00015709640588011846,1.1844786748098355,0.4140685302701562,0.09965353411849373,0.017858026552861894,0.028981261371971417,-0.00070087823648727,-4.325721412347908,-3.7777983932809054,-2.9374728027125085,-0.6179723744511714,-0.23480091115687607,0.003036045858952896,-0.5978668678236047,-6.938679510274531,0.6360397380018046,0.5112094386189336,-0.008849979371485052,0.0006267790178211667
0.81,1.3959941756271899,2.5742619011300545,-0.6225339105123854,0.23712617526855748,0.07742933703769402,0.00015016785980406514,1.1414776528500312,0.37645872171417233,0.07046411294263277,0.011672798680038083,0.026896912813348703,-0.0006928546076053307,-4.352574973369513,-3.7496279158657915,-2.8669841961384313,-0.6032701377144845,-0.22731811602631424,0.002854690942352134,-0.5994405075023123,-6.925578630022697,0.6500825279260791,0.5140067871167797,-0.007579923041918929,0.0006395959886902107
0.8200000000000001,1.4069762838612527,2.5776532011447135,-0.6221141732928983,0.23718255900401775,0.0776779745616059,0.00014332498030185495,1.0982108234062842,0.3391300014658941,0.04197372194870844,0.0056383735460275395,0.02486375239118764,-0.0006842879502210208,-4.378601754396769,-3.7206708119744287,-2.798463724196841,-0.5891363075907377,-0.22012821667804694,0.002676261959626558,-0.6017186515972026,-6.914924876514813,0.6615731391733459,0.5163579848731026,-0.006424933155308357,0.000651611001217168
0.8300000000000001,1.4175231466560518,2.5806741020906703,-0.6219725455130073,0.23718005061082656,0.07790677037153819,0.00013657292909691814,1.0546862794799166,0.30209009459567165,0.014162777989100813,-0.0002508393191186075,0.022879580993229776,-0.0006752051204936809,-4.403865679745499,-3.6909889169664565,-2.731980183040907,-0.5755690329512957,-0.21325117562550666,0.0025032882670563694,-0.6046871674020552,-6.906640104716371,0.6705352080149316,0.5182636376127419,-0.005383546713996528,0.0006628863723765413
0.84,1.4276322614470003,2.5833275632424937,-0.6221024352886677,0.2371200462066973,0.07811619079972214,0.0001299166353594987,1.0109114790948537,0.26534611518232976,-0.01298897756603961,-0.006000440412926042,0.020942042818394638,-0.0006656293737419427,-4.428418037956676,-3.6606327625261437,-2.6675889175899616,-0.5625658600115626,-0.2067036087098746,0.0023379653388220234,-0.6083320679301063,-6.900647790358971,0.6769935624581553,0.5197243613926527,-0.004454281973996693,0.0006734763426292541
0.85,1.4373011951586296,2.5856166100312015,-0.6224974587494432,0.23700388590391688,0.07830667731675127,0.0001233608272195779,0.9668933711629303,0.22890467887078683,-0.0395023460775419,-0.01161603027804095,0.019048651702913068,-0.0006555808139920801,-4.452297622633144,-3.629641801556357,-2.6053323393045758,-0.550123677461217,-0.20049900659228292,0.002182164474625825,-0.612639564694172,-6.896872991701205,0.6809742187351266,0.5207408006689898,-0.0036356658942655017,0.0006834272574986287
0.86,1.446527580357604,2.5875443301627548,-0.6231514441891194,0.2368328539111527,0.0784786454746485,0.00011691005878932983,0.9226385198974499,0.19277201315531994,-0.06539854396762039,-0.017103199276420466,0.017196815789723048,-0.0006450768430248068,-4.475530850008293,-3.5980446033215845,-2.5452403586396892,-0.5382386321746315,-0.19464795292282844,0.002037444470991856,-0.61759607320102,-6.895242266087333,0.6825043999640403,0.5213136494917521,-0.0029262548489932677,0.0006927777778411994
0.87,1.45530911263776,2.589113870819669,-0.6240584349819098,0.23660817874275317,0.07863248408037973,0.00011056873274581627,0.8781532280155934,0.15695406569142517,-0.09069907927904527,-0.022467516839952073,0.015383860573123874,-0.0006341326043513561,-4.49813185354553,-3.5658590218328423,-2.4873307359380417,-0.5269060195956676,-0.1891583347288428,0.0019050647206966254,-0.6231881777226879,-6.895683546625633,0.6816125765188153,0.521443676001422,-0.002324649163742098,0.0007015591118586672
0.88,1.4636435492274296,2.5903284369287594,-0.625212691298399,0.23633103354322277,0.07876855458421661,0.00010434111856287766,0.8334436589669667,0.12145661090903866,-0.11542563164890805,-0.02771451995304083,0.013607050383687107,-0.0006227614182938606,-4.520102556665883,-3.533092341076215,-2.431609355284639,-0.5161201526460157,-0.18403554155139012,0.0017859993009710085,-0.6294025608162056,-6.898125983589687,0.6783285273690698,0.5211317503124504,-0.0018295019834132786,0.0007097952632769808
0.89,1.4715287088115723,2.591191290480396,-0.6266086906476882,0.23600253653665645,0.07888719066825667,9.823136651307013e-05,0.7885159584142688,0.08628535516364208,-0.1395999349289293,-0.03284970065663097,0.011863608404005457,-0.0006109752049807537,-4.541432725497393,-3.4997414012924675,-2.3780704265875716,-0.5058742128071412,-0.17928265075297922,0.001680951685224752,-0.6362259020928626,-6.9024997545296305,0.6726834213788464,0.5203788757840253,-0.0014395229270187972,0.0007175032913917337
0.9,1.4789624725633002,2.5917057508865913,-0.6282411272650646,0.23562375161270036,0.07898869802150364,9.22435175868489e-05,0.7433763751727888,0.051446040619515625,-0.16324366173764784,-0.03787849239561063,0.010150735324697329,-0.000598784892622123,-4.562100004337641,-3.465792711120701,-2.3266966219026273,-0.4961600868275715,-0.1749005972084845,0.001590369794317592,-0.643644749887144,-6.908735846561747,0.6647099172776574,0.5191862235982501,-0.001153476932739806,0.0007246935798519932
0.91,1.4859427863811823,2.5918751963667024,-0.6301049103579703,0.23519568906207433,0.07907335428913309,8.638150949801643e-05,0.6980313817882204,0.01694454801112165,-0.1863783092905678,-0.04280625506260153,0.00846562676294552,-0.0005862008088832465,-4.582069937323144,-3.4312225510257877,-2.277459152774018,-0.4869681923793161,-0.17088832628458128,0.0015144611610602432,-0.6516453687404274,-6.916765813880308,0.6544422807392956,0.517555170488406,-0.0009701786481992672,0.0007313701121338502
0.92,1.4924676643301529,2.5917030663504455,-0.6321951612171951,0.23471930647586092,0.07914140918486738,8.064917896243476e-05,0.6524877948970703,-0.01721300162570566,-0.20902508592248065,-0.04763825862133989,0.006805489573428933,-0.0005732330535581672,-4.6012959806088265,-3.3959970740393626,-2.2303177961399356,-0.4782872958748774,-0.16724292961183806,0.0014532080534523928,-0.6602135649916098,-6.926521513202184,0.641916516720426,0.5154873393842411,-0.000888482676480392,0.0007375307526469545
0.93,1.4985351932848596,2.5911928648882308,-0.6345072091951145,0.23419550982363727,0.07919308475671244,7.505026045212255e-05,0.6067528954706776,-0.05102014622146016,-0.23120479779193587,-0.05237966522236527,0.005167557184505447,-0.0005598918510312208,-4.619719510176669,-3.3600724104508672,-2.1852208771500994,-0.4701043255913788,-0.16395976366635878,0.0014063824446246542,-0.6693344922517727,-6.937934819609332,0.6271705149206808,0.5129846426661454,-0.000907269949260478,0.0007431675333276092
0.9400000000000001,1.5041435387747846,2.5903481650584843,-0.6370365865485289,0.23362515472610776,0.07922857579762789,6.958838163968128e-05,0.560834548992498,-0.0844699829746523,-0.2529377353414444,-0.05703550975295045,0.003549104091544888,-0.0005461878812441272,-4.637269831213908,-3.3233947836877986,-2.1421052180561833,-0.46240418323614474,-0.16103255161531216,0.0013735607700844366,-0.6789924381292938,-6.950937325094543,0.61024420592806,0.5100493276448071,-0.001025430465454693,0.0007482669464049128
0.9500000000000001,1.5092909520303723,2.5891726143605345,-0.6397790221403152,0.23300904793818197,0.07924805039397738,6.426705575927135e-05,0.5147413255587739,-0.11755506979498384,-0.27424355917863447,-0.061610678792578574,0.001947459634948463,-0.0005321325880409929,-4.653864195822088,-3.2859006452107784,-2.100896063175341,-0.4551695571031855,-0.15845346924900916,0.001354138449370934,-0.6891705932623627,-6.965460022039296,0.5911797253075632,0.50668402380679,-0.0012418426078430501,0.00075281024478471
0.96,1.5139757782286225,2.587669941079797,-0.6427304339917502,0.23234794905843145,0.07925165060580867,5.908967112061595e-05,0.4684826198250252,-0.1502673280737421,-0.2951411851435001,-0.06610988797505171,0.00036002118313000603,-0.0005177384638655393,-4.669407836631155,-3.2475168368092313,-2.061506990773611,-0.4483807400316637,-0.1562132161360701,0.0013473441857487778,-0.6998508035057834,-6.981432973857375,0.5700215825785817,0.5028917912891373,-0.0015553492320779412,0.0007567737521800174
0.97,1.5181964659350726,2.5858439616092874,-0.6458869206761021,0.23164257248054257,0.07923949327411839,5.405947802228529e-05,0.42206877064501835,-0.18259794705096594,-0.31564866843518125,-0.07053765778888745,-0.0012157331690285168,-0.0005030193098330665,-4.683794024686037,-3.2081607892041095,-2.0238398235638884,-0.44201545547227816,-0.15430107340194965,0.001352254080684956,-0.7110133060072766,-6.998784975121447,0.5468168317101103,0.49867616996760145,-0.0019647307129692683,0.0007601291857244466
0.98,1.5219515777367245,2.583698588707908,-0.6492447515439862,0.23089358960174938,0.07921167095124208,4.9179573320142064e-05,0.37551118016519847,-0.2145372901379467,-0.33578308678841295,-0.0748982878793181,-0.0027822322876299354,-0.0004879904702143222,-4.69690416073068,-3.1677407663217174,-1.9877845503457658,-0.4360486950859661,-0.15270494975572468,0.0013678056288002338,-0.7226364498953394,-7.017443203649839,0.5216152394465707,0.49404122846380844,-0.002468675132682289,0.0007628439943323153
0.99,1.525239802057188,2.581237840671436,-0.6528003557721336,0.23010163130226793,0.07916825295135965,4.445288291673432e-05,0.3288224320463385,-0.2460748036472114,-0.35556042281474054,-0.07919582994814615,-0.004341799988243742,-0.0004726690403407743,-4.708607909717081,-3.1261561649814764,-1.9532192721086867,-0.4304525714412746,-0.15141141758308763,0.0013928116730166362,-0.7346964023871791,-7.037332867263723,0.4944694474669079,0.48899161229747895,-0.003065745805045931,0.0007648817165084984
