tonegas/nnodely-applications/joint_friction_estimation/dataset/train/mpc_mujoco_episode_19 copy.csv
time,q1,q2,q3,q4,q5,q6,dq1,dq2,dq3,dq4,dq5,dq6,ddq1,ddq2,ddq3,ddq4,ddq5,ddq6,tau1,tau2,tau3,tau4,tau5,tau6
0.0,0.0,1.57,-1.57,0.0,0.0,0.0,0.0,0.0,0.0,0.0,0.0,0.0,9.034624871678727,9.552898423210337,9.893265157885196,3.4763758027347933,1.2709180255071644,-6.084776845938222e-06,1.2589732255759982,2.1357322229607423,-1.3451982464579033,-0.2925287491811073,0.11386582332030568,0.0013129321311233745
0.01,0.0008985904701452111,1.5709556463027285,-1.5690128880386778,0.00032702406354734635,0.00010839845295457736,1.2858799908654016e-06,0.0898590470145211,0.0955646302728431,0.09871119613223446,0.032702406354734634,0.010839845295457735,0.00012858799908654016,8.980968971523708,9.402971980608285,9.666578316314567,3.1889437287492157,1.0678547713809436,0.012766366081269354,1.2655673839029562,1.9969345363777613,-1.406730326707386,-0.3063591647594839,0.11414026106110323,0.0013022502115266818
0.02,0.002689780895405891,1.5728520393124958,-1.5670625500066895,0.0009573731191987506,0.0003126427101646119,3.9141443944501474e-06,0.179119042526068,0.18963930097673903,0.19503380319883779,0.06303490556514042,0.020424425721003454,0.0002628264403584746,8.912663690392478,9.238880025205285,9.40944315309427,2.9446789149628856,0.9383984488108652,0.013029385941322857,1.2818401704522273,1.8194640193101517,-1.4748557822138695,-0.3208568918694934,0.11492481158270836,0.001287806047774299
0.03,0.005366408631685899,1.5756728182533704,-1.564175551594247,0.0018705127293762978,0.0006045350426081673,7.790338260317609e-06,0.2676627736280008,0.28207789408745504,0.2886998412442363,0.09131396101775473,0.029189233244355538,0.0003876193865867461,8.831555431137364,9.059761107033134,9.125723308264913,2.732006423235724,0.850871777914918,0.01156350802221695,1.3071103686055414,1.6047918150022058,-1.5493935884067724,-0.3359955624868841,0.11615899335315442,0.0012692173440074339
0.04,0.00892021106175777,1.5794000855925623,-1.5603808384508882,0.0030481989087557107,0.0009783264230249123,1.281692250145996e-05,0.35538024300718707,0.3727267339192015,0.3794713143358971,0.11776861793794127,0.03737913804167448,0.0005026584241142351,8.73838705369066,8.864962178340072,8.818528374944954,2.5422421059570084,0.7863966288696318,0.009870845436362075,1.340593888382964,1.3546087231812969,-1.6300565865943044,-0.35172214957212944,0.11776987652679727,0.001246073382282221
0.05,0.013341831424788718,1.5840143499841013,-1.5557094912947573,0.00447382371909168,0.001429579348655675,1.890512528685404e-05,0.4421620363030948,0.4614264391539012,0.46713471561308717,0.14256248103359698,0.045125292563076264,0.000608820278539408,8.633242017322766,8.654024631290001,8.490427400353031,2.3689097571080424,0.7338412426166983,0.008110867205562755,1.3814000750767343,1.0708279244377445,-1.7164537211546294,-0.3679584563896706,0.11967399425831102,0.0012179385625674432
0.06,0.018620785721963826,1.5894944868983905,-1.5501945195013886,0.006131929202347,0.001954498466173781,2.597072409852197e-05,0.5278954297175109,0.5480136914289228,0.5514971793368654,0.16581054832553194,0.0524919117518106,0.0007065598811667928,8.515827826145088,8.426677035568577,8.14361277519447,2.2072235680476666,0.6867861335893721,0.006290505959936965,1.4285273982656437,0.7555858985349175,-1.8080930904643862,-0.3846028256406916,0.12177931752479497,0.001184370087795587
0.07,0.024745408533319767,1.5958177166263001,-1.5438706804685662,0.008007850400104759,0.0025495462333952365,3.393035669842213e-05,0.6124622811355939,0.6323229727909729,0.632383903282232,0.18759211977577586,0.05950477672214557,0.0007959632599900157,8.385660434580398,8.182831493528239,7.7800255552822914,2.053692843800661,0.6416786648199491,0.004423777172473109,1.480860544228181,0.4112400934492255,-1.9043863014761762,-0.40153217673404484,0.12398733780072468,0.001144942580962842
0.08,0.03170278969882682,1.6029595996044923,-1.5367743150413729,0.010087457452095442,0.003211232229514154,4.2699715454641975e-05,0.6957381165507053,0.7141882978192123,0.7096365427193472,0.20796070519906834,0.06616859961189174,0.0008769358756219848,8.242187260056172,7.922581487270949,7.401450206785061,1.9058194256443173,0.596704125250973,0.002540877546216791,1.5371706556974924,0.04036222960480185,-2.0046545060928223,-0.4186044422762143,0.12619527540018674,0.0010992753438361681
0.09,0.03947871016644518,1.6108940490809054,-1.5289431916778684,0.012356973801041594,0.003936007960043671,5.219308359522952e-05,0.7775920467618358,0.7934449476413035,0.7831123363504551,0.2269516348946152,0.07247757305295174,0.0009493368140587544,8.084871536579508,7.646199712281366,7.009584875199163,1.7618656505823793,0.5510915063387074,0.0006797246558409853,1.5961201571203538,-0.35427356684895894,-2.108136387588451,-0.43566144117557837,0.1282984073415655,0.0010470595461176675
0.1,0.04805758298352585,1.6195933610800213,-1.5204163539762132,0.01480285287688012,0.004720225237072141,6.232366175422415e-05,0.8578872817080675,0.8699311999115934,0.8526837701655114,0.24458790758385263,0.07842172770284694,0.001013057815899463,7.913251514543293,7.354134832396858,6.606091913521228,1.6206759427074928,0.5046839690582274,-0.0011214686953708863,1.6562732430944789,-0.769708305046712,-2.213998251740926,-0.4525321934535709,0.13019248744169004,0.0009880834906383466
0.11,0.057422403845526576,1.629028261475832,-1.5112339677687883,0.017411699688859677,0.005560132172655087,7.300430663622891e-05,0.936482086200072,0.9434900395810688,0.9182386207424954,0.26088468119795555,0.08399069355829457,0.0010680644882004754,7.7269824314261,7.047006462863427,6.192632418983488,1.4815391392769683,0.45767131371366077,-0.002828924191486948,1.7161126913041018,-1.2028215202482029,-2.3213462467080457,-0.4690366476196865,0.1317762137116161,0.0009222545954132647
0.12,0.06755471448432723,1.6391679697700972,-1.50143716528948,0.020170226826246328,0.006451890576089456,8.414844067642698e-05,1.013231063880065,1.0139708294265066,0.9796802479308357,0.2758527137386652,0.08917584034343683,0.0011144134040198073,7.525865740477728,6.725597869688555,5.770887720359736,1.3440817374083167,0.41042244122411375,-0.00441585505232478,1.7740631693737974,-1.6503604350902252,-2.4292406316764015,-0.4849897648494739,0.13295368213441047,0.0008496170334667894
0.13,0.07843458127233922,1.649980278920154,-1.4910678849965036,0.023065236693772764,0.00739160455677736,9.567098363043625e-05,1.0879866788011991,1.0812309150056898,1.0369280292976364,0.2895009867526438,0.09397139806879043,0.0011522542954009274,7.309868345515302,6.3908462520203155,5.34257031685422,1.2081846244013867,0.36338030793113774,-0.005863466902853887,1.8285207222735669,-2.108974412419893,-2.536711843617467,-0.5002058650192103,0.1336367573268948,0.0007703642506681695
0.14,0.09004059064897564,1.6614316503001516,-1.4801687065130849,0.02608362356960107,0.008375353887356211,0.00010748921768233218,1.1606009376636417,1.1451371379997535,1.0899178483418643,0.30183868758283056,0.09837493305788517,0.0011818234051895926,7.079133401857554,6.043830518655126,4.909426267513112,1.0739176765315044,0.3169965882623984,-0.007160890252677632,1.8778875934003088,-2.575254020173585,-2.6427780250758683,-0.5145031211652725,0.13374728250476192,0.0006848457928205437
0.15,0.10234986227610952,1.6734873226150992,-1.4687826808695459,0.029212390410709516,0.00939922806593395,0.00011952353779504863,1.2309271627133886,1.2055672314947659,1.1386025643538982,0.31287668411084446,0.10238741785777386,0.0012034320112716457,6.833983835766388,5.6857567178343835,4.473230797617157,0.9414880078541437,0.27169205274134356,-0.008304420228619769,1.9206110745874276,-3.0457737129275957,-2.746463539521584,-0.5277080620684053,0.13321905136392387,0.0005935681370929206
0.16,0.1153380801898019,1.6861114333422365,-1.4569531568066079,0.032438676350735676,0.010459358563115365,0.00013169806560441402,1.298821791369238,1.2624110727137203,1.1829524062938064,0.32262859400261634,0.10601304971814152,0.0012174527809365387,6.574919498630605,5.317941382874781,4.0357786470667705,0.8111987144121997,0.22783391555539367,-0.00929635417602892,1.9552246795239445,-3.517136934091121,-2.846817916234554,-0.5396599297612631,0.13199946837239745,0.000497189478807544
0.17,0.12897954163284975,1.699267151058389,-1.4447236043477352,0.03574979161983844,0.011551947765302469,0.00014394112252344064,1.3641461443047833,1.315571771615249,1.2229552458872601,0.3311115269102767,0.10925892021871036,0.001224305691902663,6.302608823742157,4.941793162652894,3.5988705143003052,0.6834157658603317,0.1857245423145315,-0.010143649100862184,1.9803896508178125,-3.986022279354939,-2.942934602105443,-0.5502147327970536,0.13005083332232878,0.000396508692650448
0.18,0.14324722273405108,1.7129168168351598,-1.4321374371795659,0.03913325722680626,0.012673293818967833,0.00015618556867582785,1.426768110120133,1.3649665776770854,1.2586167168169216,0.33834656069678193,0.11213460536653636,0.0012244446152387223,6.01787586539349,4.558793179133334,3.1642968030861107,0.5585413038016185,0.1455978023990454,-0.010856562392487668,1.9949346649728468,-4.4492292691328945,-3.0339688688622166,-0.5592488402313811,0.1273511997550198,0.00029244894783533296
0.19,0.1581128597546157,1.7270220927527857,-1.4192378356041577,0.042576847226749155,0.013819811054336769,0.0001683690207059192,1.4865637020564628,1.4105275917625815,1.2899601575408157,0.3443589999942896,0.11465172353689355,0.001218345203009138,5.721683624922854,4.170474598471784,2.7338197481241036,0.43699205936989927,0.1076205181679768,-0.01144738874804574,1.9978916085389822,-4.903722259440265,-3.119154233570987,-0.5666619754702968,0.12389477416425174,0.0001860366948610592
0.2,0.17354704425759596,1.7415441155022948,-1.406067571954719,0.04606863178764691,0.014988045990278398,0.00018043396475481518,1.5434184502980248,1.452202274950905,1.3170263649438734,0.3491784560897754,0.11682349359416283,0.0012064944048895954,5.4151145788466195,3.7784019191703138,2.309154870147184,0.31918193716094656,0.07189720926054832,-0.01192936355186669,1.9885254648629944,-5.346671078602068,-3.1978167984273522,-0.5723794928166578,0.11969184250263339,7.837694204851126e-05
0.21,0.1895193302771856,1.7564436530156062,-1.3926688404076395,0.049597019590948366,0.016174689138810587,0.0001923277819332207,1.597228601958965,1.489953751331149,1.3398731547079519,0.3528387803301451,0.11866431485321888,0.001189381717840552,5.099349308133862,3.3841504726534626,1.8919525872218204,0.20550805635465252,0.0384768298042637,-0.01231576861343564,1.9663566619184905,-5.775487107843501,-3.2693870003362604,-0.5763538512598738,0.1147682310932194,-2.937410990643994e-05
0.22,0.20599835137208647,1.7716812620833484,-1.3790830930884228,0.053150798373421466,0.017376582966313323,0.00020400270319632054,1.6479021094900863,1.523760906774214,1.3585747319216732,0.35537787824731015,0.12018938275027344,0.0011674921263099846,4.775644082949074,2.989286602043347,1.4837806843433023,0.09633971457657786,0.00736054903731187,-0.01261924980133955,1.9311746621223547,-6.187853718451981,-3.333408376001749,-0.5785652376188509,0.1091643291845065,-0.00013603791665037581
0.23,0.2229519453380981,1.7872174449872975,-1.3653508842685018,0.056719172652258516,0.018590726449493188,0.00021541570918846186,1.6953593966011609,1.5536182903949076,1.373220881992106,0.3568374278837049,0.1214143483179865,0.0011413005992141334,4.4453081862048025,2.595348937564768,1.086108218290975,-0.007990137019051602,-0.021490113113355136,-0.012851337576566202,1.8830420885151504,-6.581750224020228,-3.3895430862258973,-0.5790213318766795,0.10293371875004698,-0.00024044273709622553
0.24,0.24034728432370242,1.8030128032835704,-1.3515117242952521,0.060291797881737545,0.019814276702235595,0.000226528388782276,1.7395338985604336,1.5795358296272932,1.3839159973249744,0.35726252294790267,0.12235502527424078,0.0011112679593814124,4.109681667876119,2.2038311265165023,0.700291310725345,-0.10719123434358302,-0.04814528420510911,-0.013022149346119338,1.82228923527845,-6.955468787013909,-3.4375740940120783,-0.5777562484680434,0.09614147259370848,-0.0003414519307765976
0.25,0.2581510081303056,1.8190281870178815,-1.3376039447003225,0.0638588104732559,0.021044548156171322,0.0002373067679828934,1.7803723806603204,1.6015383734311062,1.3907779594929595,0.3567012591518343,0.12302714539357275,0.0010778379200617407,3.7701141178536157,1.8161663067617169,0.3275611620275134,-0.20102042661331776,-0.07269920458328372,-0.013140246065234784,1.749499359433801,-7.307624016507888,-3.4774040442460894,-0.5748287254574019,0.08886219353344055,-0.00043799035354936434
0.26,0.2763293585759985,1.8352248378283225,-1.3236645757030538,0.06741085327489209,0.022279009762087555,0.0002477211188040769,1.8178350445692906,1.6196650810441018,1.393936899726869,0.3552042801636198,0.12344616059162346,0.0010414350821183463,3.4279449330173204,1.4337135390622602,-0.030985495979535482,-0.2892844207795222,-0.0952633723614369,-0.013212612986321037,1.6654856518163728,-7.637155290329865,-3.5090510378243596,-0.5703196663626433,0.08117787484425394,-0.0005290679447282299
0.27,0.294848312947236,1.8515645245868266,-1.3097292370771823,0.07093909625395875,0.02351528064837761,0.00025774575578190975,1.8518954371237546,1.633968675850424,1.393533862587156,0.3528242979066657,0.1236270886290056,0.0010024636977832848,3.08448544196013,1.0577463397752944,-0.37439339590330034,-0.3718410524376814,-0.1159604878734335,-0.013244734979134254,1.5712612034967572,-7.943322112644387,-3.5326416207025177,-0.5643291647348136,0.07317566508302789,-0.0006137997810547436
0.28,0.3136737147455712,1.8680096704403122,-1.2958320430903965,0.07443525225746918,0.024751124632170805,0.000267358826049571,1.8825401798335182,1.6445145853485463,1.3897193986785712,0.34961560035104283,0.12358439837931921,0.0009613070267661263,2.741003142324641,0.6894433844519294,-0.7018531614470096,-0.44859927570809655,-0.13491924782873355,-0.013240739131236134,1.4680035923032868,-8.225693062665927,-3.5484014110741695,-0.5569731581389916,0.06494561902170448,-0.0006914220787884217
0.29,0.3327714001456491,1.88452347032935,-1.2820055219668152,0.07789158784166728,0.02598444393296092,0.00027654209739263146,1.909768540007787,1.6513799889037928,1.3826521123581217,0.34563355841980997,0.12333193007901166,0.0009183271343060444,2.398708205200178,0.32988138751739565,-1.0127032292433418,-0.5195180536862267,-0.1522699889589756,-0.01320358077875361,1.3570158982502316,-8.484129090340312,-3.5566438607311626,-0.5483798653143804,0.0565785111136459,-0.0007613038403209795
0.3,0.3521073188059397,1.9010699982795218,-1.268280550070073,0.08130092926308867,0.02721327239073138,0.00028528074744796513,1.9335918660290599,1.6546527950171726,1.37249718967423,0.3409341421421391,0.12288284577704624,0.0008738650055333663,2.0587423111469714,-0.019969894569587983,-1.3064293988378328,-0.5846043225692359,-0.1681411460166906,-0.013135252907461703,1.2396860135068715,-8.71876206314016,-3.5577576872640817,-0.5386861582352003,0.04816377936058597,-0.0008229540526478414
0.31,0.3716476479060663,1.9176143039726306,-1.2546863007661402,0.08465666381026954,0.02843576844313846,0.000293563156193686,1.9540329100126617,1.6544305693108823,1.3594249303932675,0.3355734547180872,0.12224960524070796,0.0008282408745720867,1.722169804880591,-0.35925063819920255,-1.582662198416605,-0.6439101948118608,-0.18265646629956933,-0.013037002766789901,1.117446049922778,-8.929969561365176,-3.5521935224202035,-0.5280340104596005,0.039787656433693204,-0.0008760245400024391
0.32,0.39135889851619077,1.934122498306736,-1.2412502077055978,0.08795273672747894,0.029650208070918904,0.00030138070308276564,1.9711250610124484,1.6508194334105535,1.3436093060542478,0.3296072917209403,0.12144396277804445,0.0007817546889079607,1.3899710912846621,-0.6872120464592845,-1.8411722946956366,-0.6975295584859351,-0.19593290959124943,-0.012909543122287287,0.9917334818265198,-9.118346958227674,-3.5404503012645914,-0.5165671460038816,0.03153153230131115,-0.0009203087426215674
0.33,0.4112080136281938,1.950561827841643,-1.2279979420688156,0.09118364404013161,0.03085497787842061,0.0003087275695745832,1.984911511200302,1.643932953490691,1.3252265636782097,0.323090731265267,0.1204769807501705,0.0007346866491817558,1.0630381443064605,-1.0032157326549547,-2.0818642030751677,-0.7455942208684334,-0.20807915607011473,-0.012753248887894614,0.8639554168727633,-9.284677809637623,-3.523061871256091,-0.504427990838406,0.023470579295185888,-0.0009557368314252126
0.34,0.43116245739011416,1.9669007381970354,-1.2149534031470681,0.09434442163641978,0.03204856843766264,0.00031560054738771694,1.995444376192035,1.6338910355392346,1.3044538921747508,0.3160777596288156,0.1193590559242031,0.000687297781313374,0.7421719619283889,-1.3067315847145986,-2.3047685697940405,-0.7882697338774509,-0.21919464332015437,-0.012568332601316012,0.7354570895150424,-9.429903523737499,-3.5005842356711563,-0.49175500395567273,0.015672657308924417,-0.0009823676707148515
0.35000000000000003,0.4511902952805574,1.9831089266218611,-1.2021387214895367,0.0974306309919409,0.033229567989938466,0.00032199885250715416,2.0027837890443223,1.620818842482572,1.2814681657531348,0.3086209355521115,0.11809995522758254,0.0006398305119437199,0.4280817738645203,-1.5973343136303613,-2.5100333027644313,-0.8257510273071968,-0.22936905546448827,-0.012354994637535699,0.6074953471565339,-9.555093190424834,-3.4735837683172512,-0.4786804387678206,0.008197504357212912,-0.0010003782069231291
0.36,0.4712602651358184,1.9991573840846555,-1.1895742737308865,0.10043834194462085,0.03439665656877867,0.0003279239448020779,2.0069969855261043,1.6048457462794372,1.2564447758650177,0.300771095267996,0.11670885788402,0.0005925092294923772,0.12138579267120247,-1.8746988933777495,-2.6979138235483946,-0.8582579631125977,-0.23868219142463842,-0.012113545988986951,0.4812175732191184,-9.661414335802696,-3.4426266525204925,-0.4653285601190429,0.0010962065783144837,-0.0010100508924763868
0.37,0.4913418390976294,2.015018427344828,-1.1772787081261782,0.10336411293710404,0.03554860058202425,0.0003333793530222192,2.0081573961810966,1.5861043260172658,1.2295565604708416,0.29257709924831854,0.11519440132455816,0.0005455408220141327,-0.17738670783234423,-2.138595097512268,-2.868762701221688,-0.886030910437098,-0.24720414445038086,-0.011844502977426896,0.35764618558199185,-9.750105235285496,-3.40826971280619,-0.45181431891085555,-0.0055890676767542235,-0.0010117597533380845
0.38,0.5114052766830166,2.0306657215547586,-1.1652689797581113,0.10620496914418298,0.036684247868667356,0.0003383705049201724,2.0063437585387187,1.5647294209930604,1.200972836806695,0.2840856207078945,0.11356472866431083,0.0004991151897953195,-0.46779220205652156,-2.3888813300131044,-3.0230189112358645,-0.9093264271566106,-0.2549957307752815,-0.01154865455353582,0.23766857948883094,-9.822449280942848,-3.3710527274984092,-0.4382424663201574,-0.011825092528667643,-0.0010059556815294908
0.39,0.5314216692897863,2.046074294012622,-1.1535603943441954,0.10895837889501295,0.03780252322776942,0.0003429045622742672,2.001639260676973,1.540857245786371,1.1708585413915862,0.27534097508299643,0.11182753591020655,0.0004534057354094751,-0.7494688182103759,-2.62549793609506,-3.1611969404511577,-0.9284131195998508,-0.26210911110575363,-0.011227103775508507,0.12203216212821896,-9.879751761481508,-3.3314922385217525,-0.4247070735261931,-0.01758739637529874,-0.0009931514853920484
0.4,0.5513629765423403,2.0612205397373886,-1.1421666595562017,0.11162222878508182,0.03890242440191169,0.00034699026064568406,1.9941307252554006,1.5146245724766565,1.139373478799388,0.26638498900688784,0.10999011741422683,0.0004085698371416883,-1.0221315362983758,-2.848460163758139,-3.283875934658148,-0.9435677383272072,-0.2685885544210782,-0.010881285772627813,0.011343957377954864,-9.923319283506125,-3.2900768136628264,-0.4112914110520923,-0.022859892682283355,-0.0009739071663816579
0.41000000000000003,0.5712020549540159,2.0760822195719086,-1.1310999427686614,0.1141947978524519,0.03998301848599729,0.00035063775378088233,1.9839078411675495,1.4861679834519956,1.1066716787540127,0.2572569067370075,0.10805940840856011,0.00036474931351982966,-1.2855668596496694,-3.057850929803001,-3.391689058462584,-0.9550715545476027,-0.27447129910943247,-0.010512965027464016,-0.09392585535474077,-9.954441945237692,-3.247263667925154,-0.39806813423063725,-0.02763436331591452,-0.0009488158174310316
0.42,0.5909126794354699,2.0906384515391245,-1.1203709341745975,0.11667473116789293,0.04104343872352988,0.000353858462654633,1.9710624481453944,1.4556231967215987,1.0729008594063902,0.24799333154410277,0.10604202375325913,0.0003220708873750681,-1.539627123576089,-3.253813525824235,-3.4853132104458275,-0.9632070493201965,-0.27978847176695876,-0.010124215121271485,-0.19343716758084975,-9.974378271983186,-3.203476514809184,-0.3850997176118969,-0.03190982806644612,-0.0009184904595687058
0.43,0.6104695582155292,2.104869696182049,-1.1099889142423722,0.11906101316035163,0.042082881646462234,0.00035666492923140593,1.9556878780059261,1.4231244642924872,1.0382019932225375,0.23862819924587061,0.10394429229323512,0.00028064665767729154,-1.7842245859994406,-3.4365443810673795,-3.565459209977858,-0.9682549362300783,-0.28456602902422645,-0.009717384264081641,-0.2869706507076786,-9.984342838134594,-3.1591044949028735,-0.372439080836663,-0.03569183276498443,-0.0008835520550186874
0.44,0.6298483417632834,2.1187577366120998,-1.0999618245348823,0.12135294096883183,0.04310060451106138,0.0003590706750967081,1.9378783547754252,1.3888040430050559,1.0027089707489898,0.2291927808480193,0.1017722864599149,0.00024057458653021927,-2.0193254257330047,-3.606285980648558,-3.6328625466638202,-0.9704915279742483,-0.28882569257124224,-0.009295049976637215,-0.37441664481400716,-9.985496433837566,-3.1145020169440603,-0.36013035098014595,-0.03899168610436096,-0.0008446188600635239
0.45,0.6490256263099234,2.132285653974505,-1.0902963409687465,0.12355009808016604,0.04409592298069894,0.000361090065170196,1.9177284546639988,1.3527917362405217,0.9665483566135801,0.2197157111334204,0.09953184696375598,0.00020193900734878848,-2.2449437552307354,-3.763320019986681,-3.6882747597197936,-0.9701864482859488,-0.2925858521468747,-0.008859966195032043,-0.4557628751767255,-9.978938585171983,-3.06998934392958,-0.348209710952048,-0.041825672221301236,-0.0008022972122754458
0.46,0.6679789525678136,2.145437799015586,-1.0809979486542591,0.12565232848020444,0.04506820900677138,0.00036273817675607753,1.8953326257890106,1.3152145041080678,0.9298392314487478,0.21022304000383957,0.09722860260724364,0.00016481115858815214,-2.461135736558845,-3.9079608597734814,-3.7324554929836875,-0.967600682951657,-0.295862415657286,-0.00841500588281674,-0.5310815744219008,-9.96570220340902,-3.0258537620717507,-0.3367062895581042,-0.044214262554663764,-0.000757173786201216
0.47000000000000003,0.6866868002343441,2.1581997604063807,-1.0720710175245578,0.12765971151436825,0.046016888860813475,0.0003640306742119403,1.870784766653054,1.2761961390794965,0.8926931129701274,0.2007383034163809,0.09486798540420939,0.00012924974558627797,-2.6679938724878878,-4.040549330673153,-3.7661652520353517,-0.9629849572984206,-0.29866958980280245,-0.00796310201845174,-0.6005165053326468,-9.946750119805507,-2.9823511815497947,-0.32564305567418644,-0.046181346704563364,-0.0007098093003139483
0.48,0.7051285788509247,2.170558330441885,-1.0635188780327436,0.1295725376229302,0.046941441274019426,0.00036498368952367116,1.8441778616580582,1.2358570035504637,0.8552139491814175,0.19128261085619536,0.09245524132059517,9.530153117308935e-05,-2.8656415292120205,-4.161446923370474,-3.7901588731445237,-0.9565784224569196,-0.3010205785920359,-0.00750718942820261,-0.6642702907698346,-9.922973255320166,-2.939708033255912,-0.3150376861297308,-0.047753498185653886,-0.0006607336164430777
0.49,0.7232846155645984,2.1825014686964277,-1.0553438962669182,0.1313912850872908,0.04784139564456729,0.00036561370906348673,1.8156036713673693,1.1943138254542522,0.8174981765825536,0.1818747464360613,0.08999543705478613,6.300195398155512e-05,-3.0542277334343466,-4.271030387661227,-3.8051796995221556,-0.9486076288432752,-0.3029281909159476,-0.0070501496383177376,-0.7225923686390212,-9.895190177335941,-2.898123343453822,-0.30490338391467653,-0.0489592872608473,-0.0006104421408190843
0.5,0.7411361403125576,2.194018264174628,-1.0475475479038505,0.1331165978962988,0.048716330278097526,0.0003659374667807815,1.7851524747959178,1.1516795478200357,0.7796348363067694,0.1725312809007972,0.08749346335302385,3.2375771729478364e-05,-3.233922274483313,-4.369686754016274,-3.8119544485660066,-0.9392857625562563,-0.30440535187198847,-0.006594760478701778,-0.7757678058305437,-9.864147805742878,-2.8577708870521277,-0.29524962988966774,-0.0498286495853742,-0.0005593934127678215
0.51,0.7586652689195371,2.205098896454989,-1.040130490491065,0.13474926481659477,0.04956587063218241,0.0003659718440345503,1.7529128606979563,1.1080632280360672,0.7417057412785404,0.1632666920295985,0.08495403540848853,3.437725376877699e-06,-3.4049111317454157,-4.457808782414295,-3.8111887443451096,-0.9288121186750953,-0.3054655157489581,-0.006143651779178971,-0.8241071287359704,-9.830523046526418,-2.8188013389158124,-0.28608285706958114,-0.05039231627360266,-0.0005080077520958716
0.52,0.7758549845656906,2.215734596280318,-1.0330926336136133,0.13629019972822037,0.05038968754141179,0.00036573377622409577,1.7189715646153485,1.063569982532918,0.7037856877451845,0.15409349116255958,0.0823816909229381,-2.3806781045451254e-05,-3.5673922389575967,-4.535790836150913,-3.803563282298005,-0.917371784638906,-0.30612298148902184,-0.005699268111367672,-0.8679372612900088,-9.79492515049616,-2.781344360440512,-0.2774070416323574,-0.05068130827675563,-0.000456666828283931
0.53,0.7926891180489968,2.2259176060065906,-1.0264332065649313,0.1377404232664229,0.051187495405602704,0.0003652401663144266,1.6834133483306255,1.0183009726272925,0.6659427048681863,0.14502235382025372,0.07978078641909106,-4.9360990966917156e-05,-3.721571589709247,-4.604025172680219,-3.7897305878456784,-0.9051355068408604,-0.30639311394363133,-0.005263839124900582,-0.9075936054812521,-9.757898616425718,-2.745510574896673,-0.2692242090215888,-0.050726495653934986,-0.0004057140126143427
0.54,0.809152327232222,2.235641140280078,-1.0201508232004701,0.13910104579272364,0.051959050329429976,0.0003645078052876819,1.6463209183225218,0.9723534273487172,0.6282383364461109,0.1360622526300745,0.07715549238272733,-7.323610267446996e-05,-3.867659682733656,-4.662898639208211,-3.7703123271142642,-0.8922597142105477,-0.30629247637851975,-0.004839357712633774,-0.9434132540838625,-9.719926480382734,-2.7113933994433306,-0.26153485686610334,-0.050558220433383864,-0.0003554553771555252
0.55,0.8252300760305541,2.2448993472720415,-1.014243543707855,0.14037325170285933,0.05270414820731047,0.0003635532994845683,1.6077748798332123,0.9258206991963636,0.5907279492615267,0.12722059101356872,0.07450978778804898,-9.54505803113597e-05,-4.005868301088696,-4.712789757589153,-3.745897126025887,-0.8788866737134171,-0.30583888139321047,-0.004427565901264807,-0.9757292905389927,-9.681433855408674,-2.6790707140335015,-0.25433829898148863,-0.05020598027923136,-0.0003061612110150779
0.56,0.8409086132626851,2.2536872707613393,-1.0087089330780155,0.14155828506606147,0.0534226227525208,0.00036239300473344565,1.5678537232131007,0.8787923489297687,0.5534610629839501,0.11850333632021483,0.071847454521033,-0.00011602947511226612,-4.13640761598971,-4.7540661809383025,-3.717038853419866,-0.8651447542817561,-0.30505136872000094,-0.004029948119532889,-1.004866105585965,-9.64279160721384,-2.648606357656659,-0.24763293652649673,-0.04969816907141199,-0.00025806793344236524
0.5700000000000001,0.8561749516556783,2.262000813318089,-1.0035441161079552,0.1426574365791703,0.054114343474181724,0.00036104296710158464,1.5266338392993235,0.8313542556749329,0.5164816970060222,0.10991515131088367,0.06917207216609274,-0.00013500376318609884,-4.259483603718207,-4.787082503119878,-3.684255324403342,-0.8511487776099216,-0.30395011927686255,-0.003647731289034839,-1.0311356432729675,-9.604320071657696,-2.620051450572621,-0.2414164635588318,-0.04906186973480114,-0.00021138029432202503
0.58,0.8710168472626599,2.2698367008062625,-0.9987458288076595,0.14367203181012347,0.05477921360982254,0.00035951887004527234,1.484189560698165,0.7835887488173839,0.47982873002957604,0.1014595230953172,0.06648701356408165,-0.00015240970563123064,-4.375295762544398,-4.812178401760384,-3.6480273816123283,-0.8370004363481183,-0.30255631536763516,-0.0032818910017673453,-1.0548344791007347,-9.566292738153408,-2.5934455475479297,-0.2356860148749548,-0.048322694174782625,-0.0001662737645838418
0.59,0.8854227795223676,2.277192448389751,-0.9943104661212341,0.14460342069822804,0.055417168024695214,0.00035783598768485993,1.4405932259707657,0.7355747583488415,0.44353626864253987,0.0931388888104556,0.06379544148726753,-0.0001682882360412425,-4.484035115834299,-4.829677095542925,-3.608798314280972,-0.8227887625274413,-0.30089195710566585,-0.0029331629598879916,-1.0762416289839896,-9.528939839585579,-2.568817631820404,-0.23043826423201538,-0.04750466494577557,-0.0001228970314385282
0.6,0.8993819321609545,2.2840663281950304,-0.9902341259059406,0.14545296827311255,0.05602817109181354,0.0003560091438883946,1.3959152638586882,0.6873879805279592,0.40763402152935113,0.08495475748845202,0.06110030671183267,-0.00018268437964653273,-4.585882487333412,-4.839884097130623,-3.5669735778356273,-0.8085906313437725,-0.2989796450180364,-0.0026020587669266237,-1.095616988221624,-9.492451803800996,-2.546186962823365,-0.22566948093554412,-0.046630133252690366,-8.137452562670695e-05
0.61,0.9128841751092059,2.2904573387540643,-0.9865126491426327,0.14622204655015772,0.05661221456884283,0.00035405267681426093,1.3502242948251448,0.6391010559033886,0.3721476763307896,0.07690782770451632,0.058404347702929175,-0.00019564670741336397,-4.681007034912794,-4.843086244037141,-3.5229207799551796,-0.794471287787534,-0.29684233839801877,-0.0022888851423508716,-1.1132003036220912,-9.456982534255053,-2.5255637928345007,-0.22137555242286555,-0.045719728021401645,-4.1808919667189845e-05
0.62,0.9259200475824487,2.2963651763233175,-0.9831416563775348,0.1469120275573046,0.05716931548947652,0.0003519804085395386,1.3035872473242776,0.5907837569253318,0.33709927650978744,0.06899810071468838,0.0557100920633693,-0.0002072268274722298,-4.7695650297219245,-4.83955099100045,-3.4769699025734324,-0.780484885859904,-0.2945030984059507,-0.001993765640140758,-1.1292105883466683,-9.42265249806636,-2.506949968902851,-0.2175519799563083,-0.04479233103534112,-4.283547134140189e-06
0.63,0.93848074244586,2.301790208148689,-0.9801165804186867,0.14752427744623484,0.05769951408783707,0.0003498056193865791,1.2560694863411248,0.5425031825371501,0.30250759588481874,0.06122498889302408,0.05301985983605489,-0.00021747891529595134,-4.851698868608994,-4.829525948824939,-3.4294137329838277,-0.7666750323128344,-0.2919848241632437,-0.0017166639854611157,-1.1438458970686594,-9.38955160868562,-2.4903394368564316,-0.21419385392578819,-0.04386507348766108,3.113529689265041e-05
0.64,0.950558091964522,2.3067334477215864,-0.9774326953310826,0.14806015163980454,0.05820287177477416,0.00034754102655539226,1.2077349518662004,0.4943239572897609,0.26838850876041054,0.05358741935697062,0.050335768693708795,-0.00022645928311868475,-4.927536308776293,-4.813238656160566,-3.3805084809587926,-0.7530753289001488,-0.289309989246302,-0.001457408201776679,-1.157283388020006,-9.3577418977895,-2.4757186640860067,-0.2112958145987313,-0.04295334971361924,6.439620497592249e-05
0.65,0.9621445550153123,2.311196532048162,-0.9750851417929373,0.1485209909671056,0.058679469184755036,0.000345198766673279,1.1586463050790285,0.4463084326575427,0.23475535381453627,0.04608393273010777,0.0476597409980878,-0.00023422598821132238,-4.997189914825281,-4.79089657219017,-3.3304745625025394,-0.739709909018119,-0.2865003850817054,-0.0012157147878610886,-1.1696796078563971,-9.327259977034576,-2.463066997288257,-0.20885200348515884,-0.042070844321411234,9.546067881881744e-05
0.66,0.973233205816449,2.315181700931715,-0.9730689488919809,0.14890811873744897,0.059129404311407514,0.0003427903818848123,1.1088650801136695,0.39851688835529486,0.20161929009563706,0.03871277703433663,0.044993512665247995,-0.00024083847884667298,-5.060756709566332,-4.762687279643136,-3.2794975344359134,-0.7265939663395393,-0.28357687680153987,-0.0009912122814595692,-1.1811709446096599,-9.298119295129418,-2.4523569705603894,-0.20685600983557964,-0.04122956941225102,0.00012430133889248027
0.67,0.9838177242101077,2.318691778247335,-0.9713790524555903,0.14922283870475372,0.05955279074874727,0.00034032680912399904,1.0584518393658748,0.35100773156201204,0.1689896436390613,0.031471996730474565,0.042338643733975306,-0.0002463572760813222,-5.118318021140553,-4.728778888870608,-3.227729167389205,-0.7137342745647501,-0.2805591762136217,-0.0007834636421932273,-1.191874203006727,-9.270312199469968,-2.443554578264502,-0.20530081617776774,-0.04043990905627444,0.00015090033199925286
0.68,0.9938923875138724,2.3217301551678364,-0.9700103100222313,0.14946643387414224,0.05994975605375775,0.0003378183722351768,1.007466330376471,0.3038376920501406,0.13687424333589993,0.024359516938851123,0.0396965305010483,-0.00025084368888222454,-5.169939520072526,-4.689320634852821,-3.175288647877702,-0.7011296987518616,-0.2774656356472356,-0.0005919869905066655,-1.2018872649111016,-9.243811814489414,-2.436619525995963,-0.20417874623640392,-0.03971066865780261,0.00017524794151969525
0.6900000000000001,1.0034520639377709,2.3243007752808404,-0.9689575125744382,0.14964016610285813,0.06032044024435357,0.0003352747766386876,0.9559676423898544,0.2570620113004003,0.1052797447793109,0.01737322287159021,0.03706841905958172,-0.0002543595596489213,-5.215671440786485,-4.6444436599103645,-3.1222639029078056,-0.6887716997786555,-0.27431306561900115,-0.0004162743324782059,-1.2112898054536323,-9.218573751039152,-2.431505471846129,-0.20348141807144157,-0.03904912729259268,0.0001973414008545609
0.7000000000000001,1.0124922075451872,2.326408121518386,-0.9682153931656602,0.1497452764478377,0.06066499444490222,0.000332705106270541,0.9040143607416421,0.21073462375451915,0.07421194087779961,0.010511034497957683,0.03445542005486507,-0.0002569670368146555,-5.255548982827553,-4.594261975515318,-3.0687130429347897,-0.6766448344065292,-0.2711165785090337,-0.0002558079819137138,-1.2201440424926369,-9.19453766266349,-2.4281602689772503,-0.20319970481636307,-0.03846109152441605,0.00021718390705009156
0.71,1.0210088547179628,2.328057204802627,-0.9677786325850048,0.14978298621228886,0.060983579689457265,0.0003301178225611468,0.8516647172775669,0.16490832842411884,0.043676058065537045,0.003770976445117695,0.03185852445550444,-0.0002587283709394235,-5.289592887491752,-4.538873596908207,-3.014665920934098,-0.6647272540896214,-0.2678894597597221,-0.0001100745038878359,-1.2284955033507232,-9.171628665662611,-2.426526219343121,-0.2033237049920335,-0.03795094960407325,0.00023478382867718627
0.72,1.0289986220684535,2.3292535542939934,-0.9676418622153946,0.14975449864339938,0.06127636589071552,0.00032752076525527065,0.7989767350490772,0.1196349491366388,0.01367703696102867,-0.0028487568889480723,0.02927862012582589,-0.0002597057305876177,-5.317810185747589,-4.478361844194327,-2.960125806808903,-0.6529912061327714,-0.26464306752161093,2.1423948491916533e-05,-1.2363737983202423,-9.149758640442892,-2.4265403471974856,-0.20384272400880227,-0.03752172531775679,0.0002501540996160035
0.73,1.0364587057241796,2.330003209111614,-0.9677996642520735,0.14966100123276174,0.061543530980494095,0.0003249211549130868,0.746008365572613,0.07496548176202722,-0.015780203667896786,-0.00934974106376435,0.026716508977857302,-0.00025996103421838687,-5.340195113199567,-4.412796803196342,-2.9050711773022497,-0.6414035410484953,-0.2613867611511971,0.0001391609261416904,-1.2437933952341456,-9.12882743190213,-2.428134699830127,-0.20474526814053298,-0.0371751310815273,0.00026331178837701044
0.74,1.0433868818940022,2.33031271137992,-0.9682465694598491,0.14950366857024083,0.06178526022526739,0.00032232559696906407,0.692817616982262,0.030950226830600225,-0.04469052077755986,-0.015733266252090324,0.024172924477329813,-0.0002595557944022704,-5.356730187380127,-4.342236938569085,-2.8494576219874865,-0.6299262299981532,-0.2581278585226343,0.00024357958145421188,-1.2507543934983991,-9.108723966545071,-2.431236681748778,-0.206019051950248,-0.03691162017332464,0.0002742778308775428
0.75,1.0497815086085298,2.330189100440187,-0.968977052658968,0.149283665700815,0.06200174571804313,0.0003197400872608199,0.639462671452768,-0.012361093973278961,-0.07304831991189231,-0.022000286942582145,0.02164854927757416,-0.000258550970824417,-5.367387441849327,-4.26673085053708,-2.793219865764023,-0.6185168960175531,-0.25487162173308064,0.0003350890865562728,-1.2572432994143947,-9.0893273037154,-2.4357694272722754,-0.20765101985898157,-0.036730438252519815,0.000283076913111801
0.76,1.0556415285117806,2.3296399080514725,-0.9699855261410943,0.14900215193240635,0.06219318604561852,0.00031717001897312827,0.5860019903250745,-0.05491923887147192,-0.10084734821262537,-0.02815137684086467,0.01914403275753914,-0.0002570068287691582,-5.372129810430925,-4.186319165105341,-2.7362739075722606,-0.6071293623617748,-0.25162127045644667,0.0004140634233921747,-1.2632338074224445,-9.070507637794421,-2.4416522152052336,-0.20962738226885555,-0.03662967453884258,0.00028973748883873857
0.77,1.0609664725661125,2.3286731543921175,-0.9712663312284039,0.14866028504091353,0.062359786128069444,0.00031462019097201575,0.5324944054331818,-0.09667536593550421,-0.12808050873095356,-0.03418668914928122,0.01666000824509242,-0.00025498280011125357,-5.370912653431947,-4.101036545747137,-2.678519273786603,-0.5957142207138428,-0.2483780219116909,0.00048084236915918455,-1.2686875941036029,-9.052127267477044,-2.4488009279179606,-0.21193366637100455,-0.03660631320689944,0.0002942919162188571
0.78,1.0657564645182362,2.3272973446608827,-0.972813728200212,0.14825922581662201,0.06250175722521013,0.0003120948175299321,0.47899919521237644,-0.13758097312347978,-0.15473969718080444,-0.04010592242915224,0.01419710971406838,-0.0002525373442083631,-5.363685415901863,-4.01091381242452,-2.6198413829468388,-0.5842194212873988,-0.24514115616193877,0.0005357344499349881,-1.2735551334128121,-9.034041547306703,-2.457128555752354,-0.21455478148312748,-0.03665628569863685,0.0002967766962265127
0.79,1.0700122259609157,2.325521466066078,-0.9746218848226238,0.14780014289395757,0.0626193171027399,0.00030959753946458487,0.4255761442679576,-0.177587859480493,-0.18081566224118842,-0.045908292266443426,0.011755987752975853,-0.0002497278065347235,-5.350393405929317,-3.9159801514038555,-2.560114016217816,-0.5725908859180908,-0.24190810522348016,0.0005790216103099821,-1.2777765427011962,-9.016099835541628,-2.4665457462163265,-0.21747509846641494,-0.03677452476312442,0.00029723279463473993
0.8,1.073735081812947,2.3233549849819934,-0.9766848637272204,0.1472842178042545,0.06271269034888816,0.0003071314367308372,0.37228558520312294,-0.21664810840843204,-0.20629789045966215,-0.05159250897030866,0.00933732461482615,-0.0002466102733747661,-5.330979678697043,-3.8162653967579283,-2.4992018852465963,-0.5607731442287616,-0.2386745642569288,0.0006109653176754604,-1.2812824696307306,-8.998146451142212,-2.4769613959238037,-0.22067854246588983,-0.03695502109993108,0.0002957060284171736
0.81,1.0769269660294158,2.3208078440447806,-0.9789966088944829,0.1467126501889224,0.06278210883059819,0.0003046990425166934,0.3191884216468822,-0.25471409372130194,-0.2311745167262523,-0.05715676153320735,0.006941848171003483,-0.00024323942141437772,-5.30538700958967,-3.711802361777349,-2.4369632860219608,-0.5487099917849783,-0.23543462288926165,0.0006318138047373134,-1.2839950300970373,-8.980021651216914,-2.4882832817007716,-0.22414869790268965,-0.03719088350819561,0.00029224749655480735
0.8200000000000001,1.0795904273453085,2.3178904589549227,-0.981550931506221,0.146086663108225,0.06282781227667444,0.00030230235890070197,0.2663461315892591,-0.2917385089857956,-0.25543226117379914,-0.06259870806974178,0.004570344607625768,-0.00023966836159914295,-5.273559937150587,-3.602629195849681,-2.3732528239995485,-0.5363451679483955,-0.23218091452686807,0.0006418101358481865,-1.2858288067578936,-8.961562638647898,-2.500418725734645,-0.22786892432497038,-0.03747440342743615,0.00028691403450664796
0.8300000000000001,1.0817286348485322,2.3146137147508843,-0.9843414954383595,0.1454075083789397,0.06285004897387636,0.00029994287412892905,0.21382075032235776,-0.327674420403825,-0.27905639321385217,-0.06791547292852976,0.002223669720191826,-0.00023594847717729446,-5.235446854207618,-3.488791739802389,-2.3079241922651335,-0.5236230498655701,-0.2289047813082199,0.0006412007805244313,-1.286691916718218,-8.942604607843599,-2.5132752881269815,-0.23182248140174136,-0.037797124697759255,0.0002797686710483816
0.84,1.0833453831735516,2.3109889613186336,-0.9873618026707144,0.1446764718725723,0.06284907656069284,0.00029762158156513364,0.161674832501924,-0.362475343225083,-0.30203072323548824,-0.0731036506367403,-9.724131835204316e-05,-0.00023212925637954037,-5.191002123130874,-3.3703458503672494,-2.2408329809799286,-0.5104893577707408,-0.22559645215826407,0.00063024437431769,-1.286487155350953,-8.922981834644292,-2.5267614787586576,-0.23599266102930688,-0.03814991926652546,0.00027088106585686445
0.85,1.084445097104388,2.307028007904777,-0.9906051788934881,0.14389487870466833,0.06282516290249421,0.00029533900035805423,0.10997139308364753,-0.3960953413856529,-0.3243376222773713,-0.07815931679039682,-0.0023913658198628156,-0.00022825812070794037,-5.140188189058213,-3.2473596624236873,-2.171839492929167,-0.49689186555635523,-0.2222452312226686,0.0006092203521966821,-1.2851132211483163,-8.902528814352777,-2.54078747903864,-0.24036292422335334,-0.03852306942662462,0.0002603279061825328
0.86,1.0850328353758818,2.3027431164072114,-0.9940647595908091,0.1430640982452135,0.06277858703094982,0.0002930951978551131,0.05877382714937821,-0.42848914975655633,-0.34595806973209825,-0.08307804594548257,-0.00465758715443881,-0.00022438025029411257,-5.082977663132436,-3.1199157561361703,-2.1008115368158724,-0.48278110943927643,-0.2188396937965642,0.000578437162178258,-1.2824660239207297,-8.881081449695786,-2.555265862933626,-0.24491704020301908,-0.03890635699026289,0.00024819324127073897
0.87,1.085114293465055,2.2981469932266267,-0.9977334768793974,0.14218554888025225,0.06270964013003484,0.00029088981377297523,0.008145808917331215,-0.4596123180584877,-0.366871728858831,-0.08785493649612301,-0.006894690091498655,-0.000220538408213787,-5.019355346445941,-2.988113195127983,-2.027627167153143,-0.46811108655254685,-0.21536788672502993,0.00053823977175671,-1.278440075626739,-8.858478288267454,-2.5701123057192143,-0.24963922484952558,-0.03928915958474691,0.0002345687339291494
0.88,1.0846958051702833,2.293252779475012,-1.0016040473750907,0.14126070245577393,0.06261862655064226,0.00028872208611262993,-0.04184882947716529,-0.48942137516147083,-0.38705704956931813,-0.09248464244783121,-0.00910135793925816,-0.0002167727660345301,-4.94932016458132,-2.8520694015331207,-1.9521773373572358,-0.4528399344633014,-0.21181753016067972,0.0004890162220007044,-1.2729299596801211,-8.834561806696904,-2.585246268207166,-0.25451427555469974,-0.03966055400776081,0.0002195538098470978
0.89,1.0837843427848517,2.2880740393535373,-1.005668961351281,0.14029108833669857,0.06250586483577451,0.00028659087878094984,-0.09114623854315608,-0.5178740121474895,-0.40649139761904557,-0.09696141190753765,-0.011276171486775633,-0.00021312073316800677,-4.872886982457529,-2.7119218342245683,-1.874368431050748,-0.43693058202763435,-0.20817621750575555,0.0004312030066737915,-1.2658318708143663,-8.809179736453892,-2.6005916438359673,-0.2595276993770052,-0.04000942630517796,0.0002032556869981274
0.9,1.0823875156833722,2.2826247465317593,-1.0099204734411413,0.13927829701649794,0.06237168873851832,0.00028449471085268037,-0.13968271014794978,-0.5449292821778192,-0.4251512089860251,-0.10127913202006397,-0.013417609725619924,-0.00020961679282694644,-4.790088269706991,-2.567829437791533,-1.7941246357838274,-0.42035136162017306,-0.204431610387811,0.00036528910350797084,-1.2570452135867702,-8.782186423902111,-2.6160773560058574,-0.26466583140661476,-0.04032458794216073,0.0001857892697258684
0.91,1.0805135671544124,2.2769192683829296,-1.0143505951197667,0.13822398321664892,0.06221644821550608,0.00028243178737757496,-0.18739485289597627,-0.5705478148829766,-0.4430121678625422,-0.10543137998490336,-0.015524052301223674,-0.00020629234751054216,-4.700975588066427,-2.41997383197086,-1.7113901234454008,-0.4030765727152019,-0.200571625588573,0.00029181851511206336,-1.246474243494575,-8.753444214975852,-2.631637893425519,-0.2699159403163666,-0.0405948971372753,0.00016727689493189793
0.92,1.0781713693304127,2.270972347956025,-1.0189510891830538,0.1371298684197439,0.062040510379330074,0.00028040003160765447,-0.23421978239995855,-0.5946920426904606,-0.4600494063287178,-0.10941147969050184,-0.017593783617600386,-0.00020317557699204794,-4.605620874281926,-2.2685602142314574,-1.6261310026495508,-0.38508698699865285,-0.19658461101123592,0.00021139124334351722,-1.2340297305964165,-8.722824852740839,-2.6472137720339335,-0.2752663182491887,-0.0408093841299651,0.0001478479211331949
0.93,1.0753704160863473,2.264799083593701,-1.0237134664173584,0.1359977427856617,0.061844260394389096,0.0002783971184905674,-0.28009532440653023,-0.6173264362323828,-0.47623772343046766,-0.11321256340821957,-0.019624998494098003,-0.00020029131170870581,-4.504117494796606,-2.1138179520390454,-1.538337010362242,-0.3663702857176183,-0.19245950800110734,0.0001246626540285234,-1.2196306216450339,-8.690210874155076,-2.662751913268917,-0.28070635246794573,-0.04095737886534592,0.00012763815498981085
0.9400000000000001,1.0721208138013403,2.258414906136301,-1.0286289846279388,0.1348294664066835,0.06162810230189082,0.00027642050924744016,-0.3249602285007074,-0.6384177457400063,-0.49155182105805234,-0.11682763789782029,-0.021615809249827433,-0.00019766092431272453,-4.396581051967882,-1.9560008459334497,-1.4480229129870006,-0.3469214207749092,-0.1881859976640179,3.23412519318278e-05,-1.2032056732181717,-8.655496990620307,-2.6782059300569676,-0.2862265765694842,-0.04102863931887642,0.00010678911414502024
0.9500000000000001,1.068433269902235,2.251835553684872,-1.033688650165185,0.13362696986475026,0.06139245976117954,0.00027446748682849264,-0.36875438991052006,-0.6579352451429035,-0.5059665537246112,-0.12024965419332567,-0.023564254071128353,-0.00019530224189475307,-4.283149925678972,-1.795387049834646,-1.3552295910053855,-0.3267428921723248,-0.1837546292128458,-6.481506514526003e-05,-1.1846950253670554,-8.61859143545738,-2.6935363138619395,-0.2918186995350291,-0.041013478459068296,8.54471297671727e-05
0.96,1.0643190791345247,2.245077043930335,-1.038883222056046,0.13239225406209842,0.06113777669617521,0.000272535192017838,-0.411419076771024,-0.6758509754536958,-0.519457189086106,-0.12347158026518322,-0.02546830650043249,-0.0001932294810654651,-4.163985538867974,-1.6322786408370566,-1.2600247859931057,-0.30584493574675875,-0.1791569288525885,-0.0001660041656986605,-1.164051683069209,-8.579417260293138,-2.7087105183979094,-0.29747561144301177,-0.040902887670648494,6.376229690524322e-05
0.97,1.0597901075336118,2.2381556440909276,-1.0442032188143802,0.1311273893051554,0.06086451783745644,0.00027062065994081045,-0.4528971600912877,-0.6921399839407658,-0.5319996758334203,-0.12648647569430188,-0.027325885871877734,-0.00019145320770275537,-4.039272340571453,-1.4670008369987444,-1.1625034942919625,-0.28424561668929726,-0.1743854882309428,-0.00027038609517010537,-1.1412428714461917,-8.53791356155131,-2.7237029381124294,-0.30319136529206886,-0.04068865434396245,4.188728551745333e-05
0.98,1.054858774097582,2.231087838535178,-1.049638927968693,0.12983451363067908,0.06057316915235305,0.0002687208567135871,-0.49313334360295863,-0.7067805555750003,-0.5435709154312908,-0.12928756744763284,-0.02913486851033873,-0.00018998032272233526,-3.909217505425625,-1.2999008681169433,-1.062787997659906,-0.2619708260559692,-0.16943403205381102,-0.0003770905510937575,-1.1162512304386185,-8.494036617826517,-2.738494782192803,-0.3089611350510243,-0.04036347128779256,1.9976029637877954e-05
0.99,1.049538030191008,2.223890294202328,-1.055180418309524,0.12851583037252587,0.06026423815728718,0.0002668327159659529,-0.532074390657419,-0.7197544332849417,-0.5541490340830932,-0.1318683258153209,-0.030893099506586696,-0.0001888140747634175,-3.7740503540246966,-1.1313465110158138,-0.9610275276764297,-0.23905417930997874,-0.16429746505384557,-0.0004852251996595794,-1.0890758155381077,-8.447760918912632,-2.753073847541526,-0.3147811507451458,-0.039921035648681734,-1.8176835658709768e-06
