tonegas/nnodely-applications/joint_friction_estimation/dataset/train/mpc_mujoco_episode_27.csv
time,q1,q2,q3,q4,q5,q6,dq1,dq2,dq3,dq4,dq5,dq6,ddq1,ddq2,ddq3,ddq4,ddq5,ddq6,tau1,tau2,tau3,tau4,tau5,tau6
0.0,0.0,1.57,-1.57,0.0,0.0,0.0,0.0,0.0,0.0,0.0,0.0,0.0,-1.8981489391251576,7.303299781787298,8.18584478420537,2.911043628461478,-0.26924654726296104,-3.6610667225878135e-06,-0.2644572414153802,0.6746456298046706,-2.006242826237928,-0.44176861737112194,-0.023712342717596608,-0.00046198498493640313
0.01,-0.00018879860236132285,1.5707308230573611,-1.5691834010832102,0.000273673711533305,-2.2914597516851655e-05,-8.624389320905854e-08,-0.018879860236132286,0.07308230573610335,0.08165989167898387,0.027367371153330496,-0.0022914597516851655,-8.624389320905854e-06,-1.8836816033352657,7.111481930606411,8.007339084509377,2.679284953113502,-0.22603360706754572,-0.0008469330577122458,-0.26503656565646766,0.5303713324312005,-2.067433098309866,-0.4552511888629108,-0.023719570181955734,-0.00046823083907732307
0.02,-0.00056481751360677,1.5721733921427155,-1.5675690933343323,0.0008019856139352924,-6.606459413837086e-05,-2.5952972299149896e-07,-0.03760189112454471,0.1442569085354311,0.16143077488780364,0.05283119024019875,-0.00431499966215192,-1.7328582978244042e-05,-1.8664737131887834,6.9082851926980124,7.808310650615498,2.485138495184728,-0.19859414744600556,-0.0008036137183464326,-0.267153212651005,0.3608180709911757,-2.133267645644188,-0.46923416326087775,-0.023810636510485178,-0.00047414229432186483
0.03,-0.001126265667505037,1.5743074571751263,-1.5651777193489713,0.0015686968374965147,-0.00012770899494151132,-5.131085713407691e-07,-0.056144815389826686,0.21340650324108704,0.23913739853608895,0.07667112235612222,-0.006164440080314045,-2.5357884834927013e-05,-1.8470232069263275,6.694125295674329,7.592463475879294,2.3190812263556424,-0.18028221311552528,-0.0006469532402261224,-0.27067976086081175,0.16772339391305202,-2.203394042271522,-0.4836546716426935,-0.02397537872330587,-0.0004796336272189493
0.04,-0.0018711652542394734,1.5771116451528644,-1.5620313757760884,0.0025596480820977126,-0.00020664459452449617,-8.41421777457676e-07,-0.07448995867344363,0.2804187977737995,0.3146343572882944,0.09909512446011981,-0.007893559958298484,-3.283132061169069e-05,-1.8255944803754587,6.469537427529091,7.362801425999706,2.1739554338625595,-0.16712324889416053,-0.00046740915187273857,-0.2754754659835601,-0.04708952013802126,-2.2774209232317855,-0.49844034236494483,-0.024202067386045908,-0.0004846107614435085
0.05,-0.0027973637109030376,1.580563520254465,-1.5581533678299975,0.003762222240395129,-0.00030196666773530957,-1.23968938211294e-06,-0.09261984566635642,0.3451875101600512,0.3878007946090978,0.12025741582974164,-0.009532207321081341,-3.9826760465526415e-05,-1.8023106373953919,6.235152774045732,7.12179346259415,2.044402800267193,-0.15676100342072097,-0.0002666540049082126,-0.28138686800352175,-0.28172666690863135,-2.35492275711685,-0.5135105914433612,-0.024477723059510362,-0.000488971454182461
0.06,-0.0039025372812051956,1.5846396520334713,-1.5535680042736806,0.005164943625613735,-0.0004129273967589822,-1.7029609487967934e-06,-0.11051735703021581,0.40761317790062584,0.45853635563168677,0.1402721385218606,-0.011096072902367266,-4.6327156668385336e-05,-1.7772109774943048,5.991679635649952,6.871499285584132,1.926432053590382,-0.14782070723196838,-4.225238332150605e-05,-0.2882482679650095,-0.53423807546059,-2.435444807016643,-0.5287779527104857,-0.024788419797937167,-0.000492607742816499
0.07,-0.005184189669589536,1.5893156901741243,-1.5483004233918403,0.006757180915311968,-0.0005388535896824344,-2.225589067937197e-06,-0.1281652388384341,0.4676038140652926,0.5267580881840414,0.15922372896982326,-0.012592619292345225,-5.226281191404033e-05,-1.7502871302563436,5.739887878989258,6.613664593413413,1.8170890981855834,-0.13952223436807998,0.00020364834149369515,-0.29588228461493365,-0.8026326958588124,-2.5185082249960105,-0.5441494358932562,-0.02511958148185146,-0.0004954094620515877
0.08,-0.006639648038518604,1.5945664445225538,-1.5423764427842663,0.008528928730344533,-0.0006791003292762146,-2.8010530512154807e-06,-0.1455458368929068,0.5250754348429456,0.5923980607573938,0.17717478150325655,-0.014024673959378012,-5.754639832782838e-05,-1.7215060704892977,5.480595804465837,6.349793049625671,1.7142054826199171,-0.1314445879205266,0.00046564773833511486,-0.3041006514650132,-1.084893283570067,-2.603615234603166,-0.5595278995085435,-0.025456273414325176,-0.0004972681596936619
0.09,-0.008266057814249439,1.6003659692845373,-1.5358224275825316,0.010470648729057891,-0.0008330263323972028,-3.4219906628729266e-06,-0.16264097757308343,0.5799524761983518,0.6554015201734722,0.19417199987133588,-0.01539260031209883,-6.20937611657446e-05,-1.690825045604895,5.214658799542835,6.081200442430539,1.6162066707515557,-0.12338217233115145,0.000736916880513111,-0.3127053732599895,-1.3789912020513087,-2.690254345431399,-0.5748134214309154,-0.025783489264894845,-0.0004980810215909436
0.1,-0.010060377282306288,1.6066876504102645,-1.5286651730473904,0.01257315564398024,-0.0009999823432243708,-4.080338483542166e-06,-0.17943194680568494,0.6321681125727258,0.7157254535141223,0.21025069149223474,-0.016695601082716782,-6.583478206692391e-05,-1.6582014584711098,4.942959304585052,5.809055222309697,1.5219659270510988,-0.11525681361619533,0.0010104486897160314,-0.3214903203266942,-1.6829010654110852,-2.777905554626188,-0.589904651932051,-0.026086431638466048,-0.0004977545715039444
0.11,-0.012019372648677265,1.6135042952805614,-1.5209317985404267,0.014827537154519782,-0.0011793072476096497,-4.767519990139946e-06,-0.19589953663709767,0.6816644870296956,0.7733374506963547,0.2254381510539543,-0.017932490438527883,-6.871815065977802e-05,-1.6235995363720295,4.6663977772605785,5.534408652078758,1.4306929780859647,-0.10706371819933747,0.0012798087579982687,-0.33024330103221966,-1.9946151098655762,-2.866045483438708,-0.6047001326062398,-0.026350783358759546,-0.0004962079975831808
0.12,-0.014139614043713005,1.6207882238806957,-1.5126496506531995,0.01722509913062805,-0.0013703286423242089,-5.4746454966606695e-06,-0.21202413950357407,0.7283928600134324,0.8282147887227196,0.2397561976108267,-0.019102139471455927,-7.071255065207229e-05,-1.5869948774368967,4.385884438765207,5.258217050397006,1.3418491782461928,-0.0988381783522101,0.0015395435007196923,-0.3387486144986103,-2.312157171744643,-2.954152399050766,-0.6190995656673173,-0.026562965711547305,-0.0004933760076454346
0.13,-0.01641747280866219,1.6285113607047303,-1.5038462138776931,0.019757329794801253,-0.001572365843185483,-6.192703533587599e-06,-0.22778587649491855,0.7723136824034634,0.8803436775506382,0.2532230664173202,-0.020203720086127426,-7.180580369269289e-05,-1.5483775241842714,4.102331662046059,4.981358038054711,1.2550828732544481,-0.09063504148289692,0.0017853610144728804,-0.3467900493850651,-2.6335961386491826,-3.041711072135361,-0.6330050189809383,-0.026710379401741147,-0.0004892111477526526
0.14,-0.018849120303820268,1.6366453266814471,-1.494549027656639,0.022415877883026642,-0.0017847340848446312,-6.9127326862622305e-06,-0.2431647495158075,0.8133965976716848,0.9297186221053979,0.2658548088225389,-0.0212368241659148,-7.200291526746318e-05,-1.5077539541430696,3.8166469172749546,4.704642256967707,1.170180157323074,-0.08251610247406838,0.0020141622796740477,-0.35415426103729813,-2.957058735131514,-3.128217421891959,-0.6463220534248363,-0.026781623788460718,-0.00048368554219698265
0.15,-0.021430528397565016,1.6451615304563787,-1.4847856089945246,0.02519254105376315,-0.002006749142181439,-7.625968711613986e-06,-0.25814080937447476,0.8516203774931468,0.9763418662114487,0.27766631707365075,-0.02220150573368078,-7.132360253517556e-05,-1.465148228537095,3.5297262288446674,4.4288216945070245,1.0870273667044543,-0.07454246968997946,0.002223975847178289,-0.36063443012282825,-3.280741504422723,-3.2131829024125307,-0.6589607606228903,-0.026766690052658804,-0.0004767920326078542
0.16,-0.024157471728995485,1.6540312584064094,-1.4745833800654378,0.028079261685061994,-0.002237731902963299,-8.32396531826408e-06,-0.2726943331430469,0.8869727950030764,1.020222892908687,0.2886720631298845,-0.023098276078186004,-6.979966066500938e-05,-1.420602457159149,3.2424481248463497,4.15459548656749,1.00558252697639,-0.06677009268889122,0.0024138335911843833,-0.36603408246302355,-3.6029218531083838,-3.296138587242087,-0.6708367007335914,-0.02665712430077372,-0.00046854471171471726
0.17,-0.02702553177933214,1.663225762805688,-1.4639696004419909,0.03106812787999228,-0.002477012612281158,-8.9986891660413e-06,-0.28680600503366543,0.9194504399278484,1.0613779623446797,0.29888661949302875,-0.023928070931785898,-6.747238477772197e-05,-1.3741766931888195,2.9556680771912234,3.8826138732334403,0.925853637538399,-0.05924732416825407,0.0025836147013540978,-0.37017093335255286,-3.9219680358965765,-3.376638912895987,-0.6818717317546061,-0.026446157187840297,-0.0004589788641272187
0.18,-0.03003010273677462,1.672716347605386,-1.4529713037055871,0.03415137802025386,-0.002723934632520385,-9.642590921767593e-06,-0.30045709574424795,0.9490584799698087,1.0998296736403774,0.30832501402615786,-0.024692202023922683,-6.439017557262939e-05,-1.3259483489024773,2.6702134405057945,3.613480826888468,0.8478821837115973,-0.05201380212933593,0.002733877613335961,-0.3728806110723878,-4.236347972196285,-3.454265046842231,-0.6919947236995863,-0.026128797418976543,-0.00044815034239900273
0.19,-0.0331663990954366,1.6824744513357441,-1.4416152382940017,0.03732140760571877,-0.0029778576431292473,-1.0248654908887474e-05,-0.3136296358661986,0.9758103730358335,1.1356065411585499,0.31700295854649135,-0.02539230106088625,-6.060639871198811e-05,-1.276011211798633,2.3868789024325836,3.347755753357003,0.7717306521791496,-0.04510019009218613,0.002865693875606229,-0.3740201139429821,-4.544636804460236,-3.5286278509689994,-0.7011421529777158,-0.025701887415354396,-0.0004361344213258854
0.2,-0.036429464891125925,1.6924717266869713,-1.4299278125067807,0.04057077742287114,-0.0032381602573225187,-1.0810430205907124e-05,-0.32630657956893233,0.9997275351227158,1.1687425787221,0.3249369817152374,-0.026030261419327128,-5.6177529701965004e-05,-1.224474134651273,2.106422458434187,3.0859545739490404,0.6974731181874816,-0.038528468871457555,0.002980493444886906,-0.3734708630164573,-4.845523129365894,-3.5993704177174135,-0.7092585743242366,-0.02516412045928695,-0.0004230241864510609
0.21,-0.039814184445139345,1.7026801163757337,-1.4179350436294522,0.043892222319889686,-0.00350424206740856,-1.1322046112282178e-05,-0.33847195540134173,1.0208389688762314,1.1992768877328424,0.3321444897018541,-0.026608181008604136,-5.116159063750532e-05,-1.171459469055056,1.8295619217572303,2.828550423820293,0.6251881950592075,-0.03231257184811209,0.003079927323150572,-0.3711412277568479,-5.1378138560853355,-3.6661701627291032,-0.7162969696543013,-0.02451601970874731,-0.0004089285236535347
0.22,-0.043315294461909716,1.713071924955752,-1.4056625111596297,0.04727866004724855,-0.003775525152510157,-1.1778214798749103e-05,-0.3501110016770372,1.0391808580018254,1.2272532469822541,0.3386437727358863,-0.027128308510159703,-4.56168686466926e-05,-1.117101308390561,1.5569719748163493,2.575974145178275,0.5549538050130458,-0.026459219793890654,0.003165750658257499,-0.3669684237394953,-5.420437670238669,-3.7287404648595697,-0.7222189751994146,-0.023759880539871832,-0.00039396978508997603
0.23,-0.04692739730718636,1.7236198862838341,-1.393135314126218,0.05072319976293302,-0.004051455095856544,-1.2174223754022186e-05,-0.36121028452766474,1.05479613280822,1.252719703341172,0.34445397156844676,-0.027592994334638656,-3.960089552730838e-05,-1.0615436020130309,1.2892817626526234,2.328614708981807,0.48684335798653144,-0.020968854588027774,0.0032397273043473507,-0.36091970807835366,-5.692447106771831,-3.786831851555228,-0.7269949901924774,-0.022899678684990536,-0.00037828121236670837
0.24,-0.050644975280216484,1.7342972264058556,-1.3803780324906587,0.054219149910314186,-0.004331501566105504,-1.2505920375599205e-05,-0.37175779730301206,1.067734012202153,1.2757281635559223,0.3495950147381167,-0.02800464702489606,-3.3169662157701886e-05,-1.0049381975920002,1.0270730228433345,2.0868196630931832,0.42092302189705855,-0.01583660145103316,0.0033035553192866107,-0.3529928282676321,-5.953019259165759,-3.8402327347172944,-0.730604172157464,-0.021940947537354073,-0.0003620042004999402
0.25,-0.05446240568576092,1.7450777216800437,-1.3674146926093254,0.05776002526169082,-0.004615158520089114,-1.276969076057256e-05,-0.3817430405544433,1.0780495274188142,1.2963339881333373,0.35408753513766356,-0.02836569539836104,-2.637703849733557e-05,-0.947442862950203,0.7708787398888257,1.8508956765566165,0.3572498410785627,-0.011053211188504442,0.0033588118490079366,-0.343215711579581,-6.201455175216743,-3.88876970903194,-0.7330343254802305,-0.020890628754290045,-0.0003452854859792633
0.26,-0.058373976509243794,1.7559357520067393,-1.3542687367210913,0.06133955298700063,-0.004901944084250207,-1.2962434455073382e-05,-0.3911570823482875,1.0858030326695727,1.3145955888233989,0.3579527725309811,-0.028678556416109207,-1.9274369450082058e-05,-0.8892193326287342,0.5211823058943269,1.6211092269866734,0.2958705151854586,-0.006605950086480128,0.003406915229955676,-0.33164541326764724,-6.437178010572596,-3.932307431209416,-0.7342816913653365,-0.019756900879765435,-0.0003282743392328109
0.27,-0.062373902500341805,1.7668463490839312,-1.3409629964056036,0.06495167765939787,-0.005191400169803127,-1.3081536633464484e-05,-0.39999259910980073,1.0910597077191984,1.3305740315487664,0.36121246723972417,-0.028945608555291984,-1.1910217839110243e-05,-0.8304314179789483,0.27841716368654446,1.3976874600147662,0.23682069299226782,-0.002479417152178698,0.0034491018414500585,-0.31836637088888675,-6.659730029629137,-3.9707481044296347,-0.7343506484786219,-0.01854899110800127,-0.0003111198362676769
0.28,-0.06645634147625286,1.7777852396556855,-1.3275196699373855,0.0685905651504474,-0.005483091873030603,-1.3124838910440278e-05,-0.4082438975911048,1.0938890571754147,1.3443326468218033,0.36388874910495256,-0.029169170322747653,-4.330227697579336e-06,-0.7712432130698014,0.04296690349232547,1.1808192353849367,0.18012466751595557,0.001343722609133735,0.0034864151808210175,-0.30348803761643334,-6.868768558903742,-4.004030597416197,-0.7332533345186582,-0.017276975515177935,-0.00029396827660031316
0.29,-0.07061541066511039,1.7887288837656032,-1.313960303439774,0.07225060539999087,-0.005776606707662649,-1.3090609746464064e-05,-0.4159069188857532,1.0943644109917683,1.3559366497611391,0.3660040249543472,-0.0293514834632046,3.4229163976214316e-06,-0.7118174223056285,-0.18483421989515397,0.9706563629585168,0.1257953832663703,0.004882093561165313,0.003519704718883798,-0.28714198831216786,-7.064061010304144,-4.032129231834108,-0.7310091996359552,-0.015951573099940154,-0.00027696080524353535
0.3,-0.07484520292189491,1.7996545080691955,-1.3003057757218157,0.07592641407112061,-0.006071553711381854,-1.2977515192460875e-05,-0.42297922567845264,1.0925624303592123,1.3654527717958287,0.3675808671129742,-0.029494700371920497,1.1309455400318912e-05,-0.6523138295382542,-0.404700385862209,0.7673150230693692,0.07383468503393509,0.008155053353480657,0.0035496323137876873,-0.26947860758648634,-7.245479100646383,-4.055052275049215,-0.7276445030220164,-0.014583938807906706,-0.0002602312859692218
0.31,-0.07913980266312617,1.8105401342972127,-1.28657628666135,0.07961283312054014,-0.006367562463463706,-1.2784590533735559e-05,-0.4294599741231264,1.088562622801718,1.3729489060465718,0.36864190494195304,-0.02960087520818524,1.9292465872531542e-05,-0.592887922756384,-0.6163929614554914,0.5708773589388891,0.02423375192113597,0.011182221985522212,0.0035766842015276523,-0.2506634786860761,-7.4129923993190605,-4.072840177655849,-0.7231917641250797,-0.01318546039070008,-0.00024390446182269586
0.32,-0.08349330138202236,1.821364602996273,-1.272791348979172,0.08330493032996658,-0.006664282045606801,-1.251121323515627e-05,-0.4353498718896191,1.0824468699060164,1.3784937682177967,0.3692097209426439,-0.02967195821430951,2.733772985792883e-05,-0.5336896832347984,-0.8197189499577322,0.38139322388631103,-0.02302632863706483,0.01398309045292967,0.003601186878973456,-0.23087359579615846,-7.566661338234166,-4.085563596566683,-0.7176891798289515,-0.011767563491711822,-0.0002280944274169348
0.33,-0.08789981262215918,1.8321075927034165,-1.2589697832328042,0.08699799785596621,-0.006961379973284184,-1.2157077457700929e-05,-0.44065112401368123,1.074298970714352,1.382156574636784,0.3693067525999624,-0.02970979276773836,3.541357774553412e-05,-0.4748625433845435,-1.0145291756121373,0.19888206257865426,-0.06797388352885192,0.01657670213204243,0.0036233254629153,-0.2102935205335893,-7.706629817343521,-4.093321244892777,-0.7111800185767526,-0.0103415287881367,-0.00021290342633509534
0.34,-0.09235348630447847,1.8427496347374217,-1.2451297158443109,0.09068754986435727,-0.007258541120548702,-1.1722170308365049e-05,-0.4453673682319288,1.0642042034005272,1.3840067388493356,0.3689552008391058,-0.029716114726451772,4.349071493358804e-05,-0.4165425134939131,-1.2007162454677798,0.023334903316461153,-0.11064590320188272,0.018981399446845515,0.0036431633863270863,-0.18911159663670626,-7.833117535317815,-4.096237609381328,-0.7037120018605294,-0.008918324382686861,-0.00019842097641553752
0.35000000000000003,-0.09684852231936976,1.853272123811836,-1.2312885799649431,0.09436931932157681,-0.007555466657205982,-1.1206749898342464e-05,-0.4495036014891291,1.0522489074414128,1.3841135879367819,0.3681769457219536,-0.02969255366572791,5.154204100225846e-05,-0.3588574740961665,-1.3782123285405732,-0.14528356285233857,-0.1510872420054179,0.021214628232456567,0.0036606625120888803,-0.16751632593522345,-7.946412168830361,-4.094460574908176,-0.695336682763101,-0.0075084559597347915,-0.0001847233161108648
0.36,-0.1013791833121243,1.8636573246927914,-1.2174631189702856,0.0980392540196031,-0.007851873013652018,-1.0611325215934671e-05,-0.45306609927545405,1.0385200880955536,1.3825460994657424,0.3669934698026287,-0.029640635644603657,5.9542468240779226e-05,-0.30192662783360813,-1.5469867911060031,-0.30703284073293613,-0.1893497898420664,0.023292792420929853,0.0036757029694504673,-0.1456929945549929,-8.046861515656293,-4.088158993547272,-0.6861088303661981,-0.006121836528743007,-0.00017187315675142774
0.37,-0.10593980660604647,1.8738883751389273,-1.203669392373007,0.1016935119134885,-0.008147490885459309,-9.936637767953611e-06,-0.45606232939221836,1.0231050446135912,1.379372659727856,0.36542578938853837,-0.02956178718072909,6.74687447981061e-05,-0.24586010238415426,-1.7070437250551986,-0.46199445147294105,-0.22549163178125564,0.025231152108287747,0.0036881021805940384,-0.12382062198717178,-8.134865706910414,-4.077520233178681,-0.6760858278659597,-0.004767676899213553,-0.00015991971857135288
0.38,-0.11052481522266466,1.8839492853712978,-1.1899227839362256,0.10532845585156958,-0.008442064286971841,-9.183644904253087e-06,-0.4585008616618185,1.0060910232370495,1.3746608436781331,0.36349439380810844,-0.029457340151253335,7.529928637005233e-05,-0.1907586942403236,-1.8584194039529802,-0.6102697381688396,-0.25957620936925707,0.027043758627568915,0.0036976326973099938,-0.10206928813235008,-8.210869582630654,-4.062747737576208,-0.6653270911999717,-0.0034543973887901404,-0.00014889902286253866
0.39,-0.11512872797262949,1.893824934328265,-1.1762380117687963,0.10894064777821795,-0.00873534966071092,-8.353504712155181e-06,-0.46039127499648347,0.9875648956967152,1.3684772167429273,0.36121919266483743,-0.02932853737390783,8.301401920979058e-05,-0.1367137418391484,-2.0011796988334987,-0.7519776784356909,-0.29167149490636124,0.028743420882100135,0.003704038577579616,-0.08059787565600723,-8.275355312987843,-4.044058626563786,-0.6538935139241785,-0.0021895606780285596,-0.0001388344086265912
0.4,-0.11974616860388945,1.90350106296429,-1.162629140184338,0.11252684248777756,-0.009027115047271023,-7.447562349114542e-06,-0.4617440631259954,0.9676128636024987,1.360887158445818,0.35861947095596036,-0.029176538656010262,9.059423630406398e-05,-0.08380711568676152,-2.135417482941821,-0.8872527240697021,-0.3218491878607006,0.030341697840807758,0.0037070501419353696,-0.059552247790249466,-8.328835335058885,-4.021681361268836,-0.6418469430147524,-0.0009798252055922326,-0.00012973723955045846
0.41000000000000003,-0.12437187400550141,1.9129642648525453,-1.149109593108388,0.1160839810062807,-0.009317139318565268,-6.467337671037641e-06,-0.4625705401611965,0.9463201888255356,1.3519547075950227,0.35571385185031457,-0.0290024271294245,9.802246780769006e-05,-0.03211131265268665,-2.261250051667535,-1.01624268597425,-0.35018394081729287,0.031848912721789746,0.003706397004922868,-0.03906386577415728,-8.371845662698249,-3.995853495846898,-0.6292496892371638,0.0001690819444439,-0.00012160776594175333
0.42,-0.12900070147591952,1.922201974349663,-1.1356921688224728,0.11960918367479577,-0.009605211475731111,-5.414514009069491e-06,-0.4628827470418098,0.9237709497117588,1.341742428591514,0.35252026685150684,-0.028807215716584393,0.00010528236619681498,0.018310358525120436,-2.378816580888497,-1.1391066804246543,-0.3767526207868137,0.03327418497735289,0.003701819346299512,-0.01924883596755307,-8.404939614895975,-3.9668195334072807,-0.6161640747451024,0.0012523740708790484,-0.00011443610628542075
0.43,-0.1336276350737924,1.9312024525770115,-1.1223890558399323,0.12309974300497302,-0.009891130011697355,-4.290927947935999e-06,-0.4626933597872901,0.9000478227348611,1.3303112982540575,0.34905593301772475,-0.028591853596624337,0.00011235860611334922,0.06740351333390479,-2.4882756439201867,-1.2560131505645895,-0.4016336103680018,0.0346254767214455,0.0036930774319098303,-0.00020736466262507094,-8.428681996385256,-3.9348289003235077,-0.6026520196637227,0.0022661974825301766,-0.00010820331416010991
0.44,-0.13824779107720211,1.9399547714669663,-1.109211849715766,0.1265531163736396,-0.010174702337314557,-3.0985599630055955e-06,-0.46201560034097083,0.8752318889954663,1.3177206124166425,0.34533733686666024,-0.02835723256172023,0.00011923679849304037,0.11512236160347797,-2.589802804301814,-1.3671379748409636,-0.4249061520707169,0.03590965071247354,0.0036799594180171313,0.017976411041462213,-8.443643753373134,-3.9001340497380013,-0.5887746685879973,0.003207609601484419,-0.00010288249819628618
0.45,-0.14285642258393305,1.9484487961149843,-1.0961715706014137,0.12996691861925835,-0.010455744269036416,-1.839525780358412e-06,-0.46086315067309386,0.8494024648018099,1.3040279114352158,0.3413802245618751,-0.028104193172185835,0.00012590341826471834,0.16142932350015857,-2.6835882987944033,-1.4726626719302995,-0.44664973809949426,0.037132537407898236,0.003662287510615092,0.035234255183418016,-8.450397117277603,-3.8629887019248956,-0.5745920571962253,0.004074544537052689,-9.843996538254885e-05
0.46,-0.14744892329082607,1.9566751656692267,-1.0832786813649753,0.13333891459879926,-0.010734079575386862,-5.160683333814427e-07,-0.45925007068930124,0.822636955424244,1.2892889236438496,0.33719959795409005,-0.027833530635044568,0.00013234574469769695,0.2062946025322151,-2.76983482225356,-1.5727727096449131,-0.4669435469980021,0.03829900895734961,0.003639922561808673,0.05151337148431626,-8.449511240377708,-3.8236462262998474,-0.5601628185451903,0.004865768172744408,-9.483636114582134e-05
0.47000000000000003,-0.15202083049461937,1.9646252729792264,-1.0705431061077297,0.13666701175916332,-0.011009539578836623,8.694497997603747e-07,-0.45719072037933034,0.795010730999969,1.273557525724559,0.3328097160364067,-0.02754600034497605,0.00013855181331418173,0.24969572587811173,-2.8487554235018124,-1.6676559233518202,-0.48586592780239357,0.03941305829040642,0.003612767203901468,0.06677569497993516,-8.441548319388641,-3.782358167288188,-0.5455439280775696,0.005580824795167056,-9.20277830705391e-05
0.48,-0.15656782735998992,1.9722912432139645,-1.057974248918742,0.13994925277281464,-0.011281962809227154,2.314553581587789e-06,-0.45469968653705634,0.7665970234738216,1.2568857188987748,0.32822410136513136,-0.02724232303905299,0.00014451037818274145,0.29161706145374766,-2.9205715189833454,-1.7575010476245652,-0.5034939316942406,0.04047788169879252,0.0035807676292411994,0.08099698398043356,-8.427060196190807,-3.7393729139970215,-0.5307904859314059,0.00621997722852793,-8.996684872455557e-05
0.49,-0.1610857445028739,1.979665911647902,-1.0455810127206366,0.1431838082827827,-0.011551194704504998,3.816662415062204e-06,-0.4517917142884003,0.7374668433937454,1.2393236198105424,0.3234555509968072,-0.026923189527784493,0.00015021088334744154,0.332049320199305,-2.985511028850218,-1.8424963631947002,-0.5199028905937793,0.04149596351446139,0.003543914140105686,0.09416575867227095,-8.406585419263081,-3.694934511685587,-0.5159555347908121,0.006784142331047103,-8.860370168468898e-05
0.5,-0.16557056093865774,1.9867428008012387,-1.0333718180711344,0.14636896979774597,-0.01181708735425398,5.373096836421163e-06,-0.4484816435783839,0.7076889153336648,1.2209194649502264,0.3185161514963247,-0.026589264974898285,0.00015564344213589586,0.37098905111675545,-3.043806638213107,-1.9228284597811722,-0.5351660416798065,0.04246916164891368,0.003502240588279082,0.10628213038292808,-8.380646744761732,-3.6492816113851676,-0.5010899112497662,0.007274823569646576,-8.788694338840423e-05
0.51,-0.17001840444558677,1.9935160971081356,-1.0213546217965226,0.14950314277354287,-0.012079499281326391,6.981085067350072e-06,-0.44478435069290284,0.6773296306896923,1.2017196274611877,0.31341729757969006,-0.026241192707241012,0.00016079882309289094,0.4084381356476435,-3.095694184593283,-1.9986811140659575,-0.5493541964464406,0.04339879289675319,0.003455822834809219,0.11735656217640433,-8.349749052589472,-3.602646552671243,-0.48624212846894344,0.00769404222586678,-8.77644817837154e-05
0.52,-0.17442555139383217,1.9999806272739928,-1.0095369353447348,0.1525848399132175,-0.012338295256769353,8.637769480612362e-06,-0.44071469482453973,0.6464530165857184,1.181768645178772,0.3081697139674617,-0.025879597544296248,0.00016566844132622898,0.4444032870656758,-3.1414111711323036,-2.0702342809470293,-0.5625354526185404,0.04428571702446327,0.003404776365016293,0.12740859733756302,-8.314377650138386,-3.555254573517337,-0.4714582877803966,0.008044268607455196,-8.818429083841105e-05
0.53,-0.17878842609017886,2.006131834470286,-0.9979258427570422,0.15561267471361945,-0.012593346143211562,1.0340213021776275e-05,-0.43628746963466963,0.615120719629328,1.1611092587692562,0.3027834800401958,-0.02550508864422089,0.00017024435411639133,0.4788955596852491,-3.181195403846914,-2.137663195237204,-0.5747749470167243,0.045130418760110036,0.0033492531880368603,0.13646558771419254,-8.27499693457988,-3.5073231403391727,-0.45678201682759934,0.008328354453938803,-8.90950777488811e-05
0.54,-0.18310359968733705,2.011965754503051,-0.9865280181683983,0.15858535528266862,-0.012844528761912732,1.2085405618908563e-05,-0.43151735971582,0.5833920032765112,1.1397824588643923,0.2972680569049163,-0.025118261870116988,0.00017451925971322886,0.5119298718656952,-3.215283750150162,-2.2011375801805193,-0.58613464730076,0.04593308689114206,0.0032894381545248708,0.1445614490636669,-8.232049383519499,-3.459061390744197,-0.4422544318102523,0.008549467537167857,-9.044685713020537e-05
0.55,-0.18736778870551907,2.0174789920789693,-0.9753497427571662,0.16150167844767843,-0.013091725778777652,1.3870270602270178e-05,-0.42641890181820047,0.5513237575918004,1.1178275411232017,0.29163231650098165,-0.02471970168649209,0.00017848649833616145,0.5435245460304878,-3.2439110149824275,-2.2608209585160104,-0.5966731804268406,0.04669368975908439,0.0032255448271885645,0.15173546570627922,-8.185954843438246,-3.4106696811091854,-0.42791412142591057,0.008711029274668965,-9.219143355532814e-05
0.56,-0.19157785321223814,2.022668697281243,-0.9643969210752148,0.1643605241716197,-0.013334825604793335,1.5691671147299316e-05,-0.4210064506719067,0.5189705202273556,1.0952821681951417,0.2858845723941264,-0.02430998260156831,0.0001821400545029138,0.5737008682269004,-3.2673089301961293,-2.31687006133298,-0.6064456955684125,0.04741204651280029,0.003157811028893509,0.1580311620908325,-8.137110085507413,-3.362339230891236,-0.41379715015619534,0.008816655998969556,-9.42827955443885e-05
0.5700000000000001,-0.1957307947043467,2.0275325423561266,-0.9536750966991534,0.16716085029090724,-0.013573722306556563,1.7546416746473178e-05,-0.4152941492108582,0.4863845074883737,1.0721824376061373,0.2800326119287548,-0.02388967017632276,0.00018547455991738628,0.6024826691266354,-3.285705252302981,-2.369434329599701,-0.6155037592674457,0.04808789356231369,0.0030864941928233636,0.1634952544624796,-8.085888598998896,-3.314251855510136,-0.3999370786270992,0.008870104363130793,-9.667742549519573e-05
0.58,-0.19982375373420028,2.03206869890014,-0.9431894671527535,0.1699016875852058,-0.013808315522814762,1.9431269709122624e-05,-0.4092959029853571,0.45361565440137386,1.0485629546399868,0.2740837294298555,-0.023459321625819846,0.00018848529626494471,0.6298959278140102,-3.299322963302051,-2.4186555030209473,-0.6238952805736169,0.048720945751052014,0.00301186663569436,0.1681766917841975,-8.032640593527345,-3.2665797796984237,-0.38636499887439074,0.008875221213892483,-9.933453111344319e-05
0.59,-0.20385400731956566,2.0362758155276897,-0.9329448980593439,0.1725821351868792,-0.014038510383240214,2.1342951682995904e-05,-0.40302535853653787,0.4207116627549502,1.0244569093409668,0.2680447601673421,-0.023019486042545268,0.00019116819738732791,0.6559683992245422,-3.3083795690534665,-2.464667290755333,-0.6316644639945839,0.0493109518385757,0.0029342108598842676,0.1721257914646944,-7.977693182675091,-3.2194855233781823,-0.37310958246102155,0.008835898130590616,-0.00010221620467251449
0.6,-0.20781896617453785,2.040152996089071,-0.9229459364911635,0.17520135633504447,-0.014264217425990967,2.3278150187202467e-05,-0.39649588549721965,0.3877180561381389,0.9998961568180418,0.26192211481652594,-0.022570704275075296,0.00019351985042065633,0.6807292656807616,-3.3130864895240495,-2.507595118501731,-0.6388517881424498,0.04985774397039444,0.0028538149912098465,0.17539347232115932,-7.921350723089648,-3.1731218523700044,-0.36019713951903354,0.008756030711126978,-0.00010528751693881647
0.61,-0.21171617179632868,2.0436997784996556,-0.9131968234903044,0.1777585744767324,-0.01448535251097529,2.523352514324141e-05,-0.38972056217908174,0.3546782410584531,0.9749113000859095,0.2557218141687947,-0.0221135084984323,0.00019553749560389426,0.7042088126215409,-3.3136485351972307,-2.5475559465238633,-0.6454940080582272,0.05036128088763547,0.0027709684392550615,0.1780305845650717,-7.863895284843082,-3.1276317865525005,-0.34765168691993853,0.008639482585908735,-0.00010851655287197405
0.62,-0.21554329344037879,2.0469161142324444,-0.9037015057429809,0.18025306971539298,-0.01470183672612465,2.7205715388921985e-05,-0.3827121644050108,0.32163357327886455,0.9495317747323511,0.24944952386605856,-0.021648421514936032,0.0001972190245680576,0.7264381283313873,-3.3102634639942017,-2.584658153317527,-0.6516241792918152,0.05082168471622239,0.002685957866427835,0.1800873344338647,-7.805587230643899,-3.083148658454013,-0.3354950239116662,0.008490054056496972,-0.00011187439628463726
0.63,-0.2192981250138518,2.049802348518141,-0.8944636463954382,0.18268417560490424,-0.014913596284386446,2.919134515920711e-05,-0.37548315734730187,0.2886234285696661,0.9237859347542703,0.24311058895112686,-0.02117595582617961,0.00019856297702851232,0.747448827243361,-3.303121613182699,-2.6190014798174843,-0.6572717019342402,0.05123927125135763,0.0025990635321263555,0.1816127993762609,-7.746665883347662,-3.0397962156586638,-0.3237468136944167,0.008311455186981176,-0.00011533507055627777
0.64,-0.22297858191521744,2.052359201289406,-0.8854866350058801,0.18505127628534085,-0.015120562409566479,3.118703051813356e-05,-0.3680456901365645,0.2556852771264897,0.8977011389558057,0.23671006804366007,-0.020696612518003178,0.0001995685358926447,0.7672727962073538,-3.292405600942866,-2.6506770292853776,-0.662462382911233,0.05161457374012679,0.002510556069036496,0.1826545283995293,-7.687350263080689,-2.9976887608347127,-0.3124246695400669,0.008107283121817507,-0.00011887544227182881
0.65,-0.22658269784533924,2.0545877488989976,-0.8767735966323754,0.18735380395501838,-0.01532267120957577,3.318938572693029e-05,-0.3604115930121804,0.22285476095914705,0.8713038373504721,0.230252766967754,-0.02021088000092903,0.00020023552087967386,0.785941962980465,-3.2782900925012437,-2.679767318301342,-0.6672185149661303,0.051948360237099145,0.0024206937387116767,0.18325822126072963,-7.627839877138429,-2.956931323634706,-0.3015442441886283,0.007881003362821416,-0.00012247509432836395
0.66,-0.23010862161326434,2.056489406635067,-0.8683274000618247,0.1895912366717431,-0.015519863536061298,3.519502953518661e-05,-0.35259237679250854,0.1901657736069188,0.8446196570550727,0.22374327167247238,-0.01971923264855277,0.00020056438082563164,0.8034880861014672,-3.2609416260266095,-2.706346374591777,-0.6715589708797509,0.052241644686895405,0.0023297201951888447,0.18346747958533693,-7.5683155476197665,-2.917619859165942,-0.29111932137948376,0.007635934708858922,-0.00012611617464797827
0.67,-0.23355461395777774,2.0580659120509073,-0.8601506651897666,0.19176309647475057,-0.015712084829819364,3.720059138420165e-05,-0.3445992344513405,0.15765054158403524,0.8176734872058177,0.2171859803007467,-0.01922212937580664,0.00020055618490150406,0.8199425652525719,-3.2405184937914693,-2.7304798777551107,-0.6754993115860746,0.052495691953512225,0.0022378627769465975,0.1833236226783375,-7.50894026348992,-2.8798414681795648,-0.28116190849390943,0.00737523754314574,-0.00012978322617648177
0.68,-0.23691904440373782,2.0593193091209483,-0.8522457695651015,0.19386894781750125,-0.015899284951798456,3.920271751440077e-05,-0.3364430445960063,0.12533970700409444,0.7904895624665075,0.2105851342750689,-0.018720012197909204,0.00020021261301991184,0.8353362711827935,-3.2171706744332473,-2.7522253392883327,-0.6790519069460412,0.052712017081257834,0.0021453313348543945,0.18286556070857668,-7.4498600454120165,-2.843674634571814,-0.2716823293981853,0.0071019051435495155,-0.00013346300335575904
0.6900000000000001,-0.2402003881702551,2.060251933229687,-0.8446148541177547,0.19590839630030496,-0.0160814179998904,4.119807697178645e-05,-0.32813437665172895,0.09326241087385093,0.7630915447346701,0.20394484828037143,-0.018213304809194492,0.0001995359457385679,0.8496993942636702,-3.1910398124899424,-2.7716323186580496,-0.6822260680499284,0.052892379127882805,0.0020523175907746216,0.182129718052783,-7.391204813240719,-2.809189476227099,-0.2626893166830639,0.006818757689544121,-0.0001371442797501196
0.7000000000000001,-0.24339722314591575,2.0608663969955376,-0.8372598280909129,0.19788108769065893,-0.01625844211207977,4.318336751163924e-05,-0.3196834975660641,0.06144637658507724,0.7355026026841738,0.1972691390353978,-0.017702411218936863,0.00019852905398527897,0.8630613107650768,-3.162259241728568,-2.788742672499596,-0.685028190001324,0.05303876995595225,0.0019589950096585707,0.18114999984060198,-7.333089247523189,-2.7764480056563294,-0.2541901025953567,0.0065284386442038735,-0.00014081765099809723
0.71,-0.2465082269444792,2.061165576927218,-0.830182373202792,0.19978670721819805,-0.016430319256868033,4.5155321400940866e-05,-0.31110037985634303,0.029917993168023238,0.707745488812093,0.19056195275391122,-0.017187714478826263,0.00019719538893016254,0.8754504659712425,-3.1309540491237184,-2.8035908343573923,-0.6874619042132384,0.05315339841369093,0.0018655191617985567,0.17995779510952448,-7.275613637700175,-2.7455043972925943,-0.24619050805088666,0.006233413199655529,-0.00014447533676216256
0.72,-0.24953217405279718,2.061152600906232,-0.8233839470659562,0.20162497913026145,-0.016597015012207093,4.7110711124185946e-05,-0.30239471083180003,-0.001297602098580413,0.6798426136835818,0.18382719120633995,-0.01666957553390615,0.00019553897232450825,0.8868942733020405,-3.0972411766725085,-2.8162041226874894,-0.6895282393302367,0.0532386703618406,0.001772028539229864,0.17858201042662994,-7.218864710941971,-2.7164052586978924,-0.2386950292051372,0.005935968488643441,-0.00014811098486879634
0.73,-0.2524679330811011,2.0608308364852532,-0.816865785895042,0.20339566649327012,-0.01675849833446412,4.904635500018915e-05,-0.2935759028303949,-0.03217644209790395,0.6518161170914152,0.17706873630086595,-0.01614833222570254,0.00019356438760032016,0.8974190286566911,-3.061229558544244,-2.8266030751378453,-0.6912257899310408,0.05329716503233284,0.0016786457836778235,0.17704912833491404,-7.162916436692236,-2.689189903307605,-0.23170692113873986,0.00563821528233182,-0.00015171948037672234
0.74,-0.25531446412428266,2.060203879988676,-0.8106289065363735,0.20509857122437905,-0.01691474131919336,5.095912272008769e-05,-0.28465310431815616,-0.06269564965772331,0.6236879358668451,0.1702904731108941,-0.015624298472923915,0.00019127677198985452,0.9070498392544876,-3.023020291354056,-2.834801807382976,-0.6925508922262917,0.05333160821529592,0.0015854792772277415,0.17538328551245397,-7.107830803029982,-2.66389062269283,-0.22522827828974146,0.005342090914313166,-0.0001552967618862927
0.75,-0.2580708162413439,2.059275546398323,-0.8046741078554156,0.20673353433721053,-0.017065718955709665,5.284594081888085e-05,-0.2756352117061241,-0.09283335903531141,0.5954798680957992,0.16349631128314873,-0.015097763651630645,0.00018868180987931585,0.9158105663055014,-2.9827068356148745,-2.8408083950243666,-0.6934978059981489,0.05334484278335516,0.0014926250420095322,0.17360636607376775,-7.053658561900737,-2.6405329566538107,-0.219260111333604,0.005049363192266246,-0.0001588396470107517
0.76,-0.26073612505881044,2.0580498600041732,-0.7990019715203206,0.2083004363848863,-0.017211408877641176,5.470379809445707e-05,-0.26653088174665435,-0.12256863941496696,0.567213633509499,0.15669020476757742,-0.014568992193151019,0.00018578572755762222,0.9237237809020105,-2.9403752466571818,-2.844625277268928,-0.694058902054083,0.053339797060361516,0.0014001688869869078,0.1717381059793243,-7.000439941117303,-2.619135959769911,-0.21380242027541943,0.0047616350811762005,-0.00016234566857161386
0.77,-0.26330961050257995,2.0565310457970574,-0.7936128622220043,0.20979919808305497,-0.017351791111784826,5.652975098899392e-05,-0.25734854437695354,-0.15188142071158056,0.5389109298316228,0.14987616981686802,-0.014038223414364939,0.00018259528945368492,0.930810732575305,-2.896104433509696,-2.846249681260646,-0.6942248544836715,0.053319451541264495,0.0013081887453268992,0.16979620503959675,-6.948205321794127,-2.599712463322965,-0.20885426357717474,0.004480349964957076,-0.0001658129227556945
0.78,-0.265790574661413,2.054723521577471,-0.7885069273732486,0.2112297810951529,-0.017486847827697622,5.832092894794686e-05,-0.24809641588330156,-0.18075242195863428,0.5105934848755714,0.14305830120979265,-0.013505671591279545,0.0001791177958952946,0.9370913300114657,-2.8499664444002666,-2.8456740660663793,-0.6939848370164441,0.053286804457996606,0.001216757133223445,0.16779644349569728,-6.896975880562938,-2.58226933178085,-0.20441382319637363,0.004206797316259591,-0.00016923993017923952
0.79,-0.2681783997840581,2.0526318907520142,-0.7836840963312929,0.21259218896174154,-0.017616563090529322,6.007453977135662e-05,-0.2387825122645153,-0.20916308254570043,0.48228310419557013,0.13624078665886366,-0.012971526283169917,0.00017536108234097572,0.9425841334611867,-2.802026777667443,-2.842886585401429,-0.6933267227726425,0.05324483667772206,0.0011259436695527647,0.1657528006234629,-6.846764196527174,-2.5668077132771465,-0.20047846546123127,0.003942118626841224,-0.00017262551054379648
0.8,-0.2704725464108371,2.0502609357864294,-0.7791440791902461,0.21388646815543214,-0.017740922619638687,6.178787497102147e-05,-0.22941466267789873,-0.23709549655849937,0.4540017141046758,0.1294279193690604,-0.012435952910936353,0.00017133351996648506,0.9473063584124553,-2.7523447169641755,-2.8378715682235987,-0.6922372866946365,0.05319647640060898,0.0010358175906473033,0.1636775732380618,-6.7975748234542035,-2.55332328375067,-0.19704479775232914,0.0036873134728317523,-0.00017596867133623035
0.81,-0.27267255163938997,2.0476156122817946,-0.7748863651914294,0.21511270924263876,-0.01785991355553684,6.345831514510465e-05,-0.22000052285528235,-0.2645323504634926,0.4257713998816638,0.1226241087206626,-0.0118990935898152,0.00016704401740831753,0.9512738901188541,-2.7009736896870535,-2.8306100163255765,-0.6907024099284698,0.05314456410976254,0.000946450198722526,0.16158149236966834,-6.749404828182973,-2.541806484615466,-0.19410872100130214,0.0034432456103128195,-0.0001792685108192466
0.8200000000000001,-0.2747780275231987,2.0447010436381103,-0.7709102208014528,0.21627104813319514,-0.017973524237668338,6.508333537903585e-05,-0.2105475883808723,-0.2914568643684374,0.39761443899765914,0.11583388905563957,-0.011361068213149837,0.0001625020233931203,0.9545013085904932,-2.6479616475773473,-2.821080118014786,-0.6887072854067036,0.053091818207786634,0.0008579171823269727,0.15947383673690194,-6.702244296645633,-2.5322427540180823,-0.19166547805418152,0.003210649016667271,-0.00018252413537618462
0.8300000000000001,-0.2767886596004647,2.041522516267311,-0.7672146875094261,0.21736166739873125,-0.018081743995474468,6.666051067811191e-05,-0.20106320772660455,-0.3178527370799229,0.36955332920266937,0.10906192655361135,-0.010821975780612999,0.00015771752990760698,0.9570019236586897,-2.593351468413366,-2.8092577768898765,-0.6862366238537749,0.0530408017515418,0.0007703007531227879,0.1573625419639676,-6.656076809268935,-2.524612751904147,-0.18970969798062234,0.002990133812003656,-0.00018573459111143655
0.84,-0.278704205549911,2.038085475315629,-0.7637985793962035,0.21838479764063345,-0.01818456295508556,6.818752143309183e-05,-0.1915545949446275,-0.3437040951682473,0.3416108113222622,0.1023130241902197,-0.010281895961109145,0.00015270107549799088,0.9587878197187807,-2.537181377649723,-2.795117154599384,-0.6832748594180593,0.052993890681283684,0.0006836915452524961,0.15525430477101568,-6.610879887838907,-2.518892579261228,-0.18823543644074003,0.002782192012518743,-0.00018889880946323503
0.85,-0.2805244939691163,2.034395520853242,-0.7606604805299442,0.21934071888841095,-0.0182819718638609,6.966215891535382e-05,-0.18202884192052643,-0.368995446238712,0.31380988662593495,0.09559212477774853,-0.00974089087753412,0.00014746374822619882,0.9598699097390271,-2.4794853887593336,-2.7786312263133848,-0.6798063540951373,0.05295324391599454,0.0005981902300818964,0.15315468161693901,-6.566625416183559,-2.515053992029293,-0.18723621224881876,0.002587203083847112,-0.0001920155664557382
0.86,-0.28224942327006675,2.0304584044872804,-0.7577987422435285,0.22022976200936287,-0.018373961934837844,7.108233079294366e-05,-0.17249293009504482,-0.3937116365961423,0.2861738286415666,0.0889043120951916,-0.009199007097694485,0.0001420171877589843,0.9602579980970406,-2.4202937608997708,-2.7597723474463507,-0.6758156000826503,0.05292077566801234,0.0005139088032153349,0.15106818149178017,-6.5232800372556214,-2.513064610274306,-0.18670504029800397,0.0024054392772016276,-0.00019508345509997065
0.87,-0.2838789606857313,2.026280026352522,-0.7552114803504776,0.22105231011058868,-0.01846052471296746,7.244606665317287e-05,-0.16295374156645528,-0.4178378134758496,0.25872618930508806,0.08225481012258065,-0.008656277812961506,0.0001363735860229197,0.9599608517698808,-2.3596334723635195,-2.738512829946571,-0.6712874191840754,0.05289813030794921,0.0004309715088510746,0.14899835274439732,-6.480805529382574,-2.5128881233046045,-0.18663446103239825,0.002237070744385879,-0.00019810087034622187
0.88,-0.28541314138063595,2.0218664324325313,-0.752896572356963,0.22180879991461117,-0.0185416519648043,7.375152351146824e-05,-0.15341806949046496,-0.44135939199904844,0.2314907993514611,0.07564898040224907,-0.008112725183684494,0.00013054568582953756,0.9589862793605617,-2.297528708082068,-2.7148255262227776,-0.6662071583444602,0.052886660088219184,0.00034951537330929483,0.14694786399234344,-6.439159164595889,-2.5144844914739024,-0.18701656667290534,0.002082170439522393,-0.000201066005892009
0.89,-0.2868520676576329,2.0172238121625945,-0.7508516547282387,0.2224997230901904,-0.018617335593084556,7.499699128005726e-05,-0.1438926276996925,-0.46426202699365615,0.2044917628724323,0.06909231755792283,-0.007568362828025387,0.00012454677685890244,0.9573412173936563,-2.2340013592419794,-2.688684418510322,-0.6605608803863827,0.052887406007625426,0.0002696903246012239,0.14491857929727414,-6.39829405205563,-2.5178101454593613,-0.18784302442086737,0.0019407188255611673,-0.00020397686205847511
0.9,-0.28819590825233676,2.0123584962645724,-0.7490741202683531,0.22312562752029977,-0.018687567577371885,7.618089816389834e-05,-0.134384059470386,-0.48653158980220873,0.17775344598856332,0.06259044301093675,-0.007023198428732834,0.00011839068838410765,0.9550318232571199,-2.1690715328458507,-2.660065211196982,-0.6543355490009128,0.05290108207368416,0.00019165888966621303,0.14291162790265477,-6.3581594696516035,-2.522818183828365,-0.18910509687907595,0.0018126084122853815,-0.00020683126386305422
0.91,-0.289444897706039,2.0072769547628004,-0.7475611156722745,0.22368711848971454,-0.018752339941676417,7.730181594528777e-05,-0.1248989453702216,-0.5081541501771898,0.15130045960786181,0.056149096941475844,-0.006477236430453229,0.00011209177813894368,0.9520635741081346,-2.102758068811749,-2.628945923341935,-0.6475192070325901,0.05292806319032328,0.00011559546172490442,0.1409274689229276,-6.318701186886562,-2.5294585697138303,-0.19079365994322062,0.0016976481595974494,-0.0002096268883369665
0.92,-0.2905993358073166,2.0019857951293982,-0.7463095393095645,0.22418485977523003,-0.018811644749661523,7.835846511283526e-05,-0.11544381012776377,-0.5291159633402404,0.12515763627099952,0.049774128551548294,-0.005930480798510543,0.00010566491675474839,0.9484413709997306,-2.035079061963709,-2.5953074783301666,-0.6401011471006868,0.052968376860579536,4.1685145341419094e-05,0.1389659514461886,-6.279861782131306,-2.5376783274054655,-0.1928992184282758,0.0015955677853318386,-0.00021236130006248066
0.93,-0.29165958709203166,1.9964917605068433,-0.745316039298428,0.2246195746221826,-0.018865474127748944,7.934971978525148e-05,-0.10602512847150411,-0.5494034622554834,0.09935000111364538,0.04347148469525702,-0.005382937808741968,9.912546724162196e-05,0.9441696474233537,-1.9660523860261394,-2.5591342873238045,-0.6320720736064018,0.05302169886101327,-2.987780530216977e-05,0.13702637056716682,-6.241580957284115,-2.5474217396340197,-0.19541191970378227,0.0015060220206946848,-0.00021503199383730013
0.9400000000000001,-0.29262608039097493,1.9908017279554577,-0.7445770119283305,0.22499204659169075,-0.01891382031611819,8.027461237578277e-05,-0.09664932989432527,-0.56900325513856,0.0739027370097549,0.03724719695081619,-0.004834618836924528,9.248925905312955e-05,0.9392524814032833,-1.8956962165035935,-2.520414822903322,-0.6234242551929325,0.05308735299442935,-9.889193219869696e-05,0.13510751990491907,-6.203795852767495,-2.5586305462777745,-0.1983215656193783,0.0014285948586703024,-0.0002176364433125829
0.9500000000000001,-0.2934993084140524,1.9849227066735375,-0.7440886004883742,0.22530312026386642,-0.0189566757472751,8.113233793927744e-05,-0.08732280230774607,-0.5879021281920163,0.04884114399562438,0.031107367217566254,-0.004285543115691178,8.577255634946712e-05,0.9336937102226535,-1.8240295491137615,-2.479142179049582,-0.6141516667506615,0.053164314987439454,-0.00016515086850543703,0.13320774118105405,-6.166441365652668,-2.5712441451562786,-0.2016176230073263,0.0013628038413727225,-0.00022017215439814244
0.96,-0.294279827359646,1.9788618361382917,-0.7438466945572455,0.22555370178316553,-0.01899403315154058,8.192225814097906e-05,-0.07805189455935824,-0.606087053524575,0.024190593112871774,0.025058151929909442,-0.003735740426548136,7.899202017016147e-05,0.9274970468113726,-1.7510727102492758,-2.4353146134033623,-0.6042501200987855,0.053251220536660426,-0.00022844594029236553,0.13132497144011934,-6.129450473515919,-2.585199795496486,-0.20528923305200303,0.0013081044313780574,-0.00022263672218460575
0.97,-0.29496825653761005,1.972626384116524,-0.7438469298087558,0.22574475923305043,-0.01902588568848883,8.264390478431956e-05,-0.06884291779640656,-0.6235452021767806,-2.352515102987951e-05,0.01910574498849116,-0.003185253694825044,7.216466433404984e-05,0.9206661967832539,-1.6768478557826867,-2.3889360675643916,-0.5937173825300555,0.05334637745777071,-0.0002885690246313688,0.12945678848457226,-6.092754566400538,-2.6004328245622816,-0.20932521981740898,0.0012638945095900522,-0.0002250278900993846
0.98,-0.29556527799429433,1.9662237444951356,-0.7440846883847945,0.22587732282821996,-0.019052227103049095,8.329698283434696e-05,-0.05970214566842693,-0.640263962138824,-0.02377585760386505,0.013256359516951378,-0.0026341414560264254,6.530780500274059e-05,0.9132049750771853,-1.6013794544035564,-2.340016661065775,-0.5825532824571589,0.05344778182065646,-0.0003453156051980155,0.12760045507300824,-6.056283788983633,-2.616876837831142,-0.21371409822252732,0.0012295190382266815,-0.0002273436099929538
0.99,-0.2960716361280158,1.9596614348830517,-0.7445550998848667,0.22595248491382175,-0.019073051904681594,8.388137287406663e-05,-0.050635813372144914,-0.6562309612083967,-0.04704115000722149,0.007516208560178147,-0.0020824801632500435,5.843900397196761e-05,0.9051174211345686,-1.5246947515940896,-2.2885731545843626,-0.5707598014762665,0.05355313789617089,-0.0003984879607740188,0.12575296239251577,-6.019967394729497,-2.6344639329828676,-0.2184440817507621,0.0012042749221526095,-0.00022958210184590458
