tonegas/nnodely-applications/joint_friction_estimation/dataset/train/mpc_mujoco_episode_34.csv
time,q1,q2,q3,q4,q5,q6,dq1,dq2,dq3,dq4,dq5,dq6,ddq1,ddq2,ddq3,ddq4,ddq5,ddq6,tau1,tau2,tau3,tau4,tau5,tau6
0.0,0.0,1.57,-1.57,0.0,0.0,0.0,0.0,0.0,0.0,0.0,0.0,0.0,-5.419398662451341,13.553913045000696,9.070497294159587,2.9030102464514727,-0.7514232004933135,-3.402837925658986e-06,-0.7550670881752881,3.994522982470203,-0.7742145074227125,-0.18478914300278282,-0.06784212198541843,-0.0008693056724942101
0.01,-0.0005389807989445322,1.571354144220402,-1.5690938570078277,0.0002747064364669974,-6.435049099062127e-05,-5.132276214622034e-07,-0.053898079894453214,0.13541442204020074,0.0906142992172357,0.027470643646699742,-0.0064350490990621265,-5.1322762146220335e-05,-5.374632264961109,13.160368095371316,8.717252270265579,2.621051929775227,-0.6293319068111778,-0.005063020953500974,-0.758860749301733,3.7103295541660186,-0.8965646919374466,-0.21208174813753256,-0.06794156744217207,-0.0008808919148846644
0.02,-0.0016121068635351695,1.5740231816665116,-1.5673178464365143,0.0008001973945454197,-0.00018544917097835985,-1.5592663381635285e-06,-0.10731260645906374,0.2669037446109679,0.17760105713133745,0.05254909580784222,-0.012109867998773859,-0.00010460387167013252,-5.318245877245228,12.743281713815719,8.334518181449354,2.374946025668976,-0.55023646457661,-0.0050398577951384915,-0.7702006682168707,3.3798447830277762,-1.0249353272245108,-0.23975645861316286,-0.06843924121755834,-0.00089121492072564
0.03,-0.0032135600326322674,1.5779654721722962,-1.5647108856089376,0.0015551603089608255,-0.00035821639004113916,-3.0993823606346783e-06,-0.16014531690970982,0.39422905057846735,0.260696082757678,0.0754962914415406,-0.01727672190627793,-0.00015401160224711496,-5.251429156931673,12.30377595256007,7.9272784832362575,2.1555308848096146,-0.4951341602497976,-0.004288196816042866,-0.7884170757889298,3.0069941517692023,-1.1587304306574748,-0.26772791957283926,-0.06927766462312102,-0.0008999042616767653
0.04,-0.005336589949987927,1.5831371077921057,-1.5613141090308824,0.002520211208109387,-0.0005789527591799463,-5.093629195779976e-06,-0.21230299173556594,0.5171635619809584,0.3396776578055122,0.09650508991485615,-0.022073636913880715,-0.0001994246835145297,-5.174746953130715,11.84317075698109,7.499856360382729,1.9560500803880032,-0.4528069193321258,-0.0034056118263086077,-0.8127811164366091,2.59588374699738,-1.2972679512168188,-0.29589138292219175,-0.07039069709188214,-0.0009065594749269202
0.05,-0.00797352862810933,1.5894920519500482,-1.557170492441969,0.00367739714093473,-0.0008446660941423465,-7.504218464167446e-06,-0.2636938678121403,0.6354944157942422,0.41436165889134147,0.11571859328253431,-0.02657133349624001,-0.00024105892683874697,-5.088401649524417,11.362956359951005,7.056073350475188,1.7715743028852629,-0.41676735730838743,-0.002462948220869343,-0.8425004175053493,2.150757609699152,-1.4397925349783183,-0.32412604870007455,-0.07170571912457177,-0.0009107600723457074
0.06,-0.011115785203932011,1.5969822940582485,-1.5523245138340942,0.00500983751442199,-0.001152684436458186,-1.0293415542423158e-05,-0.314225657582268,0.749024210820032,0.4845978607874688,0.13324403734872603,-0.030801834231583954,-0.0002789197078255712,-4.99240175154743,10.864768815979867,6.599366432534346,1.5985568874502007,-0.38340482060373304,-0.0014794434165850134,-0.8767148655997806,1.6759546123384501,-1.5854889106704335,-0.3522984988214012,-0.07314578377627226,-0.0009120842379937203
0.07,-0.014753831388661941,1.6055580175125284,-1.5468218428481841,0.006501470423644206,-0.0015004431895112675,-1.3422238798434185e-05,-0.363804618472993,0.8575723454279712,0.5502670985909994,0.14916329092222164,-0.03477587530530815,-0.0003128823256011026,-4.886671701185141,10.350367270913917,6.132872869225423,1.4344933130949258,-0.35084852533003996,-0.0004804875384927243,-0.9144945281654318,1.1758649478504877,-1.7334957967551161,-0.3802661924120099,-0.07463174654631817,-0.000910130846230904
0.08,-0.018877184632529194,1.6151677790597048,-1.5407090524497868,0.008136877993137616,-0.001885377639937763,-1.6850204533943455e-05,-0.41233532438672504,0.9609761547176348,0.6112790398397273,0.16354075694934095,-0.03849344504264955,-0.00034279657355092694,-4.771124396552943,9.821612117255444,5.6594902683700745,1.2776604393637214,-0.3182665727564995,0.000503201751793636,-0.9548411985610319,0.6548865139374591,-1.8829201908542692,-0.4078809787364208,-0.07608436299671754,-0.0009045415942284542
0.09,-0.023474393798283328,1.6257586975537217,-1.534033348696677,0.00990117081370981,-0.0023048784733152006,-2.053570921464661e-05,-0.4597209165754134,1.0590918494016954,0.6675703753109877,0.17642928205721936,-0.04195008333774375,-0.0003685504680703155,-4.645709434539981,9.280443571272462,5.181917748379739,1.126916728869837,-0.28543173595105387,0.001441501913616694,-0.9966945643973328,0.11738162648655237,-2.032851869368451,-0.43499257550802006,-0.07742632728959987,-0.0008950212684953711
0.1,-0.028533030651665185,1.6372766501111216,-1.5268423158686253,0.011779916193010881,-0.0027562840016281598,-2.443671509377056e-05,-0.5058636853381856,1.1517952557399922,0.7191032828051852,0.18787453793010706,-0.045140552831295935,-0.0003901005879123947,-4.510444899551002,8.728860558040765,4.702682848972751,0.9815491173166819,-0.25245162362681484,0.0023089369355635547,-1.0389435043520308,-0.43236535245005214,-2.1823778821709294,-0.4614519523657859,-0.07858421338068622,-0.0008813548892279035
0.11,-0.034039689422739904,1.6496664736706699,-1.5191836753245462,0.013759098482226874,-0.0032368927331956118,-2.8511526494559472e-05,-0.5506658771074716,1.2389823559548423,0.7658640544078976,0.19791822892159922,-0.04806087315674521,-0.0004074811400788913,-4.365437390469087,8.168899763042209,4.224157840489477,0.8411556054244329,-0.21960107828007125,0.003086651424395459,-1.0804425177420327,-0.9901889213176398,-2.3305968416105607,-0.4871145644086048,-0.07949027332456944,-0.0008634209412152345
0.12,-0.03997999588686778,1.6628721699514308,-1.5111050572603921,0.015825102456423216,-0.0037439860753122295,-3.271953228103667e-05,-0.5940306464127877,1.3205696280761023,0.8078618064154198,0.20660039741963404,-0.05070933421166176,-0.0004208005786477198,-4.210893220700967,7.602615180857209,3.748568350375189,0.7055552567869086,-0.18721893594434746,0.003762889300515271,-1.1200328215060096,-1.552081115153503,-2.4766327239310617,-0.5118433673506815,-0.08008404497396505,-0.0008412002296874945
0.13,-0.0463386267640024,1.6768371118330019,-1.5026537851173507,0.017964712811483197,-0.004274854837370222,-3.702184808044765e-05,-0.6358630877134617,1.396494188157099,0.8451272143041313,0.21396103550599807,-0.05308687620579926,-0.0004302315799410983,-4.047122703405851,7.032058226589178,3.277996598982881,0.5747192767638367,-0.15564585635791062,0.004332516133283448,-1.1565672219754763,-2.1142273573027044,-2.619647951828987,-0.5355115600075765,-0.08031372265779678,-0.0008147801667191716
0.14,-0.053099339688326794,1.6915042492228185,-1.4938766727827766,0.020165124447936653,-0.0048268256802407985,-4.1381828959638064e-05,-0.6760712924324398,1.466713738981662,0.877711233457408,0.22004116364534565,-0.05519708428705769,-0.00043599808791904113,-3.8745389322312027,6.459258711334895,2.8143810754021814,0.44871836029427214,-0.12518868181320997,0.004795999889136038,-1.1889375304924474,-2.673038823059616,-2.7588554896211575,-0.5580049965650911,-0.08013725028939078,-0.0007843545216284298
0.15,-0.06024501353838812,1.7068163125506208,-1.4848198349710373,0.02241395945618769,-0.005397285264663747,-4.576544642990284e-05,-0.7145673850061324,1.5312063327802303,0.9056837811739332,0.22488350082510358,-0.05704595844229482,-0.0004383617470264772,-3.693652192855953,5.88620692790381,2.359514093110116,0.32768264418755777,-0.09610205019342288,0.005158153255329534,-1.2161030549735625,-3.225180745984389,-2.8935297034920655,-0.5792242199752362,-0.07952310528204301,-0.000750218872224135
0.16,-0.06775769853336583,1.7227160121328415,-1.4755285112989254,0.024699287685720578,-0.005983700904285876,-5.014153744745606e-05,-0.7512684994977705,1.5899699582220816,0.9291323672111839,0.22853282295328906,-0.05864156396221297,-0.00043760910175532237,-3.505060997034156,5.314837089813482,1.9150383513684144,0.2117714680146321,-0.06858119640778781,0.0054268478618790805,-1.2371185843304777,-3.7675961809461076,-3.023015758681258,-0.5990860765046486,-0.07845075323114625,-0.000712762171139135
0.17,-0.07561867519243831,1.739146231778769,-1.4660469046054712,0.027009648538421128,-0.006583637219923665,-5.4481940555267746e-05,-0.7860976659072489,1.6430219645927457,0.9481606693454216,0.2310360852700549,-0.05999363156377891,-0.0004340403107811685,-3.3094406365384055,4.7470123388582595,1.4824433683556286,0.10115080372767515,-0.042761875107046876,0.005611834908438418,-1.2511602933096548,-4.297524847672889,-3.146737358255944,-0.6175248827832635,-0.07691076650899314,-0.0006724549891338697
0.18,-0.08380852102045765,1.7560502151625084,-1.4564180340300323,0.029334072222588898,-0.007194768739466482,-5.876153758980338e-05,-0.818984582801934,1.6903983383739427,0.9628870575438838,0.2324423684167771,-0.06111315195428166,-0.0004279597034535628,-3.10753007246544,4.184511497619037,1.0630624353595968,-0.004023291262573281,-0.018724624128108047,0.00572374698786815,-1.2575481261149062,-4.812516804979216,-3.2642026718694,-0.6344931299424734,-0.07490461368498207,-0.0006298351099034632
0.19,-0.09230718362179205,1.7733717436557102,-1.4466836032733956,0.03166209917661894,-0.00781488866853664,-6.295821994337341e-05,-0.8498662601334408,1.7321528493201697,0.9734430756636718,0.2328026954030041,-0.062011992907015756,-0.00041966823535700325,-2.900117889630645,3.6290176978652875,0.658070559775771,-0.10361647034410915,0.0034985502680875413,0.0057733114238947,-1.255763451992724,-5.310440842562725,-3.3750083556829273,-0.6499617239542765,-0.07244414000974915,-0.0005854912243692801
0.2,-0.10109405885050533,1.791055304500883,-1.4368838843396188,0.03398379674749772,-0.008441914221144415,-6.705279728690937e-05,-0.878687522871328,1.7683560845172772,0.9799718933776908,0.23216975708787807,-0.06270255526077756,-0.0004094577343535948,-2.688027952157478,3.0821089667789248,0.26848371235856217,-0.1975241356537385,0.023916385477509294,0.005770774673298229,-1.2454611003083342,-5.789487618135402,-3.4788416238038202,-0.6639197763150483,-0.0695507711687462,-0.0005400455046397864
0.21,-0.11014807257220283,1.8090462483987453,-1.427057616904558,0.03628977251001157,-0.009073888982244942,-7.102886466217831e-05,-0.9054013721697487,1.7990943897862344,0.9826267435060816,0.230597576251385,-0.06319747611005264,-0.0003976067375268948,-2.47210529681693,2.545250804297495,-0.10484043303942414,-0.28567649871279777,0.04257036071905418,0.005725518139907848,-1.2264752465551112,-6.248167705608813,-3.5754803936468056,-0.6763739738413227,-0.06625448237602503,-0.0004941358293359516
0.22,-0.11944776463258559,1.8272909357804443,-1.4172419232915467,0.038571183853523976,-0.009708982800605413,-7.487264145545213e-05,-0.929969206038277,1.8244687381698979,0.9815693613011123,0.22814113435124034,-0.06350938183604715,-0.0003843776793273822,-2.2532026993058474,2.0197907377063657,-0.4612001841721791,-0.3680412849331729,0.05952705620468457,0.005645835648749209,-1.1988190020507505,-6.685304849393727,-3.6647915890824363,-0.6873475697024325,-0.06259258211990934,-0.00044839838598249924
0.23,-0.1289713736909009,1.8457368712317581,-1.407472238864793,0.040819743656096884,-0.010345489699340633,-7.85727932996294e-05,-0.9523609058315291,1.8445935451313713,0.9769684426753822,0.22485598025729073,-0.06365068987352195,-0.00037001518441772644,-2.0321682499232367,1.5069547968621104,-0.8000459420367902,-0.4446245816600469,0.07487121904353344,0.005538839290424091,-1.1626779277368233,-7.100024834431325,-3.746727742277255,-0.6968790490601344,-0.05860836420959511,-0.0004034512980928846
0.24,-0.1386969216737556,1.86433282572723,-1.397782257484358,0.04302772201952301,-0.010981824256674938,-8.212024562364388e-05,-0.9725547982854712,1.8595954495471883,0.968998138043507,0.22079783634261305,-0.06363345573343046,-0.0003547452324014473,-1.8098341826804605,1.0078458161090575,-1.1209748098486818,-0.5154702362399743,0.08869971641190766,0.00541046118795474,-1.1183980194602081,-7.491740476843636,-3.8213220845269147,-0.7050205311770493,-0.05434968316410636,-0.0003598798215557385
0.25,-0.14860229672719644,1.88302894651377,-1.3882038915091615,0.04518794416033047,-0.011616516861096961,-8.550799548948981e-05,-0.9905375053440834,1.869612078653986,0.9578365975196369,0.2160222140807459,-0.06346926044220232,-0.00033877498658459307,-1.5870071183837149,0.523443437816649,-1.4237238218677626,-0.5806581381920655,0.1011164405701912,0.005265522141123968,-1.066468977484296,-7.860133312722665,-3.8886823555224157,-0.7118359751670468,-0.04986750660440037,-0.00031822353509912416
0.26,-0.15866533368427507,1.9017768546524434,-1.378767245690981,0.047293784646341305,-0.012248208190415581,-8.873092657821047e-05,-1.006303695707864,1.8747908138673541,0.9436645818180497,0.2105840486010832,-0.06316913293186202,-0.00032229310887206585,-1.3644598092342115,0.0546056680202148,-1.7081619525360943,-0.6403016624951219,0.11222815226638083,0.005107842756061132,-1.0075037632983617,-8.205132610555951,-3.9489835875852175,-0.7173992585128126,-0.04521449450075341,-0.0002789658213841976
0.27,-0.1688638912141626,1.9205297303814877,-1.3695006041762807,0.049339158240138375,-0.012875643208409105,-9.178563071509804e-05,-1.0198557529887526,1.875287572904429,0.9266641514700285,0.20453735937970688,-0.06274350179935237,-0.00030547041368875774,-1.1429244106761312,-0.39792818309686456,-1.9742810918921816,-0.69454450504767,0.12214119976433757,0.004940377603307566,-0.9422155563801051,-8.526892355630117,-4.002460135649195,-0.721792196149604,-0.04044364935937446,-0.00024252580670794407
0.28,-0.17917592497096238,1.9392423866012434,-1.360430429726162,0.051318507663266996,-0.013497664919177275,-9.46702381449015e-05,-1.031203375679978,1.8712656219755734,0.9070174450118776,0.19793494231286218,-0.0622021710768171,-0.0002884607429803457,-0.9230872555660551,-0.8335333544695693,-2.222186187882201,-0.7435571037132132,0.13095902271373916,0.004765357678982229,-0.871393254003566,-8.825766853369508,-4.049397225292847,-0.7251025636207343,-0.035607074244076456,-0.00020925280551077212
0.29,-0.18957955621049496,1.957871330901543,-1.3515813741789897,0.05322678863104157,-0.014113208070045685,-9.738425784929865e-05,-1.0403631239532596,1.8628944300299695,0.8849055547172269,0.1908280967774571,-0.06155431508684097,-0.00027140197043971486,-0.7055850657188877,-1.2516944651810646,-2.452084761663679,-0.7875328067616358,0.138780337274385,0.0045844305608711,-0.7958766161631984,-9.102285575095808,-4.090122280928354,-0.727422181046081,-0.030754867481360686,-0.0001794232066891756
0.3,-0.2000531354873553,1.9763748166535895,-1.34297629911571,0.05505945252990535,-0.0147212929500627,-9.992842850533737e-05,-1.047357927686033,1.850348575204659,0.8605075063279798,0.1832663898863779,-0.06080848800170156,-0.0002544170656038718,-0.49100250565313736,-1.6519995074709823,-2.6642759998426584,-0.8266839235726735,0.1456978965390925,0.004398791122943613,-0.7165320574101891,-9.357127827247727,-4.124996276015379,-0.7288451060312019,-0.025934174528271632,-0.0001532396463748272
0.31,-0.21057530117932616,1.9947128837714798,-1.3346363056441655,0.05681242711955213,-0.015321019393214685,-0.00010230458017736974,-1.0522165691970884,1.8338067117890364,0.8339993471544491,0.17529745896467813,-0.05997264431519839,-0.00023761516720323798,-0.2798709618603264,-2.0341331816881247,-2.859139619332742,-0.8612377690745205,0.15179772466687913,0.004209298422125585,-0.6342299428165998,-9.59109776747184,-4.154405319045844,-0.7294659738632184,-0.02118840927239947,-0.00013083223898294487
0.32,-0.22112503270952097,2.0128473898136967,-1.326580772194923,0.05848209564237122,-0.015911561063447176,-0.00010451550648088266,-1.0549731530194821,1.8134506042216683,0.8055533449242509,0.16696685228190827,-0.05905416702324919,-0.0002210926303512921,-0.07266841701203416,-2.3978697452763256,-3.0371246875812967,-0.8914327928950581,0.1571587315089623,0.00401657647684206,-0.5498240723522678,-9.80510022234015,-4.178752655449903,-0.7293785130700468,-0.016556649381539168,-0.00011226158603007344
0.33,-0.2316816984469489,2.0307420321428964,-1.3188273992158637,0.06006527471493308,-0.016492160072102795,-0.0001065648467228452,-1.055666573742796,1.7894642329199824,0.7753372979059351,0.15831790725618636,-0.05805990086556195,-0.00020493402419625344,0.13017971897657424,-2.7430655371844717,-3.1987385645892568,-0.917514866066039,0.16185262490421276,0.0038210982217319334,-0.46413385212608954,-10.000117685979841,-4.1984512289445,-0.7286742542855591,-0.012073203530899747,-9.752325015645525e-05
0.34,-0.2422250983627383,2.048362361894237,-1.3113922596643723,0.06155919136173807,-0.017062121956984807,-0.00010845697738206349,-1.0543399915789409,1.7620329751340433,0.7435139551491355,0.14939166468049914,-0.05699618848820105,-0.0001892130659218283,0.32829896132283226,-3.069651326355358,-3.344536114592078,-0.9397337821309613,0.1659440489025994,0.003623253032327023,-0.377929465959724,-10.177188800626995,-4.2139169084736565,-0.727441440892885,-0.0077673426135658925,-8.655336851101232e-05
0.35000000000000003,-0.25273550160175134,2.065675790519574,-1.30428985422248,0.06296145953169273,-0.017620811035359153,-0.0001101969122212077,-1.0510403239013035,1.7313428625336988,0.710240544189239,0.14022681699546571,-0.05586890783743469,-0.00017399348391442055,0.5213634244911786,-3.3776246188704775,-3.475109315512828,-0.9583400153418289,0.16949088706320614,0.0034233989070120985,-0.2919201878855634,-10.33738854262852,-4.225562450765779,-0.7257641415175875,-0.003663182495547355,-7.923508287386768e-05
0.36,-0.2631936791979481,2.0826515896785462,-1.297533170199758,0.06427005641400764,-0.018167646130225364,-0.00011179021030125633,-1.045817759619679,1.6975799158972242,0.6756684022722056,0.1308596882314907,-0.054683509486621006,-0.00015932980800486345,0.7090929511092853,-3.6670420435419477,-3.59107737417275,-0.9735817662457933,0.17254468015126845,0.003221900896119234,-0.20674582373891864,-10.48181026374427,-4.2337922352602435,-0.7237215573865124,0.00022029746406653384,-7.540548075677338e-05
0.37,-0.2735809322171148,2.0992608852393086,-1.291133743139087,0.06548329884353535,-0.018702096659541523,-0.00011324289118304069,-1.0387253019166731,1.6609295560762503,0.6399427060670897,0.12132424295277057,-0.05344505293161588,-0.00014526808817843568,0.8912498211384269,-3.9380119207689175,-3.6930774354672424,-0.9857023141891474,0.1751511167443507,0.003019157564637387,-0.1229711434109578,-10.611549670117624,-4.2389977788991855,-0.7213875120018377,0.0038691180892891377,-7.486276913308126e-05
0.38,-0.2838791156532117,2.1154766461329895,-1.2851017201996278,0.06659982005696291,-0.019223679071243203,-0.00011456135663805992,-1.0298183436096897,1.621576089368061,0.6032022939459205,0.11165212134275633,-0.052158241170167964,-0.00013184654550192274,1.0676351575152356,-4.190687104752383,-3.7817559548284736,-0.9949376870440609,0.17735056336347643,0.00281561736814423,-0.04108306712565349,-10.727690761686674,-4.241554013770462,-0.7188301065319771,0.007274065343277906,-7.737343727685818e-05
0.39,-0.2940706584355429,2.131273668778287,-1.2794459244574927,0.06761854703158612,-0.01973195360236269,-0.00011575231824244855,-1.0191542782331173,1.5797022645297618,0.5655795742135038,0.10187269746232148,-0.050827453111948695,-0.00011909616043886201,1.2380851342538444,-4.425258175023184,-3.857760785711748,-1.0015146506919912,0.17917860774190508,0.002611786796508919,0.03850970050692265,-10.83129370414361,-4.241816291149054,-0.7161115217238097,0.010430375846585831,-8.267920447860703e-05
0.4,-0.3041385799242255,2.1466285577574213,-1.274173919335993,0.06853867860834079,-0.020226521337900864,-0.00011682273028704721,-1.0067921488682559,1.5354888979134331,0.527200512149967,0.09201315767546565,-0.04945677355381736,-0.00010704120445986623,1.4024670822946301,-4.641947039927902,-3.921734017840948,-1.0056490144007881,0.18066659483931957,0.0024082320246941458,0.11547493762274388,-10.923384564267185,-4.2401180610947975,-0.7132879458533169,0.013337361674302104,-9.05035895271878e-05
0.41000000000000003,-0.3140665032821144,2.1615197033832105,-1.2692920724522898,0.06935966457094905,-0.020707021543949836,-0.0001177797274981961,-0.9927923357888876,1.4891145625789082,0.4881846883703342,0.0820985962608273,-0.048050020604897235,-9.569972111488824e-05,1.560675577621696,-4.841001002401944,-3.9743055877030757,-1.0075442430873949,0.1818421402576984,0.002205575646162361,0.18955344124310877,-11.004946807498666,-4.236769167127379,-0.710409608064843,0.015997991985738192,-0.00010055797956905068
0.42,-0.32383866611350404,2.1759272567506227,-1.2648056182443874,0.07008118582394256,-0.02117312924958228,-0.00011863056712491102,-0.9772162831389666,1.440755336741232,0.44864542079024744,0.07215212529935,-0.046610770563244655,-8.508396267149216e-05,1.7126285856583194,-5.022687327124726,-4.016087670353297,-1.0073903634879926,0.1827296099608553,0.002004489900609363,0.26055419911900635,-11.07691443354601,-4.232054690117984,-0.7075208971874694,0.018418447444274656,-0.00011254711451504841
0.43,-0.33343992875463646,2.1898331028158466,-1.26071871882042,0.07070313578432819,-0.02162455305293086,-0.00011938257500602222,-0.9601262641132431,1.3905846065223788,0.40868994239673884,0.0621949960385635,-0.04514238033485767,-7.520078811111992e-05,1.8582637259147612,-5.187288338027857,-4.047669850984987,-1.005363148312039,0.18335055873290074,0.0018056875686076612,0.3283485471100296,-11.14016661082525,-4.226234273788898,-0.7046605475389887,0.020607661508885603,-0.00012617393824482687
0.44,-0.3428557805893062,2.2032208319927493,-1.2570345225500272,0.07122560307505543,-0.022061033128437366,-0.00012004309528503529,-0.9415851834669744,1.3387729176902607,0.36841962703929226,0.052246729072724325,-0.04364800755065079,-6.605202790130661e-05,1.9975347114538207,-5.335097066086665,-4.069615065837002,-1.001623560445534,0.18372412273586747,0.0016099115430377453,0.3928636335469996,-11.195523662721037,-4.219541865414353,-0.7018618751213335,0.022576860658335227,-0.00014114379858287812
0.45,-0.3520723447456155,2.2160757107014657,-1.2537552199944082,0.07164885558342463,-0.022482339414251887,-0.00012061944348974623,-0.9216564156309273,1.2854878708716442,0.3279302555619066,0.04232525083691972,-0.04213062858145223,-5.763482047109485e-05,2.1304080090396096,-5.466413459305243,-4.082456294743798,-0.9963174380355575,0.18386736394165126,0.001417923852591041,0.45407547608258103,-11.243744256899863,-4.2121858087792745,-0.6991530497844545,0.02433911355892023,-0.00015716800389459586
0.46,-0.3610763815080705,2.228384651247556,-1.2508820968466565,0.0719733259242744,-0.022888269961033846,-0.00012111886273852217,-0.9004036762454968,1.2308940546090548,0.28731231477517766,0.03244703408497664,-0.040593054678195926,-4.994192487759357e-05,2.256859757872447,-5.581541159703409,-4.086693981803619,-0.9895754007245365,0.1837955661760997,0.0012304947455282211,0.5120018564975639,-11.285523652128138,-4.204349231522684,-0.6965573912241019,0.02590889719936704,-0.00017396676500970864
0.47000000000000003,-0.36985529075352563,2.2401361813534155,-1.2484155836266155,0.07219959832626804,-0.023278649425805258,-0.00012154848287562101,-0.8778909245455185,1.1751530105859278,0.24665132200409404,0.022627240199364393,-0.03903794647714104,-4.296201370988408e-05,2.376872977570462,-5.680784845820513,-4.082794156055739,-0.9815129572786816,0.18352248411595795,0.0010483922717079985,0.56669525769599,-11.32149286414899,-4.1961906750791735,-0.6940936789493712,0.02730168616237412,-0.00019127156711487206
0.48,-0.3783971136907052,2.251320413607026,-1.2463553019443183,0.0723283969398801,-0.02365332769691022,-0.00012191528237441507,-0.8541822937179608,1.1184232253610533,0.20602816822971964,0.012879861361205199,-0.037467827110496094,-3.667994987940558e-05,2.4904350894892,-5.764448133630817,-4.071187220523042,-0.9722307952314253,0.1830605478348648,0.000872372644455055,0.6182360069673785,-11.352218622133643,-4.187844922026019,-0.6917764685059132,0.028533569530730503,-0.00020882702755865287
0.49,-0.38669053415181864,2.2619290150372864,-1.2447001072127117,0.07236057554774178,-0.02401217863844599,-0.0001222260528805321,-0.8293420461113435,1.060860143026037,0.16551947316066687,0.003217860786168073,-0.03588509415357702,-3.107705061170496e-05,2.5975357694982226,-5.8328320236887405,-4.052267375270336,-0.9618152338481032,0.18242102648616765,0.000703171531875324,0.6667257521949876,-11.378203999121535,-4.179423982324437,-0.6896164081973539,0.029620898467653443,-0.00022639230260143177
0.5,-0.39472487965174274,2.2719551769705126,-1.2434481277535627,0.0722971086417867,-0.024355098944670223,-0.00012248736629729025,-0.803434549992409,1.0026161933226276,0.1251979459148953,-0.006346690595507732,-0.03429203062242351,-2.613134167581342e-05,2.698165144871515,-5.886233877662469,-4.026392638051178,-0.9503388225911245,0.1816141554457822,0.0005414963377921023,0.7122813641713968,-11.399889612883864,-4.171018206380141,-0.6876205522638896,0.030579966280590353,-0.00024374210952477992
0.51,-0.4024901223959137,2.2813935852697744,-1.242596800299987,0.07213908381707504,-0.02468200709679471,-0.00012270554434356092,-0.7765242744170949,0.9438408299261738,0.08513274535758078,-0.01580248247116699,-0.0326908152124488,-2.1817804627067433e-05,2.7923123429000327,-5.924946903052127,-3.993885424476609,-0.9378610682383304,0.18064923175833236,0.0003880194453746433,0.755029329195748,-11.417655307095217,-4.162697498793481,-0.6857926679283396,0.03142672177654268,-0.0002606674307352054
0.52,-0.40997688038296404,2.2902403910079165,-1.2421429019547652,0.071887695419185,-0.024992842416202622,-0.00012288663053972764,-0.7486757987050356,0.8846805738142036,0.04538983452219078,-0.025138839789004764,-0.031083531940791234,-1.810861961667119e-05,2.879964394105595,-5.9492601207254445,-3.9550336482649424,-0.9244292747743117,0.17953468303877962,0.00024337231274407234,0.7951006719260659,-11.431822236001157,-4.154512611950539,-0.6841335348987858,0.03217651593578956,-0.00027697596409915673
0.53,-0.4171764187127282,2.298493181576849,-1.242082578715397,0.07154423937056405,-0.02528756420944422,-0.00012303636460125753,-0.7199538329764152,0.8252790568932047,0.0060323239368066175,-0.034345604862094446,-0.029472179324159915,-1.4973406152990557e-05,2.9611054884358965,-5.959458785860143,-3.910092300859935,-0.9100794811323993,0.17827811513563674,0.00010814032490114034,0.8326264289913468,-11.442655288463445,-4.146496503116819,-0.6826412368296106,0.032843881352576446,-0.0002924923792595026
0.54,-0.42408065117497473,2.306150952190358,-1.2424113707245459,0.07111010909114802,-0.02556615100135749,-0.00012316015924074137,-0.6904232462246542,0.7657770613509213,-0.03287920091489041,-0.04341302794160199,-0.027858679191326733,-1.2379463948383681e-05,3.0357165784770115,-5.955825228905658,-3.8592854684451847,-0.8948374826447569,0.1768863438352426,-1.7141771645245996e-05,0.8677336788477403,-11.450365798989363,-4.138665742381656,-0.6813114449050623,0.033442343493135136,-0.000307058433595546
0.55,-0.43068214215954037,2.31321407769571,-1.2431242344480338,0.07058679241981851,-0.025828599853321876,-0.0001232630793988646,-0.6601490984565659,0.7063125505352361,-0.07128637234878343,-0.052331667132950906,-0.026244885196438632,-1.029201581232404e-05,3.1037753194737077,-5.938640079242773,-3.8028087430079385,-0.8787199227713707,0.1753654157152411,-0.00013199397583424366,0.9005421223475447,-11.455114503839027,-4.131021961654821,-0.6801376941437394,0.03398426257695247,-0.00032053299424387977
0.56,-0.4369741088948629,2.319684284571046,-1.2442155620217257,0.06997586943581945,-0.02607492576399342,-0.00012334982394159727,-0.6291966735322492,0.6470206875335731,-0.10913275736919414,-0.06109229839990692,-0.024632591067154423,-8.674454273266626e-06,3.1652563317621616,-5.908183830334192,-3.740831982603982,-0.8617354421483725,0.17372062296579927,-0.0002359948217036112,0.9311612009348775,-11.457014709367062,-4.123553336962744,-0.6791116532547803,0.034480704768219995,-0.0003327920045895775
0.5700000000000001,-0.44295042398965784,2.3255646229514286,-1.245679198043335,0.06927901107305358,-0.0263051611499059,-0.00012342470987501767,-0.5976315094794962,0.5880338380382729,-0.14636360216092786,-0.06968583627658698,-0.023023538591247995,-7.488593342039339e-06,3.220131767083163,-5.864738701358276,-3.6735023742991597,-0.8438858723423515,0.17195651656631483,-0.00032878494882460085,0.9596877346912165,-11.456135647276017,-4.116236097582679,-0.6782233889352702,0.03494134134204677,-0.0003437284252138101
0.58,-0.4486056182220716,2.330859438496756,-1.2475084541152281,0.06849797841520357,-0.026519355403084727,-0.0001234916591399115,-0.5655194232413767,0.5294815545327514,-0.18292560718931802,-0.07810326578500147,-0.02141942531788272,-6.694926489382867e-06,3.268372156168625,-5.80859074666809,-3.600947751454788,-0.8251674618347558,0.17007692169159228,-0.0004100705297617191,0.9862040600159034,-11.452505997378797,-4.109036056160929,-0.6774616254119947,0.03537437453605607,-0.000353252170747049
0.59,-0.45393488349247485,2.3355743438899457,-1.2496961214695337,0.06763462255586236,-0.026717574522344485,-0.00012355418805532785,-0.532926527040321,0.4714905393189785,-0.2187667354305516,-0.08633558593412057,-0.019821911925975644,-6.252891541633439e-06,3.309947511019295,-5.740032161013538,-3.523280115121942,-0.8055721217786918,0.16808495860926698,-0.000479626575690395,1.0107766459421952,-11.446117562782405,-4.1019101539743925,-0.6768139998277003,0.0357864888856234,-0.0003612900556916628
0.6,-0.45893407583053947,2.3397161897342107,-1.2522344820270654,0.0666908849053177,-0.026899900814271762,-0.00012361539948294132,-0.4999192338064595,0.41418458442649886,-0.25383605575316814,-0.09437376505446607,-0.018232629192727605,-6.121142761345576e-06,3.3448286514803836,-5.659363725418169,-3.440599307415992,-0.7850886789463374,0.16598307164948523,-0.000537300107232741,1.0334551683933837,-11.436929085152988,-4.094808015011304,-0.6762673137798988,0.03618282694566235,-0.0003677857542762943
0.61,-0.4635997183247454,2.3432930346041436,-1.2551153182565802,0.06566879782433171,-0.02706643265908246,-0.00012367797778210348,-0.46656424942059227,0.3576844869933119,-0.28808362295146595,-0.10220870809859857,-0.01665318448106992,-6.257829916216383e-06,3.372988722158752,-5.566897336051933,-3.3529967829627587,-0.7637041230886688,0.1637730681029339,-0.0005830131437274955,1.0542720225586348,-11.424870188981721,-4.08767350167426,-0.6758077809653975,0.03656698840168409,-0.00037269977199285017
0.62,-0.4679290038233502,2.3463141139969887,-1.2583299222105175,0.06457048546521212,-0.027217284335640763,-0.00012374418661869864,-0.43292854986047774,0.30210793928453467,-0.321460395393734,-0.10983123591195991,-0.015085167655830333,-6.620883659516709e-06,3.3944048625120753,-5.462958556529247,-3.2605594229730723,-0.7414048357319061,0.1614561681510942,-0.0006167654126479349,1.073242254556253,-11.40984544365675,-4.080446263758448,-0.6754212704914059,0.03694105164925528,-0.00037600941982871645
0.63,-0.47191979724044725,2.348789807928084,-1.2618691041174699,0.06339816470170918,-0.027352585898991612,-0.000123815869678989,-0.39907934170970605,0.24756939310954407,-0.35391819069523717,-0.11723207635029344,-0.013530156335084996,-7.1683060290351445e-06,3.4090599901921252,-5.347889132931004,-3.1633733353802853,-0.7181777872224657,0.15903306616772994,-0.0006386366575882596,1.0903638942616796,-11.391738530801963,-4.073063271044856,-0.6750935450081155,0.0373056169589803,-0.00037770877650558274
0.64,-0.4755706372893135,2.3507316069181288,-1.2657232009100878,0.06215414603181653,-0.02747248310284657,-0.00012389445432270998,-0.3650840048866247,0.1941798990044734,-0.3854096792617972,-0.12440186698926557,-0.011989720385495697,-7.858464372098281e-06,3.416944655558316,-5.222049410649156,-3.0615275838966873,-0.6940116887480059,0.15650400300918932,-0.0006487884106893271,1.1056186712901672,-11.370416501945014,-4.065460318488186,-0.6748104924208689,0.03765987033269631,-0.0003778086194161409
0.65,-0.4788807374580218,2.3521520761296815,-1.2698820850598889,0.06084083434141548,-0.027577137358627768,-0.00012398095818813034,-0.3310100168708309,0.14204692115526205,-0.41588841498010054,-0.13133116904010475,-0.010465425578119638,-8.65038654203493e-06,3.418058923812887,-5.085820592992408,-2.955117788980399,-0.6688980860881593,0.15386884821258562,-0.0006474650629771095,1.1189730953993884,-11.345734108318453,-4.057573491683485,-0.6745583495733666,0.038001667088814715,-0.0003763363015335958
0.66,-0.48184998603941837,2.353064817426047,-1.2743351740775153,0.05946072942188368,-0.02766672572196741,-0.00012407599873576067,-0.296924858139657,0.09127412963656899,-0.4453089017626405,-0.13801049195318077,-0.008958836333964207,-9.504054763033222e-06,3.4124142405500986,-4.939606783484352,-2.844249544677937,-0.6428323820806554,0.15112719041889378,-0.0006349941045221408,1.13037988085738,-11.317538180701744,-4.049340579172942,-0.6743239159765992,0.03832763408809328,-0.00037333554945481425
0.67,-0.4844789450291065,2.3534844291472696,-1.279071441018484,0.05801642614126973,-0.02774144089702432,-0.00012417980568812156,-0.2628958989688143,0.04196117212226778,-0.4736266940968638,-0.14443032806139522,-0.007471517505690808,-1.0380695236087712e-05,3.4000352367499658,-4.7838367569861004,-2.729041597242424,-0.6158147752405014,0.1482784338175982,-0.0006117853684209779,1.1397796915343994,-11.285672032909314,-4.040702417302445,-0.6740947554086626,0.03863328932734382,-0.00036886615699421
0.68,-0.4867688477110163,2.3534264634249884,-1.2840794263105764,0.05651061417637753,-0.0278014912486507,-0.0001242922362905474,-0.22899026819098406,-0.005796572228104223,-0.5007985292092247,-0.1505811964892198,-0.0060050351626378135,-1.124306024258482e-05,3.380961430443173,-4.61896540921051,-2.609628734394798,-0.587851102699517,0.14532189801436246,-0.0005783291832630252,1.1471031796389062,-11.249979858065966,-4.031604152842762,-0.6738593830433424,0.038913177393640724,-0.000363003549404952
0.6900000000000001,-0.48872159476035704,2.3529073808900085,-1.2893472511900343,0.05494607722203937,-0.027847100812348077,-0.00012441279328414694,-0.19527470493407303,-0.051908253497988235,-0.5267824879457937,-0.15645369543381654,-0.004560956369738008,-1.2055699359954013e-05,3.3552487844623218,-4.445474839845754,-2.4861643381489102,-0.5589535766366112,0.14225691846417376,-0.0005351933441134996,1.1522732862321434,-11.210311082434563,-4.021996408523716,-0.6736074356924917,0.039161018995462225,-0.00035583819535798096
0.7000000000000001,-0.4903397487080287,2.3519445026630064,-1.294862633000061,0.05332569160389333,-0.027878509292106522,-0.00012454064544745278,-0.1618153947671698,-0.09628782270022143,-0.5515381810026568,-0.16203856181460366,-0.0031408479758445436,-1.2785216330584618e-05,3.3229710828702115,-4.263875031294468,-2.3588225592535803,-0.5291414046499252,0.1390829444860877,-0.00048301886243346664,1.1552077661110018,-11.16652463751468,-4.0118363370414984,-0.673329822777013,0.039369872483337114,-0.00034747484720147175
0.71,-0.49162652662859935,2.3505559595591747,-1.3006129025672843,0.051652424231997236,-0.02789597203663033,-0.00012467465052930931,-0.12867779205706267,-0.1388543103831468,-0.5750269567223386,-0.1673267371896093,-0.0017462744523806214,-1.340050818565295e-05,3.284221092775069,-4.074704092846161,-2.2278000774620192,-0.49844128610909166,0.13579963191871158,-0.0004225144935034175,1.155821893612331,-11.118493107647943,-4.001088550019207,-0.6730188557781378,0.03953230495738719,-0.0003380315946471806
0.72,-0.4925857909353199,2.348760638481021,-1.3065850238304557,0.049929329844457845,-0.027899759985108106,-0.00012481338036321799,-0.09592643067205388,-0.1795321078154009,-0.5972121263171364,-0.17230943875393898,-0.00037879484777760897,-1.3872983390867737e-05,3.239111483223211,-3.8785280487628215,-2.09331741893359,-0.4668877783338541,0.13240692764358641,-0.00035445010596923954,1.1540312996987991,-11.06610670765868,-3.989725909832492,-0.672668354164347,0.03964057025116702,-0.00032763872272591606
0.73,-0.4932220381898607,2.3465781260191028,-1.3127656158514145,0.04815954750275853,-0.02789015957456681,-0.0001249551479240863,-0.06362472545408371,-0.21825124619179748,-0.6180592020958864,-0.17697823416993094,0.0009600410541298957,-1.417675608683138e-05,3.1877754785802233,-3.6759401580634044,-1.95561980995807,-0.43452352846830067,0.12890514352989868,-0.00027964897399954114,1.1497548847250472,-11.009277043310547,-3.97773017413453,-0.6722737261344527,0.03968679080010331,-0.00031643737141178737
0.74,-0.4935403858609349,2.344028649327313,-1.3191409772920661,0.046346296313435856,-0.027867472601927592,-0.00012509803606260982,-0.031834767107421974,-0.2549476691789917,-0.6375361440651592,-0.1813251189322674,0.002268697263921581,-1.4288813852351762e-05,3.130367230117463,-3.467559763499174,-1.8149775546736322,-0.40139936913377383,0.12529501777869712,-0.00019897915705222036,1.1429177459742768,-10.947940606721021,-3.965092485280506,-0.6718320229540249,0.03966314016841499,-0.0003045780014765749
0.75,-0.4935465569940999,2.3411330143863855,-1.3256971133936175,0.04449287036397255,-0.027832016035118343,-0.00012523992763182395,-0.0006171133164963698,-0.28956349409275134,-0.6556136101551477,-0.18534259494633082,0.0035456566809248923,-1.4189156921412461e-05,3.0670618962284557,-3.254030677047916,-1.671685933332805,-0.3675742782094371,0.1215777621861811,-0.0001133441259600354,1.1334540548309304,-10.882061959450512,-3.9518136995890782,-0.6713419661753319,0.0395620228394153,-0.00029221867860569644
0.76,-0.4932468627841272,2.3379125418156854,-1.3324197654465024,0.04260263287402055,-0.027784121768946957,-0.0001253785367046225,0.02996942099726626,-0.32204725707003085,-0.6722652052884944,-0.18902374899520014,0.004789426617138574,-1.3860907279855317e-05,2.99805542860689,-3.0360191189480528,-1.5260646266887052,-0.33311520543735007,0.11775509444579413,-2.3672866304502715e-05,1.1213098157287043,-10.811636557834499,-3.9379045543949074,-0.6708039476011609,0.0393762477871253,-0.0002795231952632245
0.77,-0.4926481830707127,2.334389000438013,-1.339294442692186,0.04067900957611368,-0.027724136322850604,-0.0001255114405713035,0.059867971341453316,-0.3523541377672622,-0.6874677245683504,-0.19236232979068707,0.005998544609635243,-1.3290386668101317e-05,2.9235640686104336,-2.8142112365562957,-1.378456680998875,-0.29809677081265207,0.11382925524662824,6.9090327771415e-05,1.1064454381539026,-10.73669317826168,-3.9233856740305253,-0.6702200024570656,0.03909919235546429,-0.00026665905689934817
0.78,-0.49175794480727164,2.330584538844242,-1.3463064565522764,0.0387254813526519,-0.027652420479056482,-0.0001256361122020256,0.08902382634410493,-0.3804461593771011,-0.7012013860090404,-0.19535282234617835,0.0071715843794121215,-1.2467163072208956e-05,2.8438235646971672,-2.5893102378859663,-1.2292270367005438,-0.26260084192099775,0.10980301056896735,0.00016399612789091966,1.0888380542883735,-10.657295904482917,-3.9082874191072037,-0.6695937568496075,0.03872495308402323,-0.00025379536551783526
0.79,-0.4905840985804661,2.3265216152432173,-1.3534409570369277,0.03674557616791965,-0.027569348861066677,-0.00012574995286063572,0.11738462268055744,-0.40629236010246594,-0.7134500484651245,-0.19799051847322452,0.008307161798980637,-1.1384065861012307e-05,2.759088128047545,-2.362033182317908,-1.078760651773743,-0.2267159993789054,0.1056796402010427,0.0002601002692310672,1.0684835185421313,-10.573545644571942,-3.8926495866140556,-0.6689303511829319,0.03824848034072178,-0.00024110063905236496
0.8,-0.4891350932843114,2.3222229259167197,-1.3606829711441917,0.0347428603450396,-0.02747530945366369,-0.00012585032456340265,0.14490052961547217,-0.42986893264975207,-0.7242014107263888,-0.20027158228800482,0.009403940740298862,-1.0037170276693531e-05,2.6696291490870956,-2.1331074774724015,-0.9274602579430997,-0.1905369013205842,0.10146291404297969,0.00035647327460269773,1.0453980313324112,-10.485581151719575,-3.876520971298331,-0.6682363417562711,0.037665693950248255,-0.00022874060916681243
0.81,-0.4874198490766532,2.3177113326288072,-1.3680174430254821,0.03272092924787852,-0.027370703066780806,-0.00012593458208769978,0.1715244207658148,-0.4511593287912679,-0.7334471881290436,-0.20219310971610815,0.010460638688288513,-8.425752429713902e-06,2.5757337024396167,-1.9032671364166145,-0.7757437939942613,-0.1541635593719448,0.09715705824749499,0.00045220959138547734,1.0196193379597307,-10.393579530452868,-3.859958801409484,-0.6675195832455578,0.0369735774362993,-0.00021687604277742707
0.8200000000000001,-0.4854477287670044,2.3130097893629356,-1.3754292756602524,0.030683397436860525,-0.02725594274655488,-0.00012600010425152278,0.19721203096487683,-0.4701543265871721,-0.7411832634770361,-0.2037531811017993,0.011476032022592694,-6.552216382300348e-06,2.477702871740478,-1.6732488531508947,-0.6240415654392555,-0.11770053974752148,0.0927667135959549,0.000546435972282544,0.9912074641202666,-10.297756217928542,-3.8430280640848276,-0.6667890951617343,0.03617024901313128,-0.00020566063364424288
0.8300000000000001,-0.48322850780279475,2.308141268778582,-1.3829033737558543,0.028633888375278183,-0.02713145313765137,-0.00012604432420388993,0.22192209642096633,-0.48685205843535356,-0.7474098095601881,-0.20495090615823428,0.012448960890351057,-4.421995236715816e-06,2.375849928631433,-1.443787956600841,-0.47279318345999766,-0.08125610393742466,0.08829688875367125,0.0006383190092812407,0.9602449621500082,-10.19836443842901,-3.8258007373442657,-0.6660549156591714,0.03525500805084949,-0.0001952390097218986
0.84,-0.480772343035724,2.3031286887913924,-1.3904246875667063,0.02657602376893305,-0.02699766980150389,-0.00012606475848713595,0.2456164767070727,-0.5012579987189811,-0.7521313810852007,-0.20578646063451334,0.013378333614747917,-2.0434283246020715e-06,2.2704984020927244,-1.2156143041356657,-0.3224443384124831,-0.04494130398183627,0.08375291114716177,0.0007270716817860956,0.9268366560707044,-10.095694137851229,-3.808354946791193,-0.6653279462282028,0.03422835637826144,-0.00018574489960585986
0.85,-0.4780897404609335,2.2979948396870826,-1.3979782573105866,0.024513412626722936,-0.02685503849543625,-0.0001260590346553787,0.268260257479052,-0.5133849104309697,-0.755356974388017,-0.20626111422101126,0.014263130606763963,5.723831757248432e-07,2.1619800750337617,-0.9894481749785682,-0.17344346420579848,-0.008869047450383416,0.07914037817946529,0.0008119589226878166,0.8911088883518268,-9.990070413584831,-3.790774065660182,-0.6646197908408373,0.03309199445315754,-0.0001772994974509606
0.86,-0.4751915221290436,2.2927623121795038,-1.4055492578491702,0.022449640133100603,-0.02670401441773658,-0.0001260249172566094,0.28982183318899296,-0.5232527507579048,-0.757100053858357,-0.20637724936223326,0.015102407769966821,3.4117398769305353e-06,2.050632944792708,-0.7659962218609953,-0.02623834958043103,0.02684685291061073,0.07446511134546796,0.0008923021758479033,0.8532082863999921,-9.88185146349076,-3.773145776811498,-0.6639425930292425,0.03184879309715448,-0.00017001006034496146
0.87,-0.47208879243477336,2.2874534268176094,-1.413123043294833,0.020388256425163963,-0.026545061423643462,-0.00012596033200927673,0.31027296942702465,-0.5308885361894424,-0.7573785445662798,-0.20613837079366398,0.015895299409311812,6.458524733267977e-06,1.9367991829459765,-0.5459475360295017,0.11872724920310973,0.06209263038567936,0.06973311553019101,0.0009674829718036015,0.8133000814836739,-9.77142608549811,-3.755561114679145,-0.6633088741703445,0.030502742134910305,-0.00016396876552838752
0.88,-0.4687929039859822,2.2820901651349037,-1.4206851912060745,0.018332765367539413,-0.02637865121690492,-0.0001258633880270301,0.3295888448791122,-0.5363261682705586,-0.7562147911241485,-0.20554910576245505,0.016641020673854184,9.694398224664457e-06,1.8208231277083269,-0.3299698764070085,0.261016942374873,0.09675550265705084,0.06495054540725143,0.0010369456106947839,0.7715660264557693,-9.659210766442126,-3.7381135040901747,-0.6627313759406124,0.029058877871198797,-0.00015925184735495553
0.89,-0.46531542325376607,2.2766941029186776,-1.4282215460394179,0.016286613417255617,-0.026205262521111442,-0.0001257323979665016,0.3477480732216174,-0.539606221622615,-0.7536354833343382,-0.20461519502837971,0.017338869579347826,1.3099006052847704e-05,1.7030493393286341,-0.1187061085245491,0.40020493908496835,0.13072458460093483,0.060123680398499246,0.0011001990061124678,0.7282019706466665,-9.545646405003193,-3.7208978113653846,-0.6622229095112482,0.027523191861728614,-0.00015591902581415853
0.9,-0.4616680961979861,2.2712863459555153,-1.435718261535954,0.014253178668563168,-0.026025380234418954,-0.00012556589599326307,0.3647327055779969,-0.5407756963162141,-0.7496715496536127,-0.20334347486924484,0.017988228669248884,1.6650197323853514e-05,1.583820745392479,0.0872291070250576,0.5358791343841782,0.1638917639853006,0.05525890914962339,0.0011568178229336423,0.6834151601454681,-9.431194718842743,-3.70400942127819,-0.6617962135978511,0.02590252386600362,-0.0001540132301369216
0.91,-0.45786281405365853,2.265887468584741,-1.443161841735367,0.012235760164247881,-0.025839494570605852,-0.00012536265347928,0.38052821443275614,-0.539887737077425,-0.7443580199412958,-0.20174185043152884,0.018588566381310068,2.032425139830583e-05,1.46347689899062,0.2872523431903019,0.6676440119384901,0.19615252986691578,0.05036272394183072,0.0012064429951275102,0.6374213389621495,-9.316334390173893,-3.687543351393396,-0.6614638229850713,0.024204442198818104,-0.00015356061282462206
0.92,-0.453911579452378,2.260517455363296,-1.450539180328806,0.01023756755553783,-0.02564810018869044,-0.00012512169236218092,0.39512346012805577,-0.5370013221444792,-0.7377338593438754,-0.19981926087100507,0.01913943819154144,2.4096111709907422e-05,1.342352368452553,0.4808141252950456,0.7951233291715061,0.22740674490479318,0.04544172491557674,0.0012487817597801598,0.5904417309926039,-9.20155700699035,-3.6715934131354793,-0.6612379486409368,0.022437114911780954,-0.0001545708417093024
0.93,-0.44982647303981715,2.2551956461146783,-1.4578375980837954,0.0082617111873536,-0.02545169531261256,-0.00012484229611185455,0.40851064125608,-0.5321809248617725,-0.7298417754989562,-0.19758563681842306,0.019640487607787863,2.793962503263748e-05,1.2207752729344785,0.6674013199407801,0.9179625573098673,0.25755935429661214,0.040502633448825875,0.0012836072816851951,0.5426999841662716,-9.087362858984049,-3.65625142674934,-0.6611303700419234,0.020609175333589844,-0.00015703765066231757
0.9400000000000001,-0.4456196207357783,2.2499406846016656,-1.465044878098934,0.006311192679542081,-0.025250780841796196,-0.00012452401826442132,0.42068523040388056,-0.5254961513012456,-0.7207280015138641,-0.1950518507811518,0.020091447081636644,3.18277847433228e-05,1.099065973734055,0.8465391803676067,1.0358310547008216,0.28652102552936043,0.03555231356141775,0.0013107579853612883,0.4944191566652366,-8.974256647819956,-3.641606495208743,-0.6611523398707123,0.018729585478786264,-0.0001609396235639321
0.9500000000000001,-0.44130316176771006,2.2447704710282754,-1.4721492986728106,0.004388896068013075,-0.025045859452793244,-0.00012416668849698465,0.43164589680682525,-0.5170213573390112,-0.7104420573876522,-0.1922296611529006,0.020492138900295262,3.5732976743668716e-05,0.9775359269187064,1.0177930409455875,1.148423957613785,0.3142087146041499,0.030597799772467127,0.0013301366519044011,0.4458188208320265,-8.862743170947867,-3.627744340178921,-0.6613145008426811,0.01680750070552599,-0.00016624118131242636
0.96,-0.43688921759247723,2.239702118541374,-1.479139663599814,0.002497579562510458,-0.024837434691696223,-0.00012377041622982103,0.441394417523283,-0.5068352486901314,-0.6990364927003289,-0.18913165055026168,0.020842476109702187,3.962722671636277e-05,0.8564866988132647,1.1807696593524668,1.2554637783896836,0.3405461558077647,0.025646329496890274,0.001341709332055352,0.3971123536247309,-8.75332303658068,-3.6147467014124763,-0.6616268140788492,0.01485213877387205,-0.0001728937381096607
0.97,-0.43238986180488514,2.2347519138671674,-1.4860053297347318,0.000639867970237402,-0.024626010056624098,-0.00012333559175599566,0.44993557875920726,-0.49502046742064904,-0.6865666134917704,-0.1857711592273056,0.021142463507212463,4.348244738253641e-05,0.7362091421969466,1.3351182103629382,1.356701706152053,0.3654642734284925,0.020705377794571156,0.0013455041087326869,0.3485044736313254,-8.646488464951451,-3.602690799497162,-0.6620984981819658,0.012872656141192595,-0.0001808369910637314
0.98,-0.42781709111538246,2.229935282182983,-1.4927362316977126,-0.0011817541731480878,-0.024412088069351457,-0.00012286288491212402,0.45727706895026804,-0.4816631684184636,-0.6730901962980876,-0.18216221433854898,0.02139219872726404,4.727068438716384e-05,0.6169827277850303,1.4805309399615416,1.451918610240464,0.38890151503684756,0.01578269211466221,0.0013416097091772938,0.30018907419462165,-8.54271922758074,-3.5916488607041104,-0.6627379779929788,0.010878033946987721,-0.0001900003062896709
0.99,-0.42318279746382914,2.225266756290791,-1.4993229036208051,-0.0029649487314205017,-0.02419616933507928,-0.00012235324131864756,0.46342936515533345,-0.4668525892191969,-0.6586671923092392,-0.1783194558272414,0.021591873427217547,5.096435934764568e-05,0.499075022772562,1.616743492632533,1.5409257509994982,0.4108041070619315,0.010886324608899045,0.001330173955664482,0.25234739064433404,-8.442478772167545,-3.581687701813332,-0.6635528419071004,0.00887697570409133,-0.00020030416509634393
