tonegas/nnodely-applications/joint_friction_estimation/dataset/train/mpc_mujoco_episode_49 copy.csv
time,q1,q2,q3,q4,q5,q6,dq1,dq2,dq3,dq4,dq5,dq6,ddq1,ddq2,ddq3,ddq4,ddq5,ddq6,tau1,tau2,tau3,tau4,tau5,tau6
0.0,0.0,1.57,-1.57,0.0,0.0,0.0,0.0,0.0,0.0,0.0,0.0,0.0,-6.444878184047468,2.322033913013257,8.649929616719131,3.398271476749862,-0.931707095018016,-2.5363474343009784e-06,-0.8981730328393916,-1.7465260286115734,-2.8053055779911746,-0.5987171462096019,-0.08106478660521357,-0.0012501958333077177
0.01,-0.0006410969307628934,1.5702344941747675,-1.5691383652204731,0.00031766864007511304,-7.887113341911451e-05,-6.311260610810444e-07,-0.06410969307628933,0.02344941747672943,0.08616347795268507,0.0317668640075113,-0.007887113341911452,-6.311260610810444e-05,-6.403587875923343,2.3280718808148824,8.57177305735443,3.158268663870018,-0.7843690364940521,-0.006279654617426189,-0.8988377987921251,-1.7718929164642887,-2.8168298637049682,-0.6011977932256032,-0.08105314429569208,-0.001248469730936291
0.02,-0.001918698774417645,1.570704184691932,-1.5674241854226787,0.0009338422180364682,-0.00022752364988623165,-1.9165907497288195e-06,-0.12776018436547515,0.04696905171645601,0.1714179797794516,0.06161735779613551,-0.014865251646711713,-0.00012854646886477751,-6.355611093651457,2.3326234411177307,8.475510305926155,2.963936457838937,-0.6924309985042818,-0.0063994335378243505,-0.9017542127868408,-1.8105792957556592,-2.8312202692788633,-0.6039408172103373,-0.08116185085532532,-0.0012440057661120636
0.03,-0.0038277489901115897,1.5714095815442377,-1.5648680082236643,0.0018327898070953333,-0.0004401899019039284,-3.81243204820323e-06,-0.19090502156939448,0.07053968523056368,0.2556177199014382,0.08989475890588651,-0.021266625201769678,-0.00018958412984744103,-6.302704876233751,2.334956936443393,8.364449614390853,2.803698667822399,-0.6333335387904846,-0.005751091616388759,-0.9067823617415594,-1.8624310217180438,-2.8484821631199084,-0.606948393268093,-0.08137942070375141,-0.001236763429405082
0.04,-0.006362822322035855,1.5723509394035755,-1.5614815926582353,0.0030013339169814926,-0.0007130651999254535,-6.278592221227421e-06,-0.2535073331924266,0.09413578593377764,0.33864155654291006,0.11685441098861596,-0.027287529802152512,-0.00024661601730241906,-6.2458124149266725,2.334457075257719,8.241052461185411,2.6687469617926354,-0.5934958993474488,-0.005043263194119962,-0.9137462947646714,-1.9272493513946265,-2.868593597171774,-0.6102143667954487,-0.08169117466590327,-0.0012266862707360732
0.05,-0.009518170745727817,1.5735282037691611,-1.5572777274289784,0.004428181566397073,-0.0010434882254495266,-9.282566208113354e-06,-0.31553484236919616,0.11772643655855558,0.4203865229256858,0.14268476494155802,-0.033042302552407324,-0.0003003973986885933,-6.1853776651099945,2.330601059818791,8.107133829347188,2.5523871973571204,-0.5647478829770094,-0.004317322516454336,-0.9224354785853914,-2.0047872482245896,-2.8915051020245492,-0.6137244616616916,-0.0820795325731362,-0.001213696746454594
0.06,-0.013287738630737551,1.5749409645899974,-1.5522700984930955,0.006103415819368728,-0.001429447762895587,-1.2795760955428385e-05,-0.3769567885009734,0.1412760820836358,0.500762893588288,0.16752342529716555,-0.03859595374460604,-0.00035131947473150297,-6.12153815179064,2.3229419808604046,7.964017206196065,2.449537675570749,-0.5421929668380265,-0.0035455647984794503,-0.9326060210714247,-2.094745095761354,-2.917139351781233,-0.617456466023973,-0.08252429911042063,-0.0011976969997601096
0.07,-0.017665158875344047,1.576588416129497,-1.5464731940976089,0.008018109639962322,-0.0018692870416983495,-1.6790600749880496e-05,-0.43774202446064964,0.16474515394995,0.5796904395486735,0.19146938205935932,-0.043983927880276254,-0.000399483979445211,-6.054243930903533,2.3110974229500405,7.812654587818901,2.356346086848827,-0.5229182452091194,-0.00270976809979917,-0.9439818892676226,-2.196766187584861,-2.945390817454372,-0.6213804320306651,-0.08300295625757326,-0.001178572786515189
0.08,-0.02264373733640901,1.5784693222563497,-1.5399022380308611,0.010164032993984355,-0.0023615278508523274,-2.1238858933319187e-05,-0.49785784610649614,0.18809061268528307,0.6570956066747639,0.21459233540220332,-0.049224080915397796,-0.00044482581834386916,-5.983331850327641,2.294741814745557,7.653719624475951,2.269897648805639,-0.5052138900485232,-0.0018049222472309445,-0.9562563122825327,-2.31043229979704,-2.9761255055651237,-0.6254589163818545,-0.08349097205832245,-0.0011561990511004551
0.09,-0.02821643020239109,1.5805819866415856,-1.5325731438936232,0.01253343107179596,-0.0029047673221091223,-2.6110834980729763e-05,-0.5572692865982081,0.21126643852357285,0.7329094137237816,0.23693980778116033,-0.054323947125679485,-0.00048719760474105755,-5.908572811576703,2.2736014667238416,7.487680168482992,2.187993000436279,-0.48810038290567803,-0.0008347117010316651,-0.9690935348028946,-2.4352596131635207,-3.0091808648234637,-0.6296472826772471,-0.0839621323976544,-0.0011304463477229399
0.1,-0.034375817348386226,1.5829242275513262,-1.5245024847537956,0.015118856812346758,-0.00349761885737027,-3.137504606499542e-05,-0.6159387145995131,0.23422409097407754,0.8070659139827641,0.2585425740550798,-0.05928515352611477,-0.0005264211084265658,-5.82970274995853,2.2474515190485653,7.314855008028928,2.108979355531801,-0.47104178044375544,0.00019229955051569547,-0.9821310668549942,-2.5706952253584783,-3.044365934380635,-0.6338940822251864,-0.08438889993493556,-0.001101187660253515
0.11,-0.04111407374620807,1.5854933570709917,-1.515707473747851,0.017913044956402197,-0.0041386799057119466,-3.699821904996707e-05,-0.6738256397821846,0.25691295196654423,0.8795011005944477,0.27941881440554406,-0.06410610483416768,-0.0005623172984971648,-5.7464437891647995,2.2161142170404498,7.135458427363131,2.0316222633484955,-0.4537714300875173,0.0012651935395249225,-0.9949825549423255,-2.716114473091059,-3.081461799433236,-0.6381415265375462,-0.08474280213719328,-0.0010683053515068404
0.12,-0.048422940421877794,1.5882861646955335,-1.506205952117022,0.020908817940885893,-0.004826516081817093,-4.294545180258215e-05,-0.7308866675669724,0.2792807624541723,0.9501521630829152,0.29957729844836956,-0.06878361761051471,-0.0005947232752615085,-5.658519427772732,2.179458069762174,6.949635354383117,1.9550082878772024,-0.4361856659645227,0.002372308718291194,-1.0072413760017132,-2.8708192642795085,-3.1202224121171453,-0.6423260614828261,-0.08499484833528868,-0.001031698055579675
0.13,-0.05629369609997846,1.5912989052827873,-1.4960163818838186,0.024099016292414593,-0.005559655218803803,-4.91804642341542e-05,-0.7870755678100665,0.30127405872537033,1.0189570233203247,0.31901983515287,-0.07331391369867102,-0.0006235012431572042,-5.565666033643628,2.1373975471629976,6.757489182102125,1.878471193481694,-0.4182786273438239,0.003502264583877146,-1.0184850271689943,-3.034037598628956,-3.1603758265400317,-0.646379049654449,-0.08511597379811488,-0.000991287360805175
0.14,-0.06471713045325436,1.5945272914012425,-1.485157840936157,0.027476447959973872,-0.006336587428208638,-5.5665890629089355e-05,-0.8423434353275904,0.3228386118455152,1.0858540947661601,0.3377431667559279,-0.07769322094048352,-0.0006485426394935158,-5.4676419627419355,2.089893045375432,6.559103834865368,1.801535970699355,-0.40010199112407463,0.004644610493818924,-1.0282803505397697,-3.2049244289187557,-3.201625885843356,-0.6502275637495549,-0.08507750695283248,-0.000947024141415069
0.15,-0.07368351972844926,1.5979664901153732,-1.4736500187313508,0.03103385237724959,-0.007155768741232304,-6.236358363515937e-05,-0.8966389275194899,0.3439198714130633,1.150782220480611,0.3557404417275718,-0.08191813130236653,-0.0006697693006070005,-5.364235040281999,2.0369509064048557,6.354561257897833,1.7238763739832024,-0.38173984411051265,0.005790225315813746,-1.036189593150157,-3.3825639839282347,-3.243654386117833,-0.6537952895907759,-0.08485165408142256,-0.0008988943970323631
0.16,-0.08318260541071901,1.6016111242456943,-1.4615132111902513,0.03476387606624967,-0.008015626816716507,-6.923491176079572e-05,-0.9499085682269747,0.36446341303212093,1.2136807541099464,0.3730023689000079,-0.08598580754842032,-0.0006871328125636362,-5.255268797078869,1.978623323240345,6.143955212209204,1.645282667862876,-0.3632928044743977,0.006931544632160502,-1.0417772591648826,-3.565973636907473,-3.2861237268814416,-0.6570035329029821,-0.08441199413536073,-0.0008469244583042641
0.17,-0.09320357649836682,1.6054552781205411,-1.4487683136452498,0.038659057363509164,-0.008914567757137637,-7.624103933242748e-05,-1.0020971087647805,0.3844153874846762,1.2744897545001568,0.389518129725949,-0.089894094042113,-0.000700612757163176,-5.140607652580764,1.91500799818087,5.927402034625876,1.5656370625350853,-0.3448678431386547,0.00806266348055562,-1.0446176652189096,-3.75410936116492,-3.3286800409779627,-0.6597723191990434,-0.08373397479133265,-0.0007911854185651019
0.18,-0.10373505587534583,1.609492507805245,-1.4354368109513649,0.042711818428078634,-0.009850983415529922,-8.334318237043446e-05,-1.0531479376979018,0.40372296847040584,1.3331502693884978,0.40527610645694706,-0.09364156583922849,-0.0007102143038006975,-5.020161123234076,1.846247453513204,5.705048858055568,1.484894920566024,-0.32657166528044,0.009179346366661623,-1.044303062994991,-3.945872767587672,-3.370956778689785,-0.6620215713131495,-0.08279539959297423,-0.0007317966576910794
0.19,-0.11476509118469862,1.6137158557545603,-1.4215407640794055,0.0469144631223834,-0.010823258788808687,-9.050283678086298e-05,-1.103003530935279,0.4223347949315303,1.3896046871959296,0.42026446943047635,-0.09722753732787648,-0.0007159654410428518,-4.893887076734226,1.7725279212992784,5.477079666953022,1.4030702764139242,-0.3085063590556629,0.010278967130451733,-1.0404521478120214,-4.140119669102782,-3.4125787022761003,-0.6636723444702477,-0.08157689506043052,-0.0006689283364173971
0.2,-0.12628115051906696,1.618117869788251,-1.4071027926929889,0.05125917967795811,-0.011829779227630673,-9.768197723744353e-05,-1.151605933436836,0.44020140336906716,1.4437971386416568,0.4344716555574711,-0.10065204388219867,-0.0007179140456580552,-4.761794028393239,1.6940777639953135,5.243719477069092,1.3202245629657838,-0.29076652642154244,0.011360395978555538,-1.0327187308822259,-4.335670065982005,-3.4531662288691223,-0.664648094544884,-0.08006234606960236,-0.0006028027577118715
0.21,-0.13827012315398993,1.622690626239924,-1.3921460533730936,0.055738047294894795,-0.012868937280412985,-0.00010484322649888895,-1.198897263492297,0.4572756451673012,1.4956739319895171,0.4478867616936686,-0.10391580527823108,-0.0007161249261445424,-4.6239424721804605,1.6111654005228908,5.00523686880248,1.2364577095438918,-0.27343741462069104,0.012423847826177337,-1.0208003186863235,-4.531319395523814,-3.492340042586366,-0.6648759515990506,-0.0782392876626962,-0.0005336945161626688
0.22,-0.1507183254566363,1.6274257570775377,-1.3766942132989226,0.06034304599724098,-0.013939139047821437,-0.00011194999587693949,-1.2448202302646363,0.47351308376135764,1.545184007417104,0.46049987023461847,-0.10702017674084528,-0.0007106769378050542,-4.48044524760311,1.5240967334989084,4.761945063369373,1.1519009831984413,-0.25659374808005353,0.01347070394286387,-1.0044463182151704,-4.725850842206972,-3.5297258817642567,-0.6642879681416021,-0.0760992417895795,-0.0004619293860970582
0.23,-0.16361151200841265,1.6323144807424914,-1.360771419324685,0.06506606919242465,-0.015038809964914855,-0.00011896659826377448,-1.2893186551776343,0.48887236649537347,1.5922793974237581,0.47230231951836726,-0.10996709170934173,-0.0007016602386834992,-4.3314669590511485,1.4332120926284644,4.514201705406093,1.0667111042932618,-0.24029906842515203,0.014503317214110911,-0.9834655739076936,-4.918048462111275,-3.5649593952589282,-0.6628223100344026,-0.07363798831161422,-0.00038788193329109563
0.24,-0.17693489188650113,1.6373476364046096,-1.3444022625099497,0.06989893847328371,-0.016166399957740725,-0.00012585833561777659,-1.3323379878088475,0.5033155662118161,1.6369156814735353,0.48328692808590634,-0.11275899928258708,-0.000689173735400211,-4.177222482899554,1.3388827266396417,4.262407500366242,0.9810652895674874,-0.2246054546758245,0.015524809867135447,-0.9577329427163499,-5.1067108403428865,-3.5976909535646495,-0.660424357747425,-0.0708557609167785,-0.0003119718723084731
0.25,-0.1906731499589355,1.642515721284306,-1.3276117382671382,0.07483342026584382,-0.017320387943420307,-0.00013259156314130845,-1.3738258072434364,0.5168084879696482,1.6790524242811564,0.4934481792560106,-0.11539879856795808,-0.000673322752353186,-4.017974617084757,1.2415068913861504,4.007003846918254,0.8951569695954262,-0.20955353432674428,0.01653887108777563,-0.9271946288798179,-5.290664974204229,-3.627590296654998,-0.6570476868313466,-0.06775736036160392,-0.00023465923014218397
0.26,-0.20481047296243018,1.6478089306522177,-1.3104252023837004,0.07986124397185727,-0.018499285659969833,-0.00013913373259568835,-1.413732300349468,0.5293209367911601,1.7186535883437726,0.5027823706013456,-0.11788977165495244,-0.0006542169454379902,-3.8540309463199316,1.1415055946245232,3.748469600795448,0.8091919992843533,-0.1951727195980304,0.017549560598500324,-0.8918720298455973,-5.468780059369933,-3.6543509013474393,-0.6526548990548278,-0.0643521796102365,-0.00015643841517924792
0.27,-0.21933058005379544,1.6532172000818413,-1.2928683232584215,0.08497412128783846,-0.01970164082568873,-0.00014545341731076467,-1.4520107091365246,0.540826942962353,1.755687912527896,0.5112877315981185,-0.12023551657188945,-0.0006319684715076313,-3.685740012412842,1.0393180682750367,3.4873171051553706,0.7233852346998955,-0.18148161800902685,0.018561122952512665,-0.8518638886025685,-5.639980852317929,-3.67769395674825,-0.6472182795798834,-0.060654137899575564,-7.783132676558624e-05
0.28,-0.2342167574561164,1.6587302495031933,-1.2749670307609107,0.09016376640614591,-0.020926039638777726,-0.0001515203214785887,-1.4886177402320955,0.5513049421352109,1.7901292497510866,0.518964511830745,-0.12243988130889978,-0.0006066904167824015,-3.513486892541238,0.9353970465398989,3.224087622021771,0.6379573908757568,-0.16848857633276637,0.019577816053938824,-0.8073466037627111,-5.803260290086834,-3.6973718467816137,-0.6407202606701345,-0.05668152341943779,6.203269299168992e-07
0.29,-0.24945189676134844,1.6643376285859492,-1.2567474621803887,0.09542191682177774,-0.022171108636493336,-0.0001573052762890741,-1.5235139305232048,0.5607379082756001,1.8219568580522085,0.525815041563182,-0.12450689977156101,-0.0005784954810485424,-3.3376882983203955,0.8302039329948777,2.9593462985572225,0.553132126185023,-0.1561923240831362,0.020603756295060727,-0.7585726145058574,-5.957691067890033,-3.713171053534314,-0.6331536785218892,-0.05245674704195261,7.836330806351873e-05
0.3,-0.2650185364026348,1.6700287629693533,-1.2382359057742676,0.10074035448335913,-0.023435515939988383,-0.00016278022538425793,-1.5566639641286328,0.5691134383404047,1.851155640612107,0.531843766158139,-0.12644073034950476,-0.0005474949095183801,-3.1587873147357395,0.7242039417022004,2.693676799509662,0.46913332162224286,-0.14458268820843934,0.02164278170924716,-0.7058668496749568,-6.10243590545214,-3.7249144135385066,-0.6245218166023268,-0.04800601224176637,0.00015484151036658457
0.31,-0.28089890577314963,1.675793000853596,-1.2194587424587913,0.10611092704005766,-0.024717971916321045,-0.00016791820198928427,-1.5880369370514864,0.5764237884242643,1.8777163315476284,0.5370572556698526,-0.12824559763326612,-0.0005137976605026331,-2.977247900742871,0.6178612966118344,2.4276757338546204,0.38618253964358473,-0.13364135527274712,0.022698333686634986,-0.6496213051390096,-6.2367562726401875,-3.7324626801230574,-0.6148382359975053,-0.04335890890056524,0.000229504775124276
0.32,-0.29707497144391876,1.6816196594732291,-1.2004423862033646,0.11152556894910176,-0.02601722929317111,-0.0001726932999334979,-1.617606567076911,0.5826658619633066,1.9016356255426698,0.5414641909044094,-0.12992573768500623,-0.00047750979442136423,-2.793549272390403,0.5116345702192864,2.161946997795225,0.30449665844682006,-0.12334266145651362,0.023773357151657515,-0.5902878869414182,-6.360019392401023,-3.7357153677425488,-0.6041264004043949,-0.03854794096925562,0.0003018176304086413
0.33,-0.31352848492079843,1.687498070987186,-1.181213223697643,0.11697632222202815,-0.027332082764783515,-0.00017708064061275341,-1.645351347687967,0.5878411513957071,1.9229162505721789,0.5450753272926392,-0.13148534716124058,-0.0004387340679255522,-2.608180285160106,0.405972236902132,1.8970961486638438,0.22428568485231626,-0.11365439435879487,0.0248702185384867,-0.5283697257565784,-6.471703391903592,-3.734610877505742,-0.592419110159197,-0.033607999873183594,0.000371267726507651
0.34,-0.33024103138021244,1.6934176273415322,-1.1617975538566554,0.12245535660225243,-0.028661368129745866,-0.00018105633777247185,-1.6712546459413986,0.5919556354346086,1.9415669840987597,0.5479034380224278,-0.13292853649623523,-0.0003975697159718429,-2.4216339251847687,0.30130850889948085,1.633724914853033,0.14575075310201768,-0.10453859390282894,0.025990640564092782,-0.4644112271032263,-6.571400528764051,-3.7291259258670713,-0.5797577657521654,-0.02857579701156025,0.00043737375314815584
0.35000000000000003,-0.34719407883366177,1.6993678236894225,-1.1422215277150858,0.12795498898229635,-0.03000396100256296,-0.00018459746181562618,-1.6953047453449315,0.5950196347890332,1.957602614156966,0.5499632380043915,-0.13425928728170922,-0.000354112404315432,-2.2344020095358097,0.19805951390779902,1.3724259358432362,0.0690823186828311,-0.09595234264008567,0.02713565254649042,-0.3989871685055752,-6.658818475859147,-3.719274319560996,-0.5661914863537502,-0.02348926966762678,0.0004996926443128551
0.36,-0.36436902719150227,1.7053382999870006,-1.1225110892383896,0.13346770188607388,-0.03135877514176711,-0.00018768200516556708,-1.717494835784051,0.5970476297578164,1.971043847669626,0.5512712903777518,-0.1354814139204151,-0.00030845433499409117,-2.0469701843813612,0.09661986315424623,1.1137778140819,-0.005541443690551873,-0.08784853842895046,0.028305554883961304,-0.33269118703962164,-6.733779703122321,-3.7051051384053215,-0.5517761127445755,-0.018386975083623764,0.0005578259031487875
0.37,-0.38174725672589516,1.711318880423093,-1.1026919175468892,0.1389861608599486,-0.03272476043763419,-0.00019028885004390307,-1.737822953439288,0.5980580436092481,1.9819171691500403,0.5518458973874729,-0.13659852958670798,-0.00026068448783359786,-1.8598132970200467,-0.002640352016257298,0.8583405472889597,-0.07795603008133778,-0.08017664479624642,0.029499896323640695,-0.2661240170643495,-6.796219045695678,-3.6867004028262955,-0.5365731265587658,-0.013307487363518805,0.0006114249113069163
0.38,-0.39931017546990033,1.7172996103834737,-1.0827893710106486,0.14450323063563414,-0.03410090060258193,-0.00019239773986009988,-1.7562918744005163,0.5980729960380773,1.9902546536240682,0.5517069775685532,-0.13761401649477428,-0.0002108889816196818,-1.6733912041078527,-0.09937810813585254,0.6066513961152589,-0.14801177963342704,-0.07288341628570993,0.030717462651990768,-0.1998818380226666,-6.846179593020683,-3.6641723143359943,-0.520648518855387,-0.008288811271518554,0.0006601951225058829
0.39,-0.41703926513303435,1.7232707906960625,-1.0628284336291327,0.15001198994815174,-0.03548621060711462,-0.0001939892552539617,-1.7729089663134008,0.5971180312588863,1.9960937381515835,0.5508759312517584,-0.13853100045326888,-0.00015915153938618273,-1.4881450643015623,-0.19327952635035195,0.35922122836479886,-0.2155748261686451,-0.0659135977432479,0.03195627560423303,-0.13454507659246018,-6.883807071432639,-3.637660164435565,-0.5040716407485248,-0.003367825943302455,0.0007038990775174594
0.4,-0.4349161251618412,1.7292230089505762,-1.0428336640617688,0.15550574491268182,-0.036879733903835046,-0.0001950447956841545,-1.7876860028806836,0.595221825451369,1.999476956736383,0.5493754964530085,-0.13935232967204242,-0.00010555404301927979,-1.3044941494872242,-0.28406147271905335,0.11653136759385516,-0.2805278290695895,-0.05921059778548976,0.03321360088898304,-0.07066797765622873,-6.909342922566793,-3.6073270104840054,-0.48691406725148045,0.0014202299138494079,0.0007423582154930602
0.41000000000000003,-0.45292251462571753,1.7351471677338053,-1.022829147624868,0.1609780408849222,-0.038280539481642444,-0.00019554656731583195,-1.8006389463876329,0.5924158783228954,2.000451643690065,0.547229597224038,-0.14008055778073986,-5.017716316774387e-05,-1.1228331951319435,-0.3714726868705163,-0.12096903885820115,-0.3427704864577783,-0.05271713767131114,0.03448596445268771,-0.00876921676552117,-6.923116300845058,-3.573356216147687,-0.4692485027887269,0.006042221505820455,0.0007754534930117238
0.42,-0.4710403916620261,1.7410345096688442,-1.00283845151822,0.16642267275017428,-0.039687718791829335,-0.00019547757782647116,-1.8117877036308547,0.5887341935038868,1.9990696106648,0.5444631865252069,-0.14071793101868948,6.898948936080729e-06,-0.9435302974208967,-0.45529445285435655,-0.3528651291758727,-0.4022198366128322,-0.04637587742993521,0.03576917623817205,0.050676224218353494,-6.925535225402237,-3.535947949514383,-0.4511477532141671,0.010467522265132645,0.0008031248560417996
0.43,-0.48925195026912816,1.7468766391923571,-0.9828845834922065,0.17183369360651274,-0.04110038258741827,-0.00019482163862074786,-1.8211558607102067,0.5842129523512913,1.9953868026013506,0.5411020856338454,-0.14126637955889357,6.559392057233037e-05,-0.7669253529736709,-0.5353408339793398,-0.5787779211639411,-0.458810356242374,-0.04013002145215028,0.03705836091969872,0.10724375371537231,-6.91707712535604,-3.4953157243567925,-0.4326837848916275,0.014668353234647713,0.0008253696399979752
0.44,-0.5075396542901761,1.7526655410475156,-0.9629899541145724,0.1772054218267754,-0.04251765771676376,-0.00019356337482042034,-1.8287704021047957,0.5788901855158524,1.9894629377634085,0.5371728220262658,-0.14172751293454908,0.00012582638003275174,-0.5933290262705361,-0.6114585001595668,-0.7983654079537907,-0.5124938665592409,-0.03392390580196958,0.03834799523119661,0.16056433463012193,-6.8982790130064044,-3.451683060011294,-0.41392688670269834,0.018620053897774696,0.0008422399983506118
0.45,-0.525886268483256,1.7583935955109369,-0.9431763427459687,0.18253244650249573,-0.043938683912190184,-0.00019168824327261538,-1.834661419307996,0.5728054463421389,1.9813611368603659,0.532702467572033,-0.1421026195426427,0.00018751315478049551,-0.4230222205851664,-0.6835261817405907,-1.0113231800944722,-0.5632392600972724,-0.027703569306898324,0.039631951663645436,0.21032807130080955,-6.869727508326595,-3.4052803236024327,-0.3949449460038358,0.0223012829189874,0.0008538394801962472
0.46,-0.5442748866238197,1.76405359040923,-0.9234648672858486,0.18780963129008754,-0.045362610614232975,-0.00018918255869778067,-1.8388618140563704,0.5659994898293119,1.9711475460120047,0.5277184787591827,-0.14239267020427898,0.0002505684574834707,-0.25625602028613204,-0.7514537879283001,-1.2173846053113726,-0.6110320627195232,-0.021417310048904792,0.04090354842312306,0.2562862310513466,-6.832048921137992,-3.3563418056049663,-0.3758028447957177,0.02569414922435155,0.0008603188915286708
0.47000000000000003,-0.562688956632493,1.7696387300142133,-0.9038759577059009,0.19303211669542122,-0.04678859387187325,-0.0001860335279754093,-1.8414070008673276,0.5585139604983327,1.9588909579947777,0.5222485405333694,-0.14259832576402792,0.00031490307223713896,-0.09325206585334173,-0.8151812308222607,-1.4163206022614219,-0.65587384642114,-0.015016228224318695,0.04215560562944551,0.29825176352692223,-6.785899575911216,-3.3051030666714607,-0.35656197789886784,0.02878427563426019,0.0008618715836318786
0.48,-0.581112302764638,1.7751426409352187,-0.8844293333474519,0.19819532084728478,-0.048215793358965996,-0.00018222929244008653,-1.842334613214504,0.55039109210053,1.9446624358449052,0.5163204151863547,-0.14271994870927465,0.0003804235535322755,0.06579668216850619,-0.8746769977259476,-1.6079390482697689,-0.6977815092320245,-0.008454755511864684,0.043380507767592585,0.33609842507835347,-6.731956539513019,-3.251798580872984,-0.337279890916395,0.031560798812171595,0.0008587283152785325
0.49,-0.5995291449369596,1.7805593751519708,-0.8651439839225282,0.20329493882302702,-0.049643369546806884,-0.00017775897793170252,-1.8416842172321686,0.5416734216752088,1.9285349424923697,0.5099617975742227,-0.14275761878408866,0.0004470314508384002,0.22072483784730956,-0.9299365149582247,-1.7920838633570157,-0.736786438901496,-0.0016911700874256974,0.044570272429842434,0.3697586510537565,-6.67090888568862,-3.1966596885159015,-0.3180100323287427,0.03401631058128211,0.0008511518337033009
0.5,-0.6179241153005978,1.7858834103522858,-0.8460381541257747,0.20832694060089352,-0.051070481072399226,-0.00017261275221091722,-1.8394970363638117,0.5324035200314995,1.910582979675361,0.5032001777866514,-0.1427111525592345,0.0005146225720785299,0.37139319328176407,-0.9809803459377795,-1.9686338139944324,-0.7729335770478079,0.005311904673455103,0.045716625328777044,0.3992203452916265,-6.603449602810111,-3.1399128609105467,-0.29880161128241484,0.036146746667879294,0.0008394313132313912
0.51,-0.636282272199278,1.7911096477553055,-0.8271293317362866,0.21328756772318513,-0.052496282341397214,-0.00016678188921441064,-1.835815689868028,0.5226237403019555,1.8908822389488118,0.49606271222916043,-0.1425801268997988,0.0005830862996506577,0.5176870822629615,-1.0278522649815058,-2.1375010800638723,-0.8062804002201522,0.012587020977515184,0.04681108152626487,0.4245227732723598,-6.530268224472601,-3.0817782701608243,-0.27969955053697426,0.03795122965147103,0.0008238767807019074
0.52,-0.6545891116750621,1.7962334076133182,-0.8084342390646437,0.2181733287624152,-0.05391992140383254,-0.00016025883948386085,-1.8306839475784058,0.512375985801275,1.8695092671642772,0.4885761039230043,-0.14236390624353282,0.000652304973054979,0.6595145560374763,-1.0706172461828836,-2.29862962760799,-0.8368958338259676,0.02016145128856639,0.04784503265310175,0.4457517536448249,-6.452044236757687,-3.0224686493853232,-0.26074452261541714,0.03943187334564492,0.0008048136442079486
0.53,-0.6728305767030006,1.801250422593622,-0.7899688275809347,0.22298099368916346,-0.055340538139492856,-0.00015303730595981417,-1.8241465027938533,0.5017014980303814,1.8465411483709058,0.480766492674828,-0.14206167356603155,0.0007221533524046675,0.7968044224584663,-1.1093594040581518,-2.4519934282711504,-0.8648591142395432,0.028056762556031956,0.04880983979547743,0.4630343429652376,-6.369441292105499,-2.962188422831355,-0.24197305642292055,0.04059355601807661,0.0007825774269923392
0.54,-0.6909930643496106,1.8061568292466215,-0.771748275544169,0.22770758724538215,-0.05675726278812235,-0.00014511232418740197,-1.816248764660999,0.49064066529996375,1.8220552036765645,0.4726593556218697,-0.1416724648629489,0.0007924981772412201,0.9295041984241988,-1.144179919498024,-2.5975945640103926,-0.8902586136204986,0.03628842684428557,0.04969693151075566,0.47653320152674983,-6.2831022382561965,-2.9011330810724334,-0.22341770139333572,0.041443669809166465,0.000757508792356249
0.55,-0.7090634310587034,1.810949157767753,-0.7537869884419616,0.23235038143058084,-0.058169214857370595,-0.00013648034583789743,-1.8070366709092798,0.4792328521131451,1.7961287102207422,0.46427941851986826,-0.14119520692482457,0.0008631978349504531,1.0575780234000016,-1.1751949810756435,-2.735461252831949,-0.9131906411402229,0.04486547630778448,0.05049790622948913,0.4864408153708524,-6.193644951980066,-2.8394887737809893,-0.2051072365095399,0.04199185345801948,0.0007299489288885373
0.56,-0.727028996271897,1.8156243202592286,-0.7360986020414447,0.23690688721068504,-0.059575502438542524,-0.0001271393243111322,-1.7965565213193604,0.467516249147559,1.7688386400516825,0.45565057801042025,-0.14062875811719266,0.0009341021526765243,1.1810045790957082,-1.2025337680550645,-2.865645828128457,-0.9337582334340944,0.05379021137329687,0.05120463807545139,0.492973732300325,-6.101658951491608,-2.7774320912798953,-0.1870669122308432,0.04224971502684655,0.0007002353488448779
0.5700000000000001,-0.744877544590427,1.820179597693378,-0.7186959878477158,0.24137484556051347,-0.060975221956628044,-0.00011708880105214592,-1.7848548318530026,0.45552774341493324,1.7402614193728898,0.44679583498284475,-0.1399719518085518,0.0010050523258986275,1.2997750571070275,-1.2263364976334037,-2.988222700773531,-0.9520699462257891,0.06305797168429361,0.051809384888640175,0.4963669493085507,-6.007702748579115,-2.7151300059995362,-0.16931871435268525,0.04223055076664113,0.0006686981366444774
0.58,-0.7625973266799564,1.8246126257729012,-0.7015912607644049,0.2457522179508394,-0.0623674583767576,-0.00010632999109514575,-1.7719782089529375,0.4433028079523189,1.71047270833109,0.437737239032593,-0.13922364201295526,0.0010758809957000168,1.4138912125976444,-1.2467525551312961,-3.103286329592804,-0.9682386582310887,0.07265697977140739,0.052304896996661854,0.49686856658501566,-5.912301891501521,-2.6527399458833516,-0.15188164002809773,0.041949065624008144,0.0006356566696460371
0.59,-0.7801770591113523,1.8289213798750352,-0.6847957887518038,0.2500371763899754,-0.06375128588410146,-9.486586624322131e-05,-1.757973243139586,0.43087541021339487,1.679547201260115,0.4284958439135995,-0.13838275073438636,0.0011464124851924438,1.523363537965803,-1.2639387221076979,-3.210949222270485,-0.9823803976445848,0.08256826746229251,0.0526845250500978,0.49473480031312184,-5.815947642443424,-2.5904099734707198,-0.1347719775108185,0.041421100185261815,0.000601416819946838
0.6,-0.7976059233182701,1.833104159256835,-0.6683202042810715,0.254228093127829,-0.06512576904829424,-8.270123420792499e-05,-1.742886420691782,0.4182779381799781,1.6475584470732316,0.4190916737853621,-0.13744831641927768,0.0012164632035296325,1.628209585947705,-1.278057513791885,-3.3113399852555183,-0.9946132007748805,0.09276569469284102,0.05294232502680363,0.4902254238425735,-5.719096228544104,-2.528279046626802,-0.11800358256078643,0.04066336812018293,0.0005662686341433337
0.61,-0.8148735638373173,1.8371595706878487,-0.6521744173879765,0.25832353012749226,-0.06648996447673897,-6.984281197358724e-05,-1.726764051904724,0.40554114310138006,1.6145786893094967,0.409543699966323,-0.13641954284447297,0.0012858422234337745,1.7284524668583432,-1.2892756338571274,-3.404601437880733,-1.0050560116894705,0.10321606958231477,0.053073158350871896,0.48359968531628594,-5.622168602949914,-2.466477339487372,-0.10158814582035879,0.03969320745164226,0.0005304844779275692
0.62,-0.8319700859790473,1.8410865116647523,-0.6363676301361132,0.2623222284057216,-0.0678429229536788,-5.629929162157528e-05,-1.7096522141729915,0.39269409769036967,1.5806787251863388,0.39986982782293606,-0.13529584769398312,0.0013543520352011962,1.8241195396213432,-1.297762551457521,-3.4908888027434597,-1.0138276310930312,0.11387937735145748,0.05307278494108281,0.4751127300772824,-5.525550651679556,-2.405126604967911,-0.08553544677293598,0.03852834826073156,0.0004943176241187568
0.63,-0.8488860530585739,1.8448841533503177,-0.6209083523072245,0.2662230973392015,-0.0691836920538069,-4.2081396854094765e-05,-1.6915967079526577,0.379764168556531,1.545927782888871,0.39008689334798896,-0.13407691001280894,0.0014217894767480513,1.9152413110648305,-1.3036892026487839,-3.570367981488591,-1.0210457220315199,0.12470912389671707,0.052937946958642734,0.4650125386275622,-5.429593783029291,-2.344340563006102,-0.06985359109724346,0.03718669875950414,0.0004580012562080151
0.64,-0.8656124832937305,1.8485519233666945,-0.6058044181448862,0.2700252040283232,-0.07051131921054371,-2.7201928499099945e-05,-1.6726430235156668,0.36677700163766525,1.5103934162338368,0.38021066891216815,-0.13276271567368114,0.001487946835499482,2.001850552630087,-1.3072268158422236,-3.6432139224939615,-1.026825879413824,0.13565279757270687,0.05266644103316476,0.45353737581592496,-5.334615838475917,-2.2842253014469702,-0.0545492293042016,0.03568615103804033,0.00042174785464711625
0.65,-0.8821408464569633,1.852089488560637,-0.591063003987087,0.2737277628044149,-0.0718248552101116,-1.1675797360380077e-05,-1.6528363163232793,0.35375651939424857,1.4741414157799202,0.37025587760917106,-0.13135359995678914,0.001552613113871987,2.0839816382717986,-1.3085458588131005,-3.709609084621818,-1.0312807697218798,0.14665245003434624,0.052257176849452636,0.44091373441719195,-5.240902267271854,-2.2248796790529353,-0.03962775547436184,0.034044407229532406,0.000385748929804035
0.66,-0.8984630603451017,1.8554967378462104,-0.5766906466329538,0.27733012495998494,-0.07312335807338217,4.479957098418225e-06,-1.6322213888138388,0.34072492855734016,1.437235735413328,0.3602362155570012,-0.1298502863270572,0.0016155754458798302,2.161670101993429,-1.307815103008685,-3.7697419991719134,-1.0345193466299527,0.15764539390524224,0.05171022015726434,0.42735474631868947,-5.148707510905021,-2.166395722465054,-0.025093485696575837,0.03227882634226599,0.0003501750635792548
0.67,-0.9145714871093311,1.8587737652188423,-0.5626932622988035,0.2808317687746512,-0.07440589727839762,2.1246163579720115e-05,-1.610842676422937,0.3277027372631881,1.399738433415034,0.35016438146663054,-0.12825392050154422,0.001676620648130189,2.2349524082537826,-1.305200799473885,-3.8238059304579,-1.0366461475564996,0.16856501164437,0.051026818539996466,0.41305902703898395,-5.058256548080228,-2.10885901101892,-0.01094981644473364,0.030406291583377106,0.0003151762209497711
0.68,-0.9304589294666286,1.8619208530234883,-0.5490761660286968,0.2842322899020947,-0.0756715582677356,3.8601532422908704e-05,-1.5887442357297477,0.3147087804645967,1.3617096270106699,0.3400521127443483,-0.12656609893379764,0.001735536884318859,2.3038659235025496,-1.300865959623243,-3.8719976340184075,-1.0377606754012412,0.1793416664221077,0.050209408630486285,0.39820991408036177,-4.969746555663653,-2.0523490451111206,0.0028006363733801415,0.028443097645863506,0.00028088229299264267
0.6900000000000001,-0.9461186267941215,1.8649384555492534,-0.535844091434569,0.28753139217565926,-0.07691944717677698,5.652268660746752e-05,-1.565969732749295,0.3017602525765038,1.3232074594127785,0.32991022735645525,-0.1247888909041387,0.0017921154184558812,2.368449072467941,-1.2949697333211723,-3.914516210360264,-1.0379568688639331,0.18990370219291286,0.049261603891544326,0.38297505642031515,-4.88334864594352,-1.9969395953185773,0.016155916591064523,0.026404857145009973,0.00024740383405416047
0.7000000000000001,-0.9615442510897507,1.867827183013133,-0.5230012106507187,0.2907288788822114,-0.07814869571173405,7.498421089353666e-05,-1.5425624295629226,0.2888727463879531,1.284288078385033,0.3197486706552121,-0.122924853495707,0.0018461524286069125,2.4287416586390873,-1.2876668762629702,-3.9515620512817553,-1.0373226638131996,0.20017851665127306,0.04818816256666514,0.3675063110075646,-4.799209645455424,-1.942699030704281,0.029114623820461483,0.02430642516886926,0.00021483295749514768
0.71,-0.9767299027666835,1.8705877859866507,-0.5105511543968541,0.2938246445456488,-0.07935846610028431,9.395871939443988e-05,-1.5185651676932712,0.2760602973517763,1.2450056253864665,0.3095765663437434,-0.12097703885502568,0.0018974508500903214,2.484785324776609,-1.279107298450602,-3.983335875228501,-1.0359396471366846,0.21009368752342805,0.04699493594780013,0.3519399021619376,-4.717453885384944,-1.8896906257193227,0.04167582483229214,0.022161840744191003,0.00018324435669449926
0.72,-0.9916701062354785,1.873221140311092,-0.4984970320529717,0.2968186672531072,-0.08054795603309492,0.00011341694154427798,-1.4940203468794977,0.2633354324441433,1.205412234388239,0.2994022707458338,-0.11894899328106114,0.0019458222149838112,2.536624126351704,-1.2694356855967994,-4.010037847750472,-1.0338828034044791,0.21957812985258318,0.045688797658785196,0.3363968010040498,-4.6381849781054,-1.8379728458584879,0.053838978678385,0.019984283907871124,0.00015269642058453222
0.73,-1.0063598052173388,1.8757282325397557,-0.4868414516580325,0.29971100154855496,-0.08171640351164526,0.0001333278260800056,-1.4689698981860446,0.25070922286636876,1.1655580394939178,0.2892334295447801,-0.11684474785503354,0.0019910884535727603,2.5843051886498345,-1.2587911855325167,-4.031866782930803,-1.0312203535131879,0.22856325974623548,0.04427755521680754,0.32098328419317795,-4.561487558669605,-1.7875996127743745,0.06560387394528315,0.01778604700785046,0.000123232415795076
0.74,-1.0207943577240974,1.8781101459391458,-0.47558653975268406,0.30250177191019695,-0.08286309151674545,0.00015365866231129824,-1.443455250675852,0.23819133993900243,1.1254911905348435,0.27907703616419743,-0.11466880051001922,0.0020330836231292632,2.62787941695533,-1.24730715210161,-4.04901942161359,-1.0280136832644011,0.23698413858990275,0.04276984566923003,0.3057916340847062,-4.487428974007261,-1.7386205499332124,0.07697057656617642,0.015578518829607112,9.488171039010957e-05
0.75,-1.034969530635974,1.8803680470752626,-0.4647339609941501,0.3051911668200301,-0.08398735241313605,0.0001743752176132258,-1.4175172911876557,0.22579011361168888,1.0852578758533975,0.268939490983315,-0.11242608963906074,0.0020716555301927573,2.667402228802705,-1.2351109395630597,-4.061689782329518,-1.0243173586196814,0.2447805711297404,0.04117501758743192,0.29090094571366354,-4.41606090615637,-1.6910812101340111,0.08793938669585655,0.013372180148324492,6.766101710254513e-05
0.76,-1.048881493806651,1.882503173006066,-0.45428493747887233,0.3077794334261278,-0.08508857200859939,0.00019544188975663965,-1.3911963170677013,0.21351259308033868,1.0449023515277782,0.25882666060976517,-0.1101219595463329,0.0021066672143413836,2.7029342777613294,-1.2223237411504544,-4.070068580977875,-1.0201792231765037,0.2518981311262385,0.03950300211711455,0.2763780095795623,-4.347420919065667,-1.6450232863388572,0.0985108032581001,0.011176609336253834,4.1575636838024814e-05
0.77,-1.062526813626746,1.8845168190967156,-0.4442402677155586,0.3102668727908676,-0.08616619319110677,0.00021682187239932112,-1.3645319820094974,0.20136460906496376,1.004466976331373,0.24874393647398466,-0.10776211825073788,0.0021379982642681468,2.734542139591596,-1.2090604661230053,-4.0743427155394585,-1.015640572272769,0.25828908955087826,0.037764176101831914,0.2622782428917346,-4.281533921343653,-1.6004848073014937,0.10868549489719578,0.009000496704028523,1.6620685974663384e-05
0.78,-1.0759024459811672,1.8864103274702817,-0.43460034519798385,0.31265383571147254,-0.08721971907458083,0.00023847733180646196,-1.3375632354421207,0.18935083735660874,0.9639922517574738,0.23869629206048923,-0.10535258834740524,0.0021655459407140826,2.762298933827937,-1.1954296503534372,-4.074694812338077,-1.0107363970870225,0.2639132224800189,0.03596922052135665,0.24864664560529276,-4.218413539807256,-1.5575003194552224,0.11846427619748251,0.006851666318687718,-7.217706407477688e-06
0.79,-1.0890057285428638,1.8881850761031813,-0.42536517653322725,0.3149407190929881,-0.0882487155927067,0.00026036959266003014,-1.3103282561696612,0.17747486328996373,0.9235168664756612,0.22868833815155395,-0.10289965181258602,0.0021892260853568204,2.7862848568179603,-1.1815333962008423,-4.071302830617843,-1.0054956911886297,0.26873847889880853,0.03412897757581557,0.2355187611350512,-4.158063400813808,-1.516101056448643,0.12784808817037527,0.004737104115550442,-2.996124280218074e-05
0.8,-1.1018343723548065,1.8898424685715773,-0.41653439908703105,0.3171279628482581,-0.08925281349064954,0.000282459330659191,-1.2828643811942664,0.1657392468396111,0.8830777446196206,0.2187243755270023,-0.10040978979428399,0.002208973799916082,2.806587605866336,-1.1674673380936564,-4.06433972243898,-0.9999418112385161,0.2727414924320213,0.03225430973384302,0.22292162500299145,-4.1004783181650835,-1.4763150976137707,0.1368379821426687,0.0026629912021718465,-5.163835225303735e-05
0.81,-1.1143864526632745,1.8913839244523047,-0.4081072981136549,0.31921604729464237,-0.09023170967623535,0.0003047067695127271,-1.2552080308467923,0.1541455880727449,0.8427100973376103,0.20880844463842252,-0.09788961855858228,0.002224743885353614,2.8233026782532984,-1.1533206308711201,-4.0539731450989995,-0.9940928829812599,0.27590792542086096,0.030355963918168527,0.21087468780093335,-4.045645387874968,-1.4381675165281411,0.14543510630925527,0.0006347413373891993,-7.228314318441968e-05
0.8200000000000001,-1.1266603989782515,1.8928108703795066,-0.4000828233429895,0.3212054910131965,-0.09118516790478633,0.0003270718798815375,-1.2273946314977118,0.14269459272017712,0.8024474770665405,0.19894437185541602,-0.09534582285509699,0.002236511036881036,2.8365335333626103,-1.1391759584913574,-4.040365223455793,-0.9879622432983446,0.27823263857813973,0.028444443751761028,0.19939070169988812,-3.993544991319591,-1.4016805206999168,0.15364069433530206,-0.0013429583454804077,-9.193441940298268e-05
0.8300000000000001,-1.1386549843504894,1.8941247317560181,-0.39245960500279964,0.32309684913283354,-0.09211301878499545,0.00034951457784486125,-1.199458537223784,0.1313861376511623,0.7623218340189879,0.1891358119637054,-0.09278508802091201,0.0022442697963323756,2.8463916107898317,-1.1251095611986481,-4.023672359647785,-0.9815589089573411,0.2797196844771248,0.026529892449954406,0.18847656229269794,-3.944151709267938,-1.3668735832701224,0.16145605550565853,-0.003266104216751313,-0.00011063476294381133
0.84,-1.150369313869109,1.895326925116586,-0.38523596925880066,0.3248907119996136,-0.09301515910658477,0.0003719949205359382,-1.17143295186195,0.12021933605678543,0.7223635743998977,0.1793862866780069,-0.09021403215893202,0.0022480342691077,2.8529962019363317,-1.1111912796426857,-4.004045087784776,-0.9748880627519281,0.2803821281397161,0.024621988507625092,0.17813409981133374,-3.897435150049493,-1.3337635674939854,0.16888256602185642,-0.00513133139173563,-0.0001284296859855289
0.85,-1.1618028123980253,1.896418851138208,-0.3784099530598348,0.3265877041897609,-0.09389155050362315,0.00039447329671711215,-1.1433498528916455,0.1091926021621981,0.6826016198965826,0.16969921901472967,-0.08763913970383792,0.0022478376181173923,2.856474177059666,-1.09748461476348,-3.9816279712125953,-0.9679515480132608,0.2802417027847266,0.02272985586259746,0.16836081571890082,-3.8533606956812294,-1.3023648446375486,0.17592166113906044,-0.0069358680167424195,-0.00014536685279148252
0.86,-1.1729552115835506,1.8974018882912143,-0.37197931837971165,0.32818848382424937,-0.09474221747990694,0.00041691061023528927,-1.1152399185525461,0.09830371530061878,0.6430634680123144,0.1600779634488444,-0.0850666976283793,0.0022437313518177144,2.8569595738934384,-1.0840468024929093,-3.9565595399471043,-0.9607483629462337,0.2793283131788682,0.020861989697855687,0.15915056235066904,-3.8118901701750394,-1.2726894058087874,0.1825748279166208,-0.008677489204134768,-0.0001614953715400773
0.87,-1.1838265361788554,1.8982773871231395,-0.3659415658513053,0.3296937421427896,-0.0955672448343853,0.00043926845450887697,-1.0871324595304812,0.08754988319253279,0.6037752528406362,0.15052583185402688,-0.08250273544783718,0.0022357844273587723,2.854593057638611,-1.070928902489742,-3.9289722658341923,-0.953275146888453,0.2776794028365508,0.019026198520423865,0.15049416468535823,-3.772982434503917,-1.2447469681356633,0.1888435984267337,-0.01035447114794686,-0.0001768651549755379
0.88,-1.1944170897432047,1.8990466651659657,-0.36029394779225804,0.33110420329572915,-0.09636677453494236,0.00046150927643856125,-1.0590553564349425,0.07692780428260232,0.5647618059047215,0.14104611529395342,-0.0799529700557057,0.002224082192968431,2.8495212652580055,-1.0581759002224198,-3.8989925729298647,-0.9455266513806215,0.2753392044062082,0.017229562648131136,0.14237998448801506,-3.7365939128435937,-1.2185450756078264,0.194729543326508,-0.011965545882903697,-0.00019152634802999428
0.89,-1.2047274397847372,1.8997110024559163,-0.3550334806251196,0.3324206243136709,-0.09714100209768858,0.00048359652839773706,-1.031035004153241,0.06643372899505622,0.5260467167138464,0.1316421017941748,-0.07742275627462317,0.002208725195917582,2.8418960495022825,-1.0458268217572868,-3.866740880518572,-0.937496189840564,0.2723578948759351,0.015478408757140905,0.13479442800176514,-3.7026790547475326,-1.1940891948143153,0.2002342657500365,-0.013509857085389269,-0.00020552881992812324
0.9,-1.2147584024247928,1.9002716376536788,-0.3501569566979459,0.33364379521644494,-0.09789017253608508,0.0005054948072350078,-1.0030962640055694,0.05606351977625755,0.48765239271737076,0.12231709027740185,-0.0749170438396496,0.0021898278837270747,2.8318736399172866,-1.03391486060815,-3.832331676111182,-0.9291760606083059,0.2687906786744465,0.013778299709159336,0.1277223991010525,-3.6711907378760134,-1.1713828057366973,0.20535939551947247,-0.014986917254985936,-0.00021892171777550138
0.91,-1.2245110266692816,1.90072976475169,-0.3456609555142908,0.3347745392253422,-0.09861457594961405,0.0005271699795019691,-0.9752624244488857,0.04581270980113716,0.4496001183655036,0.11307440088972713,-0.0724403413528976,0.0021675172266961257,2.8196137392180947,-1.0224675159676022,-3.7958736156908497,-0.9205579391525394,0.2646968223421813,0.012134038519706847,0.12114770037726624,-3.6420806158017864,-1.1504274876954286,0.21010658370830604,-0.016396566559615765,-0.00023175307824088994
0.92,-1.2339865783782071,1.9010865303539752,-0.34154185438413626,0.3358137130451518,-0.09931454282527363,0.0005485892923963017,-0.9475551708925493,0.03567656022851713,0.4119101130154572,0.10391738198095572,-0.06999668756595823,0.002141931289433261,2.8052785738845927,-1.0115067415851615,-3.7574696484200265,-0.9116332362501094,0.26013866423134724,0.01054968502408693,0.11505338503180226,-3.6152994152702544,-1.1312230004966555,0.21447749761669077,-0.0177389335759783,-0.00024406949366027758
0.93,-1.2431865240282225,1.901343031512967,-0.3377958385096247,0.3367622071854408,-0.0999904391269332,0.0005697214701753935,-0.9199945650015393,0.02565011589917794,0.37460158745115657,0.09484941402890504,-0.06758963016595636,0.0021132177779091925,2.7890319176816263,-1.0010491044893608,-3.7172171629846975,-0.9023934199590133,0.25518062174115963,0.009028583589373973,0.10942206272339627,-3.5907971871141866,-1.1137673607866514,0.21847381623848655,-0.019014398109807488,-0.000255915828706169
0.9400000000000001,-1.2521125143650214,1.9015003141067661,-0.3344189105214821,0.33762094629359524,-0.1006426612476153,0.0005905367960430482,-0.8925990336798906,0.015728259379929277,0.3376927988142574,0.08587391081544307,-0.06522221206820919,0.0020815325867654714,2.7710381061012206,-0.9911059526824824,-3.675208152747388,-0.8928303001431903,0.2498882169999339,0.007573400065896241,0.10423616267635098,-3.5685235148226284,-1.0980569135915612,0.2220972263133272,-0.02022355623736599,-0.0002673349836692174
0.9500000000000001,-1.2607663680425505,1.901559371739435,-0.3314068994837471,0.3383908894753137,-0.10127163089819896,0.0006110071797359389,-0.8653853677529068,0.005905763266897911,0.3012011037735005,0.07699431817184806,-0.06289696505836587,0.002047038369289066,2.7514610585470973,-0.9816835908740216,-3.6315293969019535,-0.8829362751862515,0.24432713979836151,0.006186166115367264,0.09947815742272052,-3.548427684549935,-1.0840863990002245,0.2253494190651662,-0.02136718767045272,-0.00027836770038052177
0.96,-1.2691500553446116,1.9015211451461516,-0.32875546938586575,0.33907303058144733,-0.1018777900030345,0.0006311062112336419,-0.8383687302061141,-0.0038226593283386748,0.2651430097881302,0.06821411061336151,-0.06061591048355413,0.0020099031497702977,2.7304633235266995,-0.9727834632703258,-3.586262654881607,-0.8727045413013794,0.23856236407827902,0.004868329039439345,0.09513075054158912,-3.5304588201312384,-1.0718490139374743,0.22823208773204298,-0.022446225511913505,-0.0002890524068518696
0.97,-1.277265682081563,1.9013865220843973,-0.32646012714237704,0.339668398443233,-0.10246159566871908,0.0006508092011835527,-0.8115626736951634,-0.013462306175424306,0.22953422434886944,0.059536786178568085,-0.05838056656845816,0.0019702989949910783,2.7082051602803854,-0.9644023424059913,-3.5394848713606595,-0.8621292655152022,0.2326573315345022,0.0036208053029989085,0.0911770316874613,-3.5145659864511174,-1.061336468973606,0.2307469259908595,-0.023461728437096017,-0.0002994250968180855
0.98,-1.2851154737507267,1.9011563376918021,-0.3245162301213121,0.34017805704102655,-0.10302351528702158,0.0006700932087686119,-0.7849791669163563,-0.023018439259505648,0.1943897021064969,0.05096585977935679,-0.056191961830249625,0.001928400758505916,2.6848436682593935,-0.9565325229922156,-3.4912683893130985,-0.851205723956614,0.22667321301434384,0.0024440360446429388,0.08760060208091769,-3.5006982642974056,-1.0525390401223014,0.23289562737635733,-0.02441485530875471,-0.00030951924052091554
0.99,-1.2927017600439623,1.9008313752908306,-0.3229189932230811,0.34060310559455403,-0.1035640218268894,0.0006889370578512101,-0.7586286293235738,-0.03249624009716808,0.15972368982310034,0.04250485535275109,-0.05405065398678066,0.0018843849082598259,2.6605319737562514,-0.9491620197700001,-3.44168116874229,-0.8399304075153129,0.2206682555253474,0.0013380430231986207,0.08438567347987808,-3.48880479962555,-1.0454456155933738,0.23467988578580593,-0.025306842208442558,-0.00031936572326844037
