tonegas/nnodely-applications/joint_friction_estimation/dataset/train/mpc_mujoco_episode_47 copy.csv
time,q1,q2,q3,q4,q5,q6,dq1,dq2,dq3,dq4,dq5,dq6,ddq1,ddq2,ddq3,ddq4,ddq5,ddq6,tau1,tau2,tau3,tau4,tau5,tau6
0.0,0.0,1.57,-1.57,0.0,0.0,0.0,0.0,0.0,0.0,0.0,0.0,0.0,0.42131933625341694,-0.02529782668548202,12.49383405087421,5.123061233542899,0.0614854290956639,-4.111663316264114e-06,0.05906953995936259,-2.191685118352747,-2.6140504637439643,-0.5243444918117,0.005338560017812689,-0.00014222110272981868
0.01,4.191662886507916e-05,1.5700018791144763,-1.5687561680618591,0.00047765309635375107,5.151532252443891e-06,3.181381434055553e-07,0.004191662886507916,0.00018791144761856455,0.12438319381410243,0.047765309635375106,0.0005151532252443891,3.181381434055553e-05,0.4205306018024076,0.0479173645929713,12.480298246797458,4.79319744573602,0.051686578538748584,0.0031783691847004913,0.05931789058441959,-2.176455138270819,-2.6037554386002313,-0.5215498127938754,0.005357996101918165,-0.00014066825054687268
0.02,0.0001256388764599907,1.57001312370078,-1.5662718464953498,0.0014071746129023135,1.4857527397163329e-05,9.766397965977004e-07,0.008372224759491153,0.0011244586303537525,0.2484321566509288,0.09295215165485624,0.0009705995144719437,6.585016531921451e-05,0.4194647999788075,0.1246587254325433,12.447615648208632,4.534069032311436,0.045707471431358115,0.003391292931935075,0.05965995479414372,-2.1709001661199445,-2.5945683243151834,-0.5185517757825585,0.005381184946482512,-0.00013928996180267636
0.03,0.00025104140316778987,1.5700415060998039,-1.56255176298094,0.0027681480245804134,2.8750166494649367e-05,1.9585122984967343e-06,0.012540252670779913,0.002838239902388775,0.37200835144097943,0.13609734116781,0.0013892639097486037,9.818725018990338e-05,0.4182326193701002,0.20395836523716526,12.400611529750703,4.328081848938346,0.04201330733603981,0.003204216041990282,0.06009104723892581,-2.175288088946651,-2.586610370573479,-0.5153731134409436,0.005407643548358319,-0.00013810597148137388
0.04,0.0004179903329898549,1.5700950027249063,-1.5576016750688402,0.00454418665706141,4.6599514791041676e-05,3.2453304375153538e-06,0.0166948929822065,0.005349662510243767,0.4950087912099902,0.17760386324809965,0.0017849348296392308,0.00012868181390186196,0.4168890036514498,0.28498813072970297,12.342776613820968,4.161767546218478,0.039689079839341224,0.0029947335004658626,0.06060298857708521,-2.1899036125061144,-2.579996527598621,-0.5120308464261676,0.005436587955067601,-0.00013713595967861813
0.05,0.0006263455668365674,1.570181722643389,-1.551428118334552,0.006721908288698897,6.825832322999526e-05,4.821666680258591e-06,0.020835523384671248,0.008671991848264502,0.6173556734288148,0.21777216316374862,0.002165880843895358,0.0001576336242743237,0.41545390698155293,0.36702555832327716,12.276557751962851,4.024807621768716,0.0381825774059088,0.0028074176720367383,0.06118406172982179,-2.215037968734757,-2.574833271628204,-0.5085360263218036,0.005466937949760397,-0.00013639990440292006
0.06,0.0008759608617390395,1.5703098440747476,-1.5440382360288656,0.009290148397727271,9.362855758715085e-05,6.674780519851543e-06,0.0249615294902472,0.012812143135865544,0.738988230568629,0.25682401090283746,0.0025370234357155593,0.00018531138395929515,0.41392480198870796,0.449428122099464,12.203582431535782,3.9092855277208614,0.03715968392674007,0.0026396965049000354,0.061818937725494766,-2.2509780370922265,-2.5712166042609343,-0.5048934858057296,0.005497320239511251,-0.0001359179619764611
0.07,0.001166682427985727,1.5704875568593144,-1.5354396730877038,0.012239355142616268,0.00012264107941088671,8.793864857752788e-06,0.029072156624668756,0.017771278456671515,0.8598562941161845,0.2949206744888997,0.002901252182373586,0.00021190843379012447,0.4122842506817876,0.531613703810611,12.124832693732575,3.809113952048129,0.03641844498019098,0.002484708418876158,0.06248858844974168,-2.297994640350154,-2.569230094870503,-0.5011015941441244,0.0055260714007023,-0.00013571007298858348
0.08,0.001498346499617033,1.5707230094234679,-1.5256405212044493,0.015561122532959309,0.0001552433114503487,1.116942512388905e-05,0.033166407163130615,0.02354525641535582,0.9799151883254433,0.3321767390343041,0.0032602232039462,0.00023755602661362617,0.4105045128745863,0.6130457728101154,12.040780457095531,3.7195970313488687,0.035837285363601534,0.002336991309916936,0.06317020419844926,-2.356329888776745,-2.5689428806776413,-0.4971520187682973,0.0055512418668806065,-0.00013579539746091268
0.09,0.0018707761564610735,1.5710242591255645,-1.5146493045828806,0.01924782854679935,0.00019139176189807866,1.3792819878626202e-05,0.03724296568440404,0.030124970209676832,1.0991216621568616,0.3686706013840041,0.003614845044772994,0.00026233947547371514,0.4085503870494866,0.6932221617856122,11.951493526243073,3.6370964455070336,0.035343677812936125,0.002192725866737133,0.06383713529903998,-2.4261835365233724,-2.570407573018147,-0.493029496637151,0.005570602212649231,-0.00013619163022123758
0.1,0.0022837775711710964,1.5713992251405686,-1.5024749981910943,0.023292352875344154,0.00023104751425855941,1.665592625392688e-05,0.0413001414710023,0.03749660150039775,1.21743063917862,0.4044524328544802,0.003965575236048076,0.00028631063753006776,0.4063810092784264,0.7716666141925792,11.856719455817391,3.5587774177945874,0.03489515375569918,0.0020493346858492245,0.06445887885912521,-2.5076983926540604,-2.573658045163125,-0.4887116222103305,0.00558165296847166,-0.000136914220947409
0.11,0.0027371357941456224,1.5718556432532584,-1.4891270719886274,0.027687855069705832,0.0002741735350661863,1.9750896186425677e-05,0.04533582229745261,0.045641811268975575,1.334792620246692,0.43955021943616795,0.004312602080762687,0.00030949699324987973,0.40395105101583856,0.8479224929317898,11.755952790497666,3.4824161313499573,0.03446777571908677,0.001905110526754461,0.06500113357385848,-2.6009449039592356,-2.5787070996046566,-0.4841686620793517,0.005581639189111508,-0.00013797551166543868
0.12,0.0032306101554998444,1.572401022096196,-1.4746155558277705,0.03242759854726949,0.0003207331026708481,2.30699782887846e-05,0.04934743613542219,0.054537884293745856,1.4511516160856786,0.4739743477563654,0.004655956760466176,0.0003319082102358922,0.40121158313187494,0.9215481978065715,11.648489909073426,3.406254324498562,0.03404912205870292,0.0017589339317631847,0.06542594713570138,-2.7059051014517577,-2.5855440329403807,-0.4793634095677949,0.0055675709769975315,-0.0001393838011332264
0.13,0.003763929345858554,1.5730426005013902,-1.4589511206357946,0.037504809512933245,0.0003706889331741537,2.6605387340835618e-05,0.05333191903587097,0.06415784051942865,1.5664435191975992,0.5077210965663758,0.004995583050330561,0.0003535409052051019,0.398110767522679,0.9921139559458881,11.533474679911247,3.3288901119682635,0.033634000155267296,0.0016100616640646326,0.06569198179469586,-2.8224561793268483,-2.594132136027263,-0.4742510959566807,0.005536251114747777,-0.00014114234698156655
0.14,0.004336786230173195,1.5737873057426035,-1.4421451721467418,0.04291256261363402,0.00042400274467969447,3.034920845328308e-05,0.057285688431464095,0.07447052412132514,1.6805948489052707,0.5407753100700778,0.005331381150554074,0.00037438211124474647,0.39459447242421,1.059199734776848,11.409937307764686,3.2491966089510456,0.03322180919274298,0.0014579651995076937,0.06575492365080343,-2.9503540561711397,-2.6044061887937207,-0.4687793788726653,0.00548431087317157,-0.00014324832105140314
0.15,0.004948832447005225,1.5746417125349053,-1.4242099539345532,0.04864368726598724,0.00048063510088751165,3.4293326516077974e-05,0.06120462168320292,0.08544067923018363,1.7935218212188617,0.5731124652353214,0.00566323562078172,0.0003944118062794893,0.39060686710564385,1.122394088311978,11.276828001074012,3.166261877623711,0.03281490020545119,0.0013022043720805065,0.06556805995470161,-3.089217360975225,-2.6162700427952448,-0.4628884350637632,0.005408254919369473,-0.00014569174124229252
0.16,0.005599672847232889,1.5756120027338232,-1.4051586568646672,0.0546906902236195,0.0005405454354778231,3.842937406286994e-05,0.06508404002276644,0.09702901989178539,1.9051297069886028,0.6047002957632257,0.005991033459031146,0.0004136047546791965,0.3860910264863276,1.1812937884903627,11.133046063431147,3.079345202107177,0.03241753917528567,0.0011423260775447197,0.06508304571739187,-3.2385124306784654,-2.6295944745826936,-0.45651120524621824,0.005304516046506169,-0.0001484544196846256
0.17,0.006288859829330552,1.5767039257408615,-1.385005532419448,0.06104569119256664,0.0006036921952814989,4.274869248985041e-05,0.06891869820976636,0.10919230070382392,2.0153124445219386,0.6355000968947147,0.006314675980367589,0.00043193184269804723,0.38098956228101144,1.2355041113097305,10.977462033178433,2.987845830222689,0.032035235104672655,0.000977781171030312,0.06425087615022414,-3.3975403178954235,-2.6442158725321447,-0.449573931214618,0.005169520194902651,-0.0001515090232460936
0.18,0.007015887632393412,1.5779227596748469,-1.3637660079468426,0.06770036923027299,0.0006700330623725152,4.7242302893631874e-05,0.07270278030628599,0.12188339339853611,2.123952447260537,0.665467803770635,0.006634086709101629,0.00044936104037814637,0.3752452115118459,1.284639971646826,10.80901644121675,2.8912800379346066,0.031674288331652534,0.0008078548975711808,0.06302306647774636,-3.565414570329547,-2.6599241703002185,-0.4419940903662819,0.0049997611304203405,-0.0001548167046929494
0.19,0.007780186644865691,1.5792732734867778,-1.3414567943723978,0.07464591877312395,0.0007395252279832636,5.190088321774392e-05,0.07642990124722791,0.1350513811930926,2.2309213574444784,0.694554954285095,0.006949216561074835,0.000465858032411204,0.36880165931678105,1.328326931201854,10.626545550211494,2.789272796373133,0.031341471413800503,0.0006316016542839975,0.0613530652982435,-3.7410809344319698,-2.676489248416787,-0.43368798354276317,0.004791886988023478,-0.00015832998927878023
0.2,0.008581117810417338,1.5807596900298466,-1.31809600337759,0.08187301362331531,0.0008121257009240065,5.6714751039463076e-05,0.08009311655516468,0.14864165430689044,2.3360790994807843,0.7227094850191362,0.007260047294074291,0.0004813867821719161,0.3616040651250985,1.3662030548089714,10.4290158991879,2.6815376718223938,0.031043800477762007,0.0004478066757678256,0.05919783978378078,-3.9232802592356726,-2.6936307322245536,-0.42456431615560297,0.00454279342307112,-0.00016198809810978793
0.21,0.009417967184037573,1.5823856504028457,-1.293703251354905,0.08937177878070837,0.0008877916358079504,6.167384868163283e-05,0.0836849373620235,0.16259603729990996,2.4392752022684943,0.7498765157393067,0.007566593488394399,0.0004959097642169749,0.35360037324944504,1.3979201250508198,10.214946215192803,2.5678856577414386,0.030788349230541634,0.00025492049405317907,0.05651971522914104,-4.110625011830864,-2.711101718763065,-0.41454616818339,0.0042497323610069335,-0.0001657277926709084
0.22,0.010289940768420524,1.584154179391419,-1.2682998063718516,0.0971317674146327,0.0009664806746046047,6.676773350070365e-05,0.0871973584382951,0.17685289885732403,2.5403444983053345,0.7759988633924324,0.007868903879665427,0.0005093884819070818,0.34475020493991293,1.4231343142408417,9.976102519600873,2.448289324567174,0.030582225061511537,5.1055883177664185e-05,0.05328920989567181,-4.30236245668268,-2.7295771930689052,-0.40379340853977896,0.003910515180018582,-0.0001696030741607239
0.23,0.011196160505593062,1.586067648026674,-1.241909392117808,0.10514191118939957,0.0010481513504325436,7.198561415612546e-05,0.09062197371725386,0.1913468635255025,2.6390414254043746,0.801014377476687,0.008167067582793881,0.0005217880655421811,0.33572989338826187,1.440910662267811,9.172079962055655,2.3307821730757112,0.030441148170396115,-0.0001655870573231688,0.049565227941381455,-4.560042320174866,-2.824203799382416,-0.41099335592671393,0.0035316510090858937,-0.00018371873707929862
0.24,0.012135730654970173,1.5881274216957375,-1.2146108123717057,0.11338801047189569,0.001132768302090463,7.732001925356048e-05,0.09395701493771103,0.20597736690635707,2.729857974610234,0.8246099282496118,0.008461695165791943,0.0005334405097435019,0.3262997152254211,1.4493860317122311,8.135857932607083,2.179903556119484,0.03040451019282453,-0.00035992896621950266,0.04535169233348182,-4.8316415407580635,-2.949434171783529,-0.42508232455504275,0.0031140762307836052,-0.00020189111424276178
0.25,0.013107714638428716,1.5903338692977957,-1.186505755498851,0.12185194785646938,0.0012203025221367533,8.276309560199699e-05,0.09719839834585431,0.22064476020581725,2.810505687285468,0.8463937384573701,0.008753422004629016,0.0005443076348436501,0.3162319573589804,1.4482927723038348,7.088053700834779,1.9882966840391063,0.030473263213588453,-0.0005713889302347841,0.04066762814283494,-5.084911839497996,-3.0741803781546655,-0.43853426722054556,0.002659159289802795,-0.00021987980380235118
0.26,0.014111112766654318,1.5926864489022232,-1.1576973406852111,0.13051240006477782,0.001310729862909006,8.830422318767647e-05,0.10033981282256037,0.23525796044274183,2.8808414813639933,0.866045220830845,0.009042734077225275,0.0005541127585679484,0.30550000409763284,1.4382455523514273,6.050377926807447,1.7655146903804138,0.030632641917376136,-0.0008267469920678616,0.03556199023500336,-5.314107786673459,-3.1944907858349794,-0.45049467655437386,0.002170524442671644,-0.00023709987594456084
0.27,0.015144859575880661,1.59518377324402,-1.1282879404118114,0.13934570992137219,0.0014040300591910274,9.393009671971854e-05,0.1033746809226343,0.24973243417967875,2.940940027339969,0.8833309856594377,0.009330019628202136,0.0005625873532042072,0.29408804527581794,1.419894487016098,5.034031507600215,1.5204579758374432,0.03086992950421985,-0.0011282440807036664,0.030098411720152613,-5.515637106120259,-3.3079760546369226,-0.4604966858777806,0.001652745507482671,-0.00025317579781423114
0.28,0.01620782224580368,1.5978236735613107,-1.0983780301707105,0.1483266454796139,0.0015001859495823318,9.962521077647505e-05,0.1062962669923018,0.2639900317290842,2.990991024110094,0.8980935558241725,0.009615589039130434,0.000569511405675651,0.28198061865126095,1.3938784648158848,4.054644577217975,1.2607559057823234,0.031173476296809888,-0.0014740945476344747,0.024352541453145294,-5.686385634337123,-3.4117593574018086,-0.4679537962336837,0.0011111456533427241,-0.0002676660393613903
0.29,0.01729879908000516,1.6006032643801187,-1.068064612187966,0.15742908289946517,0.001599182725838887,0.00010537230101041655,0.109097683420148,0.2779590818807938,3.0313417982744477,0.9102437419851266,0.009899677625655521,0.0005747090233941507,0.26916190040481647,1.360840670675049,3.140231974621651,0.9932404368814627,0.03153126917188831,-0.0018628992006361478,0.018409018438933028,-5.823190597296325,-3.5013537884783923,-0.4718768110509257,0.0005515495195602947,-0.00027991212407397787
0.3,0.01841651798360863,1.6035190135123483,-1.037438432478444,0.16662669237746655,0.0017010070868425792,0.00011115265679605295,0.11177189036034704,0.29157491322295415,3.06261797095219,0.9197609478001388,0.010182436100369209,0.0005780355785636395,0.25561698053567267,1.3214697651308815,2.342171968790348,0.7247474055352408,0.03193007872431908,-0.0022945008143173684,0.012357197464604057,-5.922365401543701,-3.5691034361325684,-0.4704785416454823,-2.012952456317829e-05,-0.0002888279415840057
0.31,0.01955963507466317,1.6065668245312115,-1.0065789116877928,0.17589374598745175,0.0018056462061936242,0.00011694628135721319,0.11431170910545412,0.3047811018863264,3.085952079065122,0.9267053609985202,0.010463911935104507,0.0005793624561160241,0.24135108983105466,1.276588765202774,1.580733113948503,0.4634751008427598,0.03235539437920454,-0.002770371301787977,0.006277192286609806,-5.992324486543708,-3.6256142720379527,-0.4664467201594352,-0.0005982342474520229,-0.00029581235064089214
0.32,0.02072673514443392,1.609742078650346,-0.9755618802306087,0.18520532166967676,0.001913087143957764,0.00012273289562925497,0.11671000697707487,0.31752541191344597,3.1017031457184023,0.9311575682225015,0.010744093776413978,0.0005786614272041767,0.22633450512985548,1.2265840023641388,1.0499966780022907,0.21108779981128478,0.03279516300509411,-0.0032831966847365057,0.0002681728576976808,-6.01996359604416,-3.6438094927923395,-0.4532134267227509,-0.0011767845023049062,-0.00029715639228800376
0.33,0.02191632903384017,1.613039743808205,-0.9444405832495808,0.1945384567318934,0.0020233152111829647,0.0001284910336885714,0.11895938894062504,0.3297665157858848,3.112129698102793,0.9333135062216639,0.011022806722520066,0.0005758138059316436,0.2105708719148208,1.1725340549122656,0.5592968295859435,-0.020771393131203908,0.033230921781779554,-0.0038457387934261594,-0.005619767029015774,-6.023799359471723,-3.649639465133207,-0.437149388756522,-0.0017522130317985866,-0.0002963522383109495
0.34,0.023126853821941393,1.6164543969620861,-0.9132642479656647,0.2038720407503338,0.002136313508397098,0.00013419976966091044,0.12105247881012252,0.34146531538811925,3.117633528391607,0.9333584018440387,0.011299829721413326,0.0005708735972339037,0.19403933916654317,1.1146355405507171,0.3009737598172344,-0.23340311094466282,0.03365226945776412,-0.004443899241305949,-0.011299309547601027,-5.9934229769314555,-3.6165756093832138,-0.4118122075211013,-0.002319544049110611,-0.00028978268894432275
0.35000000000000003,0.02435667114518799,1.6199803110071738,-0.8820592636210353,0.21318770042218207,0.0022520613141995033,0.00013983774639432915,0.12298173232465988,0.3525914045087628,3.120498434462947,0.9315659671848286,0.01157478058024053,0.0005637976733418718,0.17671969425765632,1.0537071582056288,0.16484176876937773,-0.418183137494069,0.03404180649597566,-0.005092245831888663,-0.01673883441387438,-5.941191746391583,-3.55958086336178,-0.38082467388247376,-0.002877107454138611,-0.0002794618945263663
0.36,0.02560406518583006,1.6236114847202785,-0.8508399033380233,0.2224698912544332,0.0023705332333583745,0.00014538421507844898,0.1247394040642067,0.36311737131046984,3.1219360283011945,0.9282190832251129,0.011847191915887107,0.0005546468684119822,0.15858856338635954,0.9900258533152982,0.08949907011495228,-0.574261381685167,0.034387976496368045,-0.005785620039081018,-0.021899004549227268,-5.873730880238897,-3.4872036664871287,-0.3462813756248016,-0.0034223154390257563,-0.0002665435353571866
0.37,0.026867240469890016,1.6273416451860514,-0.8196143258132832,0.2317056441746153,0.0024916984857569096,0.00015081957201883985,0.12631752840599578,0.37301604657728454,3.1225577524740062,0.9235752920182122,0.012116525239853525,0.0005435356940390872,0.13961963374429484,0.9236080677297576,0.04488575494513092,-0.7041640583230164,0.0346788748502902,-0.006524258400933021,-0.026736477093846592,-5.794374760941742,-3.403812430500871,-0.30928040734700774,-0.003951988775115727,-0.0002516216006621019
0.38,0.02814431945674641,1.6311642394248635,-0.7883875322474265,0.2408842129215064,0.0026155200064635776,0.00015612539927312128,0.12770789868563914,0.38225942388122275,3.122679356585662,0.9178568746891104,0.012382152070666789,0.000530582725428142,0.1197835676384147,0.8543698211428807,0.016125052503529025,-0.8113767038562367,0.03489903047138143,-0.007313804929592868,-0.03120786821029005,-5.704905209443926,-3.3117313262736836,-0.2704336991017807,-0.004462651044353248,-0.00023501873868988723
0.39,0.029433339885094625,1.6350724227676583,-0.7571628435587463,0.24999672519832578,0.0027419532241044443,0.00016128426688605038,0.1289020428348215,0.3908183342794738,3.122468868868018,0.9112512276819357,0.01264332176408668,0.0005158867612929102,0.09904759728868708,0.7821987349961215,-0.004202031759746094,-0.8993342336226021,0.03502796125097879,-0.008162807024775544,-0.03527217535002772,-5.606360284072461,-3.212266905830889,-0.2301115349954378,-0.004950697374867545,-0.0002169249195086304
0.4,0.030732251828604524,1.6390590473035613,-0.7259426473652122,0.259035876068585,0.0028709444578734113,0.00016627945019607784,0.12989119435098972,0.39866245359030617,3.1220196193534138,0.9039150870259267,0.012899123376896714,0.000499518331002746,0.07737466010423102,0.706984741990733,-0.019927063594663286,-0.9710481658737964,0.035039320451657696,-0.009081245819972203,-0.038892394755166135,-5.4994218619869395,-3.1062274915203254,-0.18856591365192354,-0.005412500165751257,-0.00019746763962238972
0.41000000000000003,0.03203891437938618,1.6431166516731193,-0.694728791233366,0.26799567282826986,0.0030024288900133526,0.000171094634386192,0.13066625507816523,0.40576043695578506,3.121385613184626,0.8959796759684826,0.013148443213994125,0.00048151841901141406,0.054722861231771336,0.6286332522862675,-0.03290045430963767,-1.0290143112388468,0.034900087796796486,-0.010079865903350811,-0.04203656172767166,-5.384590174140747,-2.9941412784078603,-0.14598189848676407,-0.005844475151642051,-0.00017674142499602975
0.42,0.033351091916247605,1.6472374528081375,-0.6635227788558975,0.27687123035023553,0.0031363280627169222,0.00017571363393175198,0.13121775368614283,0.4120801135018206,3.1206012377468424,0.8875557521965667,0.013389917270356953,0.00046189995455600075,0.031045107101541868,0.5470716690156503,-0.044234807925160824,-1.0752229222300271,0.034569574487019916,-0.011169937611266202,-0.04467856481694973,-5.262286729190423,-2.8764278328605926,-0.10251813512828734,-0.006243130082740618,-0.00015483104592574676
0.43,0.03466644993515786,1.651413339840814,-0.6323258910509342,0.28565861001854764,0.0032725468352531057,0.0001801201387600573,0.1315358018910261,0.41758870326765335,3.1196887804963356,0.878737966831214,0.01362187725361835,0.0004406504828305318,0.0062875655935725324,0.4622477536849157,-0.05469632213377831,-1.1112389840969024,0.03399816677890025,-0.012363147252291887,-0.0467987625975731,-5.132893665804435,-2.7534550954495045,-0.058320124783647606,-0.006605106846499888,-0.00013181919892550387
0.44,0.035982550309016426,1.6556358699412157,-0.6011392704063201,0.2943546940299181,0.003410969711769267,0.00018429748760258235,0.13161003738585644,0.4222530100401709,3.118662064461408,0.8696084011370445,0.013842287651616113,0.0004177348842525059,-0.019609971338124567,0.3741332242507211,-0.06796550467917939,-1.1382676129654041,0.033125680940464766,-0.013671559054644566,-0.04838455663539552,-4.996826136238617,-2.625987095154609,-0.013628181202787776,-0.006927179384145542,-0.00010784706787149453
0.45,0.03729684603043646,1.6598962657864829,-0.5699642900782417,0.3029570754367914,0.003551456451500522,0.00018822848418123986,0.13142957214200332,0.4260395845267179,3.1174980328078403,0.860238140687328,0.014048673973125505,0.0003930996578657505,-0.04671245831793767,0.2827258293352671,-0.10175339828346423,-1.1573379821720338,0.031879438865473356,-0.015107251921055838,-0.04943094552745747,-4.854612916233202,-2.496705541363612,0.030853182539284853,-0.007206085366250074,-8.332046715338963e-05
0.46,0.0386066756043291,1.6641854131286893,-0.5388042996846006,0.3114639015822108,0.0036938369213757438,0.00019189530894080987,0.1309829573892643,0.4289147342206315,3.115999039364105,0.8506826145419412,0.014238046987522172,0.0003666824759569995,-0.07509243392818639,0.18802320370101352,-0.14397828311182237,-1.1699648027781666,0.030172193185144802,-0.016680950047173182,-0.049934689547117925,-4.706122513269196,-2.364270289114248,0.07537857836435365,-0.0074385392350514445,-5.8108643706914046e-05
0.47000000000000003,0.039909256936427794,1.6684938651780936,-0.5076634480555816,0.31987380963660056,0.003837904740311242,0.0001952792709340901,0.13025813320986956,0.43084520494043,3.1140851629019015,0.8409908054389756,0.014406781893549816,0.0003383961993280222,-0.10483066911019943,0.09008524274210548,-0.1779196063547176,-1.1767777154736725,0.027897758529802003,-0.018405040355968186,-0.04990229566911749,-4.551501515891375,-2.226696559017929,0.12036778738545167,-0.007621891378844555,-3.1997841308904635e-05
0.48,0.041201680656035744,1.672811852552836,-0.47654504475950304,0.3281859501723858,0.003983409581716016,0.00019836059218465176,0.12924237196079513,0.4317987374742288,3.111840329607857,0.8312140535785218,0.014550484140477413,0.0003081321250561644,-0.1360140623257825,-0.010970207380234683,-0.20584692966953747,-1.1775343135351521,0.024928668730089365,-0.020291680891367278,-0.04935265493400387,-4.391323472129496,-2.084557529241657,0.16564041345161212,-0.007754083610010386,-5.122404330406703e-06
0.49,0.04248090309535423,1.6771292947529264,-0.4454517824851401,0.3363999986709284,0.004130048181942085,0.0002011183809083096,0.12792224393184845,0.4317442200090373,3.109326227436293,0.8214048498542625,0.014663860022606976,0.00027577887236578515,-0.16231995972724286,-0.09054473073197299,-3.690357755762859,-1.115004503615081,0.021079936574867453,-0.02234850282412132,-0.04832002291336407,-4.223234530075228,-2.405249397384356,0.09913963486698242,-0.0077603766844274264,-4.111198355791515e-05
0.5,0.04374435612095385,1.6814378427041612,-0.4147258297149417,0.344506649157877,0.0042775049834853016,0.0002035495920090785,0.12634530255996157,0.43085479512348207,3.0725952770198384,0.8106650486948604,0.014745680154321605,0.00024312111007688893,-0.1881071400797531,-0.16671211199374958,-7.223386328842149,-1.1778231745034482,0.016596030700543385,-0.024171990191647286,-0.046284810987081676,-4.009484902935359,-2.7362285119082155,0.026375561898359268,-0.00761382565039759,-7.937858435251073e-05
0.51,0.044989530284163484,1.6857297008984409,-0.38471474964890034,0.35248641694612337,0.004425424268365287,0.00020564623921772427,0.12451741632096328,0.42918581942797907,3.0011080066041367,0.7979767788246358,0.014791928487998606,0.00020966472086457748,-0.21473323399391073,-0.2415528126690588,-9.882061711495508,-1.3544274413380109,0.011165033932882207,-0.02587142177903967,-0.04338684824613438,-3.7636924151543525,-2.954224698196164,-0.023317197346907292,-0.007334881596810213,-0.00010339531267426629
0.52,0.04621384526308808,1.6899974686278054,-0.3556806801758742,0.360314197956867,0.004573375706865125,0.00020739036786324592,0.12243149789246012,0.4267767729364449,2.903406947302617,0.7827781010743614,0.014795143849983766,0.00017441286455216508,-0.24186526315417498,-0.31115810765434865,-11.826539928377173,-1.5869950957765369,0.004485123586758677,-0.02742219898794973,-0.039928244016702405,-3.5046423047952397,-3.0803650464193,-0.05423748554905172,-0.006949771141786442,-0.00011598860736517766
0.53,0.04741468263937568,1.6942344270562948,-0.3278157848531977,0.3679632229925307,0.0047208364540689,0.00020875919637849735,0.12008373762875912,0.42369584284893896,2.7864895322676473,0.7649025035663743,0.014746074720377485,0.0001368828515251425,-0.2691125949775243,-0.37304051550596196,-13.188765679401266,-1.8373462708238293,-0.0035448210139809033,-0.028700738489979782,-0.03616281257429489,-3.246257847622595,-3.132428873974053,-0.06993145874818368,-0.006483213411040873,-0.00011950380219223146
0.54,0.048589424738528494,1.698434711439566,-0.3012550381685017,0.37540757537211994,0.004867186901701563,0.00020973040906700725,0.11747420991528172,0.4200284383271053,2.656074668469599,0.7444352379589244,0.01463504476326638,9.712126885099125e-05,-0.29602117709888165,-0.4258295715417369,-14.077928349352623,-2.0811621093050263,-0.01286071233693814,-0.02959105951174501,-0.03229511493923302,-2.998259942299736,-3.125367988363016,-0.07334406236600055,-0.005958015390539211,-0.00011588861026593799
0.55,0.04973549977665203,1.7025933932485087,-0.276086848331605,0.3826237053963197,0.0050117179100197095,0.00021028631029557492,0.11460750381235361,0.4158681808942643,2.516818983689666,0.7216130024199725,0.014453100831814671,5.559012285676739e-05,-0.32207853147265014,-0.4690122088822443,-14.584727619856482,-2.3037371543157334,-0.023257959698503305,-0.03000406499308017,-0.028482635028167995,-2.766934480167193,-3.0717337173771124,-0.06693285649068659,-0.005394758060523019,-0.00010675869826858744
0.56,0.050850432493686815,1.706706493544632,-0.25236191263680047,0.3895912586513997,0.005153648004155141,0.00021041680428121568,0.11149327170347849,0.41131002961233776,2.372493569480454,0.6967553255080048,0.014193009413543116,1.3049398564077043e-05,-0.3467295652472365,-0.5027115976227743,-14.784708759797487,-2.496905502914359,-0.034413744253709855,-0.029883316030508977,-0.024840179064595066,-2.555888767280054,-2.982031340550854,-0.052754781310990984,-0.004811589787519288,-9.345036069430425e-05
0.5700000000000001,0.051931898412195976,1.710770945974851,-0.23010061582501168,0.3962934463135827,0.005292149026147891,0.00021012129732999717,0.10814659185091581,0.4064452430218964,2.22612968117888,0.6702187662183026,0.013850102199274992,-2.9550695121851552e-05,-0.3694020869211146,-0.5274999993579874,-14.740887859728383,-2.6568532298323007,-0.045912825296026416,-0.0292078225630934,-0.021445592151480983,-2.366732237809204,-2.865018398204163,-0.032533534630345085,-0.00422412328591885,-7.706379441409141e-05
0.58,0.05297777895786348,1.7147845250420826,-0.2092992172805867,0.40271711870579463,0.005426378332239627,0.00020940960883083265,0.10458805456675052,0.4013579067231637,2.080139854442498,0.6423672392211943,0.013422930609173676,-7.116884991645252e-05,-0.3895396308630211,-0.5442427019254754,-14.505838497126572,-2.782589762129554,-0.057279683816548715,-0.02799262973240757,-0.018346019979468473,-2.1996523301250877,-2.727958709888277,-0.007712898215343489,-0.003645423193548253,-5.849931934692843e-05
0.59,0.05398621405006655,1.7187457527500472,-0.18993502383448913,0.4088526537651449,0.005555515058036224,0.000208301973462763,0.1008435092203072,0.39612277079645175,1.936419344609759,0.6135535059350253,0.012913672579659634,-0.00011076353680696644,-0.4066379381198972,-0.5539709195710238,-14.12337055225883,-2.874900365706253,-0.06801679650483261,-0.026286723991471028,-0.015564130641507364,-2.0538788477469967,-2.576840573828439,0.020500261042326273,-0.0030860688748507556,-3.848813878815061e-05
0.6,0.05495564854148906,1.722653794271055,-0.17197070768007722,0.41469373601810194,0.005678797471851135,0.000206828237270255,0.09694344914225074,0.3908041521007732,1.79643161544119,0.5841082252957016,0.012328241381491092,-0.00014737361925079763,-0.4202805709724046,-0.5577816912288722,-13.629899310864886,-2.9356426317475623,-0.07764628819232408,-0.024168019305376154,-0.013103899897831039,-1.9280432428800722,-2.4165652902142796,0.05110069729164618,-0.0025542780775491426,-1.7618739233401875e-05
0.61,0.0558848691253055,1.7265083509601298,-0.15535790047002895,0.4202370760182911,0.005795558192113917,0.00020502638708934826,0.09292205838164398,0.38545566890749516,1.661280721004825,0.5543340000189155,0.011676072026278246,-0.00018018501809067468,-0.4301689702460185,-0.5567625108664194,-13.055577514716692,-2.967283261380885,-0.08575049080493113,-0.021735733218298137,-0.010955725311447105,-1.820445980100593,-2.2511105610586,0.0832553504357238,-0.002056079093009129,3.6403030088588207e-06
0.62,0.056773029026330836,1.730309556888494,-0.14004017274461603,0.4254821024230806,0.005905254182138299,0.00020294059268988543,0.08881599010253387,0.3801205928364258,1.531772772541293,0.5245026404789529,0.010969599002438149,-0.0002085794399462817,-0.43614294653553803,-0.5519379511962451,-12.42524351902068,-2.9725985523381127,-0.09200634969113156,-0.019101007527094094,-0.0091007601682543,-1.7292476738883986,-2.0836722447633718,0.1162784580010306,-0.0015955206753563976,2.4920568733234524e-05
0.63,0.05761965884986761,1.7340578831536533,-0.1259554906861014,0.43043064689378085,0.006007488983634639,0.00020061897003465079,0.08466298235367772,0.37483262651592963,1.4084682058514617,0.49485444707002646,0.010223480149634066,-0.00023216226552346504,-0.4381890412806275,-0.5442351193377442,-11.759224131908752,-2.9544835616119833,-0.09620925924227638,-0.016376991772672378,-0.007514447427749878,-1.652599664945997,-1.9167872227019351,0.14961027882038547,-0.0011749096345763793,4.5936710199422954e-05
0.64,0.05842466321045202,1.7377540525898878,-0.11303822849718702,0.43508663414834725,0.006102025537851283,0.00019811128197655048,0.08050043605844108,0.3696169436234493,1.2917262188914382,0.4655987254566405,0.009453655421664384,-0.00025076880581003096,-0.43643609284693624,-0.5344645466706104,-11.074020082849207,-2.915831633872525,-0.09828357534944687,-0.013669689378958738,-0.0061692927780554315,-1.5887282486872312,-1.7524396517302832,0.18279875526972766,-0.0007950658937970656,6.6471744533271e-05
0.65,0.05918830400332474,1.741398966177073,-0.10122080351967,0.43945578449676753,0.0061887890202915515,0.00019546677546177188,0.07636407928727203,0.36449135871852006,1.1817424977517024,0.4369150348420281,0.008676348244026818,-0.0002644506514778591,-0.43113926557202475,-0.5233131138809364,-10.382894525938918,-2.859458526577537,-0.09827927730396419,-0.011070658300592617,-0.005036951320398085,-1.5359846645036996,-1.5921525476243816,0.21548362195433324,-0.00045558442521682343,8.63644927375852e-05
0.66,0.05991117223067084,1.744993641427534,-0.0904349918784666,0.44354533309235866,0.006267860195487778,0.00019273231458127895,0.0722868227346103,0.35946752504609913,1.0785811641203407,0.4089548595591147,0.007907117519622617,-0.00027344608804929225,-0.42265533172161074,-0.5113458281584056,-9.69637977213636,-2.788054429229284,-0.09635645481282182,-0.008652240084151885,-0.0040897209762923836,-1.492870685037282,-1.43706641225163,0.2473825926399683,-0.00015509344412453178,0.00010549895538022151
0.67,0.06059415102270143,1.7485391622985154,-0.08061297450002569,0.44736376825039853,0.006339460708908715,0.00018995091454682237,0.06829787920305853,0.3545520870981454,0.9822017378440906,0.3818435158039892,0.007160051342093669,-0.00027814000344565713,-0.411412862492728,-0.4990136463840029,-9.022713912251326,-2.704153463904163,-0.09276096373587625,-0.006465493764537533,-0.0033015424579189616,-1.4580474963432923,-1.2880064414863361,0.2782793414421736,0.00010850104695778954,0.000123795422238484
0.68,0.061238372844434834,1.7520366396951392,-0.07168815650536618,0.45092059004678425,0.006403932352628657,0.0001871607231674962,0.06442218217334036,0.3497477396623944,0.892481799465951,0.3556821796385699,0.006447164371994316,-0.00027901913793261664,-0.3978811100145136,-0.48666500645360455,-8.368216635996005,-2.6101144221618355,-0.08779542590150212,-0.00454056507469236,-0.0026486042270788754,-1.4303336775286029,-1.145539707765364,0.3080130511068558,0.00033779270270039826,0.00014120311175678618
0.6900000000000001,0.06184517386895762,1.755487181350805,-0.06359579701153142,0.454226089704768,0.006461712620728434,0.00018439444332119824,0.06068010245227832,0.3450541655665799,0.8092359493834751,0.3305499657983769,0.005778026809977599,-0.00027662798462979447,-0.38254085954480255,-0.47455922399227113,-7.737611991066179,-2.5081091170388348,-0.08178970646250046,-0.002888917535037061,-0.0021096439187552932,-1.408696525816844,-1.0100235874526482,0.3364693393200454,0.0005356803514890448,0.00015769413516231173
0.7000000000000001,0.062416048197836915,1.758891869752616,-0.056273481154564674,0.45729114981609553,0.006513308829834173,0.000181679149050373,0.05708743288793009,0.34046884018107626,0.7322315856966751,0.30650601113275233,0.005159620910573939,-0.00027152942708252354,-0.36585962905172925,-0.4628803844928058,-7.134304663860405,-2.4001162871965924,-0.0750742693751994,-0.001506722309255859,-0.0016660272047603285,-1.3922397317939386,-0.8816465762059438,0.363572403155811,0.0007052050685372097,0.00017325858633268106
0.71,0.06295260411851346,1.762251746775221,-0.0496614615678627,0.4601270651136313,0.006559272790527092,0.00017903642231274157,0.053655592067654634,0.3359877022605027,0.6612019586701978,0.28359152975357166,0.0045963960692918734,-0.00026427267376314507,-0.34827255081088926,-0.4517507772037128,-6.56061567601725,-2.2879198459512224,-0.06795868886189335,-0.00037872863059790207,-0.0013016726625365875,-1.3801894518631441,-0.7604625373314088,0.3892782381167026,0.0008494197389780402,0.00018790056876750603
0.72,0.06345652400951697,1.7655678037600067,-0.04370289254965754,0.4627453832570453,0.006600177571734396,0.0001764827267031618,0.0503919891003513,0.33160569847857213,0.5958569018205159,0.26183181434140357,0.004090478120730414,-0.000255369560957976,-0.3301693047875952,-0.44124326293016203,-6.017982688542862,-2.1731107043234097,-0.060716391811366406,0.0005179343376308099,-0.0010028781952535863,-1.371880115935686,-0.6464193101233047,0.41356880564766574,0.0009712898539995087,0.00020163499075881918
0.73,0.06392952892447763,1.7688409758972794,-0.03834397666570074,0.4651577648837072,0.006636597397709255,0.00017402993588229717,0.047300491496066084,0.32731721372727507,0.5358915883956805,0.2412381626661899,0.0036419825974858115,-0.0002452790820864644,-0.3118867255485904,-0.4313922462523881,-5.507128125628893,-2.0570916049642953,-0.053575661700371056,0.001210397806143737,-0.0007580918768480857,-1.3667408341611011,-0.5393823113785927,0.43644707968740915,0.0010736226142026477,0.0002144850078654672
0.74,0.06437334836724636,1.7720721399123394,-0.03353404036398539,0.46737586200686876,0.0066690912336288795,0.00017168594415464353,0.044381944276872566,0.3231164015060025,0.48099363017153507,0.22180971231615645,0.0032493835919624923,-0.00023439917276536423,-0.29370621192455165,-0.42220308059806516,-5.028206515402097,-1.9410843292780875,-0.04671618253818609,0.0017273350636998197,-0.0005576596315592501,-1.3642826733537976,-0.4391548020968373,0.45793265007690853,0.0011590206086501656,0.00022647986217952116
0.75,0.06478969534940007,1.7752621142120335,-0.029225553131722835,0.469411213690521,0.006698190203639525,0.0001694553008044802,0.0416346982153715,0.3189974299694119,0.4308487232262556,0.20353516836522423,0.002909897001064572,-0.0002230643350163341,-0.27585486882009536,-0.4136599672336729,-4.580919727033806,-1.8261391747676203,-0.040269971489120086,0.0020969416435729915,-0.00039357028644972135,-1.3640874268797647,-0.34549348705280936,0.4780582454394554,0.0012298553973024708,0.00023765328293638515
0.76,0.06518024650790195,1.7784116607890645,-0.025374101567864918,0.47127515783311213,0.006724388670687756,0.0001673398251646816,0.03905511585018756,0.3149546577030971,0.38514515638579166,0.186394414259113,0.002619846704823037,-0.0002115475639798592,-0.25850924466498143,-0.4057323736613999,-4.164623565565622,-1.7131456685185302,-0.03432541106877271,0.00234556979485967,-0.0002592144336084844,-1.3657974043058572,-0.258122627284732,0.49686648359673835,0.001288257089063167,0.0002480420145638422
0.77,0.06554662685379614,1.781521488323163,-0.021938328893723755,0.4729787578019111,0.006748138595938432,0.00016533917386149532,0.036638034589418125,0.310982753409836,0.3435772674141162,0.1703599968798971,0.0023749925250676597,-0.00020006513031862886,-0.24180069095136825,-0.39838021041292015,-3.778376651934433,-1.602844769479912,-0.02893315476792694,0.0024969189694790117,-0.00014915986300327006,-1.3691076079304079,-0.1767403294967499,0.5144083531108099,0.0013361146740004173,0.0002576853236409913
0.78,0.06589039860326502,1.7845922560188276,-0.018879844750573374,0.47453274273151214,0.006769846676833516,0.00016345134373578694,0.03437717494688821,0.3070767695664777,0.305848414315038,0.15539849296010297,0.002170808089508407,-0.0001887830125708382,-0.22582134466702164,-0.3915573165464797,-3.4213138325207493,-1.4958390989683021,-0.024112888276894163,0.0025716568632574432,-5.8988060767934574e-05,-1.3737498787789841,-0.10106722235504562,0.530731810877784,0.0013750932892239872,0.00026661874954100656
0.79,0.06621305350791304,1.7876245779860291,-0.0161631420382619,0.4759474592736977,0.0067898737233587,0.0001616731045590697,0.03226549046480207,0.3032321967201449,0.2716702712311477,0.14147165421855823,0.0020027046525184057,-0.00017782391767172544,-0.21062956697080795,-0.38520995736233415,-3.093919314892512,-1.3926089065270961,-0.01986009590837552,0.0025873792978043653,1.4755720623560204e-05,-1.3794527737069078,-0.031013851921687763,0.5458428039864501,0.001406683487435655,0.00027485183408869823
0.8,0.06651600816575709,1.790619028752483,-0.013755646047042377,0.4772328288173965,0.006808535758968574,0.00016000036502163617,0.030295465784405298,0.2994450766453874,0.24074959912195232,0.12853695436987997,0.0018662035609873983,-0.0001672739537433525,-0.19625944041612362,-0.37928895324411577,-2.791489315530575,-1.2936084090982893,-0.01615205978333969,0.0025588373660592467,7.540702814801386e-05,-1.3861163156001628,0.03417461069142863,0.5599031832413388,0.0014320544086803746,0.0002824831056094982
0.81,0.066800601470065,1.7935761465749571,-0.011627253350600254,0.478398325863158,0.006826106309551347,0.00015842845251689126,0.02845933043079177,0.2957117822474071,0.2128392696442123,0.11654970457615071,0.001757055058277381,-0.00015719125047449102,-0.18268248414825985,-0.37358102563282447,-2.577532533729835,-1.1987091136517405,-0.012954939563199881,0.002497826568278322,0.0001187095440649792,-1.3917876540479461,0.08629582187329843,0.5710020979148875,0.0014539939945347673,0.00028840834554429634
0.8200000000000001,0.06706809739715854,1.7964964755758641,-0.009756576535081041,0.47945275723225583,0.00684282021802,0.00015695256008215128,0.02674959270935377,0.2920329000906909,0.18706768155192133,0.10544313690978066,0.001671390846865245,-0.00014758924347399745,-0.16991986475826013,-0.36793270739511336,-2.386443506051287,-1.1106673951955353,-0.010213597414307891,0.0024180990219608567,0.00015401957793520482,-1.3980714000362773,0.13392234471642933,0.5811091170299681,0.0014720824664967447,0.0002937734226668422
0.8300000000000001,0.06731968370704414,1.7993805582838918,-0.008124502604534851,0.4804042677565827,0.006858877324777861,0.00015556762610449343,0.025158630988559923,0.28840827080277226,0.16320739305461898,0.09515105243268561,0.001605710675786106,-0.00013849339776578662,-0.1579643664304714,-0.3623664675331384,-2.194007424770018,-1.0293296109506107,-0.00788208209088885,0.0023236920846242126,0.00018518087645137172,-1.4055125375304887,0.18032568401778648,0.5909763607213179,0.0014864168482418478,0.00029901624539906103
0.84,0.06755647298096802,1.8022289254081623,-0.006711811075406698,0.481260441185485,0.006874445962651781,0.00015426836532585712,0.023678927392388433,0.2848367124270581,0.14126915291281536,0.08561734289023072,0.0015568637873920352,-0.0001299260778636306,-0.1467923636229842,-0.35695187169851056,-1.9978795039960475,-0.9536254202095211,-0.005918801446556432,0.002218352443914884,0.00021326401451873646,-1.4140763321653087,0.22595420234008667,0.6007050777668961,0.001497444526495273,0.0003041964401951244
0.85,0.06777950500533288,1.8050420885980536,-0.005498939388281976,0.4820283989928517,0.006889666352970542,0.00015304940919358143,0.02230320243648599,0.2813163189891229,0.12128716871247222,0.0767957807366737,0.0015220390318760435,-0.00012189561322757016,-0.13637120355629342,-0.35174337008923173,-1.804294426528408,-0.8825342230892268,-0.004283688384515531,0.0021061629578486146,0.00023826803702097586,-1.4234926457667412,0.27013019073357075,0.6101356466836613,0.0015057665198209707,0.0003092219584617973
0.86,0.0679897498982168,1.8078205375842047,-0.004466592196973668,0.4827148637959887,0.006904653932012938,0.00015190546341167964,0.02102448928839199,0.2778448986151118,0.10323471913083067,0.06864648031369897,0.0014987579042396678,-0.0001143945781901795,-0.1266655215269267,-0.3467696945891419,-1.61902948650099,-0.815425274014995,-0.002937363679541262,0.001990969086705846,0.00026015293400870023,-1.4335022787581864,0.31221526617401685,0.6191166283274168,0.0015119462036996905,0.00031400535498086286
0.87,0.0681881114459623,1.8105647395649065,-0.003596307114433592,0.48332619151432177,0.006919502557638379,0.00015083142659283143,0.01983615477455147,0.2744201980701797,0.08702850825400762,0.061132771833303595,0.0014848625625441,-0.00010740368188482069,-0.11763926701404623,-0.3420409367665248,-1.4355247975318663,-0.751988228033003,-0.0018418645537093895,0.0018758394926556288,0.00028014856815377774,-1.4441881104491252,0.3531690565120187,0.6278661494392698,0.0015161803229170223,0.00031867282619154144
0.88,0.06837543053048337,1.8132751361385833,-0.002869808440772877,0.48386842135664415,0.006934287408747079,0.00014982242823703725,0.018731908452106826,0.27103965736767044,0.07264986736607147,0.05422298423223972,0.0014784851108699502,-0.00010089983557941692,-0.10925378581965697,-0.33758085900451223,-1.2611046212917945,-0.6917117576861735,-0.0009633634460956171,0.0017624634873377454,0.0002978231351327925,-1.4552570011364188,0.39213996581636623,0.6361836925663453,0.0015189626533318175,0.0003231079122197683
0.89,0.06855248870436259,1.8159521436785837,-0.0022697254867108455,0.4843472923134967,0.006949067711623653,0.00014887389981141973,0.017705817387921853,0.2677007540000431,0.06000829540620316,0.04788709568525604,0.0014780302876574761,-9.48528425617525e-05,-0.1014703677469905,-0.3333835137101192,-1.094270198733996,-0.634429409650255,-0.00026990019599582027,0.0016526615312704857,0.00031368962599308595,-1.4666596975443473,0.42941048009896005,0.6441308517789639,0.0015205329403838337,0.0003273456747432146
0.9,0.06872001179563893,1.8185961534955093,-0.0017794445420952838,0.48476826260122047,0.006963889179571584,0.00014798159150018669,0.016752309127633428,0.26440098169256215,0.04902809446155616,0.042097028772377844,0.001482146794793111,-8.923083112330413e-05,-0.09424853391138752,-0.329436564965716,-0.945803376724101,-0.579927950525204,0.0002669212416160846,0.0015474009248964485,0.00032685646926040174,-1.4780129543938523,0.46365052612605595,0.6513964321959272,0.0015214220690648035,0.0003312051302850769
0.91,0.06887867360527077,1.8212075368277172,-0.001384168318466065,0.48513648842699364,0.006978786309261387,0.00014714161690362247,0.01586618096318395,0.2611383332207796,0.03952762236292187,0.03682258257731781,0.0014897129689802745,-8.399745965642112e-05,-0.0875576477916226,-0.3257257852293972,-0.7899322829385524,-0.5284923076701902,0.0006741533290934437,0.0014478497563159554,0.00034034389335383324,-1.4899495942411758,0.49828926069719326,0.658770026186569,0.0015211556660928193,0.00033514302220020764
0.92,0.06902909885029235,1.8237866373254286,-0.0010683826349480493,0.48545689350915955,0.006993784106587547,0.00014635034692696172,0.015042524502158846,0.2579100497711307,0.03157856835180156,0.032040508216591976,0.0014997797326159966,-7.912699766607482e-05,-0.0813545437327225,-0.32227016079730814,-0.6600939730078114,-0.4793180589677284,0.0009711700382655231,0.0013530897787967754,0.00035064528471466175,-1.5014751637427601,0.5290519651831084,0.6652609313166868,0.0015207693250096593,0.00033858419783453517
0.93,0.06917186699478167,1.826333780985379,-0.0008191415531979087,0.485734115554704,0.0070088999674058974,0.000145604536584743,0.014276814448932723,0.2547143659950359,0.024924108175014066,0.02772220455444907,0.0015115860818350497,-7.458103422187303e-05,-0.07560748977619132,-0.3190052233105688,-0.5436073144175737,-0.43301168756222963,0.0011802633354509977,0.0012649040461132494,0.00035934495428907793,-1.5128649251556594,0.5576222497847649,0.6712548154007797,0.0015201183394787424,0.0003417513101155681
0.9400000000000001,0.06930751522496964,1.8288492778729188,-0.0006248225609815437,0.4859725009978228,0.007024145166261719,0.00014490124808146915,0.013564823018797328,0.25154968875399214,0.019431899221636496,0.02383854431187767,0.001524519885582083,-7.032885032738565e-05,-0.0702834950555678,-0.3159032868492501,-0.4407143276742965,-0.3896073923721898,0.001318633641263266,0.0011827227124165483,0.0003665387906833557,-1.5240512090634064,0.584012792189674,0.6767522941071257,0.0015193429301013635,0.0003446437419046077
0.9500000000000001,0.06943654148320788,1.8313334249190028,-0.0004751504870704072,0.4861761011996967,0.0070395261295568765,0.0001442378179325387,0.012902625823823755,0.24841470460838444,0.014967207391113648,0.02036002018738906,0.0015380963295158212,-6.634301489304403e-05,-0.06535143271502243,-0.31293575622063424,-0.3520049684079778,-0.3491439032010297,0.001400988895726072,0.0011063186001936164,0.0003722579487452525,-1.5349635209262287,0.6081834713669916,0.6817421011962818,0.0015185731455354702,0.00034725402158602406
0.96,0.06955940732752722,1.8337865089235892,-0.00036125565090192415,0.48634866700707935,0.00705504552175234,0.0001436118307443223,0.012286584431934292,0.245308400458651,0.011389483616848307,0.017256580738269314,0.0015519392195464266,-6.259871882164121e-05,-0.06078203142570009,-0.31007177870266045,-0.2775087129254677,-0.3116759968860814,0.0014398681758478835,0.001035470623032767,0.0003765765743251524,-1.5455535696452187,0.6301595662691912,0.6862284059677961,0.0015179075872963535,0.0003495836601292437
0.97,0.0696765406230884,1.8362088095827633,-0.00027567695795838187,0.4864936439946682,0.00707070315894396,0.00014302109076782247,0.011713329556117673,0.2422300659174207,0.008557869294354231,0.014497698758883664,0.0015657637191619348,-5.907399764998239e-05,-0.056547871942453594,-0.30728041613547347,-0.21619440318144734,-0.27725188475481377,0.0014458073568673641,0.0009698844717607189,0.00037966909986388286,-1.5558093566887543,0.6500986620572401,0.6902463135630972,0.001517400036154256,0.00035165214076044127
0.98,0.06978833806880676,1.8386006021665502,-0.00021226067343446298,0.48661417211987545,0.0070864967582559306,0.00014246358991017226,0.011179744571836328,0.2391792583786823,0.006341628452391888,0.012052812520723167,0.0015793599311970847,-5.5750085765019754e-05,-0.052623380549311614,-0.3045345378822163,-0.16670202099610323,-0.2458761559213547,0.0014274312984379981,0.0009091819162398108,0.00038172888257405075,-1.5657350031669632,0.6681974936029665,0.6938403334284559,0.0015170794364010285,0.0003534844610808571
0.99,0.06989516755668576,1.8409621597330668,-0.00016602669831471044,0.4867130902665758,0.0071024225413391885,0.00014193747715397838,0.010682948787900836,0.2361557566516529,0.0046233975119752534,0.009891814670030339,0.0015925783083257795,-5.2611275619388256e-05,-0.04898476228856642,-0.301811654495498,-0.12718701105626762,-0.21750437757490532,0.0013916707105754104,0.0008529599150468772,0.00038298841224946776,-1.5753544999054863,0.684713527871888,0.6970693411644243,0.0015169470592142575,0.0003551140086319704
