tonegas/nnodely-applications/joint_friction_estimation/dataset/train/mpc_mujoco_episode_15.csv
time,q1,q2,q3,q4,q5,q6,dq1,dq2,dq3,dq4,dq5,dq6,ddq1,ddq2,ddq3,ddq4,ddq5,ddq6,tau1,tau2,tau3,tau4,tau5,tau6
0.0,0.0,1.57,-1.57,0.0,0.0,0.0,0.0,0.0,0.0,0.0,0.0,0.0,-11.151143715452465,6.501642714934989,7.2506771091179125,2.575070725269647,-1.5863485949755116,-1.7173159747585487e-06,-1.553993996018779,0.09136592237412966,-2.2931016758863216,-0.5083045079899116,-0.14016397896868854,-0.0019322692920448036
0.01,-0.0011091617008192147,1.570650591422257,-1.5692766978193469,0.00024213771034994026,-0.00013487417726016488,-1.248549346537331e-06,-0.11091617008192146,0.06505914222570455,0.0723302180653192,0.024213771034994027,-0.013487417726016488,-0.0001248549346537331,-11.059172285031172,6.457991158286355,7.096573261685787,2.3649525689755535,-1.3299985222852442,-0.012405403993012598,-1.555631629018351,0.026305933219765265,-2.3248662394511492,-0.5156228319936634,-0.1400458127226437,-0.0019290533626232103
0.02,-0.0033175135778125584,1.5719474620985097,-1.5678463917179104,0.00070912232854403,-0.0003887132313156094,-3.7940827665589263e-06,-0.22083518769933436,0.1296870676252509,0.14303061014364832,0.04669846181940898,-0.025383905405544454,-0.00025455334200215953,-10.950653843321614,6.406317293938855,6.9196788127852376,2.186431289118218,-1.1670199079836863,-0.012625103032584128,-1.5652737632307827,-0.06484125401576257,-2.3618029171380113,-0.5235389906008492,-0.14034771595495363,-0.0019228126719443195
0.03,-0.006613789367769258,1.5738854640538693,-1.5657273894216543,0.0013859766635756332,-0.0007511629553209865,-7.545938516080719e-06,-0.32962757899566997,0.19380019553596478,0.21190022962561322,0.06768543350316031,-0.03624497240053771,-0.00037518557495217934,-10.828200316132591,6.345338300600607,6.7224997992970845,2.030928063757557,-1.0581490651529535,-0.011253701509347458,-1.5824038456697518,-0.18177523744644208,-2.4039376350669173,-0.5320642917840792,-0.14102573797341306,-0.0019133114305416804
0.04,-0.010985550094060714,1.5764584931487935,-1.5629398210518646,0.0022593863987415983,-0.001215059471476949,-1.2416189530044553e-05,-0.4371760726291456,0.2573029094924285,0.27875683697897335,0.0873409735165965,-0.04638965161559625,-0.00048702510139638335,-10.69302083604097,6.273913393285746,6.506986342400486,1.8919740042462436,-0.9798509006476621,-0.009721527836203947,-1.6064279771223209,-0.3240589632524582,-2.4512218509918147,-0.5411910042622377,-0.1420272240580447,-0.0019002856533048575
0.05,-0.016419220518340653,1.5796593811475836,-1.5595054926012404,0.0033172105722949667,-0.0017750098855848456,-1.8328606706904572e-05,-0.543367042427994,0.32008879987902467,0.3434328450624266,0.10578241735533682,-0.05599504141078967,-0.0005912417176860019,-10.545472688358105,6.191032790630303,6.274694862765127,1.7647214862647616,-0.9180885715232918,-0.008145322269304422,-1.6366742846198412,-0.49110858661702395,-2.5035323154548674,-0.5508929413277792,-0.14329190489286672,-0.0018834385712416745
0.06,-0.022900073792898372,1.5834797995554917,-1.5554477672682068,0.004548115724748887,-0.002426546165511461,-2.5212766371534337e-05,-0.6480853274557716,0.38204184079080583,0.405772533303364,0.12309051524539201,-0.0651536279926615,-0.0006884159664629764,-10.385406908003414,6.095815110970236,6.026915011909397,1.6455667378813814,-0.86458793739709,-0.006501366664901198,-1.6723917350081865,-0.6821826213767368,-2.560670689503879,-0.5611260609756621,-0.14475302104185822,-0.0018624484424551268
0.07,-0.03041218581547013,1.587910175293541,-1.5507914647061314,0.00594130505374627,-0.0031656272149830997,-3.299929106105071e-05,-0.7512112022571759,0.443037573804922,0.46563025620753695,0.13931893289973826,-0.0739081049471639,-0.0007786524689516373,-10.212388424816773,5.987509910794822,5.7647683067794535,1.5318615478644588,-0.8145767433447588,-0.0047809271615077975,-1.7127494057852592,-0.8963719751755956,-2.6223636251742715,-0.5718292172813999,-0.14633852098724637,-0.0018369829169453066
0.08,-0.03893837330759498,1.5929396187085945,-1.545562770427656,0.007486320749753229,-0.003988352734719572,-4.161731706326577e-05,-0.8526187492124851,0.5029443415053407,0.5228694278475348,0.154501569600696,-0.08227255197364727,-0.0008618026002215063,-10.025839552107369,5.865503070974122,5.48928422492696,1.4216933700653058,-0.7654116512721529,-0.0029981032008237207,-1.7568370869829832,-1.1325921263298349,-2.6882637793309434,-0.582925160663201,-0.14797235426838162,-0.001806716615851716
0.09,-0.04846012507620352,1.5985558646381106,-1.5397891493582827,0.009172902878925122,-0.004890806035879652,-5.099352038557024e-05,-0.9521751768608543,0.5616245929516052,0.5773621069373287,0.16865821291718922,-0.09024533011600795,-0.0009376203322304467,-9.825136329051693,5.7293233545165885,5.201458161794143,1.313717373433306,-0.7157420220525665,-0.0011808926061744884,-1.803667943690233,-1.3895784558903674,-2.757952132603047,-0.5943218568765902,-0.1495758648199397,-0.0017713499097720081
0.1,-0.05895753310414835,1.6047452273196645,-1.5334992589647152,0.010990892108862216,-0.0058689753695898425,-6.10520866851035e-05,-1.0497408027944826,0.6189362681553793,0.6289890393567481,0.18179892299370953,-0.09781693337101907,-0.0010058566299533257,-9.609675577130043,5.578648941187787,4.90229462256902,1.207027789446471,-0.6649985165784287,0.000636611068014048,-1.8521838573273526,-1.6658854950182849,-2.8309418769017993,-0.6059141656149611,-0.15106927859012656,-0.0017306276047204551
0.11,-0.07040922834960786,1.6114925698982716,-1.5267228585681125,0.012930166536963734,-0.006918722930094232,-7.171521553712818e-05,-1.1451695245459508,0.6747342578606987,0.677640039660259,0.1939274428101517,-0.10497475605043896,-0.0010663128852024695,-9.37892311445754,5.4133130027912175,4.592838203989917,1.1010589080157587,-0.6130784762285586,0.0024194874760654628,-1.9012638825983026,-1.9598906657774702,-2.9066840534752996,-0.617585897143872,-0.15237326594687547,-0.00168435658478174
0.12,-0.08279232496202585,1.6187812891625655,-1.519490712450652,0.014980605109902534,-0.008035782546776272,-8.290390040464645e-05,-1.2383096612417992,0.7288719264293755,0.7232146117460396,0.20504385729388006,-0.11170596166820403,-0.0011188684867518262,-9.132449262711978,5.233307642408575,4.274194367995539,0.9955083967587619,-0.5601508153746408,0.004135319354074518,-1.9497360856917636,-2.269802863542728,-2.9845750189208373,-0.6292122386522678,-0.153410550510148,-0.0016324216691298383
0.13,-0.09608237578834937,1.6265933159577153,-1.5118344852146066,0.017132071794295458,-0.009215774272409471,-9.453882245318366e-05,-1.3290050826323516,0.7812026795149852,0.7656227236045376,0.21514666843929242,-0.11799917256331995,-0.0011634922048537222,-8.869955118348818,5.0387857009985275,3.947541599669746,0.8902774032492999,-0.506533866917728,0.0057561678512243475,-1.9963928152051484,-2.5936760156974557,-3.063965717860997,-0.6406625175122422,-0.1541075273127967,-0.0015747990585041364
0.14,-0.11025334138893704,1.6349091314950586,-1.5037866285849595,0.019374415909487335,-0.010454228457827694,-0.00010654125737387451,-1.4170965600587675,0.8315815537343316,0.8047856629647092,0.22423441151918763,-0.12384541854182224,-0.0012002434920690853,-8.591291532968954,4.830060100103336,3.614136265071343,0.7854232707885593,-0.45261815310143305,0.007259597003528739,-2.0400092310139026,-2.929427526228072,-3.1441726376030887,-0.6518032443833768,-0.15439584687003327,-0.0015115668455260717
0.15,-0.12527757422025607,1.643707799521138,-1.495380259477569,0.02169748496854776,-0.011746614596750396,-0.00011883393335919967,-1.5024232831319035,0.8798668026079416,0.8406369107390642,0.23230690590604236,-0.12923861389227034,-0.0012292675985325153,-8.296471897149166,4.607600537181634,3.275311299318199,0.6811217491845021,-0.3988172035115909,0.00862902253257758,-2.079364684722945,-3.2748612925257574,-3.2244902192034406,-0.6625013569275486,-0.15421391770224507,-0.0014429121652239077
0.16,-0.14112581912587369,1.6529670140360793,-1.4866490296963126,0.024091147073749618,-0.013088371902520964,-0.0001313418038162414,-1.5848244905617612,0.9259214514941199,0.8731229781256378,0.23936621052018606,-0.13417573057705676,-0.0012507870457041737,-7.9856793869743665,4.37202748491911,2.9324697351069995,0.5776363859180762,-0.34553622604484957,0.00985358268753167,-2.1132663242564047,-3.627694767425164,-3.3042044059234836,-0.672627566123472,-0.15350827846150852,-0.0013691346789146573
0.17,-0.1577672307886762,1.6626631619758374,-1.4776269880809736,0.026545320439745418,-0.014474939644914767,-0.0001439927153588251,-1.6641411662802512,0.969614793975815,0.9022041615338979,0.24541733659958007,-0.13865677423938022,-0.0012650911542583698,-7.659269144963961,4.124103567931037,2.5870740044863547,0.475293395718964,-0.2931524268025498,0.01092768181477588,-2.140574101057963,-3.9855893467517296,-3.3826069299057187,-0.6820596931742691,-0.15223479224039768,-0.0012906462186755643
0.18,-0.17516940833141367,1.6727714000064733,-1.4683484363063823,0.029050008018524205,-0.01590178597103431,-0.0001567179630862045,-1.7402177542737474,1.0108238030635792,0.9278551774591304,0.2504687578778786,-0.14268463261195438,-0.0012725247727379408,-7.317765820081685,3.864722498038337,2.2406318944999857,0.3744607707118899,-0.24200314716765092,0.011850326022703861,-2.1602262072222276,-4.346183201014764,-3.459009876607618,-0.6906858769877433,-0.1503596199048933,-0.0012079665678601439
0.19,-0.19329844681365926,1.6832657443316699,-1.4588477798345085,0.031595335510739224,-0.01736443440285416,-0.00016945273292788332,-1.812903848224558,1.0494344325196483,0.9500656471873866,0.2545327492215019,-0.146264843181985,-0.001273476984167883,-6.961856916878259,3.5948958406262177,1.894679996658926,0.2755307418646229,-0.1923793925998254,0.012624346755234939,-2.1712638752362357,-4.7071255488424,-3.5327600288263716,-0.6984075310315946,-0.14785993620956597,-0.0011217155087715472
0.2,-0.2121190049690461,1.6941191721959878,-1.4491593757464112,0.03417159129492821,-0.01885848752991206,-0.00018213643601783366,-1.8820558155386828,1.085342786431803,0.9688404088097402,0.25762557841889844,-0.14940531270578988,-0.001268370308995034,-6.592382458344053,3.3157379574570545,1.5507654511017481,0.1789049609490334,-0.14452316190144643,0.01325558809669758,-2.1728544444811213,-5.0661112966242,-3.6032524813104025,-0.7051419344069408,-0.14472436164568753,-0.0010326014230237217
0.21,-0.23159438816607653,1.705303733582919,-1.439317379332233,0.0367692670092766,-0.020379647648945717,-0.0001947129433720215,-1.947538319703043,1.1184561386931176,0.9841996414178303,0.2597675714348393,-0.152116011903366,-0.001257650735418784,-6.210321524540433,3.028449524301822,1.2104267420058505,0.0849819605537867,-0.09862748465561566,0.013752115752967864,-2.164311640729441,-5.420914947994524,-3.669943034425516,-0.710824355081287,-0.14095309389921584,-0.0009414068739552078
0.22,-0.2516866452668738,1.7167906714637324,-1.4293555913977698,0.03937909769417445,-0.02192373427253603,-0.0002071307310699529,-2.009225710079729,1.1486937880813235,0.9961787934463102,0.26098306848978486,-0.15440866235903108,-0.0012417787697931416,-5.816776273838776,2.7343000543191627,0.8751742473736037,-0.005853416434048242,-0.0548383795374221,0.014123489375131637,-2.1451121261313784,-5.769422719276521,-3.7323589205115333,-0.7154096226574937,-0.13655773477671984,-0.0008489717246496341
0.23,-0.2723566778069613,1.728550548853523,-1.4193073082598018,0.041992100557869984,-0.02348669855381474,-0.00021934294704146432,-2.0670032540087555,1.1759877389790656,1.0048283137968033,0.2613002863695534,-0.15629642812787106,-0.001221221597151141,-5.412954076332653,2.43460987066355,0.5464711821574122,-0.09323883446650427,-0.013258140496237303,0.014380125410605071,-2.1149075500585717,-6.109661880318729,-3.79010748674518,-0.718873092596793,-0.13156082072457534,-0.0007561744417407121
0.24,-0.2935643597288565,1.7405533808758917,-1.4092051763549065,0.04459961156868379,-0.025064634765072622,-0.0002313074107089641,-2.1207681921895234,1.2002832022368557,1.0102131904895308,0.260751101081381,-0.15779362112578812,-0.0011964463667499799,-5.000148393700927,2.1307319658399204,0.22571549904111787,-0.17684168657784838,0.02605051050865015,0.01453276526117131,-2.0735315544710264,-6.439826468433953,-3.8428825489604055,-0.7212109718200483,-0.12599507695353512,-0.0006639122991944578
0.25,-0.31526866577420243,1.7527687700266068,-1.399081053284721,0.04719331920963335,-0.026653789031948878,-0.00024298655635072376,-2.17043060453459,1.2215389150715061,1.012412307018547,0.259370764094956,-0.1589154266876258,-0.0011679145641759637,-4.579719007553856,1.824034162633323,-0.0857767720793321,-0.25636483925794407,0.06305976892488374,0.014592053334561594,-2.0210014408314336,-6.758298687969161,-3.890468235966723,-0.7224400051773362,-0.11990242570808934,-0.0005730812221114779
0.26,-0.337427806570684,1.765166042857098,-1.3889658769723876,0.04976529485716143,-0.028250565566977442,-0.00025434733030878183,-2.2159140796481562,1.2397272830491377,1.0115176312333467,0.25719756475280786,-0.1596776535028564,-0.0011360773958058068,-4.153072169639426,1.5158819554659644,-0.38678635449400556,-0.33155100175363805,0.09777188035550921,0.014568221764515776,-1.9575144774263533,-7.063665498378416,-3.932740256441752,-0.7225965514039207,-0.11333278830505973,-0.00048455600179016256
0.27,-0.35999936843862934,1.7777143863670224,-1.3788895444188005,0.052308019365828524,-0.029851530670667283,-0.0002653610512050456,-2.2571561867945356,1.254834350992436,1.0076332553587044,0.25427245086670985,-0.16009651036898415,-0.00110137208962638,-3.721641179159352,1.2076223640203902,-0.676203425940958,-0.4021858131607661,0.13021428643328647,0.014470872965169246,-1.8834390877035103,-7.35473009821372,-3.969664633195815,-0.7217351039528861,-0.10634272710881082,-0.0003991715664272272
0.28,-0.3829404559814658,1.7903829824967006,-1.3688808013322076,0.054814405555263686,-0.031453414778367605,-0.00027600324126128393,-2.2941087542836485,1.2668596129678242,1.0008743086593015,0.25063861894351636,-0.16018841077003215,-0.0010642190056238331,-3.28686782783987,0.9005690768770449,-0.9530379839821723,-0.4680997408804384,0.1604349558313416,0.014308847547670922,-1.7993014010726238,-7.630518218705074,-4.001294055454068,-0.7199263348498756,-0.09899397785784482,-0.00031770591549163356
0.29,-0.4062078356078223,1.8031411392395018,-1.3589671436696997,0.057277816403736456,-0.03305311282985078,-0.0002862534357264876,-2.3267379626356486,1.2758156742801245,0.9913657662507842,0.2463410848472771,-0.1599698051483172,-0.0010250194465203637,-2.850185077713961,0.5959891045488087,-1.216427757552241,-0.5291688886024422,0.1884980257705191,0.014090163281703427,-1.705767848612809,-7.890279337469219,-4.027762092624787,-0.7172547571660137,-0.09135192435498676,-0.00024086522388311096
0.3,-0.42975807825359125,1.815958417045386,-1.349174731882863,0.059692078853479456,-0.03464768322843915,-0.00029609497635795494,-2.355024264576896,1.281727780588425,0.9792411786836687,0.24142624497429999,-0.1594570398588368,-0.0009841540631467369,-2.4130012591993673,0.2950911016922396,-1.465643629399216,-0.5853148183435621,0.21447983934927528,0.013822010228720538,-1.6036246370123068,-8.133483100408174,-4.049275587944423,-0.713816113035702,-0.08348406663354917,-0.00016927150243242767
0.31,-0.45354769972200853,1.8288047493538437,-1.3395283184104783,0.062051493225336735,-0.03623434563991081,-0.0003055147939216435,-2.3789621468417272,1.2846332308457669,0.9646413472384897,0.23594143718572794,-0.15866624114716654,-0.0009419817563688568,-1.9766860003160305,-0.0009845400172242159,-1.7000926083797268,-0.6365034974427912,0.2384654301854212,0.013510787698018945,-1.4937550280717602,-8.359811390219168,-4.06610560414625,-0.7097145990462325,-0.07545853053404743,-0.00010345307194961525
0.32,-0.4775332972311149,1.8416505562715513,-1.33005118871597,0.06435083832348555,-0.03781047786035805,-0.0003145031837973134,-2.3985597509106333,1.284580691770744,0.9477129694508105,0.229934509814881,-0.15761322204472406,-0.0008988389875669939,-1.5425580240703258,-0.29117378172202674,-1.91931845476947,-0.682743486460506,0.26054547788422866,0.013162169920579392,-1.3771153864712364,-8.569146597731834,-4.078577324360971,-0.7050600394788024,-0.06734266152094559,-4.383797679165374e-05
0.33,-0.5016716809434313,1.8544668505917117,-1.3207651159326579,0.0665853723841066,-0.03937361195836559,-0.0003230535780066758,-2.4138383712316362,1.2816294320160406,0.928607278331209,0.22345340606210468,-0.1563134098007541,-0.0008550394209362402,-1.1118748821953797,-0.5744952131037141,-2.123000114890819,-0.7240834868747701,0.2808137354175173,0.012781189015842687,-1.2547109381290116,-8.761556734662518,-4.087059319998755,-0.6999651109031927,-0.05920173897834809,9.249661863172984e-06
0.34,-0.5259199994453866,1.867225335533296,-1.3116903289609894,0.06875083008443264,-0.04092142987176339,-0.00033116231633064454,-2.424831850195533,1.2758484941584198,0.9074786971668504,0.21654577003260445,-0.15478179133977998,-0.0008108738323968765,-0.6858246316656298,-0.8500545607449945,-2.3109481630258966,-0.7606093678963504,0.2993649121220079,0.012372325743184087,-1.1275721122540374,-8.937278072940606,-4.0919525850733365,-0.6945427099799425,-0.05109783964369075,5.559046684431364e-05
0.35000000000000003,-0.5502358583377537,1.8798984937548877,-1.302845493662979,0.07084341588033717,-0.04245175861395766,-0.0003388284186403304,-2.431585889236712,1.2673158221591785,0.8844835298010305,0.20925857959045302,-0.15303287421942668,-0.0007666102309685867,-0.2655194076109276,-1.117047512575099,-2.483099478908662,-0.7924407895103176,0.3162929832266348,0.011939600514244086,-0.9967322319304498,-9.09669600832629,-4.0936797062175945,-0.6889035411894225,-0.0430888707767762,9.506801103152296e-05
0.36,-0.57457743128774,1.8924596673659155,-1.2942477066230045,0.07285979398156725,-0.043962565220367546,-0.0003460533601261582,-2.434157294998625,1.2561173611027856,0.8597787039974528,0.20163781012300838,-0.1510806606409887,-0.0007224941485827795,0.14800919683127206,-1.3747609713688986,-2.63951040861865,-0.8197275341397319,0.33168988795079024,0.011486659040762431,-0.8632071821099159,-9.240324828199343,-4.09267449325816,-0.6831539838758349,-0.03522778558641137,0.00012766469704939378
0.37,-0.5989035630740766,1.904883128814776,-1.2859125007928638,0.0747970753041774,-0.045451951542479815,-0.00035284085075839157,-2.432613178633656,1.2423461448860489,0.8335205830140732,0.19372813226101493,-0.14893863221122713,-0.0006787490632233343,0.5538130626128007,-1.6225728727232578,-2.7803486663416037,-0.8426456523704271,0.3456445727380628,0.011016848696463803,-0.7279775329762055,-9.368787020034953,-4.089372340866382,-0.677394279743815,-0.027561985812853084,0.0001534556545442627
0.38,-0.6231738643254542,1.917144142676491,-1.2778538622135105,0.0766528017602228,-0.04691814897597094,-0.00035919662003743453,-2.4270301251377666,1.226101386171504,0.8058638579353391,0.18557264560453957,-0.14661974334911304,-0.0006355769279042951,0.9510289389586539,-1.8599507186692985,-2.905884235349197,-0.8613935193763229,0.3582423332813507,0.010533283269943836,-0.5919734383548505,-9.482792693865203,-4.084201531749661,-0.6717170639429326,-0.02013290930085915,0.0001726010335242363
0.39,-0.647348797806792,1.9292190184905307,-1.2700842569062245,0.0784249282560569,-0.04835951319054195,-0.00036512820787912905,-2.4174933481337755,1.2074875814039732,0.7769605307285972,0.17721264958341096,-0.1441364214571008,-0.0005931587841694504,1.3388784529506763,-2.0864489876648684,-3.016479520013504,-0.8761878884855943,0.36956440870258866,0.010038894998883496,-0.456062480457912,-9.583119614793008,-4.077575630161622,-0.6662062461227665,-0.012975794582198507,0.00018533708489428067
0.4,-0.6713897562467286,1.941085154911329,-1.2626146669514824,0.08011180277353976,-0.04977451891274424,-0.0003706447623164674,-2.404095843993656,1.1866136420798474,0.7469589954742015,0.16868745174828473,-0.14150057222022908,-0.0005516554437338325,1.7166669058956876,-2.3017055858458106,-3.1125789880460304,-0.8872600171948282,0.3796877821700857,0.009536473829097475,-0.32104049160510495,-9.6705942562731,-4.069887054658467,-0.660936233079448,-0.006119609459491766,0.00019196641516595
0.41000000000000003,-0.6952591318215579,1.9527210755294195,-1.2554546347231825,0.08171214490409505,-0.0511617547991882,-0.0003757568445730856,-2.3869375574829235,1.1635920618090398,0.7160032228299916,0.16003421305552928,-0.13872358864439613,-0.0005112082256618217,2.0837810268735337,-2.5054375038746084,-3.194698524862532,-0.8948519293335497,0.38868514491173123,0.009028694647571833,-0.18762526481438002,-9.74607419649254,-4.061501863957519,-0.655971472386675,0.00041287307939480954,0.00019284778171090174
0.42,-0.7189203775156517,1.9641064568000832,-1.2486123142174255,0.08322502319491361,-0.05251991842606777,-0.00038047624196491813,-2.3661245694093864,1.138538127066366,0.6842320505757066,0.15128782908185642,-0.13581636268795705,-0.00047193973918325513,2.4396858525714333,-2.697435839320152,-3.2634147013202996,-0.8992128654167519,0.3966249840665004,0.008518133748750711,-0.05645296767523039,-9.8104320933818,-4.0527557415362345,-0.6513662869702769,0.006604870847269765,0.00018838576242710055
0.43,-0.7423380606663347,1.975222148579392,-1.2420945284066753,0.08464983165076312,-0.053847811411775026,-0.00038481578900682704,-2.3417683150682955,1.111569177930871,0.6517785810750051,0.14248084558495056,-0.13278929857072552,-0.0004339547041908914,2.7839208969563867,-2.8775603370393465,-3.3193541332709158,-0.9005959618944512,0.40357175899355546,0.008007276201073388,0.07192299960231302,-9.864541392161813,-4.043951124612222,-0.6471649640064847,0.012445281026774824,0.00017902059233610094
0.44,-0.7654779090727281,1.9860501878152799,-1.2359068315595416,0.08598626571488613,-0.055144334682331916,-0.00038878919703337075,-2.313984840639333,1.0828039235887894,0.6187696847133715,0.13364340641230088,-0.1296523270556892,-0.00039734080265437253,3.116095765647891,-3.0457335902583296,-3.3631830875005777,-0.8992551892910896,0.40958613523818954,0.00749851590263062,0.19703101092618852,-9.909263845576593,-4.035355391998268,-0.6434020576714349,0.017928282464726046,0.00016521841277602453
0.45,-0.7883068501041265,1.9965738059747935,-1.2300535754912434,0.08723429802935806,-0.056408483884204635,-0.00039241089258302734,-2.2828941031398418,1.0523618159513548,0.5853256068298198,0.12480323144719346,-0.12641492018727196,-0.00036216955496565776,3.435885358914838,-3.201935033664048,-3.395597464619823,-0.8954425693696795,0.4147252500843983,0.006994150194588378,0.31847842267336535,-9.945438862859623,-4.027200003039196,-0.6401028638743244,0.023052872443509943,0.00014746212953973086
0.46,-0.8107930432850871,2.0067774308090796,-1.2245379787476414,0.08839415424996873,-0.05763934494553935,-0.000395695864738953,-2.248619318096053,1.0203624834285965,0.5515596743602136,0.11598562206106633,-0.12308610613347139,-0.0003284972155925684,3.743024794794784,-3.3461948474253718,-3.4173132660557295,-0.8894056826687802,0.4190429883470337,0.006496370831719611,0.43594732901772426,-9.973874649982967,-4.019680465912417,-0.6372840258049919,0.027822357603027856,0.00012624302717425406
0.47000000000000003,-0.8329059068628378,2.016646683066224,-1.219362197774201,0.08946628916402638,-0.058836089784704115,-0.00039865952156440624,-2.2112863577750748,0.9869252257144805,0.5175780973440313,0.10721349140576489,-0.11967448391647648,-0.0002963656825453229,4.037304170595425,-3.478587878183924,-3.429057630120142,-0.8813854700793637,0.42259025157627406,0.00600725285958259,0.5491892021033217,-9.995341061076704,-4.012957007143922,-0.6349542315026226,0.03224381708573407,0.00010205323985500881
0.48,-0.8546161388791722,2.0261683687600445,-1.2145273991781798,0.09045136333220291,-0.05999797216398065,-0.0004013175557175657,-2.171023201633434,0.952168569382034,0.48347985960213685,0.09850741681765353,-0.11618823792765365,-0.00026580341531594825,4.318563267542802,-3.5992276701224304,-3.4315605015964827,-0.8716143256873465,0.4254152080964637,0.005528742885290372,0.6580187349472362,-10.010564048743406,-4.007155814148038,-0.6331149682757851,0.0363275540140978,7.537913641391159e-05
0.49,-0.8758957332750307,2.0353304675916433,-1.2100338322556403,0.09135022044827085,-0.06112432368606907,-0.0004036858192759273,-2.1279594395858483,0.9162098831598638,0.44935669225394614,0.08988571160679334,-0.1126351522088418,-0.00023682635583615838,4.586686290034836,-3.7082606865706618,-3.4255469807358736,-0.8603144728376364,0.4275635151242021,0.005062647822065558,0.7623071759939994,-10.020221578557218,-4.002370727713121,-0.6317613032613281,0.040086549231365814,4.66956393618733e-05
0.5,-0.8967179915528193,2.044122118101251,-1.2058809010227558,0.09216386558384733,-0.062214549931516205,-0.00040578020774756834,-2.082225827778866,0.8791650509607961,0.41529312328844303,0.0813645135576479,-0.10902262454471358,-0.0002094388471641045,4.841596718166782,-3.8058607905044584,-3.4117303811391597,-0.8476966112958806,0.42907850762938793,0.00461062503675036,0.8619754095590577,-10.024940859266804,-3.9986652703754064,-0.6308826643257093,0.04353592897139284,1.646146577214743e-05
0.51,-0.9170575305104502,2.052533600101788,-1.2020672350616226,0.09289344445946757,-0.06326812673604089,-0.000407616553194327,-2.0339538957630987,0.8411482000537047,0.3813665961133234,0.07295788756202351,-0.10535768045246857,-0.00018363454467586491,5.0832523401590395,-3.8922240409134123,-3.390806011822935,-0.8339588203602517,0.4300013515041208,0.004174174523313368,0.9569869988442553,-10.025296733885279,-3.996074908356917,-0.6304636005653232,0.04669245587875051,-1.4884748056669358e-05
0.52,-0.9368902865433251,2.060556314913825,-1.1985907585630453,0.09354022385877012,-0.06428459660782286,-0.00040921052634209254,-1.9832756032874812,0.8022714812036476,0.3476476498577255,0.06467793993025542,-0.10164698717819665,-0.00015939731477655379,5.311640520185164,-3.9675638514735385,-3.363445686786397,-0.8192857007713421,0.4303711610310863,0.0037546334927907044,1.0473413701496548,-10.021811076650362,-3.9946094581108604,-0.6304845065910296,0.04957405066111289,-4.692749623337478e-05
0.53,-0.9561935169871287,2.068182763885272,-1.1954487570213002,0.09410557327950479,-0.06526356528598852,-0.0004105775475068568,-1.9303230443803663,0.7626448971447075,0.3142001541745049,0.0565349420734671,-0.09789686781656655,-0.0001367021164764278,5.526773746953467,-4.0321065483184535,-3.330292955541016,-0.8038477371045829,0.43022508257238457,0.003353173575242341,1.1330672801934996,-10.014953045495208,-3.99425556258886,-0.6309222993871813,0.052199349684918135,-7.92766996368611e-05
0.54,-0.9749457989463832,2.0754065256391265,-1.1926379411077346,0.09459094789360524,-0.0662046984426387,-0.0004117327061226301,-1.8752281959254473,0.7223761753854329,0.28108159135655075,0.048537461410044364,-0.09411331566501725,-0.00011551586157732766,5.728685499265314,-4.0860873549691155,-3.2919590401793677,-0.7878008619393171,0.4295983478661043,0.0029708006140752863,1.2142166744347247,-10.005140047982033,-3.9949791763549363,-0.6317510406770873,0.054587302065088945,-0.00011156933068513673
0.55,-0.9931270260221371,2.08222223244982,-1.1901545073204496,0.09499787286876425,-0.06710771853172069,-0.00041269068862014345,-1.8181227075753856,0.681570681069343,0.24834337872849885,0.04069249751590107,-0.0903020089082,-9.579824975133786e-05,5.917426456635741,-4.129746824628122,-3.2490194584652263,-0.7712862033002015,0.4285243013469753,0.002608356935564604,1.2908590138596825,-9.992739289531325,-3.996728012025068,-0.6329425013178843,0.056756808274702315,-0.0001434704529270243
0.56,-1.0107184033177636,2.088625546103958,-1.187994195075625,0.09532792908581389,-0.06797240178877832,-0.00041346571437333535,-1.7591377295626633,0.6403313654137874,0.21603122448246254,0.03300562170496431,-0.0864683257057636,-7.750257531918859e-05,6.093061075862748,-4.163327733012113,-3.202011307908461,-0.754429997556727,0.4270344065540712,0.0022665258134465516,1.3630761213407911,-9.978069785286225,-3.9994339127734087,-0.6344666672463923,0.05872640102031971,-0.00017467376280168312
0.5700000000000001,-1.0277024410653255,2.0946131335551708,-1.1861523399718417,0.09558274026970143,-0.06879857538607004,-0.00041407147940517134,-1.6984037747561913,0.5987587451212677,0.18418551037834294,0.025481118388753894,-0.08261735972917089,-6.057650318360092e-05,6.255664548087561,-4.187072438609556,-3.151431182610259,-0.73734365102721,0.42515823699287836,0.0019458378223801143,1.4309575765666325,-9.961404730291477,-4.003015126524746,-0.6362921888979725,0.060513968090218334,-0.00020490171871984293
0.58,-1.0440629471769756,2.1001826426360775,-1.1846239230217168,0.09576396153688499,-0.06958611474770307,-0.0004145211075247597,-1.6360506111650048,0.5569509080906867,0.152841695012489,0.018122126718356387,-0.07875393616330319,-4.496281195883736e-05,6.4053201453014506,-4.201220711615327,-3.0977336925986947,-0.7201239348155575,0.4229234568355551,0.001646678678764224,1.4945966705954115,-9.942974136196023,-4.007378466780274,-0.6383867778447403,0.06213651607359245,-0.0002339053379824953
0.59,-1.0597850189869693,2.105332678043531,-1.1834036157050978,0.09587326934844628,-0.07033494102928384,-0.0004148271085547144,-1.572207180999373,0.5150035407453446,0.12203073166189708,0.010930781156129065,-0.07488262815807674,-3.0600102995472135e-05,6.542116960314338,-4.206008027711138,-3.0413305541783426,-0.7028532988472751,0.42035579663393463,0.0013692982186861435,1.5540869170251619,-9.922967655905381,-4.012421352733899,-0.6407175556892242,0.0636099732496001,-0.0002614637355881988
0.6,-1.0748550344105525,2.110062777766874,-1.182485820754837,0.09591235284601132,-0.07104501876614087,-0.0004150013432999268,-1.50700154235832,0.4730099723343345,0.09177949502608326,0.003908349756504319,-0.07100777368570403,-1.7423474521237376e-05,6.666148039796036,-4.2016643182318125,-2.982590219269132,-0.6856002925338984,0.4174790288270387,0.001113820070492988,1.609519106209661,-9.90153753013933,-4.018033727443658,-0.6432513610588423,0.0649490295321143,-0.00028738347124663026
0.61,-1.0892606427067077,2.114373390083372,-1.1818647086397487,0.09588290653655925,-0.07171635369345951,-0.00041505499490738243,-1.4405608296155248,0.4310612316497585,0.06211121150882723,-0.0029446309452071835,-0.06713349273186382,-5.36516074556131e-06,6.777508906021403,-4.1884131639853255,-2.9218380115949465,-0.6684200809314671,0.41431494729535956,0.0008802517118147168,1.6609788814097153,-9.878801601428039,-4.024099857401895,-0.6459550209363614,0.06616701110277412,-0.00031149776239328445
0.62,-1.102990754992893,2.1182658512006753,-1.18153424975972,0.09578662428225909,-0.07234899074070822,-0.0004149985462691095,-1.373011228618525,0.3892461117303295,0.03304588800286652,-0.009628225430014844,-0.06326370472487146,5.644863827294155e-06,6.876296459295084,-4.16647141599349,-2.8593567377094002,-0.6513550465717675,0.41088335460790404,0.0006684945485310179,1.7085448107557841,-9.854846351534242,-4.030500020015013,-0.6487955925948399,0.0672757872440827,-0.0003336656120956727
0.63,-1.1160355346218513,2.121742363583573,-1.1814882424151205,0.09562519454249083,-0.07294301220157386,-0.0004148417631274333,-1.3044779628958354,0.3476512382897477,0.004600734459954375,-0.016142973976826142,-0.0594021460865638,1.5678314167618063e-05,6.962608249609486,-4.136049222616953,-2.795387741042119,-0.6344354683157896,0.4072020599370276,0.00047835374967342137,1.752286925909379,-9.82972992752784,-4.037112087404825,-0.6517405821447892,0.06828570686874844,-0.000353770891786021
0.64,-1.1283863874936575,2.1248059749617108,-1.1817203366566622,0.09540029680707607,-0.07349853607929926,-0.0004145936825518871,-1.235085287180618,0.3063611378137784,-0.023209424154158685,-0.022489773541476497,-0.05555238777254058,2.480805755462163e-05,7.0365421028278385,-4.097350438863842,-2.7301323672784203,-0.6176802695181145,0.40328688993805173,0.00030954760948564974,1.792265696871553,-9.803485129728045,-4.043813015738764,-0.6547581452051173,0.06920556230536654,-0.0003717214100150455
0.65,-1.1400359523407202,2.1274605579768293,-1.182224054162708,0.09511359915238318,-0.07401571460587689,-0.0004142626064698067,-1.1649564847062686,0.26545830151184135,-0.05037175060458776,-0.028669765469288656,-0.05171785265776258,3.310760820803944e-05,7.098196083525584,-4.050573390121549,-2.6637538093166775,-0.6010978285329305,0.3991517142146819,0.0001617162537911332,1.8285314120596272,-9.776122341483358,-4.050480249155298,-0.6578172745324096,0.07004257801987848,-0.0003874479901018147
0.66,-1.1509780909897969,2.1297107903926906,-1.182992804328714,0.09476675684531496,-0.07449473293204047,-0.00041385609994713606,-1.0942138649076687,0.22502324158613282,-0.07687501660057894,-0.034684230706821334,-0.04790183261635836,4.065065226706517e-05,7.147668773534372,-3.995911959074409,-2.596379299720482,-0.5846868450517153,0.3948084863389951,3.442957179400352e-05,1.8611239331707217,-9.747632386329673,-4.056993046443141,-0.6608879786345381,0.07080242210539542,-0.00040090357181194933
0.67,-1.1612078785735083,2.131562135758621,-1.1840198967879774,0.09436141191419373,-0.07493580798345799,-0.0004133809939313596,-1.0229787583711365,0.18513453659303158,-0.10270924592634964,-0.04053449311212391,-0.04410750514175167,4.751060157764632e-05,7.185059842198478,-3.9335569611864596,-2.5281026179210127,-0.5684372559985498,0.39026730079764604,-7.280569121448366e-05,1.8900727951397323,-9.71798930252807,-4.063233737125115,-0.6639414544986535,0.07148923854088418,-0.00041206234514709963
0.68,-1.170721593634666,2.13302082438879,-1.185298550614105,0.09389919360020853,-0.07533918747700367,-0.00041284339218398166,-0.9513715061157679,0.14586886301689178,-0.1278653826127505,-0.04622183139852017,-0.040337949354568255,5.3760174737794526e-05,7.210470881382773,-3.863697770860742,-2.4589868784239624,-0.5523311946967162,0.38553646568060884,-0.00016053972957563722,1.9153976224040787,-9.687153028428169,-4.069088911650847,-0.6669502566198842,0.07210569838564979,-0.00042091891805558034
0.6900000000000001,-1.179516708040248,2.1340938344943314,-1.1868219004834761,0.09338171959838405,-0.07570514908951378,-0.00041224868214543263,-0.8795114405581971,0.10730101055417107,-0.15233498693710892,-0.0517474001824474,-0.0365961612510111,5.947100385490257e-05,7.224006475395969,-3.7865241572904544,-2.3890675649458073,-0.5363439867740141,0.3806225904336884,-0.0002293743116649205,1.9371088334889093,-9.655071994635614,-4.074450548170409,-0.6698884635607217,0.07265306822809814,-0.00042748751443801524
0.7000000000000001,-1.1875918765983569,2.1347888732844766,-1.1885830001003708,0.09281059799299342,-0.07603399977004488,-0.0004116015494892534,-0.8075168558108908,0.06950387901450121,-0.1761099616894555,-0.05711216053906305,-0.032885068053108854,6.47132656179208e-05,7.225775473259223,-3.702228286155698,-2.318355773780712,-0.5204451758649746,0.37553068758666797,-0.00027995824575677286,1.9552086064601628,-9.621685620691277,-4.07921707598809,-0.672731842333779,0.07313129433338811,-0.00043180119426338917
0.71,-1.1949469262512518,2.135114357836301,-1.1905748232081503,0.09218742978900676,-0.07632607518538423,-0.000410905996135617,-0.7355049652894811,0.03254845518247616,-0.19918231077796517,-0.062316820398665984,-0.02920754153393468,6.955533536364128e-05,7.2158924282317045,-3.6110068407847615,-2.2468416278747085,-0.5045995715622773,0.3702642869972408,-0.0003129835657782465,1.9696920779481826,-9.586926715009412,-4.0832943734179015,-0.6754580100108957,0.07353910102758669,-0.00043391108395828584
0.72,-1.2015828447008037,2.1350793955207648,-1.1927902625267786,0.09151381193859981,-0.07658173928743713,-0.00041016536150517273,-0.6635918449551907,-0.0034962315536236424,-0.22154393186282625,-0.06736178504069579,-0.025566410205289332,7.406346304442904e-05,7.1944791672783905,-3.513063214288692,-2.1744978211271695,-0.48876831141725674,0.3648255608694626,-0.0003291823614589573,1.9805487481600355,-9.550723777283286,-4.086596695505442,-0.6780465911452613,0.07387410191090293,-0.0004338856025020051
0.73,-1.2075017683097158,2.1346937637656005,-1.1952221269698244,0.09079134076000316,-0.07680138399015574,-0.00040938234680347685,-0.5918923608912041,-0.03856317551643142,-0.24318644430459185,-0.07224711785966476,-0.021964470271861217,7.830147016958868e-05,7.161666451325233,-3.408609722598441,-2.101283250509864,-0.4729099280131148,0.3592154575941109,-0.00032932414433872736,1.9877640635595808,-9.513003202558936,-4.0890475250592,-0.6804793688737524,0.07413292250729117,-0.0004318096668598794
0.74,-1.212706969112746,2.133967888933517,-1.1978631375027304,0.09002161564512547,-0.07698542894289595,-0.00040855904213347034,-0.5205200803030111,-0.07258748320835134,-0.2641010532906011,-0.07697251148776957,-0.01840449527402154,8.233046700065147e-05,7.117595685790271,-3.2978697874017118,-2.027146691790513,-0.4569814114210988,0.35343384228929864,-0.0003142136126512707,1.9913211477296895,-9.473691385807074,-4.090580338750546,-0.6827404269649503,0.07431133293259592,-0.00042778385951408886
0.75,-1.217202840767121,2.132912824097148,-1.2007059220083562,0.08920624295249929,-0.07713432138650465,-0.00040769695623823484,-0.44958716543750354,-0.1055064836368986,-0.28427845056258955,-0.08153726926261783,-0.01488924436087015,8.620858952355073e-05,7.062420640096956,-3.1810800377901725,-1.9520304731465572,-0.44093925664549083,0.34747964185574176,-0.00028468871541276197,1.9912026494083968,-9.432716725187587,-4.091139278783054,-0.6848162796125227,0.0744043891013336,-0.00042192354089156726
0.76,-1.2209948832704027,2.131540225500267,-1.2037430095254877,0.08834683998324308,-0.07724853607805644,-0.0004067970486792442,-0.37920425032818,-0.13725985968807783,-0.30370875171313905,-0.0859402969256218,-0.011421469155178457,8.999075589906502e-05,6.996309134760805,-3.058492280093995,-1.8758740998837062,-0.42474048511411233,0.34135099232750576,-0.00024161888849483226,1.9873926749133657,-9.390011521395262,-4.090679719870744,-0.6866959854590762,0.07440658089837705,-0.00041435789041547406
0.77,-1.2240896862772785,2.129862327507915,-1.2069668242210125,0.08744503893995764,-0.07732857526997852,-0.00040585976425619246,-0.30948030068757343,-0.16778979923521145,-0.3223814695524778,-0.09018010432854415,-0.00800391919220776,9.372844230517562e-05,6.919444655260052,-2.930375286963341,-1.7986177829928938,-0.4083436288542863,0.33504538634549874,-0.00018590335946322423,1.979878770269339,-9.345513769581833,-4.08916872105334,-0.6883712421835803,0.07431198562346798,-0.0004052288616768925
0.78,-1.2264949108540348,2.1278919158660936,-1.2103696794467749,0.08650249077182062,-0.07737496872932266,-0.0004048850694736659,-0.24052245767561958,-0.1970411641821366,-0.3402855225762278,-0.09425481681370225,-0.004639345934413768,9.746947825265106e-05,6.832027853314994,-2.7970163593269004,-1.7202058245066105,-0.3917096658121011,0.3285598186915806,-0.0001184694133480324,1.9686539164885184,-9.299168839447358,-4.086585352247496,-0.6898364580033521,0.07411442488269801,-0.0003946900397755178
0.79,-1.2282192695206968,2.1256422991143267,-1.213943772217736,0.08552086881362446,-0.07738827378315544,-0.00040387249085742675,-0.17243586666619987,-0.22496167517669746,-0.3574092770961015,-0.09816219581961645,-0.0013305053832776605,0.0001012578616239187,6.734277898432802,-2.658722618424902,-1.6405898136606223,-0.3748028948532074,0.3218909279737261,-4.02705479032317e-05,1.9537184997965125,-9.25093103824719,-4.082920886394367,-0.6910887966314612,0.07380762296228334,-0.0003829053921295785
0.8,-1.2292725044457504,2.1231272780212977,-1.2176811784291106,0.08450187213211577,-0.07736907537643106,-0.00040282115491951595,-0.10532349250535376,-0.2515021093029049,-0.3737406211374684,-0.10189966815086927,0.0019198406724371896,0.00010513359379108156,6.626433645630016,-2.5158219896781135,-1.5597315898262067,-0.35759173930602906,0.3150351327722518,4.7715556765193234e-05,1.9350822173302582,-9.200765050728311,-4.078178849600738,-0.6921281925889765,0.07338536458756323,-0.0003700479079016805
0.81,-1.2296653636767048,2.120361112944518,-1.2215738491068031,0.08344722849970607,-0.07731798612926753,-0.00040172982956676004,-0.039285923095437464,-0.27661650767797186,-0.3892670677692566,-0.10546436324097047,0.005108924716352832,0.00010913253527559253,6.508754589088618,-2.368663845666635,-1.4776059310666607,-0.3400494685916051,0.3079887608138989,0.00014448930710042607,1.9127658781402335,-9.148647249436145,-4.072374923742098,-0.6929573342892528,0.07284164985601603,-0.0003562981255013848
0.8200000000000001,-1.229409575311124,2.117358489048987,-1.2256136079580247,0.08235869692337196,-0.07723564638124644,-0.00040059696674195333,0.02557883655807011,-0.30026238955312323,-0.4039758851221546,-0.1088531576334113,0.008233974802108428,0.00011328628248066847,6.381521576071751,-2.217619281864904,-1.3942029310350939,-0.3221548284043365,0.30074817004466325,0.0002490317297230149,1.8868030593804326,-9.09456686845624,-4.065536698536105,-0.693581612972797,0.07217084404900431,-0.0003418425522590787
0.8300000000000001,-1.228517819536688,2.1141344793564545,-1.229792150457827,0.08123806966525998,-0.07712272421117526,-0.00039942074608143296,0.08917557744361033,-0.3224009692532273,-0.4178542499802342,-0.11206272581119818,0.011292217007118197,0.00011762206605203741,6.245037260626096,-2.0630810058954254,-1.3095300317053296,-0.30389257116608537,0.2933098607950413,0.00036030730255665055,1.8572415785176382,-9.038527033500579,-4.0577032730149245,-0.6940090363543845,0.07136781998396162,-0.00032687198515227807
0.84,-1.2270036984948274,2.110704505635481,-1.2341010446729077,0.08008717370103867,-0.07697991542166147,-0.00039819911936687865,0.15141210418606071,-0.34299737209733827,-0.4308894215080527,-0.11508959642213161,0.01428087895137984,0.00012216267145543353,6.099626282303371,-1.9054628287649469,-1.2236136850524586,-0.28525387998861973,0.28567057858737144,0.0004772670701227444,1.824144744358872,-8.980545641331357,-4.04892470951565,-0.694250106721381,0.07042809057658078,-0.00031157974622449147
0.85,-1.2248817039499427,2.1070842971822206,-1.2385317339869926,0.07890787157225458,-0.07680794347882215,-0.00039692985554367255,0.21219945448846012,-0.36202084532603973,-0.44306893140848574,-0.11793021287840909,0.01719719428393094,0.00012692638232060817,5.945635161195449,-1.7451987546490133,-1.1365006231687746,-0.26623668110067467,0.2778274074859084,0.0005988520504531802,1.7875923527645692,-8.920656081843394,-4.039261346644342,-0.6943176641612977,0.06934792934906184,-0.0002961598508799978
0.86,-1.222167182774549,2.10328984758196,-1.2430755418530266,0.07770206159968607,-0.07660755939846056,-0.00039561058607272807,0.27145211753935194,-0.3794449600260715,-0.45438078660339604,-0.12058099725685205,0.02003840803615922,0.000131926947094447,5.783431906827428,-1.5827416740880924,-1.0482587232451257,-0.24684584164266532,0.2697778542408358,0.00072399691179581,1.747681397120194,-8.858907796698414,-4.028782981014761,-0.6942266965611814,0.06812447675107057,-0.0002808051313767471
0.87,-1.2188763002892762,2.099337369581059,-1.2477236786569816,0.07647167743576286,-0.07637954157105323,-0.00039423885037779004,0.3290882485272788,-0.3952478000900831,-0.4648136803955055,-0.12303841639232102,0.022801782740732784,0.0001371735694938014,5.613405344708901,-1.4185616737297906,-0.9589774612168078,-0.2270932517459281,0.26151992380671985,0.0008516338850717009,1.7045264689604793,-8.795366669212832,-4.017567930777284,-0.6939941189730565,0.06675583035724857,-0.0002657053413937586
0.88,-1.21502600152486,2.0952432482372663,-1.2524672507370784,0.07521868694533786,-0.0761246955188802,-0.00039281214114602107,0.38502987644161707,-0.40941213437926777,-0.47435720800968706,-0.12529904904249956,0.025484605217303655,0.0001426709231768963,5.43596417042528,-1.2531439837719527,-0.8687679554362611,-0.2069977919617152,0.2530521871077376,0.0009806968989631848,1.6582598305023266,-8.730115241231477,-4.005701996898378,-0.6936385258392463,0.06524111726833665,-0.00025104527035535847
0.89,-1.210633970500486,2.0910239925526,-1.2572972715613513,0.07394509041525345,-0.07584385357956924,-0.0003913279492359012,0.439203102437399,-0.42192556846661644,-0.48300208242727527,-0.12735965300844154,0.028084193931095878,0.00014841919101198472,5.251535746875451,-1.0869865918068835,-0.7777626093185126,-0.18658518916789735,0.24437384216716396,0.0011101259052734846,1.6090311481085353,-8.663252753955007,-3.9932773406979027,-0.6931799203813086,0.06358054736828603,-0.00023700289811413272
0.9,-1.2057185876385113,2.086696185826361,-1.2622046750265317,0.07265291810403836,-0.07553787451119237,-0.0003897838079434203,0.4915382861974801,-0.4327806726238995,-0.49074034651803167,-0.12921723112150907,0.03059790683768767,0.00015441412924809326,5.060564665466016,-0.9205975586351502,-0.6861143692538045,-0.16588776615048761,0.23548476989812883,0.0012388713529203343,1.5570068836852644,-8.594895011107253,-3.980391298187764,-0.6926394261420467,0.06177544646999428,-0.0002237476215235411
0.91,-1.2002988854591794,2.082276434995666,-1.267180330802919,0.07134422715350237,-0.07520764301482989,-0.0003881773363754242,0.5419702179331827,-0.4419750830694997,-0.49756557763874465,-0.130869095053599,0.03302314963624749,0.0001606471567996062,4.863511096607066,-0.75449207761572,-0.5939956210216735,-0.14494409193913338,0.22638558596796798,0.001365898813048938,1.5023693494714034,-8.52517406440531,-3.967145153191012,-0.6920389862021726,0.05982826880729662,-0.00021143858430440035
0.92,-1.1943945027200022,2.0777813192565837,-1.2722150616139285,0.07002109789377961,-0.07485406917119256,-0.0003865062816771903,0.5904382739177076,-0.44951157390824104,-0.5034730811009438,-0.13231292597227692,0.035357384363733285,0.00016710546982339424,4.660848958602518,-0.5891893240990862,-0.5015967542581836,-0.12379854169338556,0.21707769016968825,0.0014901937114806252,1.445315440329728,-8.45423772300566,-3.9536428919927613,-0.6914010559489598,0.05774258878775153,-0.0002002231404077594
0.93,-1.1880256371826292,2.073227338280001,-1.2772996623059947,0.0686856295823388,-0.0744780877884586,-0.0003847685598606827,0.6368865537372977,-0.45539809765824796,-0.508460069206622,-0.13354683114408064,0.037598138273395344,0.00017377218165076367,4.453063936897668,-0.4252091453248988,-0.4091244300570669,-0.10250077641402511,0.20756331468323452,0.0016107661754143354,1.3860550661918638,-8.382248890413651,-3.939989962350381,-0.6907482954386128,0.055523072394663045,-0.000190235478826081
0.9400000000000001,-1.1812129972049834,2.068630860352379,-1.2824249205350173,0.0673399356254827,-0.0740806576589404,-0.00038296229497984023,0.681263997764585,-0.45964779276221507,-0.5125258229022763,-0.13456939568561063,0.03974301295182066,0.00018062648808424563,4.240651387586181,-0.26306864377995615,-0.31679959139381253,-0.08110515394310336,0.19784557246753565,0.0017266559748148058,1.3248093154251706,-8.30938473423499,-3.9262920590710655,-0.6901032673610176,0.053175429101427224,-0.00018159543457897426
0.9500000000000001,-1.1739777523680088,2.064008070782288,-1.287581638870005,0.06598613833777847,-0.0736627607225501,-0.00038108585640025987,0.7235244836974641,-0.4622789570091142,-0.5156718334987652,-0.13537972877042204,0.041789693639030005,0.00018764385795803806,4.024114160067707,-0.1032787083603163,-0.22485525963295222,-0.05967008361485915,0.18792850679281514,0.0018369375565450152,1.2618083872670247,-8.235835696082502,-3.912653957080915,-0.6894881463876097,0.05070634561984202,-0.00017440750651608993
0.96,-1.1663414833544519,2.059374920918941,-1.2927606580933757,0.06462636330060428,-0.07322540113529884,-0.00037913789391270047,0.7636269013556981,-0.46331498633467316,-0.5179019223370637,-0.13597750371741843,0.043735958725125916,0.00019479624875593987,3.803960373801466,0.05365945222789601,-0.13353416285342584,-0.0382573374961766,0.1778171426272337,0.0019407251707357354,1.1972893378194396,-8.161804350899557,-3.899178411023423,-0.6889244452720398,0.04812340322987594,-0.00016876009779285222
0.97,-1.1583261313016826,2.054747078128817,-1.2979528814607457,0.06326273338550062,-0.07276960424125664,-0.00037711737044314865,0.8015352052769246,-0.46278427901239033,-0.5192223367370058,-0.1363629915103662,0.04557968940421922,0.00020205234695518353,3.58070118326811,0.2072577205261938,-0.04308624307881609,-0.0169313313913165,0.1675175402244662,0.0020371780928170047,1.1314936891603193,-8.08750412688627,-3.8859651380234164,-0.6884327624986188,0.04543498081607811,-0.00016472498957080748
0.98,-1.1499539468517335,2.0501398770710253,-1.3031492996711087,0.061897362511249776,-0.07229641544654385,-0.0003750235921169411,0.837218444994919,-0.46072010577919265,-0.5196418210363056,-0.13653708742508425,0.04731887947127903,0.00020937783262075572,3.3548485636223604,0.3570443748099753,0.04623391027419044,0.004241611257811195,0.1570368508399973,0.002125505916251491,1.0646649547078533,-8.013157899079674,-3.873109897443154,-0.6880325555617818,0.04265014605188485,-0.0001623570528791338
0.99,-1.1412474391196545,2.0455682726015283,-1.308341016291102,0.060532349205569255,-0.071806898994046,-0.00037285623544131767,0.8706507732078909,-0.4571604469497013,-0.5191716619993254,-0.13650133056805228,0.04895164524978376,0.0002167356675623433,3.1269131471503266,0.5025672392783324,0.13416965425473182,0.02519399981495596,0.14638337406278623,0.002204973924968101,0.9970461359189157,-7.938996471405985,-3.860703678362112,-0.6877419431427463,0.03977853741581686,-0.00016169419786711328
