tonegas/nnodely-applications/joint_friction_estimation/dataset/train/mpc_mujoco_episode_46.csv
time,q1,q2,q3,q4,q5,q6,dq1,dq2,dq3,dq4,dq5,dq6,ddq1,ddq2,ddq3,ddq4,ddq5,ddq6,tau1,tau2,tau3,tau4,tau5,tau6
0.0,0.0,1.57,-1.57,0.0,0.0,0.0,0.0,0.0,0.0,0.0,0.0,0.0,2.270291468308951,-2.628936156800008,5.475968899168151,2.3863004575483178,0.3348795836018166,-3.6735157054046397e-06,0.31674090919145426,-4.850967449929898,-4.168137438405655,-0.9034713473023278,0.02855974486065964,-6.43146467135539e-05
0.01,0.00022586129285408438,1.569739907228592,-1.5694555434215538,0.00022196415304625046,2.8157065757099176e-05,4.1200168970405016e-07,0.022586129285408436,-0.02600927714079355,0.05444565784461987,0.022196415304625045,0.0028157065757099175,4.1200168970405015e-05,2.2464118678945892,-2.590154202993082,5.440695733916934,2.2192206785293775,0.28092686182853654,0.004118265854211156,0.31474153670071653,-4.844599953284483,-4.166751270844214,-0.903132619725036,0.028392796954314153,-6.656358808409093e-05
0.02,0.0006750331275801135,1.5692236679666776,-1.5683710825017234,0.000652652969124977,8.111928767551665e-05,1.256529165900222e-06,0.044917183472602915,-0.05162392619144214,0.10844609198303107,0.04306888160787265,0.005296222191841746,8.445274761961719e-05,2.21995286616415,-2.5499667562318047,5.395563659399867,2.08636069053527,0.2474453834262711,0.004316122973125669,0.31215969319243025,-4.8365883173932005,-4.165224106910362,-0.9026769161028789,0.028187295963830006,-6.976781315181784e-05
0.03,0.0013447791157069427,1.568455339075731,-1.5667518030311411,0.0012814231947456426,0.00015676829788009857,2.5074115184144706e-06,0.0669745988126829,-0.07683288909466422,0.16192794705823368,0.06287702256206655,0.007564901020458192,0.00012508823525142487,2.1916282152025444,-2.5087372128430876,5.343065007086921,1.9794113878428874,0.22638661097536072,0.004037580753997627,0.3090167579380554,-4.8269860945102,-4.1635871193552685,-0.9021127698107956,0.02794445379473089,-7.389529076255144e-05
0.04,0.0022322201945794737,1.5674390586834097,-1.5646034357254877,0.002099597613327479,0.0002537352358224699,4.139976618607033e-06,0.0887441078872531,-0.10162803923212237,0.2148367305653392,0.08181744185818365,0.009696693794237134,0.00016325651001925624,2.16186832225866,-2.46675413136507,5.285081420741587,1.892054177712212,0.21290417670899764,0.0037629773921059595,0.3053345411105717,-4.815846505445837,-4.161870484473982,-0.901448146949793,0.027665455276737208,-7.891272469157844e-05
0.05,0.0033343605426427985,1.566179022690672,-1.5619321142334253,0.0030999857139073885,0.0003711082570089779,6.135241567501881e-06,0.11021403480633246,-0.12600359927377508,0.26713214920623507,0.10003881005799092,0.011737302118650799,0.00019952649488948483,2.130933149847266,-2.4242483390111653,5.2230266059016595,1.8194843017396662,0.20406830391277353,0.003533519158988252,0.30113513037012374,-4.803221865628405,-4.160103308940525,-0.9006904687889592,0.02735144984355446,-8.478667666659233e-05
0.06,0.004648103247200833,1.5646794657886418,-1.5587442689406685,0.00427651915565838,0.0005082554884545869,8.478521269759825e-06,0.1313742704558035,-0.14995569020302024,0.3187845292756746,0.11765334417509914,0.013714723144560901,0.00023432797022579445,2.0989801498947163,-2.381405799843939,5.157955303429669,1.7580486501657262,0.19810449384415918,0.003334971094911321,0.2964407921789588,-4.789163076593844,-4.158313568919324,-0.8998466285174551,0.027003549117473262,-9.148397649521271e-05
0.07,0.006170259820148791,1.5629446459995746,-1.555046548281313,0.0056239745363762875,0.000664717705614377,1.1157932333036453e-05,0.15221565729479575,-0.17348197890671993,0.3697720659355479,0.13474553807179074,0.01564622171597901,0.00026794110632766266,2.066105194822409,-2.3383773330608473,5.0906466116859335,1.7049698119649008,0.19393604289280653,0.0031521922280690617,0.29127390553646587,-4.773719166701749,-4.156528059993862,-0.8989230053523759,0.026622827709641774,-9.897178668088059e-05
0.08,0.007897556029774756,1.5609788319988511,-1.5508457612152706,0.0071377625138578284,0.0008401431459417214,1.4163350147477383e-05,0.17272962096259653,-0.19658140007234656,0.42007870660422186,0.15137879774815405,0.017542544032734433,0.00030054178144409306,2.032367256418316,-2.2952859710820914,5.021667728745784,1.6581358352839732,0.19090804111562854,0.0029746035893838396,0.28565691621112443,-4.756936870433684,-4.154772356153649,-0.8979254777496516,0.02621032582354385,-0.00010721751606820694
0.09,0.009826635536760917,1.5587862926562497,-1.5461488360180642,0.008813767323088636,0.0010342477984431504,1.748572773202548e-05,0.1929079506986161,-0.21925393426014722,0.46969251972063497,0.1676004809230807,0.019410465250142898,0.00033223775845480974,1.9978032940426718,-2.2522325433622736,4.9514227442045495,1.6159401427017421,0.18862066372534692,0.0027952234186869873,0.2796123051074258,-4.738860239417174,-4.153070776190144,-0.8968594366963474,0.025767052916044683,-0.00011618867856345383
0.1,0.011954062232113719,1.5563712883706455,-1.5409627916643998,0.010648224544044724,0.0012467911022506289,2.1116652989182107e-05,0.21274266953528018,-0.24150042856040727,0.5186044353664367,0.1834457220956087,0.021254330380747852,0.00036309252571566254,1.96243724159349,-2.209299924424781,4.880190022658597,1.5771597184561257,0.18682843228550539,0.0026094118715909165,0.27316256736398525,-4.719530281036094,-4.151446356133551,-0.8957297996159616,0.025293992025679814,-0.0001258527413703364
0.11,0.014276321818932035,1.5537380638742844,-1.5352947189525754,0.012637627882734872,0.0014775609699418212,2.504805787081538e-05,0.23222595868183163,-0.2633224496361166,0.5668072711824376,0.19894033386901475,0.02307698676911924,0.00039314048816332714,1.9262854362521213,-2.166556275791079,4.808150888768871,1.5408624832511109,0.18537932456518114,0.0024139982322179954,0.26633020031417465,-4.698984622496409,-4.149920826686575,-0.8945410251624438,0.024792104565707372,-0.00013617698132654862
0.12,0.01678982296543607,1.5508908422593535,-1.5291517691763215,0.014778657944951366,0.0017263644577289864,2.9272024224358922e-05,0.2513501146504037,-0.2847221614930895,0.6142949776253912,0.21410300622164943,0.02488034877871652,0.000422396635354354,1.889359901241388,-2.1240575303763003,4.735411685578543,1.5063369155647397,0.1841779621224493,0.00220672727779192,0.25913769919982066,-4.677257199721125,-4.148514594914732,-0.8932971290345858,0.02426233547663414,-0.00014712835558973355
0.13,0.019490898227382425,1.547833820037041,-1.5225411486527525,0.01706812767132252,0.0019930218588614774,3.3780651622807117e-05,0.27010752619463557,-0.30570222223124344,0.6610620523569032,0.22894697263711564,0.02666574011324909,0.0004508627398448195,1.8516703341690919,-2.0818493071207875,4.662020788381123,1.4730386199773884,0.1831633488221609,0.001985913828312036,0.2516075598678256,-4.654377971579289,-4.147246729709119,-0.8920017008626644,0.023705618681123773,-0.00015867338748446277
0.14,0.022375804860056917,1.5445711630823251,-1.515470117797006,0.019502940388661974,0.002277362875506626,3.856596534521996e-05,0.2884906632674491,-0.326265695471587,0.707103085574649,0.2434812717339455,0.028434101664514887,0.00047853137224128427,1.8132253146137367,-2.0399683978610024,4.5879817814963175,1.440549799218033,0.18229540381918063,0.001750227007891736,0.24376228779415682,-4.630372660799658,-4.146134950739785,-0.8906579221755071,0.023122882805982063,-0.00017077806629191451
0.15,0.025440725593076523,1.5411070033499155,-1.5079459937244022,0.022080057411871676,0.002579224055623732,4.3619850676677324e-05,0.3064920733019606,-0.3464159732409598,0.7524124072603876,0.25771170232097007,0.030186118011710585,0.0005053885331457364,1.7740330408347986,-1.9984439338862974,4.513263718263255,1.4085485469714554,0.18154681001431427,0.0014985547721373393,0.23562441277590868,-4.60526252354306,-4.145195620769147,-0.8892685854316925,0.02251505714348576,-0.00018340775933209646
0.16,0.028681769412948168,1.5374454362707364,-1.499976155581406,0.02479647287580911,0.0028984470024568465,4.893400469080677e-05,0.32410438198716457,-0.3661567079179042,0.7969838142996243,0.27164154639374327,0.031922294683311474,0.000531415401412944,1.734101782551123,-1.9572983134803612,4.437809164969956,1.3767856120208908,0.18089807502961364,0.0012299182501629424,0.2272165085679669,-4.579064150054113,-4.144443741302034,-0.8878361140836277,0.021883077824246377,-0.00019652713493769708
0.17,0.032094972381305986,1.5335905187561023,-1.4915680519740246,0.027649194043327895,0.0032348770583514553,5.449989981484565e-05,0.3413202968357819,-0.38549175146340264,0.8408103607381423,0.28527211675187863,0.03364300558946086,0.0005565895124038883,1.6934401625323603,-1.9165479519279225,4.36154056157404,1.3450668441230196,0.18033453330072646,0.0009434171794309165,0.2185612166476859,-4.5517892991147,-4.143892951619515,-0.8863625836320642,0.02122789416961999,-0.00021010009540039522
0.18,0.03567629850650266,1.5295462677498175,-1.4827292099892764,0.030635225766674105,0.0035883622818758277,6.0308755462865306e-05,0.3581326125196678,-0.40442510062847586,0.883884198474817,0.2986031723346211,0.03534852235243722,0.0005808855648019657,1.652057334956157,-1.876203900426048,4.284365303828625,1.3132399589368138,0.17984452046316335,0.0006381948935543225,0.20968127318647425,-4.523444769201171,-4.14355553128502,-0.8848497436182163,0.020550475185313753,-0.00022408971947661117
0.19,0.039421640680061903,1.5253166592779814,-1.4734672454017805,0.03375155810698787,0.003958752608059471,6.635151529097648e-05,0.37453421735592446,-0.42296084718360416,0.9261964587495952,0.3116332340313766,0.03703903261836432,0.0006042759828111172,1.6099631014426927,-1.8362723689121818,4.206179853507558,1.2811845847303003,0.17941825499939945,0.0003134157094419887,0.20059953820135523,-4.49403230931981,-4.143442406229418,-0.883299040489379,0.01985181615037164,-0.0002384582144837298
0.2,0.04332682168577718,1.5209056279531776,-1.463789873730772,0.036995156365521434,0.004345899124301148,7.261882844613319e-05,0.39051810057152775,-0.4411031324803697,0.9677371671008517,0.32435982585335643,0.03871465162416766,0.000626731315515671,1.5671679893599573,-1.796755179130878,4.126873108713904,1.248804801385349,0.1790471457585907,-3.174973029218542e-05,0.1913390257588342,-4.46354857247042,-4.143563158521801,-0.8817116412612075,0.01913294524777675,-0.00025316687837130173
0.21,0.04738759528698327,1.5163170668946315,-1.4537049218686326,0.040362952969143294,0.00474965342024215,7.910103371315298e-05,0.4060773601206086,-0.4588561058546101,1.0084951862139233,0.3367796603621857,0.040375429594100155,0.0006482205267019796,1.523683307157042,-1.757650167642873,4.04632920926443,1.2160235708728298,0.17872335498284198,-0.0003981339334877543,0.18192293401230225,-4.431985114572005,-4.143926039918686,-0.8800884578855104,0.018394930174888902,-0.0002681760724126828
0.22,0.05159964739614012,1.5115548280293458,-1.4432203400446617,0.043851840796063614,0.005169866985354562,8.578814581585623e-05,0.42120521091568497,-0.4762238865285641,1.0484581823970875,0.34888878269203205,0.04202135651124122,0.0006687112102703243,1.4795211855690287,-1.7189515534359605,3.9644299087013986,1.1827786018934372,0.17843951359760002,-0.0007865785770782008,0.1723746737764152,-4.399328441481565,-4.144537989259737,-0.8784301722168009,0.01763888466414032,-0.00028344520533939
0.23,0.05595859732999852,1.5066227227415556,-1.4323442139206064,0.047458667636372326,0.005606390637214751,9.266984336260607e-05,0.43589499338584026,-0.49321052877900895,1.0876126124055319,0.36068268403087117,0.043652365186018845,0.0006881697546749839,1.4346946100003017,-1.6806502809437218,3.8810566113845932,1.1490193005182494,0.17818852610890268,-0.0011979381334465966,0.16271789428071892,-4.365560106448873,-4.145404653745137,-0.8767372614543703,0.016865974837077455,-0.00029893272984403614
0.24,0.06045999915305325,1.5015245228393725,-1.4210847766399415,0.05118023156420188,0.006059073968871597,9.973545808496438e-05,0.4501401823054733,-0.5098199902183089,1.1259437280664977,0.37215639278295504,0.0452683331656847,0.0007065614722358306,1.3892174472999224,-1.642734346329512,3.7960921479125442,1.1147045416324595,0.17796342699515755,-0.0016330817384271334,0.1529765047033238,-4.330656859979101,-4.14653041409121,-0.8750100239199329,0.01607742530818141,-0.00031459615241908765
0.25,0.06509934311160895,1.4962639618084475,-1.409450420672944,0.05501327706040035,0.006527764806860525,0.00010697396512699672,0.4639343958555696,-0.5260561030925047,1.1634355966997523,0.3833045496198471,0.04686908379889273,0.0007238507042032348,1.3431044689292286,-1.6051891126314493,3.709422342953392,1.079801059025713,0.17775726533068514,-0.002092893667504425,0.1431746900666268,-4.294590853623574,-4.147918413518308,-0.8732486050145745,0.015274524949125474,-0.000330392057486473
0.26,0.06987205716051717,1.4908447363230444,-1.3974497093157168,0.058954491771304164,0.007012308673155742,0.00011437397421876726,0.4772714048908223,-0.5419225485403016,1.200071135722714,0.39412147109038126,0.048454386629521715,0.0007400009091770539,1.2963713718475667,-1.567997617622945,3.6209374149954314,1.0442822998890477,0.17756300337027398,-0.0025782725840839404,0.13333692008368106,-4.257329898689573,-4.149570590480436,-0.8714530231835191,0.014458632219429514,-0.00034627614671518266
0.27,0.07477350858445393,1.4852705079852142,-1.3850913877145778,0.06300050382416357,0.007512548245238392,0.0001219237216221381,0.49014514239367674,-0.5574228337830174,1.2358321601139006,0.404601205285941,0.050023957208265,0.0007549747403370829,1.2490347981004335,-1.5311408768999684,3.5305332364876634,1.0081276258616283,0.1773734202839634,-0.003090129607939973,0.12348794957830556,-4.218837780257857,-4.151487715000997,-0.8696231957038147,0.013631179966033299,-0.0003622032943258564
0.28,0.07979900571547945,1.4795449052629017,-1.37238439329849,0.06714787964575494,0.008028322808817892,0.00012961106277732662,0.5025497131025508,-0.5725602722312532,1.2706994416087858,0.41473758215913664,0.05157745635795003,0.0007687341155188523,1.2011123539612722,-1.4945981836652462,3.4381124744899716,0.971321770438875,0.1771810155583431,-0.00362938514671729,0.11365280916650843,-4.179074626227082,-4.153669428435105,-0.8677589640990813,0.012793679592302144,-0.0003781276190484298
0.29,0.08494379974855355,1.473671525597886,-1.3593378655120985,0.0713931222498076,0.008559467697779587,0.00013742346560998537,0.5144794033074105,-0.5873379665015601,1.3046527786391573,0.4245242604052653,0.05311448889616942,0.0007812402832658754,1.1526226294772277,-1.4583474058722332,3.343585625677176,0.9338544835772655,0.17697790863067464,-0.004196964362045197,0.1038567849829059,-4.137997330375982,-4.156114286437544,-0.8658601189776647,0.011947724496554114,-0.0003940025732348321
0.3,0.09020308665667773,1.4676539376545112,-1.3459611547509327,0.07573266997267326,0.009105813715768492,0.00014534800448433955,0.5259286908124171,-0.6017587943374799,1.3376710761165669,0.4339547722865664,0.054634601798890514,0.0007924538874354195,1.1035852193539712,-1.4223652807624592,3.246871954848426,0.8957203103499838,0.17675573261025068,-0.00479379109062561,0.09412538636453088,-4.095560027656526,-4.158819804877882,-0.8639264240863525,0.011094992681485855,-0.0004097810494379551
0.31,0.09557200920740855,1.4614956836802573,-1.3322638304087866,0.0801628956463869,0.009667186533535021,0.0001533713548105415,0.5368922550730825,-0.6158253974254033,1.3697324342146107,0.44302256737136364,0.05613728177665293,0.0008023350326201955,1.0540207462561253,-1.3866277063436943,3.147900342641479,0.8569184626954831,0.17650552078005788,-0.005420779980112145,0.08448430056608741,-4.051714619116828,-4.161782508411919,-0.8619576393718222,0.010237248438976748,-0.0004254155045542908
0.32,0.10104565908265521,1.4552002819493788,-1.3182556879554548,0.08468010620483438,0.010243406055815531,0.00016147978833588937,0.5473649875246663,-0.6295401730878455,1.4008142453331711,0.451721055844748,0.057621952228051006,0.0008108433525347874,1.0039508877786156,-1.3511100289786173,3.046610045636052,0.8174527526499071,0.17621758515667096,-0.006078826566134787,0.0749593337747771,-4.006411343015001,-4.164997981392506,-0.8599535428465143,0.009376343019736987,-0.00044085810139479656
0.33,0.10661907910395226,1.4487712292611206,-1.303946754971078,0.08928054272286505,0.010834285751134315,0.0001696591691711597,0.5573420021297044,-0.6429052688258169,1.4308932984376768,0.46004365180306717,0.05908796953187838,0.0008179380835270335,0.9533984085472448,-1.315787325968209,2.9429513702722274,0.7773315625903701,0.1758813868339475,-0.006768794979693626,0.0655763379179308,-3.9595993878403974,-4.1684609207837315,-0.8579139510649151,0.008514214204166422,-0.0004560608673008115
0.34,0.11228726556580969,1.4422120034644332,-1.2893472960714396,0.0939603808904094,0.011439631937521755,0.00017789495062609268,0.5668186461857433,-0.6559225796687356,1.4599458899638398,0.46798381675443385,0.060534618638744035,0.0008235781454932991,0.9023871991234285,-1.280634681800787,2.8368862608186562,0.7365678335502714,0.17548539822322695,-0.007491502930202509,0.056361123010477465,-3.911227542124153,-4.172165190731345,-0.8558387380304023,0.007652884699597597,-0.00047097586916415856
0.35000000000000003,0.11804517068030669,1.4355260659816798,-1.2744678166667627,0.09871573192440637,0.01205924301676937,0.00018617217295308213,0.5757905114497004,-0.6685937482753588,1.4879479404676983,0.47553510339969773,0.06196110792476147,0.000827722232698946,0.8509423236089442,-1.2456274565874323,2.7283888008990838,0.6951790569408285,0.17501695767918024,-0.008247703602499268,0.04733935506845509,-3.861244875115254,-4.176103878439424,-0.853727852371825,0.006794459299759102,-0.0004855554039470641
0.36,0.12388770513683461,1.4287168643045494,-1.2593190655049042,0.10354264392093991,0.01269290864950902,0.00019447546212573638,0.5842534456527928,-0.6809201677130492,1.5148751161858431,0.48269119965335433,0.06336656327396502,0.0008303289172654265,0.7990900780624476,-1.2107415451075578,2.617445627716685,0.6531872583686145,0.17446211739854078,-0.009038064066503426,0.03853643991503855,-3.8096014416407376,-4.180269351008913,-0.8515813326526012,0.0059411207547155325,-0.000499752203534083
0.37,0.1298097407818312,1.4217878344362915,-1.2439120359583606,0.1084371036486878,0.01334040886313411,0.00020278902981004236,0.5922035644996566,-0.6929029868257934,1.5407029546543545,0.4894459727747898,0.06475002136250908,0.0008313567684305988,0.7468580620402262,-1.1759536248383722,2.504056258027188,0.6106189649052185,0.17380548592437828,-0.009863139791484787,0.029977393521687712,-3.756249003778996,-4.1846533129077175,-0.8493993207030217,0.005095124313581549,-0.000513519652489187
0.38,0.13580611342450105,1.4147424032554499,-1.2282579660231658,0.1133950387828073,0.014001513084400957,0.00021109667472072986,0.5996372642669858,-0.7045431180841731,1.5654069935194808,0.4957935134119484,0.06611042212668464,0.0008307644910687494,0.6942752657471256,-1.141241391334154,2.3882333250553383,0.5675051492831544,0.17303006710284574,-0.010723344867889173,0.02168669985293302,-3.701141761372545,-4.189246863764129,-0.8471820728980712,0.00425879091778664,-0.0005268120170427311
0.39,0.14187162577590634,1.4075839907775165,-1.2123683370065617,0.1184123205758857,0.014675979088487832,0.0002193817855942165,0.6065512351405301,-0.7158412477933359,1.5889629016604134,0.5017281793078412,0.0674466004086876,0.0008285110873486615,0.6413721754167457,-1.1065837793519284,2.2700027258618656,0.5238811462391402,0.17211709793370256,-0.011618917526489969,0.013688157512176169,-3.6442370829099047,-4.194040556204638,-0.8449299693377578,0.00343449903936675,-0.0005395846833992789
0.4,0.14800105053044907,1.4003160122923337,-1.1962548708892013,0.12348476695971113,0.015363551856380817,0.00022762734605279587,0.6129424754542725,-0.7267978485182864,1.6113466117360213,0.5072446383825421,0.0687572767892985,0.0008245560458579372,0.5881808996159736,-1.0719611681849481,2.1494036791169617,0.4797865376630863,0.17104588845187907,-0.01254988060539075,0.006004716810250929,-3.5854962279322233,-4.199024453493035,-0.8426435209239049,0.0026246751764246613,-0.0005517944032443945
0.41000000000000003,0.15418913360066477,1.3929418803566354,-1.1799295263565586,0.12860814606848245,0.016063962332737738,0.0002358159416820754,0.6188083070215691,-0.7374131935698329,1.6325344532642752,0.5123379108771333,0.07004104763569206,0.0008188595629279513,0.5347353191697607,-1.0373555697622643,2.026488693790721,0.43526500441690885,0.16979366757748782,-0.013515996640891426,-0.001341690809485055,-3.5248850518838335,-4.204188186768427,-0.8403233743656306,0.001831783036256111,-0.0005633995441396728
0.42,0.16043059751840819,1.3854650066228393,-1.163404493503097,0.13377818017077991,0.016776926076897812,0.00024392976969535293,0.624146391774342,-0.7476873733795963,1.6525032853461723,0.5170034102297475,0.07129637441600754,0.0008113828013277548,0.4810712633052273,-1.0027507981986123,1.9013234498895484,0.3903641437348142,0.16833543979419097,-0.014516717366655885,-0.008330328764116421,-3.462374684239899,-4.209521011724403,-0.8379703151843745,0.0010583114553850328,-0.0005743603423356408
0.43,0.16672014501793048,1.3778888034870505,-1.1466921872215388,0.13899054999424224,0.01750214180050467,0.0002519506516138611,0.6289547499522286,-0.7576203135788967,1.671230628155813,0.5212369823462323,0.0725215723606857,0.000802088191850815,0.42722671439542964,-0.9681326196303726,1.7739865930411791,0.3451352520008415,0.16664385855650798,-0.015551127506945595,-0.014941834253573386,-3.397942170817025,-4.215011864618005,-0.8355852688272483,0.0003067611245831797,-0.0005846391554043056
0.44,0.17305246281900905,1.3702166855412072,-1.1298052392981859,0.14424089942352045,0.018239289786349627,0.0002598600494501912,0.6332317801078564,-0.767211794584325,1.688694792335286,0.5250349429278207,0.0737147985844958,0.0007909397836330133,0.3732420433141405,-0.9334888813478254,1.6445694454196484,0.2996330735026138,0.164689123490807,-0.016617882922380034,-0.02115839739678879,-3.331571071410507,-4.220649417544042,-0.8331693000336039,-0.00042036979443633993,-0.0005942007119994527
0.45,0.17942222563116725,1.362452070816381,-1.1127564892436128,0.1495248405487695,0.018988030184582044,0.0002676390859425507,0.6369762812158202,-0.7764614724826181,1.7048750054573125,0.5283941125249046,0.07487403982324173,0.0007779036492359464,0.3191602768634145,-0.8988096194285253,1.5131756361992679,0.25391551644756083,0.16243890972823305,-0.017715143372351777,-0.02696393768223372,-3.2632520043060342,-4.226422132955515,-0.8307236106330191,-0.0011206010558593334,-0.0006030123559950231
0.46,0.18582410040306635,1.3545983818063883,-1.0955589738961113,0.15483795903875658,0.01974800118444083,0.00027526856944847075,0.6401874771899114,-0.7853689009992771,1.7197515347501533,0.5313118489987079,0.07599709998587847,0.0007629483505920102,0.26502739797266933,-0.864087144286732,1.379920655405032,0.20804333815135623,0.15985833907034697,-0.018840500453845027,-0.032344274699581496,-3.1929831297815343,-4.232318317452862,-0.8282495359823427,-0.0017914865980300076,-0.0006110442822309669
0.47000000000000003,0.19225275084430427,1.3466590462630947,-1.0782259158429326,0.16017581980966494,0.020518817062206943,0.00028272902416586496,0.6428650441237918,-0.7939335543293596,1.7333058053178838,0.5337860770908363,0.0770815877766114,0.0007460454717394209,0.21089267835755388,-0.829316103778066,1.2449313356770342,0.16207980185447202,0.15691000410662503,-0.019990901576862452,-0.037287290040595125,-3.120770565440023,-4.238326174901583,-0.8257485402741803,-0.0024306315547093817,-0.0006182697611095476
0.48,0.19870284225002835,1.338637497757043,-1.0607707107115882,0.1655339729579022,0.021300066109234485,0.00029000072640500695,0.6450091405724079,-0.8021548506051828,1.7455205131344442,0.5358153148237274,0.07812490470275431,0.0007271702239141981,0.15680904203692897,-0.7944935237303962,1.1083452670689216,0.11609030810597254,0.15355405781476195,-0.021162571296841237,-0.04178307723819551,-3.046628727085683,-4.244433858968067,-0.8232222109683808,-0.003035709855822877,-0.0006246653493343404
0.49,0.20516904666185318,1.3305371759992994,-1.0432069133901747,0.17090795992272648,0.022091308447760725,0.0002970637476831133,0.6466204411824817,-0.8100321757743605,1.7563797321413472,0.5373986964824284,0.07912423385262406,0.000706302127810636,0.1028334565060218,-0.759618826010995,0.9703101505442011,0.07014200407999205,0.14974838250899042,-0.022350931790690934,-0.045824076655896745,-2.9705805898580575,-4.250629525185647,-0.82067225261118,-0.003604482250457657,-0.0006302110841640649
0.5,0.21164604840142837,1.3223615269226718,-1.025548223241815,0.17629331984232063,0.02289207374679221,0.000303898005450191,0.6477001739575182,-0.817564907662751,1.7658690148359686,0.5385359919594147,0.08007652990314865,0.0006834257767077705,0.04902734643187869,-0.7246938244788155,0.8309830963121349,0.02430337455557341,0.14544885314378103,-0.023550524819262175,-0.04940519234689629,-2.8926578654548427,-4.256901382676006,-0.8181004803130877,-0.004134814572603545,-0.0006348906586621569
0.51,0.2181285500154568,1.314114002522667,-1.0078084683838227,0.1816855960651087,0.023701858855774038,0.00031048332227604587,0.6482501614028436,-0.8247524400004955,1.7739754857992351,0.5392276222788077,0.08097851089818271,0.0006585316825854865,-0.004542977539753596,-0.6897226994092284,0.6905298735433942,-0.02135618140062756,0.14060971079815643,-0.024754938203078912,-0.05252388807303493,-2.812901092480439,-4.2632377456542105,-0.8155088131562772,-0.004624696059370138,-0.0006386915755566356
0.52,0.2246112786728157,1.3057980604607131,-0.9900015891070482,0.18708034277664748,0.024520125380015176,0.00031679949432753094,0.648272865735887,-0.8315942061953875,1.7806879276774519,0.5394746711538765,0.08182665242411398,0.0006316172051485054,-0.0578058848920188,-0.6547119512095667,0.5491241183234101,-0.06676678375044753,0.13518406247873188,-0.025956740468093122,-0.05518025990709506,-2.731359638231187,-4.269627084838335,-0.8128992677949134,-0.005072257522159002,-0.0006416052774787748
0.53,0.23108899305544423,1.2974171634342506,-0.972141620515027,0.19247313170136401,0.025346297228981827,0.0003228263699368202,0.6477714382628544,-0.8380897026462438,1.785996859202126,0.5392788924716531,0.08261718489666525,0.0006026875609289233,-0.11068399921183922,-0.6196703344665216,0.40694650692800116,-0.11185851029122851,0.12912452298751953,-0.027147428095767246,-0.05737708313461234,-2.648091611542776,-4.276058078866795,-0.8102739524978366,-0.00547578916348566,-0.0006436272515195259
0.54,0.2375564907845624,1.2889747783202539,-0.9542426744659968,0.19785955883776823,0.026179758176564538,0.00032854393899778083,0.6467497729118165,-0.8442385113996653,1.7898946049030182,0.5386427136404218,0.08334609475827097,0.0005717569060960663,-0.16309379616326422,-0.5846087735755375,0.264183901648061,-0.156561836296303,0.1223840132575082,-0.028317390489514534,-0.0591198315193465,-2.563163687653313,-4.28251966579806,-0.8076350618624977,-0.005833757825771704,-0.0006447571062267005
0.55,0.24400861642227328,1.2804743751005896,-0.9363189209035726,0.2032352511855603,0.027019849481206486,0.0003339324338213405,0.6452125637710885,-0.8500403219664314,1.792375356242413,0.5375692347792068,0.0840091304641947,0.0005388494823559671,-0.21494524492471087,-0.5495402613953526,0.12102847643399395,-0.20080807020765415,0.11491672701072675,-0.029455898435071886,-0.06041666739455042,-2.4766508473496094,-4.289001094729332,-0.8049848724026206,-0.006144823453400511,-0.0006449986193587423
0.56,0.2504402700853566,1.2719194255793036,-0.918384568663855,0.20859587342328936,0.027865867623221047,0.0003389724419240804,0.6431653663083278,-0.855494952128599,1.793435223971762,0.5360622237729071,0.08460181420145615,0.0005040008102739855,-0.26614151590272556,-0.5144797425452705,-0.02232317040455495,-0.2445297805511762,0.10667927356552853,-0.03055112232905161,-0.06127840148401641,-2.3886360339365966,-4.295491977523115,-0.8023257391802999,-0.006407854545612624,-0.0006443597549138061
0.5700000000000001,0.25684641670274455,1.263313401903454,-0.9004538458480089,0.21393713449590673,0.028717062226520488,0.00034364503100991453,0.6406146617387962,-0.8606023675849696,1.7930722815846014,0.5341261072617378,0.08511946032994418,0.000467258908583417,-0.31657878070246726,-0.47944398311434855,-0.1656709093436357,-0.28766120919721505,0.09763199886907803,-0.03159018676365127,-0.06171842183571277,-2.299209732774798,-4.301982340575225,-0.7996600936169435,-0.00662194237542282,-0.0006428526481629441
0.58,0.263222095940455,1.254659774900447,-0.8825409798498989,0.21925479407269702,0.029572634242027263,0.0003479318861257183,0.6375679237710437,-0.8653627003007,1.7912865998110092,0.5317659576790295,0.08555720155067766,0.00042868551158038,-0.3661461330760641,-0.44445142867950643,-0.3088119717368181,-0.330138666132473,0.08774047915267891,-0.03255926798963855,-0.06175259175930777,-2.2084694792432735,-4.308462676495112,-0.7969904425774794,-0.006786413748774109,-0.0006404935576373421
0.59,0.26956243280732745,1.245962012245985,-0.8646601771282173,0.2245446688376611,0.03043173447984316,0.0003518154586237842,0.6340336866872481,-0.8697762654462072,1.7880802721681583,0.5289874764964105,0.08591002378158967,0.00038835724980658756,-0.4147256615845516,-0.4095220526301261,-0.45154183425162114,-0.37190090094396444,0.0769771718922061,-0.03344374034823416,-0.06139911718931239,-2.1165193019842543,-4.31492399550141,-0.7943193687794196,-0.0069008420788248285,-0.0006373027832554189
0.6,0.2758626489415138,1.2372235764776764,-0.8468256028117386,0.22980263857646024,0.031293462586293654,0.00035527912614424697,0.630021613418637,-0.8738435768308452,1.7834574316478737,0.5257969738799136,0.08617281064504911,0.0003463667520462771,-0.4621927056559917,-0.3746771968686229,-0.5936550894003945,-0.4128894463431243,0.06532319704836942,-0.03422837669828574,-0.06067838444005401,-2.0234691091508323,-4.321357876263533,-0.7916495325337526,-0.006965056552968684,-0.0006333045500315584
0.61,0.2821180745611339,1.2284479228700984,-0.8290513602248892,0.23502465202649794,0.03215686656961315,0.0003583073623414745,0.6255425619620089,-0.8775653607578066,1.7774242586849387,0.52220134500377,0.08634039833194908,0.0003028236197227548,-0.5084163262302623,-0.33993940699721836,-0.7349462963387499,-0.45304892920186424,0.05277020808620381,-0.03489760625273981,-0.059612769869072074,-1.9294340260952105,-4.3277565158455715,-0.7889836747790051,-0.006979149175460728,-0.0006285268570939732
0.62,0.2883241610427663,1.2196384971876186,-0.8113514704188034,0.24020673245960153,0.03302094298354784,0.0003608859145256657,0.6206086481632427,-0.8809425682479699,1.7699889806085858,0.5182080433103585,0.0864076413934688,0.00025785521841912185,-0.5532600198781739,-0.30533226410808023,-0.8752108065792884,-0.4923273447908958,0.03932229750987748,-0.035435830834216156,-0.05822642351339673,-1.8345336934893577,-4.3341127783335525,-0.7863246213242746,-0.006943479477098172,-0.0006230012920629079
0.63,0.29447649406860243,1.2107987333316026,-0.7937398517904668,0.24534498297004406,0.033884637880690606,0.0003630019867876398,0.6152333025836118,-0.8839763856016091,1.76116186283366,0.5138250510442544,0.08636948971427681,0.00021160722619740282,-0.5965827008350243,-0.27088021526717837,-1.0142455597842477,-0.5306762902040716,0.02499786638941992,-0.035827797476925646,-0.05654502929967377,-1.7388915352539915,-4.340420241652944,-0.7836752881723879,-0.006858676696190521,-0.000616762811213523
0.64,0.3005708072574467,1.2019320508987263,-0.7762302998694969,0.25043559144429306,0.03474684864603239,0.00036464442554040073,0.6094313188844288,-0.8866682432876287,1.7509551920969955,0.5090608474249005,0.0862210765341784,0.0001642438752760926,-0.6382399685358146,-0.23660840471729472,-1.1518498453474075,-0.5680511533215413,0.009831372657509663,-0.036059021523438414,-0.05459554494468857,-1.6426340058803246,-4.346673242011425,-0.7810386877513839,-0.0067256392530985224,-0.0006098494862788291
0.65,0.30660299616682996,1.1930418526670274,-0.7588364673486138,0.2554748351928471,0.03560642681511445,0.0003658039037728249,0.6032188909383256,-0.8890198231698961,1.7393832520883143,0.5039243748554046,0.08595781690820624,0.00011594782324241656,-0.6780856688582475,-0.2025425077212169,-1.2878260260586298,-0.6044112541415023,-0.006125139785190026,-0.03611625008085459,-0.0524059251470393,-1.545889826761346,-4.352866915337505,-0.7784179358429022,-0.0065455313650519655,-0.0006023022192461067
0.66,0.3125691325241024,1.1841315220260387,-0.7415718444299826,0.2604590852287813,0.0364621819694567,0.00036647309970332283,0.5966136357272456,-0.8910330640988755,1.7264622918631154,0.4984250035934241,0.08557551543422462,6.691959304978994e-05,-0.7159737454253835,-0.16870856882343993,-1.4219802207002459,-0.6397199359091119,-0.022800838300618187,-0.03598795112226705,-0.05000483211174906,-1.44878922100644,-4.358997235023969,-0.7758162589590019,-0.006319776679878197,-0.0005941644270669438
0.67,0.3184654785145538,1.175204420366901,-0.7244497395554047,0.2653848101821116,0.03731288678392965,0.00036664686498624825,0.5896345990451388,-0.8927101659137673,1.7122104874577895,0.4925724953330262,0.08507048144729512,1.7376528292542753e-05,-0.7517603632775601,-0.13513284612222132,-1.5541229430087988,-0.6739446042034514,-0.04010533613665723,-0.035664809035957507,-0.047421337834391994,-1.3514631559029375,-4.365061045238094,-0.7732370018876786,-0.006050048847638495,-0.0005854816988360515
0.68,0.3242885009256905,1.1662638844477482,-0.7074832605838618,0.2702485798437385,0.03815728327599397,0.0003663223772076335,0.5823022411136667,-0.8940535919152766,1.6966478971542878,0.4863769661626952,0.0844396492064321,-3.244877786147412e-05,-0.7853062715386188,-0.10184166291646991,-1.6840696949790832,-0.707056713007435,-0.05792847248075095,-0.03514020345321277,-0.04468462288523515,-1.2540426017181725,-4.371056089023065,-0.7706836351009352,-0.005738258998619997,-0.0005763014286867164
0.6900000000000001,0.3300348849203379,1.157313223748932,-0.690685296475228,0.2750470683374711,0.03899409027517194,0.000365499271158415,0.5746383994647362,-0.8950660698816079,1.6797964108633794,0.4798488493732578,0.08368069991779689,-8.231060492184827e-05,-0.8164793551857426,-0.06886126782500515,-1.811641512997815,-0.7390316978200353,-0.07614073467047877,-0.03441064526619454,-0.04182367666123976,-1.156657814919786,-4.376981030394167,-0.7681597616997682,-0.0053865401548201415,-0.0005666724283824522
0.7000000000000001,0.335701547188945,1.1483557178318324,-0.6740684995341073,0.2797770569233617,0.039822012093119814,0.00036417974333950986,0.5666662268607139,-0.8957505917099671,1.661679694112068,0.4729988585890592,0.08279218179478692,-0.00013195278189051383,-0.8451573097410071,-0.03621770417124663,-1.9366654657577276,-0.7698488570122972,-0.09459439884550336,-0.033476142309651555,-0.03886700419818907,-1.0594376531457206,-4.38283546963022,-0.765669123558388,-0.004997228669480219,-0.0005566445243265326
0.71,0.3412856482151295,1.139394613714108,-0.6576452682627831,0.284435436440216,0.0406397483311607,0.0003623686243751162,0.5584101026184513,-0.8961104117724346,1.6423231271324223,0.4658379516854342,0.08177362380408848,-0.00018111189643936688,-0.871230357872674,-0.003936689090243133,-2.058975103323238,-0.7994911838943475,-0.11312543569952505,-0.03234046777432613,-0.03584234464080174,-0.9625089283982315,-4.388619950981498,-0.7632156063271354,-0.004572842864055204,-0.0005462681444263577
0.72,0.34678460337984074,1.1304331232733247,-0.6414277308672217,0.2890192093995603,0.04144600471462479,0.0003600734145170632,0.5498955164711217,-0.896149044078326,1.6217537395561454,0.45837729593442583,0.0806256383464089,-0.00022952098580529854,-0.8946039148505083,0.02795649754117512,-2.1784108570465133,-0.8279451532967794,-0.13155619006779262,-0.031011307213742054,-0.03277640634124337,-0.8659958039895757,-4.394335962056745,-0.7608032429593552,-0.004116059112021567,-0.0005355939008913109
0.73,0.35219609263006185,1.121474420689975,-0.6254277294549977,0.2935254917474437,0.042239504793922564,0.0003573042782268426,0.5411489250221133,-0.8958702583349699,1.6000001412224012,0.45062823478834135,0.07935000792977746,-0.00027691362902205574,-0.9152011018266478,0.05943711461877365,-2.2948203903320303,-0.8552004678017795,-0.1496987988265721,-0.029500265196845274,-0.029694623285276445,-0.7700192397560468,-4.399985924223816,-0.7584362154444705,-0.0036296857009753343,-0.000524672175560925
0.74,0.35751806844888373,1.1125216399400233,-0.609656804958939,0.2979515143141155,0.04301900230355863,0.0003540739949141982,0.5321975818821856,-0.895278074995174,1.577092449605861,0.44260225666718217,0.07794975096360666,-0.0003230283312644392,-0.9329650031150755,0.09048105239874618,-2.408058900466756,-0.8812497700424906,-0.16735926393923228,-0.027822719974378823,-0.02662093712487114,-0.6746964890076114,-4.405573173455806,-0.7561188544565455,-0.0031166348845761385,-0.0005135527147027944
0.75,0.3627487618857271,1.1035778723462966,-0.5941261828152562,0.3022946239747329,0.043783293925268175,0.00035039786425970586,0.5230693436843334,-0.8943767593726707,1.5530622143682857,0.4343109660617387,0.07642916217095423,-0.00036761306544923537,-0.9478605668006641,0.12106491712783682,-2.5179893719127087,-0.906088328623186,-0.1843420502218882,-0.02599752356129817,-0.023577608528021026,-0.5801406496203088,-4.41110193118056,-0.7538556366654587,-0.0025798936094454145,-0.0005022842403399
0.76,0.36788668643850275,1.0946461641973284,-0.5788467594199506,0.3065522845467376,0.044531232163286825,0.00034629356609685116,0.5137924552775694,-0.8931708148968139,1.5279423395305631,0.4257660572004721,0.07479382380186483,-0.00041042981628547267,-0.9598760574582765,0.15116610898024788,-2.6244827816075644,-0.929713706118183,-0.20045503476254445,-0.024046554625547237,-0.0205850608507889,-0.48646027063612785,-4.416577264843553,-0.7516511795056017,-0.0020224934642171432,-0.0004909140850273959
0.77,0.37293063962290696,1.0857295144416763,-0.5638290893824176,0.31072207745130903,0.045261738011520926,0.0003417809764980587,0.5043953184404211,-0.8916649755652116,1.5017670037532913,0.41697929045714305,0.07305058482341018,-0.0004512589598792453,-0.969023985319056,0.18076289480150456,-2.7274182569521157,-0.9521254182195671,-0.21551460112014453,-0.021994141636997463,-0.01766175831255873,-0.3937590147369206,-4.422005038069093,-0.7495102332536748,-0.0014474804437745563,-0.00047948785657837687
0.78,0.3778797021164525,1.076830872465292,-0.5490833735903874,0.31480170216730835,0.04597381307676282,0.00033688194340299264,0.49490624935455685,-0.8898641976384336,1.4745715792030207,0.40796247159993393,0.07120750652418954,-0.000489903309506609,-0.9753414571479079,0.20983447731515054,-2.8266831873108345,-0.9733245933386891,-0.22935065017546852,-0.0198663828435285,-0.014824119941625809,-0.3021353760304349,-4.427391850497606,-0.7474376703308575,-0.000857885147075309,-0.0004680491385338903
0.79,0.3827332344241578,1.06795313595924,-0.5346194480957055,0.31878897650635496,0.04666655082111961,0.0003316200267410738,0.4853532307705295,-0.8877736506052021,1.4463925494681846,0.39872743390466225,0.06927377443567893,-0.0005261916661918859,-0.9788899191508968,0.23836106251016653,-2.9221732900203397,-0.9933136418226622,-0.24181129347282515,-0.017690396896070423,-0.01208646959131791,-0.2116824517493821,-4.432744967580482,-0.7454384718130516,-0.0002566940287165734,-0.00045663923120515854
0.8,0.38749087107640606,1.0590991488849357,-0.5204467738259693,0.32268183673713213,0.04733914660160082,0.00032602020942812464,0.47576366522482416,-0.8853987074304372,1.417267426973628,0.38928602307772,0.06725957804812126,-0.0005599817312949171,-0.9797542897610589,0.2663239268872445,-3.013792632121311,-1.0120959433748782,-0.25276700536017405,-0.015493542590114387,-0.009461021349532191,-0.12248776573571969,-4.438072240820913,-0.7435177112032898,0.0003531776991766019,-0.00044529693692729104
0.81,0.3921525124343237,1.0502716995441044,-0.5065744271227163,0.3264783375857532,0.0479909062153543,0.0003201085867636797,0.4661641357917636,-0.8827449340831244,1.3872346703252958,0.37965008486210505,0.06517596137534708,-0.0005911622664444974,-0.9780415082467138,0.29370548609790187,-3.101453609295484,-1.0296755603436498,-0.2621140368509196,-0.013302647718138522,-0.006957898722693645,-0.034633140974004474,-4.443382019150355,-0.7416805355896718,0.0009689109669992043,-0.00043405839181490287
0.8200000000000001,0.396718314240917,1.0414735187608328,-0.4930110911027469,0.3301766521371053,0.04862125270420134,0.000313912042545025,0.45658018065933437,-0.8798180783271526,1.356333601996941,0.3698314551352119,0.06303464888470453,-0.000619654421865466,-0.973878551770696,0.3204893662648493,-3.1850768838167567,-1.0460569832784685,-0.2697769348920369,-0.011143285411718676,-0.004585185113917852,0.05180538204416897,-4.448683052317331,-0.7399321443773075,0.0015878050741427853,-0.0004229569448771576
0.8300000000000001,0.40118867511404877,1.0327072781833633,-0.4797650478352631,0.33377507165963205,0.04922973122964052,0.0003074579205968612,0.44703608731317157,-0.8766240577469527,1.3246043267483791,0.3598419522526751,0.06084785254391838,-0.0006454121948163842,-0.9674099969411574,0.34666047894091173,-3.264591283700165,-1.0612449136612732,-0.27571006224856465,-0.009039131767137748,-0.002349002375525772,0.13675758469806518,-4.453984387330062,-0.7382777658408347,0.0022072968583819247,-0.0004120230839149089
0.84,0.40556422222735194,1.0239755887136461,-0.46684417132386674,0.33727200537313523,0.04981601189615787,0.0003007737003740365,0.43755471133031587,-0.8731689469717057,1.2920876511396326,0.3496933713503198,0.05862806665173531,-0.0006684220222824721,-0.9587952204823768,0.3722051002597201,-3.3399336656382927,-1.0752440871011846,-0.27989807106465237,-0.007011431609972196,-0.0002536136311783836,0.22015907116546468,-4.459295259130329,-0.7367226317927078,0.002824976531296733,-0.0004012844062689944
0.85,0.4098457954651243,1.0152809990730687,-0.454255921279095,0.34066598017600674,0.05037989047262176,0.00029388668484390016,0.42815732377723137,-0.8694589640577468,1.2588250044771765,0.3393974802871522,0.05638785764638896,-0.0006887015530136308,-0.948205346300776,0.39711095438199495,-3.4110487447407367,-1.088059138620368,-0.2823553424483698,-0.005078590763523141,0.001698453844571503,0.30195123483045383,-4.464624976778117,-0.7352719506998213,0.0034386000180449024,-0.0003907656312894507
0.86,0.41403443036556026,1.0066259945131792,-0.44200733766412204,0.3439556403449728,0.05092128703454005,0.0002868237080390731,0.4188634900435948,-0.8655004559889469,1.224858361497292,0.3289660168966012,0.05413965619182911,-0.0007062976804827079,-0.935820052343633,0.42136730086901436,-3.4778888945039963,-1.0996945100871969,-0.28312446030996963,-0.0032559040045344045,0.0035062701210334096,0.3820811941266455,-4.469982806492738,-0.7339308796061692,0.0040460977569442905,-0.00038048865041044773
0.87,0.4181313401825769,0.9980129956805842,-0.4301050359935477,0.34713974721707386,0.05144024261983691,0.00027961086856017334,0.40969098170166823,-0.8612998832594992,1.1902301670574342,0.31841068721010896,0.051895558529686275,-0.0007212839478899755,-0.9218243502153416,0.4449650251467587,-3.5404139208185983,-1.1101543984365367,-0.2822738359354655,-0.0015554189267421997,0.005170352945726409,0.46050170171398735,-4.475377852925432,-0.73270449523182,0.0046455800269712124,-0.00037047260998399544
0.88,0.4221378973999657,0.989444357645458,-0.41855520336285046,0.35021717886032755,0.0519369140537714,0.00027227329398711543,0.4006557217388794,-0.8568638035126238,1.1549832630697245,0.3077431643253668,0.049667143393449235,-0.0007337574573057917,-0.9064054440195207,0.4678967307851633,-3.598590814141519,-1.1194427421315893,-0.2798946371638542,1.4072042973628518e-05,0.006692511244840771,0.5371710307641332,-4.480818940033462,-0.7315977646191736,0.005235338973616958,-0.0003607340215656472
0.89,0.4260556150233753,0.9809223691032388,-0.4073635951841339,0.35318692973641863,0.052411567151552534,0.0002648349397203524,0.39177176234096145,-0.8521988542219207,1.1191608178716588,0.29697508760911,0.04746530977811361,-0.0007438354266763029,-0.8897497632553475,0.49015683192929155,-3.6523934842063026,-1.1275632424020738,-0.2760972006002872,0.0014469256916946616,0.00807568582857467,0.6120528419565049,-4.486314492889562,-0.7306155156873707,0.005813847590873242,-0.0003512868941544042
0.9,0.4298861279570306,0.9724492517590491,-0.39653553260225,0.3560481103559115,0.05286456854787355,0.0002573184243124075,0.38305129336552474,-0.8473117344189802,1.0828062581883915,0.2861180619492865,0.045300139632101624,-0.000751651540794488,-0.8720402490455615,0.5117416438981848,-3.701802481796566,-1.134519415149441,-0.2710071163870704,0.0027404469252477748,0.009323790933660774,0.6851160345788104,-4.491872421698644,-0.7297624080366022,0.006379755986130632,-0.00034214288294516623
0.91,0.4336311747448972,0.9640271599041417,-0.38607590056425767,0.35879994692392586,0.05329637642975072,0.0002497449019487968,0.37450467878666255,-0.8422091854907336,1.0459632037992312,0.2751836568014357,0.043180788187716465,-0.0007573522363610713,-0.8534539549044154,0.5326494697294204,-3.746804712163122,-1.140314669033959,-0.26476117329781224,0.0038946139634133126,0.010441559744478652,0.7563345848949181,-4.497500009211481,-0.7290429043179224,0.006931885303692334,-0.0003333114494198652
0.92,0.43729257992227893,0.9556581801932205,-0.3759891465144679,0.3614417809719976,0.05370753046246145,0.00024213397146528718,0.36614051773817063,-0.8368979710921183,1.0086754049789735,0.2641834048071747,0.041115403271072534,-0.0007610930483509605,-0.8341600040861088,0.5528806802954421,-3.787393144618875,-1.1449524051169515,-0.2575033389364586,0.004911752037447259,0.011434396493778101,0.8256873746992944,-4.503203802628914,-0.7284612424531234,0.007469219711144389,-0.0003248000280376339
0.93,0.4408722371857476,0.9473443316307893,-0.3662792796870357,0.36397306896996784,0.05409864119868998,0.00023450362019648808,0.3579657263468653,-0.8313848562431103,0.9709866827432215,0.2531287997970265,0.03911107362285295,-0.0007630351268799095,-0.8143179266008519,0.572437785558987,-3.823566522703134,-1.1484361334813293,-0.24938092798726008,0.005796176999194463,0.012308237187303062,0.8931580127287903,-4.5089895109853195,-0.7280214089553265,0.007990896862026205,-0.00031661419533614776
0.9400000000000001,0.4443720935489805,0.939087565773758,-0.35694987096816927,0.3663933819102082,0.05447037924960916,0.0002268702000709217,0.34998563632329016,-0.8256765857031394,0.9329408718866452,0.2420312940240359,0.03717380509191852,-0.0007633420125566392,-0.7940763813608558,0.5913254945639129,-3.8553290790755548,-1.1507696024492873,-0.2405410835172156,0.006553828230236536,0.01306942045251352,0.9587346513543837,-4.5148619088921516,-0.727727113566064,0.008496197240219732,-0.0003087578378770501
0.9500000000000001,0.4477941346114497,0.930889767156363,-0.34800405330051964,0.36870240485528477,0.05482346447549974,0.00021924843271346324,0.3422041062469211,-0.819779861739504,0.8945817667649606,0.23090229450765798,0.035308522589058054,-0.0007621767357458445,-0.7735722534731474,0.6095507618730334,-3.8826902589868135,-1.151956936320147,-0.23112766510070681,0.007191907366126571,0.01372456950362742,1.0224098007314928,-4.520824747415014,-0.7275817653902749,0.0089845327690748,-0.00030123331611445073
0.96,0.45114037102764526,0.9227527539420749,-0.3394445226031598,0.37089993643927,0.055158655424904376,0.00021165143988434608,0.33462364161955926,-0.8137013214288036,0.8559530697359797,0.2197531583985214,0.03351909494046368,-0.0007596992829117162,-0.7529301039909227,0.6271228183538872,-3.905664455801355,-1.152002777897403,-0.22127860564312896,0.007718536044500346,0.014280485760579855,1.084180142349076,-4.526880672754504,-0.727588450678042,0.009455435034780609,-0.0002940416218995513
0.97,0.4544128262279554,0.9146782788055661,-0.33127353918173075,0.3729858883123061,0.05547673921761573,0.00020409079535905022,0.3272455200310139,-0.8074475136508774,0.8170983421429061,0.20859518730361262,0.0318083792711351,-0.0007560644525295867,-0.732261939748955,0.6440531844720211,-3.9242707616129544,-1.150912432473561,-0.21112376843118152,0.00814244245065504,0.014744054269170831,1.144046343686346,-4.533031153303696,-0.7277499123718416,0.009908543432256221,-0.000287182527928241
0.98,0.4576135254094579,0.90666803004604,-0.3234929296047834,0.37496028451768426,0.05577852203031916,0.00019657659431012985,0.32006991815024693,-0.8010248759526013,0.7780609576947374,0.19743962053781747,0.030178281270343332,-0.0007514201048920383,-0.7116672642650727,0.6603556645636124,-3.9385327355290194,-1.1486920103193494,-0.2007833088437812,0.00847268314938332,0.015122160748787689,1.2020128754613308,-4.539276415565001,-0.728068531511071,0.010343593496095344,-0.0002806547279717548
0.99,0.46074448578634186,0.8987236329313039,-0.3161040890240384,0.37682326079060197,0.05606482030654809,0.0001891175363595768,0.3130960376884011,-0.79443971147362,0.7388840580744949,0.18629762729177052,0.028629827622892706,-0.0007459057950553047,-0.6912333669096845,0.6760463209164146,-3.948478191700707,-1.1453485651143147,-0.19036652244240027,0.008718403746375614,0.0154216198428416,1.258087832737912,-4.54561538932648,-0.7285463105618493,0.010760405631750136,-0.00027445596719159
