tonegas/nnodely-applications/joint_friction_estimation/dataset/train/mpc_mujoco_episode_31.csv
time,q1,q2,q3,q4,q5,q6,dq1,dq2,dq3,dq4,dq5,dq6,ddq1,ddq2,ddq3,ddq4,ddq5,ddq6,tau1,tau2,tau3,tau4,tau5,tau6
0.0,0.0,1.57,-1.57,0.0,0.0,0.0,0.0,0.0,0.0,0.0,0.0,0.0,3.4235602919274184,-3.1105387244184564,4.533302780471464,2.0260304024178852,0.506032396674776,-3.7849874425788244e-06,0.47753478852384285,-5.274664500333664,-4.399954328538656,-0.9590637292108742,0.043077643774634466,8.406907791138924e-05
0.01,0.000340596975720496,1.5696915745637672,-1.56954951981707,0.00018827214235356892,4.253726704100345e-05,5.403355463780735e-07,0.0340596975720496,-0.03084254362328192,0.04504801829302246,0.018827214235356892,0.004253726704100345,5.403355463780735e-05,3.383618727134053,-3.0546266098029906,4.5050174557613065,1.882762828457846,0.42416831342694117,0.0054032084994224405,0.4738143058311425,-5.257234278002806,-4.394460979571188,-0.9578839409946955,0.04276941733851774,8.052863221076493e-05
0.02,0.0010175528624243695,1.569080366371263,-1.568652173594948,0.0005534621637182296,0.00012251399112983512,1.6459218982388614e-06,0.06769558867038736,-0.061120819250433694,0.08973462221220527,0.03651900213646607,0.007997672408883166,0.00011055863518607878,3.339572016868577,-2.9962515164782944,4.468586000156492,1.768871689881638,0.3732792691259661,0.005649578979893377,0.46896030395379484,-5.23668193632389,-4.388367270776948,-0.9565170451849584,0.04238750084145237,7.564331150148912e-05
0.03,0.0020263283077912027,1.5681722387184682,-1.5673121743166758,0.0010864460875794624,0.0002366994856153081,3.28164937190531e-06,0.10087754453668332,-0.09081276527947293,0.13399992782721062,0.053298392386123265,0.0114185494485473,0.00016357274736664485,3.2925112518143145,-2.9358079517516207,4.426116613974478,1.6772453850503313,0.34122571473712426,0.0052883025726950805,0.46302830301555303,-5.213143152349213,-4.38173447605309,-0.9549781941245212,0.04193507525002994,6.946750441738582e-05
0.04,0.003362148904030429,1.5669732420633815,-1.5655341748065372,0.0017797908378157134,0.0003829997465590198,5.41539730387367e-06,0.13358205962392264,-0.11989966550867893,0.177799951013856,0.06933447502362511,0.014630026094371171,0.00021337479319683607,3.243100913755449,-2.8736272178750375,4.379195825616121,1.6024766830740198,0.32069249819697276,0.00494735382816458,0.456077158465512,-5.186755249383311,-4.3746241691344245,-0.953282396745179,0.04141542930317554,6.20571127571308e-05
0.05,0.0050200458067734405,1.5654895854744986,-1.5633231485327033,0.0026273439406386536,0.0005600158771866347,8.02312397209482e-06,0.16578969027430113,-0.14836565888830533,0.22110262738339975,0.08475531028229402,0.017701613062761492,0.000260772666822115,3.1917494336978014,-2.809992385620674,4.329011029361841,1.5404532557703527,0.3072542771442546,0.004676493978764018,0.44816834752121754,-5.15765674783217,-4.367098102259001,-0.9514445147742698,0.04083191978515126,5.34683725162303e-05
0.06,0.006994881007783884,1.5637276118258627,-1.5606843009163047,0.0036239214093689047,0.000766776618026479,1.1086774429857815e-05,0.19748352010104442,-0.1761973648635938,0.26388476163985575,0.09965774687302509,0.020676074083984426,0.00030636504577629954,3.138711687469083,-2.745149387949473,4.276443880948529,1.4880474901381717,0.298227654350816,0.0044540844896228116,0.4393653667786133,-5.125986838844232,-4.359218037611405,-0.9494792411690132,0.040187944654559056,4.375739044289433e-05
0.07,0.009281363435108934,1.5616937758861384,-1.5576230040443548,0.004765070282639947,0.001002576007288592,1.4592169593601822e-05,0.22864824273250497,-0.20338359397241737,0.30612968719498607,0.1141148873271042,0.02357993892621131,0.00035053951637440073,3.084150666772982,-2.679315272710104,4.222141661055067,1.4428803976090832,0.29198120512718084,0.0042584516201031875,0.4297331971901234,-5.091884819997353,-4.351045552825053,-0.9474010680845338,0.03948692343063724,3.298001979500586e-05
0.08,0.011874059594842577,1.559394624671382,-1.5541447493550573,0.0060468878954572204,0.0012668745649163954,1.8527561527087988e-05,0.2592696159733644,-0.22991512147564777,0.3478254689297525,0.12818176128172737,0.026429855762780327,0.00039353919334861656,3.0281746082731136,-2.6126843471735692,4.1665718425337,1.4031418464898948,0.28751924287633557,0.0040746121020522885,0.4193378140372562,-5.0554895159585405,-4.342641833176826,-0.9452242489120677,0.038732281793048905,2.1191876260215152e-05
0.09,0.014767400989429122,1.5568367795953861,-1.5502551141396084,0.00746588424057431,0.0015592388748121653,2.2882702652804144e-05,0.28933413945865444,-0.255784507599576,0.3889635215449019,0.141899634511709,0.02923643098957699,0.00043551411257161557,2.9708593533705465,-2.545432748699244,4.110063839377975,1.3674537406515554,0.28423043669634573,0.0038926950533579863,0.40824573111675394,-5.016938697379484,-4.334067458029665,-0.9429627572348769,0.037927438750503646,8.448398117406322e-06
0.1,0.017955689657151573,1.5540269200734895,-1.5459597386778674,0.00901887704071558,0.0018793043854851816,2.7648247834720265e-05,0.318828866772245,-0.2809859521896608,0.4295375461741049,0.15529928001412702,0.03200655106730164,0.00047655451819161203,2.912261813803008,-2.4777218365389495,4.052840977242206,1.3347659467229738,0.28173591875665593,0.0037061092283598995,0.39652357454789583,-4.976368505816649,-4.325382186137759,-0.9406302445261866,0.03707579550664973,-5.195091569412799e-06
0.11,0.021433102641390245,1.550971768326703,-1.541264311567364,0.010702911639809139,0.0022267522557840452,3.281536503188558e-05,0.3477412984238672,-0.30551517467865325,0.46954271105031975,0.16840345990935585,0.03474478702988634,0.0005167117197165317,2.8524280785831513,-2.4097006991558056,3.99504500946995,1.3042771815189198,0.2797974799196705,0.003510294075109943,0.38423768480585835,-4.933912889522121,-4.316644742750873,-0.9382399977933257,0.03618072557681549,-1.968333646671825e-05
0.12,0.025193695875386307,1.5476780752009673,-1.5361745613705302,0.012515199716819001,0.002601294701095915,3.837547622838734e-05,0.37605932339960624,-0.32936931257356894,0.5089750196833905,0.18122880770098618,0.03745424453118698,0.0005560111196501761,2.7913982915052538,-2.3415079976682613,3.9367549542082063,1.2753749134604542,0.27826207008229,0.0033019387687636126,0.37145374713387824,-4.889703053488595,-4.307912610514057,-0.9358048979959496,0.035245565940306506,-3.49611156650225e-05
0.13,0.029231407773807894,1.5441526068671343,-1.5306962531355486,0.014453072269223318,0.0030026654882038344,4.432008015850686e-05,0.4037711898421585,-0.35254683338329923,0.5478308234981637,0.1937872552404317,0.04013707871079197,0.000594460393011952,2.7292095823474334,-2.273273311448263,3.8780016080634283,1.2475897410576051,0.2770282390957366,0.0030785031903524107,0.3582364511317871,-4.843866926505754,-4.29924182564367,-0.9333373798373247,0.03427360913600345,-5.097322789555014e-05
0.14,0.033540062705361764,1.5404021323051678,-1.5248351886737916,0.016513943411938733,0.0034306135523577115,5.064062683961079e-05,0.43086549315538736,-0.37504745619664426,0.5861064461756835,0.20608711427154153,0.04279480641538772,0.0006320546681103929,2.6658978254139143,-2.2051181112464597,3.8187787701139495,1.2205607890269041,0.27602584016191045,0.002837925639781691,0.3446491804741231,-4.796528647812291,-4.290686780586466,-0.9308493933876317,0.03326809627187556,-6.76644879565178e-05
0.15,0.03811337445028657,1.5364334115042615,-1.5185972097259302,0.018695282373502174,0.0038848985113255547,5.732842530816326e-05,0.45733117449248056,-0.3968720800906362,0.6237978947861489,0.21813389615634418,0.04542849589678433,0.0006687798468552465,2.6014986920436005,-2.1371564547799022,3.7590519640347324,1.1940094857133774,0.2752037515670498,0.002578445193788692,0.33075373360551524,-4.747808075983905,-4.282300034227253,-0.9283523679113721,0.03223221094838412,-8.497973195312978e-05
0.16,0.04294494970428063,1.5322531843314386,-1.5119882033381584,0.020994591707167606,0.004365287335622212,6.437457296915672e-05,0.48315752539940576,-0.41802271728229023,0.660900638777169,0.229930933366543,0.048038882429665704,0.0007046147660993464,2.5360482785731144,-2.0694954768425307,3.6987652579850665,1.1677197137790927,0.27452244711184903,0.0022984945620372343,0.3166100760197105,-4.697820322853007,-4.274132130639742,-0.9258571782152497,0.031169074106386543,-0.00010286382850705926
0.17,0.048028291665086986,1.527868160036509,-1.505014108913901,0.023409390217999867,0.004871551727061438,7.176989930973677e-05,0.5083341960806356,-0.43850242949296875,0.6974094424257343,0.241479851083226,0.05062643914392258,0.0007395326340580056,2.469583479531568,-2.0022357287555907,3.637846638230734,1.141522805274941,0.2739494991231588,0.0019966364824370864,0.30227612442025686,-4.6466753154368,-4.266231427338032,-0.9233741137949137,0.030081739810264012,-0.00012126169382585235
0.18,0.05335680372284,1.5232850073723345,-1.4976809265157482,0.025937199474445703,0.005403465934965307,7.950491942763794e-05,0.5328512057753013,-0.4583152664174469,0.7333182398152754,0.2527809256445836,0.053191420790386905,0.0007735020117901172,2.4021422084027932,-1.9354714089415983,3.5762122827643243,1.1152862175046314,0.2734568555230279,0.0016715271612666172,0.2878075627234992,-4.594477389014752,-4.2586439339621185,-0.9209128510303176,0.02897319197113114,-0.00014011830923877521
0.19,0.0589237932663019,1.5185103453172115,-1.4899947260755622,0.028575533051968832,0.00596080484656034,8.756979451481244e-05,0.5566989543461904,-0.4774662055123073,0.768620044018598,0.2638333577523131,0.055733891159503335,0.0008064875087174502,2.333763527560431,-1.8692905165316072,3.5137699974949372,1.088905004318903,0.27301919034971434,0.00132189662091875,0.2732576895198163,-4.5413249146194445,-4.251413162307328,-0.9184824286549478,0.027846342005691884,-0.00015937874042601597
0.2,0.0647224756118273,1.5135507343915624,-1.481961657234051,0.031321887868269296,0.006543342252957253,9.595429750149848e-05,0.5798682345525404,-0.49596109256492077,0.8033068841511223,0.27463548163004625,0.05825374063969131,0.0008384502986686045,2.2644877243780344,-1.803774952418358,3.450422013757525,1.0622954093167358,0.2726129039374676,0.0009465397102841333,0.25867729626977554,-4.4873099642730585,-4.244579988578218,-0.9160912267007303,0.026704027415044136,-0.000178988158073112
0.21,0.07074597805880485,1.508412668564629,-1.4735879595794739,0.03417373713044093,0.00715084923137456,0.00010464778274225967,0.6023502446977552,-0.5138065826933294,0.8373697654577267,0.2851849262171633,0.06075069784173072,0.0008693485240761191,2.1943563556578725,-1.739000586457093,3.3860672972471204,1.0353900686553095,0.272215516303536,0.0005443138965461891,0.24411457518639076,-4.432518017305512,-4.238182528707855,-0.9137469490959759,0.025549011255377025,-0.0001988918600776181
0.22,0.076987344073543,1.5031025677489036,-1.464879973092215,0.037128524536384586,0.007783092608034978,0.00011363915905833699,0.6241366014738157,-0.5310100815725377,0.870798648725884,0.29547874059436574,0.06322433766604184,0.0008991376316077322,2.1234122735574497,-1.6750373051522622,3.3206034814318306,1.008134433788097,0.2718052984494541,0.00011414142759735846,0.22961505544897023,-4.377027711025327,-4.232256027532146,-0.9114566100673691,0.024383982459622214,-0.00021903529573482115
0.23,0.08343953760255174,1.49762677088096,-1.4558441486305576,0.040183659465187316,0.008439833480548586,0.00012291686572992103,0.6452193529008733,-0.5475796867943491,0.9035824461657491,0.30551349288027335,0.0656740872513607,0.0009277706671584042,2.0516996407947903,-1.6119490508201637,3.253928510294797,0.9804841176926731,0.2713610474433459,-0.0003449856579189614,0.21522156611284304,-4.320910638876328,-4.226832762544184,-0.909226524467982,0.023211556956125128,-0.00023936409254870003
0.24,0.09009544751560039,1.4919915295874233,-1.4464870583152416,0.043336512961069,0.009120825787292222,0.00013246885121321448,0.6655909913048654,-0.5635241293536857,0.9357090315315993,0.31528534958816856,0.06809923067436364,0.0009551985483293442,1.979263939677873,-1.549793860631093,3.185942053797898,0.9524029390168733,0.2708619481209382,-0.0008339986133596433,0.20097422382657998,-4.264231199001011,-4.221941962876133,-0.9070623021216491,0.02203427951762357,-0.0002598240864675127
0.25,0.09694789217861087,1.4862030024342225,-1.4368154056879436,0.04658441436825976,0.009825814916533648,0.00014228255447559812,0.6852444663010483,-0.5788527153200851,0.9671652627297916,0.32479014071907564,0.07049891292414256,0.0009813703262383652,1.9061519775796611,-1.4886239119242748,3.1165467431526954,0.9238614924386228,0.2702874866079732,-0.0013537437724231438,0.18691044324777875,-4.207046495844048,-4.217609744065528,-0.9049688462397335,0.020854626261561333,-0.0002803613564407875
0.26,0.10398962415626162,1.4802672497561913,-1.4268360355328904,0.04992464851388685,0.010554536351182052,0.00015234488891941304,0.7041731977650748,-0.5935752678031275,0.9979370155053141,0.3340234145627089,0.07287214346484044,0.0010062334443814921,1.8324118903539088,-1.428485578610241,3.0456492606135073,0.8948361144363011,0.2696173944029283,-0.0019049734086180603,0.1730649678631662,-4.1494062970678485,-4.213859059060412,-0.9029503559297457,0.019675007711296776,-0.0003009222642445958
0.27,0.11121333504406646,1.4741902290626097,-1.4165559432623702,0.05335445336571834,0.0113067143468911,0.00016264222891515181,0.7223710887804832,-0.6077020693581634,1.028009227052007,0.34298048518314855,0.07521779957090474,0.0010297339995738778,1.7580931445463466,-1.3694195022215336,2.9731613091300555,0.865308144765593,0.2688316099711674,-0.0024883359019847173,0.15946991877138686,-4.091353047618528,-4.210709665804223,-0.9010103327769214,0.01849777231735553,-0.0003214535005305283
0.28,0.1186116604296183,1.4679777910125464,-1.4059822837766363,0.05687101811378952,0.012082060642292626,0.0001731603989969667,0.739832538555185,-0.6212438050063217,1.057365948573387,0.3516564748071178,0.07753462954015253,0.0010518170081814894,1.683246538910525,-1.3114606801643536,2.8990004801206744,0.8352634075585703,0.2679102498120951,-0.0031043653425211204,0.14615485887962215,-4.03292194227876,-4.208178111618213,-0.8991515914402216,0.017325210328779473,-0.0003419021380257706
0.29,0.1261771849826339,1.4616356759519242,-1.3951223797171435,0.060471481641317174,0.012880273200700983,0.00018388466579340269,0.7565524553015588,-0.6342115060622203,1.085990405949282,0.36004635275276536,0.07982125584083569,0.0010724266796435981,1.6079242055728318,-1.2546385728996954,2.8230910323032266,0.8046918539089516,0.26683358404009105,-0.003753470639917822,0.1331468698997523,-3.9741410574792986,-4.206277734468563,-0.8973762741641282,0.01615955789707507,-0.00036221569274935255
0.3,0.13390244767339565,1.4551695110021698,-1.3839837290396282,0.06415293136224673,0.013701034982885829,0.00019479973277798621,0.7725262690761774,-0.646616494975443,1.113865067751528,0.36814497209295566,0.08207617821848455,0.0010915066984583525,1.5321796111333021,-1.1989772310999065,2.7453645905457496,0.773587321466005,0.26558201345933785,-0.004435924160046234,0.12047063950718362,-3.915031542520098,-4.205018681068496,-0.8956858690676498,0.015003001289484775,-0.00038234219401694247
0.31,0.14177994711916267,1.4485848076881822,-1.3725740118405263,0.06791240241131434,0.014544012750581932,0.00020588973793048588,0.7877499445767004,-0.6584703313987542,1.1409717199101803,0.3759471049067612,0.08429777676961026,0.0011090005152499674,1.4560675579949014,-1.1444954432502572,2.665760770749964,0.7419473769721723,0.2641360463638067,-0.0051518498783997835,0.10814855604608631,-3.855607869683906,-4.204407941625466,-0.894081232032985,0.013857681084488725,-0.0004022302638845952
0.32,0.14980214705811695,1.4418869600912023,-1.3609010963768475,0.07174687717843006,0.01540885590036396,0.0002171382544021544,0.8022199938954283,-0.6697847596979901,1.1672915463678741,0.383447476711572,0.0864843149782028,0.0011248516471668519,1.3796441862527087,-1.09120690367533,2.5842277346450353,0.7097732155832359,0.2624762741567812,-0.005901211014025964,0.09620080822826918,-3.795878142019826,-4.204449400901585,-0.8925626119791243,0.012725696220751188,-0.0004218292065343274
0.33,0.15796148195043347,1.43508124351004,-1.3489730442260428,0.07565328518310034,0.01629519532741405,0.0002285282942784791,0.8159334892316505,-0.680571658116245,1.192805215080481,0.3906408004670272,0.08863394270500911,0.0011390039876324706,1.3029669765280776,-1.0391204005442805,2.5007226768253035,0.6770695969096661,0.26058334551566187,-0.006683797099389155,0.08464548737818367,-3.7358444568435862,-4.205143905114753,-0.8911296792710027,0.011609107771285723,-0.0004410891079321722
0.34,0.16625036270611643,1.4281728136120513,-1.3367981145387269,0.07962850328697228,0.017202642318588132,0.00024004231553180757,0.828888075568297,-0.6908429897988672,1.2174929687315952,0.3975218103871944,0.0907446991174083,0.0011514021253328443,1.2260947541852918,-0.9882400230413316,2.4152122453235236,0.6438448023427537,0.2584379393450176,-0.007499210426107239,0.07349868992174644,-3.675503322257596,-4.206489344070321,-0.8897815569834344,0.010509942317508814,-0.0004599609458978239
0.35000000000000003,0.17466118253934124,1.421166706053288,-1.3243847673434208,0.0836693562437518,0.01813078747407414,0.0002516622322545445,0.8410819833224814,-0.7006107558763398,1.241334719530608,0.40408529567795143,0.09281451554860082,0.0011619916722736983,1.149087695410697,-0.9385653865650523,2.3276728963188758,0.610110601834597,0.25602073720618,-0.008346851811628975,0.06277461799918913,-3.614846123252044,-4.2084807477816835,-0.8885168547116785,0.009430194803121423,-0.0004783967105142859
0.36,0.18318632294918333,1.4140678365453907,-1.3117416658688015,0.08777261758599841,0.01907919965685751,0.000263369428261911,0.8525140409842085,-0.7098869507897252,1.2643101474619247,0.4103261342246616,0.09484121827833712,0.001170719600736651,1.0720073356555746,-0.8900918745400338,2.2380911831901162,0.5758822210750454,0.25331239634082703,-0.009225905628289066,0.05248567629866038,-3.553859633222011,-4.211110396714343,-0.8873337045975684,0.008371830755397063,-0.0004963495345832424
0.37,0.19181815982680936,1.4068810013451072,-1.2988776778553148,0.09193501084784579,0.02004742496919152,0.0002751447741520915,0.8631836877626035,-0.7186835200283483,1.2863988013486654,0.4162393261847377,0.09682253123340107,0.001177534589018048,0.9949165809383843,-0.8428108951819192,2.1464639799500613,0.5411783021860339,0.2502935248159903,-0.010135324079918129,0.04264256345375511,-3.4925265660411235,-4.2143679446748745,-0.8862297992223633,0.007336787771400496,-0.000513773833598582
0.38,0.2005490696894521,1.3996108781407859,-1.285801875834418,0.09615321112170627,0.021034985755335352,0.0002869686479108105,0.8730909862642741,-0.7270123204321263,1.3075802020896823,0.4218200273860486,0.09875607861438317,0.0011823873758718955,0.9178797224604776,-0.7967101513514249,2.0527986391036337,0.5060208527712948,0.2469446607338388,-0.011073810688832286,0.03325435661983006,-3.4308261631841193,-4.218240553264979,-0.8852024310050524,0.006326976178807751,-0.0005306254544726863
0.39,0.20937143604178715,1.3922620273088686,-1.2725235363601641,0.10042384694562537,0.022041379629994702,0.0002988209591478565,0.8822366352335059,-0.7348850831917377,1.3278339474253915,0.42706358239191,0.10063938746593482,0.001185231123704603,0.840962454906936,-0.7517739214614412,1.957113084109485,0.47043517952768177,0.24324625785941034,-0.012039803042246722,0.024328588135600182,-3.3687348098041183,-4.222713036733624,-0.8842485327381315,0.005344278795183793,-0.0005468618320124784
0.4,0.21827765586567272,1.3848388935122786,-1.2590521381842963,0.10474350251626513,0.023066078532200843,0.00031068117705404465,0.8906219823885559,-0.7423133796589997,1.3471398175867892,0.43196555706397655,0.10246989022061419,0.0011860217906188146,0.7642318986736913,-0.7079833492654679,1.859435836865489,0.4344498037349398,0.23917868042575074,-0.013031454865518266,0.01587131348230128,-3.3062266731596246,-4.2277680159884135,-0.8833647188919106,0.0043905497255962034,-0.0005624421519090571
0.41000000000000003,0.22726014623959173,1.3773458076117016,-1.2453973593724565,0.10910872022060313,0.024108527804816544,0.0003225283621689079,0.8982490373919005,-0.7493085900576999,1.3654778811839818,0.436521770433799,0.10424492726157017,0.0011847185114863287,0.6877566260790579,-0.6653167402542132,1.7598059809573479,0.39809635684511546,0.23472221026498952,-0.014046617550431573,0.007887170066484622,-3.243274356364332,-4.233386080471689,-0.8825473273231639,0.003467612156049238,-0.0005773275187821262
0.42,0.23631135108953613,1.3697869888600809,-1.2315690733654945,0.11351600347740885,0.025168145300481958,0.00033434120205175997,0.9051204849944393,-0.7558818751620717,1.3828286006961965,0.44072832568057213,0.10596174956654147,0.001181283988285207,0.6116066913773135,-0.6237498623182356,1.6582730617752373,0.3614094551589311,0.22985706977592057,-0.015082821356891818,0.00037942666778992273,-3.1798495601112067,-4.2395459565684455,-0.8817924610342783,0.0025772551191248633,-0.0005914811276124828
0.43,0.24542374807347422,1.362166547350217,-1.2175773439961448,0.11796181987746536,0.026244320515629943,0.0003460980509509969,0.9112396983938078,-0.7620441509863917,1.3991729369349568,0.44458164000565065,0.10761752151479838,0.0011756848899236957,0.5358536640910216,-0.5832562483022277,1.5548969250132814,0.32442655320546177,0.2245634645557688,-0.016137256577857195,-0.006649976296744353,-3.1159237448109676,-4.246224681191907,-0.8810960296445445,0.001721229228096751,-0.0006048684367084628
0.44,0.25458985560191966,1.354488486685165,-1.2034324194774826,0.12244260460939235,0.027336413755224588,0.0003577769735682689,0.9166107528445426,-0.7678060665052026,1.4144924518662292,0.44807847319269967,0.10920932395946455,0.0011678922617271964,0.4605706648155123,-0.543807498075039,1.4497474954894498,0.28718777599028256,0.2188216497781732,-0.017206755063451984,-0.01320039524177885,-3.0514687854911036,-4.253397779188575,-0.8804537902555082,0.0009012413962884765,-0.0006174573401885246
0.45,0.26380223999744234,1.3467567068411679,-1.189144725385523,0.1269547641558452,0.028443755332122317,0.0003693557930146163,0.9212384395522716,-0.773177984399716,1.4287694091959589,0.45121595464528486,0.11073415768977304,0.0011578819446347401,0.3858324022233551,-0.5053735777716909,1.3429044986507195,0.24973573075459798,0.2126120245684171,-0.018287772611399356,-0.01927245988579998,-2.986457611830321,-4.261039443217426,-0.8798613874167377,0.00011894857921669784,-0.0006292183378279339
0.46,0.2730535227961898,1.3389750071931443,-1.174724856664058,0.1314946802428524,0.02956564480643003,0.0003808121430539451,0.9251282798747432,-0.7781699648023567,1.4419868721465048,0.4539916087007223,0.11218894743077137,0.001145635003932883,0.31171520951153553,-0.4679231139270177,1.234457127553617,0.2121152992925852,0.20591525868506388,-0.019376372852805746,-0.024868056739909356,-2.920864825856795,-4.269122714786387,-0.879314391926233,-0.0006240494022830192,-0.0006401247000148249
0.47000000000000003,0.2823363881945774,1.3311470896732593,-1.1601835686852682,0.1360587140231479,0.03070135027194208,0.00039212352472425436,0.9282865398387641,-0.7827917519884976,1.4541287978789907,0.45640337802954867,0.11357054655120497,0.0011311381670309232,0.23829707799436667,-0.4314236803131864,1.1245036585142494,0.1743734122307381,0.19871245573945695,-0.02046821338966845,-0.02999031840100086,-2.8546672901164336,-4.27761966517254,-0.8788083382303474,-0.001326217879583539,-0.0006501526254934481
0.48,0.2916435906442113,1.3232765620338345,-1.1455317674047854,0.14064321047258432,0.03185010769867277,0.0004032673674176579,0.9307202449633906,-0.7870527639424751,1.465180128048276,0.4584496449436416,0.11487574267306871,0.0011143842693403505,0.1656576849596532,-0.39584207541353955,1.0131510189965705,0.13655880699780365,0.19098535693930418,-0.0215585350711901,-0.03464361724635015,-2.78784467951616,-4.286501575008867,-0.8783387602205628,-0.0019860960967765604,-0.0006592813895424058
0.49,0.30096796259776626,1.3153669411867919,-1.1307804986546575,0.14524450297710986,0.0330111203426503,0.0004142210944851659,0.9324371953554965,-0.7909620847042587,1.4751268750127948,0.4601292504525543,0.1161012643977536,0.0010953727067507988,0.09387841228733972,-0.36114458861121557,0.9005143116554682,0.09872177146886241,0.18271658889983367,-0.022642155431950334,-0.03883356197554588,-2.7203799905607684,-4.2957391113882615,-0.8779012252580546,-0.002602306598408894,-0.0006674934802442312
0.5,0.31030242240790307,1.3074216565929526,-1.1159409366220512,0.1498589180863744,0.03418355823647844,0.00042496219340989777,0.9334459810136791,-0.7945284593839194,1.483956203260626,0.46144151092645264,0.1172437893828138,0.0010741098924731884,0.023042351694935636,-0.32729725333833776,0.7867162987464765,0.060913875519460925,0.17388995839990998,-0.02371346740552413,-0.04256699533774179,-2.6522600023211043,-4.305302501412726,-0.8774913662906517,-0.0031735651121546377,-0.0006747747205506757
0.51,0.31963998238030367,1.2994440536758174,-1.1010243715654982,0.15448278040882546,0.035366557776668424,0.00043546829056189816,0.9337559972400609,-0.7977602917135175,1.491656505655296,0.46238623224510816,0.11829995401899879,0.001050609715200041,-0.046765708154490444,-0.29426608561973955,0.671886851374963,0.023187692904333312,0.16449079603298644,-0.024766444587502184,-0.0458519913200246,-2.583475684184931,-4.31516170120039,-0.8771049119599283,-0.0036986907794675766,-0.0006811143739356056
0.52,0.3289737569804713,1.2914373972359132,-1.0860421968240017,0.15911241762217634,0.03655922142634822,0.00044571723050667005,0.9333774600167668,-0.8006656439904094,1.498217474149634,0.4629637213350896,0.11926636496797946,0.0010248939944771899,-0.1154593180432491,-0.26201730664798206,0.5561623682524943,-0.014403483943993933,0.15450634950510272,-0.025794654308600198,-0.048697850057797296,-2.514022546236238,-4.325286559453252,-0.8767377146278068,-0.004176616574737566,-0.0006865052315538444
0.53,0.33829697119201924,1.2834048748433893,-1.0710058951773735,0.16374416557239213,0.03776061755460591,0.0004556871597879309,0.9323214211547907,-0.8032522392524049,1.503630164662811,0.46317479502157766,0.12013961282576985,0.0009969929281260852,-0.18295043398189043,-0.23051754824314005,0.4396851687830534,-0.05180593348774842,0.1439262258280859,-0.02679127989489501,-0.05111508876094181,-2.4439009289678535,-4.335646974781498,-0.8763857762815671,-0.004606399743344309,-0.0006909436789873189
0.54,0.34760296902169896,1.2753496001882512,-1.0559270246187324,0.16837437343385753,0.03896978043634177,0.00046535661504048793,0.9305997829679739,-0.8055274655138165,1.5078870558641044,0.46302078614653863,0.12091628817358586,0.0009669455252557024,-0.24914951870846916,-0.19973404027571628,0.32260286539103733,-0.08896579622229639,0.13274287985408129,-0.0277491534163846,-0.05311542702949085,-2.373116229939637,-4.346213046074823,-0.8760452723028995,-0.0049872320814731246,-0.0006944297408591389
0.55,0.35688522214334495,1.267274616369428,-1.0408172036021697,0.1729994089031689,0.04018571043899398,0.00047470461521153265,0.9282253121646016,-0.8074983818823138,1.5109821016562675,0.46250354693113765,0.12159300026522073,0.0009348000171044717,-0.31396568551838916,-0.1696347793613318,0.20506772003457127,-0.12582936450484333,0.12095214449782066,-0.028660800177417414,-0.054711765057800024,-2.3016790659317174,-4.356955215304684,-0.8757125731101109,-0.005318449875798091,-0.0006969671018274445
0.56,0.36613733866919224,1.2591828991057312,-1.0256880958301589,0.17761566339903884,0.04140737442475723,0.0004837107575770525,0.9252116525847307,-0.809171726369666,1.5129107772010777,0.4616254495869955,0.12216639857632562,0.000900614236551984,-0.37730689114228433,-0.14018867836840512,0.08723598983203387,-0.16234336819354667,0.10855379561233658,-0.02951849602333967,-0.055918153393898495,-2.2296053700903933,-4.367844402232382,-0.8753842637023797,-0.005599543319288398,-0.0006985631027325569
0.5700000000000001,0.37535307203263524,1.2510773598536817,-1.0105513946463667,0.1822195572411151,0.042633706398803956,0.0004923553171347928,0.9215733363442976,-0.8105539252049501,1.5136701183792072,0.4603893842076272,0.12263319740467248,0.0008644559557740279,-0.43908018426323103,-0.11136569650948126,-0.030732733355111508,-0.1984552532099614,0.09555214188128947,-0.030314338319837486,-0.056749753126863645,-2.1569164245050767,-4.37885213058483,-0.8750571611508107,-0.005830165220548333,-0.000699228710959046
0.58,0.3845263299614277,1.242960848819116,-0.9954188071001135,0.18680754478109618,0.04386360843540596,0.0005006193488365305,0.9173257928792503,-0.811651103456575,1.5132587546253178,0.45879875399810843,0.12299020366020026,0.0008264031701737706,-0.49919201586307216,-0.08313695001120305,-0.1486761846687587,-0.23411345019084534,0.08195662732359144,-0.031040331109976255,-0.05722278561482781,-2.083638829569057,-4.389950645341361,-0.8747283300928188,-0.006010138828327606,-0.000698978464384898
0.59,0.39365118351459594,1.2348361578514213,-0.9803020377488456,0.19137611946036787,0.04509595191458874,0.0005084847919919596,0.9124853553168228,-0.8124690967694572,1.5116769351267954,0.45685746792716986,0.12323434791827784,0.0007865443155429062,-0.5575486168717425,-0.05547480357388102,-0.26643008479520885,-0.2692676304838453,0.06778243117782345,-0.031688484529268215,-0.057354471133823394,-2.0098044123477528,-4.401113020850065,-0.8743950962940933,-0.006139464600166266,-0.0006978303886212661
0.6,0.4027218761499909,1.2267060232111633,-0.9652127722646426,0.19592181876947984,0.04632957910187366,0.0005159345760363368,0.9070692635394974,-0.8130134640258068,1.508926548420293,0.45456993091119746,0.12336271872849157,0.0007449784044377256,-0.6140564475296234,-0.028352943033584186,-0.3838287909979177,-0.30386894685072496,0.05305104716777853,-0.032250928040628485,-0.05716295611660246,-1.9354500769887157,-4.412313259560256,-0.8740550583461861,-0.006218325754565687,-0.0006958058875909449
0.61,0.41173283278252587,1.2185731282037426,-0.9501626609100052,0.20044122908611783,0.04756330510261649,0.0005229527267072165,0.9010956632534961,-0.8132895007420754,1.5050111354637357,0.4519410316637981,0.12337260007428326,0.0007018150670879662,-0.6686227214397555,-0.001746429828407382,-0.5007059366028858,-0.3378702564138991,0.037790821602607494,-0.03272003642492513,-0.056667228953738644,-1.8606176009437032,-4.42352638121827,-0.8737060975679053,-0.006247092459567546,-0.0006929296078509778
0.62,0.42067866878584054,1.210440105673537,-0.9351633019469819,0.2049309903697893,0.04879592022028229,0.000529524471526434,0.8945836003314691,-0.8133022530205555,1.4999358963023308,0.4489761283671444,0.12326151176658018,0.0006571744819217501,-0.7211560054762274,0.02436826196047435,-0.6168950552057768,-0.37122632356919305,0.02203742760652494,-0.033088566807822906,-0.05588702463916679,-1.785353381421593,-4.4347285024271,-0.87334638617555,-0.006226324527106309,-0.0006892292774276477
0.63,0.4295541988825637,1.2023095403547202,-0.9202262250421321,0.2093878006932101,0.050026192744569126,0.000535636343336655,0.8875530096723159,-0.8130565318816932,1.493707690484982,0.4456810323420821,0.12302725242868329,0.0006111871810221051,-0.7715668945401373,0.050013225071765324,-0.7322301861977025,-0.4038940008418124,0.005834251208931995,-0.03334980423371689,-0.05484271885100333,-1.70970813704158,-4.44589690651623,-0.8729743937810758,-0.00615677250186367,-0.0006847355202973024
0.64,0.43835444586070166,1.194183971076598,-0.9053628747279109,0.2138084205923342,0.05125287219049639,0.0005412762805039572,0.880024697813798,-0.8125569278122035,1.4863350314221204,0.44206198991240997,0.12266794459272595,0.0005639937167302246,-0.8197687576475036,0.07520911398379924,-0.8465464585660863,-0.43583238593055507,-0.010767335755707652,-0.03349771261137516,-0.05355521235805744,-1.6337365701006987,-4.457010103707448,-0.8725888922691073,-0.006039377055441434,-0.0006794816480080082
0.65,0.4470746490461982,1.186065892822855,-0.8905845939788407,0.21818967721908117,0.0524746930033327,0.0005464337222750469,0.8720203185496549,-0.8118078253743046,1.4778280749070223,0.4381256626746947,0.12218208128363078,0.0005157441771089647,-0.865678549054046,0.09997515413912536,-0.9596806502935682,-0.4670029535191378,-0.027707840777652315,-0.033527087104900155,-0.05204580692498498,-1.5574969952034519,-4.468047881595943,-0.8721889590939759,-0.005875266621269522,-0.0006735034302895028
0.66,0.45571027245465684,1.1779577586455288,-0.8759026079583399,0.22252846828306047,0.0536903787365288,0.0005510996976778768,0.8635623408458629,-0.8108134177326224,1.4681986020500821,0.4338791063979313,0.12156857331961006,0.0004665975402829989,-0.9092176751519959,0.12432916424410623,-1.0714717210571827,-0.4973696607903544,-0.04491967731082758,-0.03343370343761953,-0.05033607414691107,-1.4810509402207412,-4.478991345994686,-0.8717739790272737,-0.00566575323250707,-0.0006668388468369552
0.67,0.46425701253889073,1.169861981435856,-0.8613280079893487,0.22682176577093158,0.054898646700677144,0.0005552669062849129,0.8546740084233915,-0.8095777209672714,1.4574599968991147,0.4293297487871106,0.12082679641483439,0.0004167208607036099,-0.9503129048251188,0.14828759036061598,-1.181761316310912,-0.5268990259718658,-0.06232737373898445,-0.03321445906648615,-0.04844771887034821,-1.404462725651276,-4.489822952215438,-0.8713436443756126,-0.005412326553931674,-0.0006595278227697165
0.68,0.4727108054436836,1.161780935555315,-0.8468717357989636,0.23106661943444193,0.05609821307104769,0.0005589297891268249,0.8453792904792876,-0.8081045880540915,1.4456272190385195,0.4244853663510347,0.11995663703705424,0.000366288284191202,-0.9888973079477757,0.1718655504780343,-1.2903942412017753,-0.5555601796899574,-0.07984798147840433,-0.032867500881244543,-0.04640243904479185,-1.3277990284531513,-4.500526526882652,-0.8708979536779575,-0.0051166461290207835,-0.0006516119505540028
0.6900000000000001,0.48106783367523315,1.1537169583312576,-0.832544568084202,0.23526016004061295,0.05728779842963206,0.00056208458805775,0.8357028231549569,-0.8063977224057457,1.4327167714761584,0.41935406061710323,0.11895853585843709,0.00031547989309251045,-1.024911203914077,0.19507688825172223,-1.397218903137301,-0.5833248893404601,-0.09739169365110723,-0.03239233399212846,-0.04422178399279024,-1.2511284363018933,-4.5110872803990185,-0.8704372088828616,-0.004780531894598757,-0.0006431342014294565
0.7000000000000001,0.48932453209052706,1.1456723514224563,-0.8183571014428117,0.23939960237995708,0.05846613370513216,0.0005647293919375064,0.825669841529389,-0.8044606908801477,1.4187466641390296,0.41394423393441365,0.11783352755001003,0.0002644803879756352,-1.0583030996392324,0.21793423461296835,-1.5020877221576547,-0.6101675571765193,-0.11486267913588577,-0.03178990633296572,-0.04192701318086098,-1.1745209980213493,-4.521491810204362,-0.8699620109987702,-0.0044059530469531755,-0.0006341386295875324
0.71,0.4974775931116614,1.1376493820607037,-0.8043197377097362,0.24348224803096657,0.059631966461302824,0.0005668641681158883,0.8153061021134337,-0.8022969361752648,1.403736373307551,0.4082645651009482,0.11658327561706663,0.00021347761783819543,-1.0890305945492706,0.2404490759971834,-1.604857508590276,-0.6360651932749937,-0.13216012911607988,-0.031062664334524537,-0.0395389576159708,-1.0980477756347742,-4.531728094994701,-0.86947325420585,-0.00399501537452804,-0.0006246700725058594
0.72,0.5055239710721099,1.129650284175288,-0.7904426697365007,0.24750548788137763,0.06078406747092634,0.0005684907778809159,0.8046377960448539,-0.7999097885415563,1.3877067973235562,0.4023239850411063,0.1152101009623516,0.00016266097650275666,-1.1170612288161155,0.2626318279964308,-1.705389807755843,-0.6609973650159473,-0.1491795047915634,-0.030214575644303077,-0.037077885980370345,-1.0217804031067397,-4.541785480096584,-0.8689721184160719,-0.003549947202417655,-0.0006147738509410696
0.73,0.5134608856063773,1.1216772594077382,-0.7767358676474081,0.251466804408841,0.06192123749994862,0.0005696129747672047,0.7936914534267341,-0.7973024767549738,1.3706802089092591,0.3961316527463348,0.11371700290222828,0.0001122196886288803,-1.1423732506343942,0.28449191331655366,-1.8035512117587709,-0.6849461251556894,-0.165813966092915,-0.02925111595466018,-0.03456337755098667,-0.945790656404681,-4.551654654224366,-0.8684600602698178,-0.0030730841220908338,-0.000604495472116039
0.74,0.5212858240014384,1.1137324780246936,-0.7632090656030711,0.2553637737255845,0.06304231421447838,0.0005702363849089064,0.7824938395061124,-0.7944781383044558,1.352680204433696,0.389696931674352,0.11210767145297564,6.234101417017086e-05,-1.1649562787698737,0.30603784300565096,-1.899213638635845,-0.7078959209599853,-0.18195595250291774,-0.02817921830087672,-0.03201420382955138,-0.8701500390156728,-4.561327617885408,-0.8679388025623183,-0.0025668527052181618,-0.000593880339602046
0.75,0.5289965424379004,1.1058180797371129,-0.7498717490984739,0.2591940673934041,0.0641461791129979,0.0005703684689578,0.7710718436461943,-0.791439828758077,1.3337316504597276,0.3830293667819595,0.1103864898519517,1.3208404889360822e-05,-1.1848118379979893,0.32727730001275557,-1.9922545793386617,-0.7298334872304801,-0.19749887893985818,-0.02700718465913937,-0.02944822063921406,-0.7949293865236352,-4.570797643740722,-0.8674103221018499,-0.0020337534223034675,-0.0005829734732879725
0.76,0.5365910660608385,1.0979361744342986,-0.7367331428194843,0.2629554540168329,0.06523176437780684,0.0005700184654621465,0.7594523622938101,-0.7881905302814187,1.313860627898956,0.37613866234287974,0.10855852648089347,-3.500034956535621e-05,-1.2019537473992983,0.3482172242309619,-2.0825573132087762,-0.7507477263174538,-0.21233890262890442,-0.025744561251862613,-0.026882272227283732,-0.7201984932989622,-4.580059229276121,-0.8668768360135876,-0.001476343004225323,-0.0005718192426475637
0.77,0.5440676878345683,1.0900888428413957,-0.7238021990785435,0.2666458006235961,0.0662980595339265,0.0005691973160040219,0.7476621773729779,-0.7847331592902805,1.293094374094085,0.36903466067631874,0.1066295156119664,-8.211494581246594e-05,-1.2164083447447287,0.3688638982732236,-2.1700110927629024,-0.7706295784001842,-0.22637671144706184,-0.02440198056890419,-0.024332108658355476,-0.6460257637907818,-4.58910804219114,-0.8663407865181578,-0.000897216497055031,-0.0005604611162629948
0.78,0.5514249661519145,1.0822781371091201,-0.7110875868471574,0.2702630738424424,0.06734411780086604,0.0005679175728076478,0.7357278317346232,-0.7810705732275637,1.2714612231386087,0.36172732188462897,0.10460582669395321,-0.00012797431963741302,-1.228214534285907,0.389223033315476,-2.2545112987364573,-0.7894718854197977,-0.23951928080644969,-0.022990974564648797,-0.02181231749527028,-0.5724778903547101,-4.597940858968623,-0.8658048242316561,-0.0002989892670475715,-0.0005489414302437666
0.79,0.5586617211864294,1.074506081344509,-0.6985976813998318,0.27380534088914477,0.06836906202312078,0.0005661932899436308,0.723675503451498,-0.7772055764611024,1.2489905447325622,0.3542267046702373,0.10249442222547482,-0.00017242828640170094,-1.2374236500158937,0.4092998544209534,-2.335959566456668,-0.8072692520317837,-0.25168154503370843,-0.021523764832109216,-0.019336270456200417,-0.49961955900864247,-4.606555497146044,-0.8652717900536734,0.00031572078690633373,-0.0005373011778015296
0.8,0.5657770299950029,1.0667746720914546,-0.6863405545812261,0.27727077037188363,0.06937209006923009,0.0005640398996468991,0.7115308808573506,-0.7731409253054438,1.2257126818605677,0.3465429482738874,0.10030280461093087,-0.0002153390296731784,-1.244099131689064,0.4290991848235688,-2.414263884718152,-0.8240179068455724,-0.26278793058223826,-0.02001303652234479,-0.016916085414575593,-0.4275131839963824,-4.614950741868319,-0.864744695730922,0.0009443105620184434,-0.0005255798218141441
0.81,0.5727702203978392,1.0590858787696924,-0.6743239657055778,0.2806576329273726,0.0703524795967041,0.000561474075624072,0.6993190402836356,-0.7688793321762255,1.2016588875648269,0.3386862555488962,0.09803895274740039,-0.0002565824022827115,-1.248316016358255,0.4486255287003466,-2.4893386684318752,-0.8397155670021892,-0.2727737022913934,-0.01847170349310745,-0.014562603784950218,-0.3562186715627629,-4.623126267359506,-0.8642267032055222,0.0015842083824046424,-0.0005138151317487518
0.8200000000000001,0.5796408636822521,1.0514416440807828,-0.662555353094866,0.28396430169897746,0.07130959209100726,0.000558513585533357,0.6870643284412882,-0.7644234688909713,1.176861261071178,0.330666877160485,0.0957112494303161,-0.0002960490090714961,-1.2501602536582184,0.4678831519979335,-2.5611048064037694,-0.8543613088529503,-0.2815860801159986,-0.01691267241905639,-0.012285383022648502,-0.28579321291157933,-4.631082554005236,-0.8637211028781294,0.002232889711021766,-0.0005020430458283706
0.8300000000000001,0.5863887661955316,1.0438438843894333,-0.6510418262597556,0.2871892526677363,0.07224287610076324,0.0005551771350645557,0.6747902513279533,-0.7597759691349559,1.1513526835110455,0.3224950968758844,0.09332840097559854,-0.0003336450468801287,-1.249727858285159,0.4868761608984167,-2.6294896856794847,-0.8679554471328883,-0.28918509199037024,-0.015348613497403019,-0.010092703667989252,-0.21629110593423106,-4.638820801786944,-0.8632312909358492,0.0028878917454342864,-0.000490297558834606
0.84,0.593013959909674,1.0362944900882791,-0.6397901587250936,0.29033106484664134,0.07315186960796706,0.0005514842062182209,0.6625193714142437,-0.7549394301154215,1.1251667534661993,0.31418121789050013,0.09089935072038231,-0.000369292884633486,-1.2471239178560691,0.5056085775160774,-2.6944271939721864,-0.8804994245862661,-0.2955441383125752,-0.01379174489558585,-0.007991590096073654,-0.14776360496552587,-4.646342840851236,-0.8627607459126297,0.0035468267283629753,-0.0004786106354568253
0.85,0.5995166920564817,1.0287953259539595,-0.6288067814996259,0.2933884203478261,0.07403620149066695,0.0005474548924749136,0.6502732146807711,-0.7499164134319678,1.0983377225467716,0.3057355501184738,0.0884331882699884,-0.0004029313743307326,-1.242461478366983,0.5240844124106877,-2.755857701754464,-0.8919957135497336,-0.3006502543905465,-0.012253637222934821,-0.0059878438981274314,-0.08025879754489593,-4.65365104003103,-0.8623130046647208,0.004207393835879196,-0.00046701214864008927
0.86,0.6058974139449641,1.0213482315020046,-0.6180977771876642,0.2963601043314523,0.07489559205561756,0.0005431097335558225,0.6380721888482329,-0.7447094451954903,1.0709004311961638,0.297168398362626,0.08593905649506169,-0.00043451589190910734,-1.2358603326360555,0.5423077334886935,-2.8137280256621198,-0.902447730514429,-0.3045040684782432,-0.010745043220380723,-0.004086088626164155,-0.013821506935719704,-4.660748214158402,-0.8618916379553392,0.004867389540544833,-0.0004555298419644216
0.87,0.6121567690837176,1.0139550213476778,-0.6076688747386709,0.29924500484414496,0.07572985263905098,0.0005384695524058943,0.6259355138753497,-0.7393210154326855,1.0428902448993287,0.2884900512692638,0.08342605834334092,-0.0004640181149928194,-1.2274457392926335,0.5602827308422956,-2.867991374908761,-0.9118597642152642,-0.30711946414264535,-0.009275756567539262,-0.002289824483337777,0.051506781019232624,-4.6676375310210405,-0.8615002258503887,0.005524716382545004,-0.00044418931471783306
0.88,0.61829558073877,1.0066174855794985,-0.5975254448291348,0.30204211255382085,0.07653888429418235,0.0005335552968852486,0.6138811655052335,-0.733753576817924,1.014342990953605,0.27971077096758734,0.08090316551313695,-0.0004914255520645685,-1.2173471009949857,0.5780137770554656,-2.9186072824499045,-0.9202369173560907,-0.30852296603521046,-0.007854502274378644,-0.0006014914397880003,0.1156879682556517,-4.674322418814439,-0.8611423331307925,0.006177390117678729,-0.00043301402801434693
0.89,0.6243148390620896,0.9993373901517063,-0.5876724958696956,0.30475052038673256,0.07732267560360814,0.0005283878884430597,0.6019258323319613,-0.7280095427792174,0.9852948959439243,0.27084078329117034,0.07837913094257945,-0.0005167408442188876,-1.205696630617405,0.5955054824847756,-2.9655415226625177,-0.9275850616666972,-0.3087528772123802,-0.0064888597535392445,0.0009774608018994595,0.17868737369188728,-4.68080647493034,-0.8608214849265652,0.006823545245770016,-0.0004220253300613752
0.9,0.6302156879275711,0.9921164773014056,-0.5781146706292265,0.30736942307153253,0.07808129967267116,0.0005229880797808407,0.5900848865481473,-0.722091285030065,0.9557825240469078,0.26189026847999974,0.07586240690630144,-0.0005399808662219009,-1.1926280331922372,0.6127627450092692,-3.00876601731064,-0.9339108056491368,-0.3078582035326136,-0.0051852182900216925,0.002446497578176236,0.240473742957914,-4.687093376898625,-0.8605411427733825,0.007461438955542842,-0.0004112424985014096
0.91,0.6359994116099007,0.9849564659955646,-0.5688562434665133,0.3098981165941851,0.07881491037556554,0.0005173763232028106,0.5783723682329567,-0.716001130584095,0.925842716271319,0.2528693522652545,0.07336107028943824,-0.0005611756578030181,-1.1782752295209606,0.6297907937375199,-3.048258731558696,-0.9392214740753406,-0.30589740609497773,-0.0039487634415744655,0.0038059203286691014,0.30101924033864447,-4.693186796265814,-0.8603046812843145,0.008089453551331643,-0.00040068279764065423
0.92,0.6416674214374904,0.9778590524124192,-0.5599011181592571,0.3123359975666356,0.0795237379389676,0.0005115726510135309,0.5668009827589727,-0.7097413583145388,0.895512530725618,0.24378809724504993,0.0708827563402055,-0.0005803672189279675,-1.1627711447208544,0.6465952261661284,-3.084003561755307,-0.9435250980900616,-0.3029370260155968,-0.0027834918816183885,0.005056785441174516,0.36029942460380254,-4.699090316149235,-0.8601153656180397,0.008706097452426089,-0.0003903615483290205
0.93,0.6472212425439365,0.9708259104611633,-0.5512528263193849,0.31468256251130655,0.08020808395798167,0.0005055965689716599,0.5553821106446097,-0.7033141951255949,0.8648291839872272,0.23465649446709202,0.06843460190140685,-0.0005976082041870992,-1.1462465817158924,0.6631820383023918,-3.115990216658906,-0.946830414613336,-0.2990502270821862,-0.0016922514220619744,0.0062008222673420816,0.418293210355288,-4.7048073531535834,-0.8599763299107348,0.00931000487684332,-0.00038029220826614056
0.9400000000000001,0.6526625008335697,0.9638586923430881,-0.5429145263830586,0.3169374070627386,0.08086831594601283,0.0004994669634569054,0.5441258289633184,-0.6967218118075212,0.833829993632624,0.2254844551432037,0.06602319880311688,-0.000612960551475452,-1.1288291959980155,0.679557647297816,-3.1442140936940235,-0.949146873652273,-0.2943153010815358,-0.0006768023852995741,0.00724035157609253,0.4749828164620888,-4.710341084276908,-0.8598905568225353,0.009899934337577796,-0.0003704864605702001
0.9500000000000001,0.6579929102660338,0.9569590291565709,-0.5348890031633308,0.31910022508704305,0.08150486152379777,0.0004932020226677252,0.5330409432464089,-0.6899663186517165,0.8025523219727809,0.21628180243044567,0.06365455777849371,-0.0006264940789180146,-1.110642584066512,0.6957289061861339,-3.1686761517300495,-0.9504846520974723,-0.2888141780924711,0.00026210380237415287,0.00817820557123984,0.5303537030767311,-4.7156943793681325,-0.8598608583316084,0.01047476609080976,-0.00036095430855139567
0.96,0.6632142605528878,0.9501285315475111,-0.5271786679530821,0.32117080771927975,0.08211820235335754,0.00048681917185036,0.5221350286854024,-0.6830497609059833,0.771033521024863,0.2070582632236698,0.06133408295597722,-0.0006382850817365244,-1.0918054939800217,0.7117031103825951,-3.189382781754807,-0.9508546725895375,-0.2826309800728384,0.0011246330010724614,0.009017650447966201,0.584394498639407,-4.720869739629176,-0.8598898578900429,0.01103349868227388,-0.0003517041747713402
0.97,0.6683284053464155,0.9433687904059764,-0.5197855591656957,0.3231490423184248,0.08270886792031713,0.00048033502227361674,0.5114144793527723,-0.6759741141534636,0.7393108787386422,0.1978234599145029,0.0590665566959591,-0.0006484149576743284,-1.0724311625943,0.7274879956744861,-3.206345676679495,-0.950268626095335,-0.2758506509824201,0.0019117678670784177,0.009762312305840959,0.637096918179225,-4.725869242583364,-0.8599799740365599,0.01157524474028887,-0.00034274300263430126
0.98,0.6733372509875675,0.9366813776089634,-0.5127113435008466,0.3250349113392412,0.08327742926319694,0.00047376533341511254,0.5008845641151954,-0.6687412797013046,0.7074215664849156,0.18858690208163964,0.056856134287980774,-0.0006569688858504188,-1.0526267804484708,0.7430917275209511,-3.2195817013645804,-0.9487389969015343,-0.2685576908554774,0.002625202317932257,0.010416107079459622,0.6884556741195516,-4.73069449385944,-0.8601334055419688,0.01209922616225393,-0.0003340763589374822
0.99,0.678242745866646,0.9300678468082952,-0.5059573176228125,0.3268284911201096,0.08382449274132149,0.0004671249876166693,0.4905494879078583,-0.6613530800668161,0.675402587803405,0.17935797808684173,0.05470634781245516,-0.0006640345798443266,-1.0324930820176363,0.7585228815747088,-3.2291127637954,-0.9462790888309485,-0.26083501500590534,0.0032672344383885,0.010983174996181344,0.7384683806878448,-4.735346586068064,-0.8603521181447868,0.01260476883626015,-0.0003257085359974102
