tonegas/nnodely-applications/joint_friction_estimation/dataset/train/mpc_mujoco_episode_44.csv
time,q1,q2,q3,q4,q5,q6,dq1,dq2,dq3,dq4,dq5,dq6,ddq1,ddq2,ddq3,ddq4,ddq5,ddq6,tau1,tau2,tau3,tau4,tau5,tau6
0.0,0.0,1.57,-1.57,0.0,0.0,0.0,0.0,0.0,0.0,0.0,0.0,0.0,14.277829418284739,-1.2361839716515213,3.801031729704925,1.6136007662572247,2.0937707414397835,-5.949697424512124e-06,1.9906846684759292,-4.4708124512883485,-4.186294448173709,-0.9228399638231641,0.17980764947239247,0.0017860207922338375
0.01,0.0014203802219187325,1.5698781374248978,-1.5696219812879855,0.00015035107451008784,0.00017647134816341394,1.8869153474216695e-06,0.14203802219187325,-0.012186257510222754,0.03780187120144942,0.015035107451008783,0.017647134816341392,0.00018869153474216694,14.112486880445134,-0.9815909983848934,3.7919222119161593,1.494923804987942,1.752355572461994,0.01885689230326193,1.9772299932187385,-4.352526445023826,-4.1436962875578995,-0.9139628309035013,0.1786258204626861,0.001774304900198732
0.02,0.004243592390964543,1.5696598460303057,-1.5688674210123486,0.00044160623103086185,0.0005081437580312112,5.737641747748335e-06,0.282321216904581,-0.0218291394592065,0.07545602756369947,0.0291255156520774,0.03316724098677973,0.0003850726400326665,13.929797143718156,-0.7161500588522521,3.7740301376112493,1.3982618342920201,1.5381740951835638,0.019574999803367632,1.9620862012774318,-4.236891990007606,-4.100978002234453,-0.9048208438163909,0.17730934202036147,0.0017582127823949408
0.03,0.008450809614808093,1.5693716206173265,-1.5677385001344302,0.0008659664585754885,0.0009814003010065924,1.142296324661667e-05,0.4207217223843551,-0.0288225412979284,0.11289208779183019,0.04243602275446266,0.04732565429753812,0.0005685321498868335,13.733936858263345,-0.44212047346128347,3.748225507330536,1.317797502349089,1.400486073376257,0.018168646966314483,1.9457606155272282,-4.125186127422833,-4.058669901732332,-0.8955338654124231,0.17588731542109423,0.001737935219895722
0.04,0.014022165625358296,1.569040796101284,-1.5662380573650359,0.001416835828229191,0.0015872201846026711,1.882578155909158e-05,0.5571356010550201,-0.033082451604251155,0.15004427693943895,0.05508693696537025,0.060581988359607875,0.0007402818312474913,13.527250891462664,-0.16174684975747627,3.714941249269892,1.2490663975882192,1.3085953601466471,0.016805742155895587,1.9287464292565744,-4.018698621569522,-4.017295157672173,-0.8862185614424517,0.1743880282119376,0.0017136637269819085
0.05,0.02093688162160267,1.5686953269439876,-1.5643695769574113,0.002088478363396165,0.0023193232172064354,2.7856386589637383e-05,0.6914715996244373,-0.03454691572963862,0.1868480407624639,0.0671642535166974,0.07321030326037643,0.0009030605030545802,13.31096073142113,0.12272322688898736,3.6742796692022472,1.1886296657487208,1.2438308972337637,0.015629571747751925,1.9115117267710127,-3.9187277409019754,-3.97736633739734,-0.8769875858035061,0.17283820379592718,0.0016855827352387923
0.06,0.029173323442014086,1.56836356547521,-1.562137202145639,0.0028757525642624533,0.0031730389435489954,3.8443467919514785e-05,0.8236441820411418,-0.03317614687775722,0.22323748117722855,0.07872742008662884,0.08537157263425599,0.0010587081329877402,13.085593039317864,0.40903330004434696,3.6260973213805103,1.1338324499204298,1.194777122846702,0.014543871800821506,1.8944895499368721,-3.826570725889377,-3.939380286297778,-0.8679484306335759,0.17126232725467125,0.0016538653634837154
0.07,0.03870901500426399,1.5680740387183856,-1.5595457675135376,0.0037739054060516304,0.00414461363838953,5.0525725977571144e-05,0.9535691562249905,-0.028952675682442433,0.2591434632101368,0.08981528417891771,0.0971574694840534,0.001208225805805636,12.851240492025042,0.6949202550673432,3.570074461638109,1.0826219986329786,1.154407107017171,0.01346072896342676,1.87806897158459,-3.743510369713828,-3.9038119624189322,-0.8592020846133225,0.16968203305598828,0.0016186712919711553
0.08,0.049520623897711884,1.5678552240923744,-1.5566008446913204,0.004778412095366939,0.005230782287472118,6.404622901581188e-05,1.0811608893447893,-0.021881462601123516,0.2944922822217066,0.10045066893153093,0.10861686490825884,0.0013520503038240727,12.607722192672126,0.97812239575173,3.5057729604062766,1.0334105433429208,1.1183555478671323,0.012321890743512753,1.8625872046514362,-3.670798705925863,-3.8711076538240685,-0.8508416033885203,0.16811555403243192,0.0015801459679045306
0.09,0.06158392901703322,1.5677353249104877,-1.5533087966143202,0.00588485127261084,0.006428501361459559,7.894882376622824e-05,1.206330511932133,-0.011989918188660551,0.3292048077000338,0.11064391772439013,0.1197719073987441,0.0014902594750416352,12.354684139840906,1.25639191037815,3.432685431888009,0.9849722176818805,1.0838787649252524,0.011091927090467024,1.8483228043082631,-3.609638567812717,-3.8416779131577647,-0.842950673493766,0.16657723850787307,0.001538420779903876
0.1,0.07487377657083832,1.5677420470096892,-1.5496768362156905,0.007088807942613835,0.007734779649436406,9.5175878278236e-05,1.3289847553805105,0.000672209920159858,0.36319603986295873,0.12039566700029944,0.13062782879768473,0.0016227054512007765,12.091664136707006,1.5275106737162718,3.350277554037118,0.9363658455754376,1.0492293416415208,0.009751177663687827,1.8354900270205423,-3.5611636805909255,-3.8158904938534244,-0.8356022385664068,0.1650771462777283,0.0014936140477559273
0.11,0.0893640287149074,1.5679023781558044,-1.5457130859219443,0.008385798385664275,0.009146569455625482,0.00011266687775996203,1.4490252144069067,0.016033114611511416,0.39637502937462626,0.12969904430504398,0.14117898061890752,0.0017490999481726032,11.81813579897154,1.7893085583468673,3.258024952420765,0.8868773029199382,1.0132810082878834,0.00829111387315784,1.824234405754281,-3.5264179174185326,-3.794063548321669,-0.8288572494052412,0.16362073565747626,0.0014458327657925953
0.12,0.10502750785751944,1.5682423721055165,-1.5414266347230878,0.009771212789054998,0.010660695575319998,0.00013135757993732066,1.566347914261205,0.03399939497122506,0.42864511988565596,0.13854144033907237,0.1514126119694516,0.001869070217735862,11.533540431969048,2.03968354395851,3.1554455509940627,0.8359765928707095,0.9753043664556884,0.006711495824028191,1.8146295901326672,-3.5063343584596156,-3.776459337117374,-0.8227635946056927,0.16220865371385634,0.001395175064843434
0.13,0.1218359390067757,1.5687869393732234,-1.5368275899348087,0.011240272454218141,0.012273808575618633,0.0001511795536685442,1.6808431149256255,0.05445672677070067,0.45990447882791513,0.14690596651631432,0.16131130002986355,0.001982197373122356,11.237311959405213,2.276622965351031,3.0421279294258623,0.7832858798219178,0.9348332956103746,0.005018605876754734,1.8066754868306438,-3.5017148148886523,-3.7632786907834737,-0.8173552641756632,0.16083664040990225,0.0013417333472561638
0.14,0.139759892157527,1.5695596468548398,-1.5319271210871783,0.012787999260541935,0.013982354381869289,0.00017205999500744077,1.7923953150751282,0.07727074816163432,0.49004688476303465,0.1547726806323794,0.17085458062506562,0.002088044133889655,10.928897869207884,2.4982252584252462,2.9177559530976236,0.7285555801922889,0.8915855906589272,0.0032240714555431538,1.8002977186276976,-3.513210500227523,-3.7546564569262317,-0.812651793456389,0.15949555479317437,0.0012855980169859957
0.15,0.15876872651106547,1.570582528502624,-1.5267374936840181,0.014409195668917532,0.015782555442985007,0.0001939217561848799,1.9008834353538484,0.10228816477841716,0.5189627403160287,0.16211964083755978,0.18002010611157182,0.002186176117743914,10.607777690809455,2.7027215654557866,2.782129745845184,0.6716462695327632,0.8454157197704859,0.001343976940825442,1.795348392860766,-3.541304539005453,-3.750658150437546,-0.8086580281190391,0.1581715270010285,0.0012268616748811868
0.16,0.1788305381900428,1.571875909224825,-1.5212720908944495,0.016098433976314278,0.017670400683403458,0.00021668354643607246,2.0061811678977346,0.12933807222008858,0.5465402789568563,0.16892383073967468,0.1887845240418452,0.0022761790251192558,10.273479297144716,2.8884965500635844,2.6351829478279907,0.612514682701395,0.7962862803853596,-0.0006019116377213862,1.7916081013862646,-3.586296992951265,-3.7512780033974336,-0.8053642428152178,0.1568462313127342,0.001165623557004695
0.17,0.19991211296325478,1.57345824409998,-1.515545421572458,0.01785005382677089,0.01964164256968632,0.0002402602762744152,2.1081574773211993,0.1582334875155202,0.5726669321991419,0.175161985045661,0.19712418862828618,0.0023576729838342735,9.925591409216588,3.0541077255225337,2.4769961367956084,0.5512024960390729,0.7442500095359108,-0.002590905342655603,1.7887888574162751,-3.6482930643375875,-3.7564385860247373,-0.8027466369939286,0.15549725379572038,0.0011019937693043569
0.18,0.22197888515853664,1.5753459748431506,-1.5095731133552774,0.01965816717589501,0.021691800239621507,0.00026456352302297394,2.2066772195281845,0.18877307431705917,0.5972308217180623,0.18081133491241203,0.20501576699351892,0.002430324674855875,9.56385249274633,3.198306500422646,2.3078060387071906,0.48782655097619454,0.6894366701592034,-0.004598178685713883,1.786549311763893,-3.727193241322807,-3.765991525246127,-0.8007681032064792,0.15409953489024292,0.0010361081357665681
0.19,0.24499491152566338,1.5775534056289362,-1.5033718899894943,0.021516669988594087,0.023816168187640676,0.0002895020995030938,2.301602636712673,0.22074307857855335,0.620122336578313,0.1858502812699075,0.212436794801917,0.0024938576480119812,9.187958083856481,3.320044000460486,2.128011268214485,0.42257124770616983,0.6320476605659948,-0.006597585147454232,1.7844717369176628,-3.8226941676948165,-3.7797220055058243,-0.7993797470146315,0.15262348772053122,0.0009681041139561916
0.2,0.2689228409636027,1.580092598855107,-1.4969595323656728,0.023419260106366795,0.026009829506752784,0.0003149827042940969,2.39279294379393,0.25391932261706207,0.6412357623821587,0.1902590117772706,0.21936613191121074,0.0025480604791003137,8.797816781328644,3.4184937521113414,1.9381729370633352,0.35567967781775245,0.5723396500264286,-0.008562516746094317,1.782103314126298,-3.9342829844979272,-3.797351726404564,-0.7985221814768657,0.15103870564566244,0.0008981582927059889
0.21,0.29372390541305166,1.5829732931094784,-1.4903548232385548,0.025359460575623903,0.02826767353272596,0.0003409106357357477,2.4801064449448944,0.2880694254371617,0.6604709127117947,0.1940200469257109,0.22578440259731775,0.0025927931441650843,8.393406215387968,3.493054312429647,1.7390118817783353,0.2874464236114864,0.5106225110824667,-0.010466746161452711,1.7789428101643128,-4.061246095025101,-3.8185463421153174,-0.7981276185126549,0.14931289550224264,0.0008264683307600268
0.22,0.3193579176622567,1.586202843600697,-1.4835774759397138,0.027330647850721,0.03058441724104793,0.00036719055004965143,2.563401224920504,0.32295504912185596,0.6777347298840997,0.19711872750970988,0.23167437083219702,0.0026279914313903684,7.9745673414019445,3.5433466539096754,1.5314027412401625,0.21821073033273208,0.4472502997580676,-0.012285230117166535,1.7744179890496115,-4.202681801137449,-3.842924395207386,-0.7981222472557965,0.14741005235689772,0.0007532275065301699
0.23,0.34578325567695845,1.5897861847890067,-1.4766480476966157,0.029326084297221607,0.032954629131583535,0.00039372724012952197,2.6425338014701776,0.35833411883097527,0.6929428243098033,0.19954364465006075,0.2370211890535607,0.002653669007987053,7.542309122510648,3.5692630193779316,1.316356780711775,0.14834263315120566,0.38259097073432,-0.013994855596169309,1.7680855286919757,-4.357490998400862,-3.870059830681191,-0.7984274501474965,0.14530747610360253,0.0006787953202956452
0.24,0.3729569625971997,1.5937258200844018,-1.4695878392806638,0.03133895376015549,0.03537275800996796,0.0004204264250390505,2.7173706920241245,0.39396352953950986,0.7060208415951945,0.20128694629338853,0.2418128878384427,0.002669918490952853,7.064379386689808,3.5698123467636953,1.095202675241839,0.0783939682856456,0.3174026865510555,-0.015575100216931759,1.7544931890656774,-4.5248969884932215,-3.8996439281361592,-0.7989896677644069,0.14256472531895686,0.0005993135293786635
0.25,0.40083155292722683,1.5980217234641756,-1.4624187631262822,0.03336241399949119,0.03783307758816667,0.00044719527979292413,2.787459033002713,0.4295903379773845,0.7169076154381621,0.20234602393357026,0.24603195781987083,0.002676885475387365,6.268246031344258,3.5369073006699496,0.8708937253604825,0.010048677162957986,0.2538466019909862,-0.017007439276360614,1.691436099645243,-4.706682386801333,-3.9322407114135727,-0.7999296368145634,0.13569805207530033,0.00048108165810314865
0.26,0.4293280152710026,1.6026705333788798,-1.4551630504512378,0.03538975318331102,0.0403289463216364,0.00047394113108372907,2.8496462343775764,0.46488099147041917,0.7255712675044415,0.202733918381983,0.2495868733469736,0.0026745851290804964,5.423976270688901,3.4793266254461415,0.6436697430206619,-0.05738760840645263,0.1798854019684093,-0.018265706326701547,1.6169643403127893,-4.894569811973671,-3.9661571727390417,-0.8010799037383006,0.1279668410138013,0.0003592286904662874
0.27,0.45836252252355364,1.6076664293092924,-1.4478432274123254,0.0374143299499676,0.042852963703044485,0.0005005685022454839,2.903450725255101,0.4995895930412511,0.7319823038912374,0.20245767666565753,0.25240173814080824,0.002662737116175484,4.605854018523362,3.400224353886148,0.4144820260486233,-0.1238453862613671,0.0985900811764715,-0.019378203059851717,1.5414735415503382,-5.085385313413424,-4.000717523085775,-0.8023736832612133,0.12026570728924976,0.00024329622753186937
0.28,0.4878538013392389,1.6130014466927147,-1.4404820203459565,0.039429582657490386,0.04539739904615297,0.0005269816154556427,2.9491278815685242,0.5335017383422336,0.7361207066368914,0.20152527075227825,0.25444353431084865,0.002641311321015873,3.8359579333878147,3.301250503969368,0.18454358524752212,-0.18902632039780087,0.01476117182352965,-0.02032937576178684,1.467987255015748,-5.277455775000082,-4.035537644610087,-0.8037709115155954,0.1128605101893657,0.0001360430399718471
0.29,0.5177253362171289,1.6186656417076764,-1.4331022349319327,0.041429059422763835,0.04795455404975309,0.000553087907994106,2.9871534877890062,0.5664195014961605,0.7379785414023784,0.1999476765273451,0.2557155003600122,0.00261062925384633,3.127661502411838,3.1838675440384367,-0.04488618517553444,-0.25260275676718624,-0.06787268181620831,-0.021097166145141788,1.3984554753405398,-5.469551036063174,-4.070311867920141,-0.8052361736594216,0.1059200370231369,3.901302196673395e-05
0.3,0.5479067081232033,1.6246472373423657,-1.4257266307406797,0.04340645084325552,0.05051703038214134,0.0005788007894071673,3.0181371906074403,0.5981595634689262,0.7375604191252866,0.19773914204916854,0.25624763323882477,0.002571288141306131,2.4781429587404764,3.0494257375110365,-0.27251891281950247,-0.3142328772831595,-0.14656903708928404,-0.021669399761622188,1.3324564914735053,-5.660761262879596,-4.104787546697878,-0.8067360719087224,0.09941536631025398,-4.824905245618717e-05
0.31,0.5783333249335622,1.6309327582281472,-1.4183777929063828,0.04535562407652874,0.05307788556722255,0.0006040414757342277,3.0426616810358813,0.6285520885781477,0.7348837834297058,0.1949173233273222,0.2560855185081217,0.0025240686327060347,1.9130168145848578,2.8994947102366537,-0.49713486298884924,-0.37362465752543805,-0.2198687783125184,-0.022043413033377313,1.2742779127047554,-5.850207404126538,-4.13871684333904,-0.8082362315169743,0.09368991937463769,-0.00012298034044798173
0.32,0.608948967197875,1.6375071874628386,-1.4110780106482328,0.047270652241579995,0.05563079694482083,0.0006287398816246917,3.0615642264312806,0.6574429234691469,0.7299782258150002,0.19150281650512588,0.25529113775982765,0.002469840589046403,1.4257410774579038,2.735425146460783,-0.7174841376637087,-0.430462172421207,-0.28606621931939014,-0.022228727578438412,1.2232961833427378,-6.037492531213976,-4.171894834122852,-0.8096940954757312,0.08868598903330475,-0.00018621889875230596
0.33,0.6397051471006365,1.644354101445468,-1.4038491527875259,0.04914584614093784,0.05817014068149474,0.0006528353638134477,3.075617990276159,0.6846913982629264,0.7228857860707025,0.18751938993578424,0.2539343736673906,0.0024095482188756087,1.0315800636193797,2.5586997310704014,-0.9323943942760233,-0.48447505371171795,-0.34449068543155104,-0.022235157248188586,1.182570982763719,-6.222230166026472,-4.204111907150108,-0.8110643218088692,0.08463224657613676,-0.0002365941873751425
0.34,0.6705626265975799,1.6514558179736734,-1.3967125510080505,0.05097578166372151,0.06069107280812597,0.0006762767528497508,3.0857479496943387,0.7101716528205381,0.7136601779475343,0.18299355227836736,0.2520932126631227,0.0023441389036303138,0.7055325050844183,2.3706523484380284,-1.140700472114136,-0.5353876793504468,-0.3943172897066436,-0.022080267139770515,1.1485934017727553,-6.404347464222201,-4.23517285540966,-0.812292529575658,0.08123948217204213,-0.0002771906272518755
0.35000000000000003,0.7014889427516556,1.6587935292974871,-1.3896888838286725,0.0527553277816055,0.06318949927372262,0.0006990224535288356,3.0926316154075697,0.7337711323813809,0.7023667179378055,0.17795461178839858,0.2498426465596654,0.002274570067908478,0.45187646634535994,2.172677416435521,-1.341320377479032,-0.5829644310056776,-0.4359525300025151,-0.021777538840289226,1.1226703153480215,-6.583588393430472,-4.264885400326976,-0.8133328807255505,0.07859562821512694,-0.00030783612796764974
0.36,0.7324588327433167,1.666347441376467,-1.382798068886339,0.054479670601459904,0.06566205848706333,0.0007210397351186459,3.0969889991661006,0.7553912078979882,0.6890814942333389,0.1724342819854403,0.24725592133407084,0.002201728158981036,0.25799045685211835,1.9661161916468564,-1.5332311380165158,-0.6269910648069033,-0.46962288528107554,-0.021348013880675698,1.1032752543523605,-6.759843088269191,-4.293062522211394,-0.8141349131830206,0.07656899935916411,-0.00033014674521590365
0.37,0.7634529829369191,1.6740969077201895,-1.376059161099375,0.0561443354458255,0.06810606565977403,0.0007423041310614167,3.099415019360245,0.774946634372262,0.6738907786964061,0.16646648443655968,0.24440071727107018,0.002126439594277075,0.10243086553810977,1.7522580536736512,-1.71547724083631,-0.6672765819911894,-0.49592871867012833,-0.020809463960655666,1.0872002498059092,-6.9329566633378015,-4.319533264792556,-0.8146554799536454,0.07490581664357479,-0.00034654234841845287
0.38,0.7944559008345836,1.6820205580110703,-1.3694902575596808,0.057745206675125234,0.07051941057925226,0.0007627987689895725,3.1002917897664566,0.7923650290880888,0.6568903539694265,0.16008712292997343,0.24133449194782208,0.002049463792815588,-0.030888069057962136,1.5323582714663557,-1.887185847343038,-0.703659938181119,-0.5159394440345946,-0.02017780560619964,1.0719536643494258,-7.102628316527413,-4.344156345013539,-0.8148669645610438,0.07341468718778749,-0.0003587573202467525
0.39,0.8254543164229174,1.6900964233591578,-1.3631084106738054,0.05927854455743199,0.07290044404739304,0.0007825134410299161,3.099841558833381,0.807586534808736,0.6381846885875353,0.1533337882306756,0.23810334681407877,0.0019714672040343603,-0.16280748469609976,1.3076154339518955,-2.047565454195764,-0.736007242948185,-0.530779820710815,-0.019469835559463078,1.053985390932381,-7.268468488928896,-4.36682957269865,-0.814757662820056,0.07183360702520598,-0.00036887561019873503
0.4,0.856435110718958,1.6983020558623567,-1.3569295494137188,0.060740999503389514,0.07524784952112584,0.0008014437422081907,3.098079429604053,0.820563250319884,0.6178861260086562,0.1462454945957525,0.23474054737328,0.0018930301178274602,-0.48764126454552925,1.0789447618224721,-2.1958197246970688,-0.764159310898807,-0.5400297180647056,-0.018700027882494807,0.9973250484501744,-7.429912215537552,-4.387561882192389,-0.8143636594654743,0.06755566863507442,-0.0003952797884597888
0.41000000000000003,0.8873660278277515,1.7066146188410514,-1.350968400068906,0.06212962910626666,0.07756013788163416,0.0008195937536582083,3.093091710879363,0.8312562978694634,0.5961149344812844,0.13886296028771433,0.23122883605083178,0.0018150011450017592,-0.9686397667463955,0.84814864196267,-2.3317587172587917,-0.78826319157064,-0.55014559682132,-0.017835999740552166,0.9066969389816185,-7.584201683428771,-4.406628861422653,-0.8138876537575664,0.06100827009644117,-0.000433522724060688
0.42,0.9181992987388041,1.7150110671907588,-1.3452384675232647,0.06344188539297616,0.0798353650749477,0.000836971802109913,3.083327091105263,0.8396448349707445,0.5729932545641161,0.13122562867094917,0.22752271933135507,0.00173780484517048,-1.4540098312058694,0.6169108524490357,-2.455295711389779,-0.8084855936707962,-0.5653010898401654,-0.016920881704605817,0.8093031098934025,-7.729215577315693,-4.424360133921258,-0.8135122626161462,0.05420183905975818,-0.00046905130927268126
0.43,0.9488866965386785,1.7234683163920979,-1.3397520267277543,0.0646755998797786,0.08207129235233891,0.0008535846808496658,3.068739779987438,0.8457249201339072,0.5486440795510311,0.1233714486802437,0.2235927277391212,0.0016612878739752815,-1.9284678667319541,0.3865352013778841,-2.56631229506687,-0.8249402821702319,-0.5829745330398293,-0.016022902515500093,0.7081852679685218,-7.864619723448869,-4.440951251823072,-0.8133042046045625,0.047359329501764476,-0.0005005962939789267
0.44,0.9793810614739583,1.7319633722978178,-1.334520110893978,0.06582897442358888,0.08426558218311841,0.0008694381635707692,3.049436493527978,0.8495055905719873,0.5231915833776275,0.1153374543810286,0.2194289830779509,0.0015853482721103335,-2.3946199232272067,0.15824713623537034,-2.664809908242449,-0.8377668244076277,-0.6011236035493077,-0.015146089614128444,0.6031150358140188,-7.99033652172631,-4.456592141374273,-0.8133166669802429,0.04046472988589836,-0.0005285891696742211
0.45,1.009636048491056,1.740473452998188,-1.3295525115890872,0.06690056942597983,0.08641591633178253,0.000884538428303479,3.0254987017097634,0.8510080700370195,0.49675993048906725,0.10715950023909394,0.21503341486641186,0.0015100264732709795,-2.849031212794197,-0.06682019953422291,-2.7508917475024344,-0.8471223543744664,-0.6186850285876808,-0.014283460219314481,0.4950351720980651,-8.106360523692123,-4.471483623855729,-0.8136016067324507,0.03358232010427996,-0.0005529564329806061
0.46,1.0396064718507805,1.748976101574118,-1.324857788931157,0.06788929000434922,0.08852006926248593,0.0008988928136714996,2.9970423359724467,0.8502648575930009,0.46947226579300494,0.09887205783693874,0.21041529307034001,0.0014354385368020594,-3.291929140297022,-0.28760937851988305,-2.8247684410401237,-0.8531871886472384,-0.6349557239787096,-0.013433479643290891,0.38421222023000745,-8.212799360922201,-4.485821663397071,-0.8142039051584169,0.02672609464848948,-0.0005739773714290542
0.47000000000000003,1.0692482850564036,1.7574492912829383,-1.3204432924552,0.0687943697386933,0.09057594952858501,0.0009125102802929773,2.964181320562304,0.847318970882007,0.44144964759569283,0.09050797343440703,0.2055880266099088,0.0013617466621477653,-3.7221605065222434,-0.5031529825624665,-2.88673897851853,-0.8561565701219891,-0.6495920908177375,-0.01259636061494751,0.271197757080681,-8.309831507789667,-4.4997975261566765,-0.8151632806284865,0.019927580857120847,-0.0005918352105698234
0.48,1.0985186969128289,1.7658715217921561,-1.3163151907503454,0.06961535275172717,0.09258162235757494,0.0009254015439663199,2.9270411856425347,0.8422230509217765,0.4128101704854667,0.0820983013033876,0.20056728289899348,0.0012891263673342568,-4.1389451097593035,-0.7125688194299459,-2.937183973955812,-0.8562394890940652,-0.6624210931403951,-0.011774633885073271,0.15648769273280894,-8.397706997531518,-4.513590001533173,-0.8165122794408554,0.013212137542109877,-0.0006067642027081327
0.49,1.1273762500870443,1.7742219069140392,-1.3124785092002695,0.07035207428093397,0.09453532058153787,0.0009375790477207002,2.8857553174215447,0.8350385121883185,0.3836681550075838,0.07367215292068023,0.19536982239629147,0.001217750375438037,-4.541392598253355,-0.9150615289948021,-2.976552885228518,-0.8536542330306496,-0.6733871962916247,-0.010971581558198995,0.04061353688298519,-8.476733670673845,-4.527361382328654,-0.8182759143351932,0.006605432933242623,-0.0006190036619535134
0.5,1.1557809103080154,1.7824802536839361,-1.3089371745551497,0.07100464017616652,0.09643544844817016,0.0009490568288416317,2.840466022097102,0.8258346769896933,0.354133464511989,0.06525658952325523,0.1900127866632289,0.001147778112093142,-4.9290237029774815,-1.1099172377514925,-3.0053558240614384,-0.8486264618191317,-0.6824979826394895,-0.010190780935509736,-0.07596866257716761,-8.547266206912878,-4.541253454956439,-0.8204712296585387,0.0001261858037379729,-0.0006288344974654399
0.51,1.1836941145633533,1.7906271333097787,-1.3056940655217752,0.0715734055285504,0.09828058041467269,0.0009598503420249823,2.7913204255337876,0.8146879625842539,0.3243109033374424,0.05687653523838842,0.1845131966502528,0.0010793513183350546,-5.301256088274955,-1.2965041078316313,-3.0241499241694543,-0.8413845560453872,-0.689812060990981,-0.009435569245763276,-0.19277814584909647,-8.609693308766001,-4.555385271361346,-0.8231073996271369,-0.0062068292489003835,-0.0006365327213517542
0.52,1.2110788294028776,1.7986439439443282,-1.302751068015004,0.07205895287844043,0.10006945697764258,0.0009699762464896377,2.7384714839524356,0.8016810634549428,0.2942997506771211,0.04855473498900162,0.17888765629698858,0.0010125904464655423,-5.657604916863148,-1.474267836988846,-3.033529375853157,-0.8321570368621956,-0.6954125945276886,-0.008709050808210606,-0.3093533784883533,-8.664428883349743,-4.5698506783712025,-0.8261856009062523,-0.012377519077288852,-0.0006423809779289461
0.53,1.2378995994882533,1.8065129657276686,-1.3001091340803363,0.072462070265494,0.1018009787078991,0.0009794521829089306,2.682077008537585,0.7869021783340262,0.264193393466764,0.04031173870535818,0.17315217302565186,0.0009475936419292954,-5.997662677510568,-1.6427278762213848,-3.0341148278515013,-0.8211696696487394,-0.699397363491304,-0.00801391005704355,-0.42525122372496604,-8.711902542971911,-4.584717050848627,-0.8296992289371001,-0.018372170331473467,-0.0006466626127424244
0.54,1.2641225884141725,1.814217408478932,-1.2977683434340967,0.07278372940973987,0.10347419918069896,0.0009882965513987418,2.6222988925919077,0.770444275126334,0.2340790646239602,0.03216591442458608,0.1673220472799864,0.0008844368489811262,-6.321091586820422,-1.8014731826305643,-3.026543335958002,-0.8086428716172449,-0.7018718108521114,-0.007352366917410258,-0.5400481058904091,-8.75255115786442,-4.6000247179845255,-0.8336342414813425,-0.024179286666388612,-0.0006496572234552945
0.55,1.2897156125698144,1.8217414524624744,-1.2957279666223809,0.07302506428418906,0.10508831727305382,0.0009965282974021567,2.5593024155641997,0.7524043983542441,0.20403768117159016,0.02413348744491927,0.16141180923548565,0.0008231746003414932,-6.627618406458023,-1.950157690278612,-3.011458941538759,-0.7947894208642108,-0.7029443842179433,-0.006726171996311869,-0.6533411898422345,-8.78681139793486,-4.615787050253356,-0.8379696192509722,-0.029789432783092082,-0.0006516368775109588
0.56,1.3146481685637954,1.8290702826817584,-1.293986528862837,0.07318735031117553,0.10664266914900229,0.001004166709800153,2.4932555993981107,0.7328830219284048,0.17414377595439107,0.016228602698646725,0.1554351875948477,0.0007638412397996265,-6.917029580583772,-2.0884956369761776,-2.9895039646487374,-0.7798124703949423,-0.7027234289786648,-0.006136622722832552,-0.764749189952619,-8.81511326096646,-4.6319911431855765,-0.8426779236244387,-0.035195062123553535,-0.0006528628366553448
0.5700000000000001,1.3388914547005113,1.8361901171684447,-1.29254187370466,0.0732719843857392,0.10813672015417153,0.0010112312338882215,2.4243286136716002,0.7119834486686314,0.14446551581771055,0.008463407456367098,0.14940510051692402,0.0007064524088068559,-7.189166334524682,-2.2162568648677548,-2.961311080756074,-0.7639038669160563,-0.7013151006111613,-0.005584592237897645,-0.8739127760807661,-8.837874578302657,-4.648599023297299,-0.847725930101476,-0.040390328568588166,-0.0006535827554925907
0.58,1.3624183869975706,1.8430882297366487,-1.2913912257203202,0.07328046590033314,0.10957005677538478,0.0010177413007077594,2.3526932297059213,0.6898112568204026,0.11506479843397537,0.0008481514593943413,0.14333366212132537,0.0006510066819537853,-7.443919741704947,-2.333262198306309,-2.927496231271993,-0.7472427691646768,-0.6988219488349543,-0.005070565557204976,-0.9804946234839778,-8.85549647217604,-4.665549297920173,-0.8530753171236629,-0.045370887272834795,-0.0006540283381983741
0.59,1.385203610235991,1.849752967664431,-1.2905312515256568,0.07321437891642162,0.11094237877714308,0.0010237161734368424,2.2785223238420573,0.6664737927782385,0.08599741946633681,-0.006608698391152302,0.13723220017583002,0.000597487272908307,-7.681225837139362,-2.4393789891628592,-2.8886524000850105,-0.729994556180479,-0.6953419520178912,-0.004594679346284991,-1.0841791709581643,-8.868359723142955,-4.682759170826461,-0.8586833916814343,-0.05013369038304715,-0.0006544134333148308
0.6,1.4072235045295693,1.8561737647477052,-1.2899581185112352,0.07307537560055805,0.11225349159659868,0.0010291748110063293,2.201989429357821,0.6420797083274182,0.057313301442157745,-0.013900331586357147,0.1311112819455598,0.0005458637569486802,-7.901060862253045,-2.5345169065056106,-2.8453442720901796,-0.7123100126163102,-0.6909678606906198,-0.004156762758742882,-1.1846721531878641,-8.876821993736467,-4.700126748202642,-0.8645038352785249,-0.05467678300469726,-0.0006549325398563542
0.61,1.428456187886446,1.8623411501471878,-1.2896675507557005,0.07286516101562035,0.11350329905716004,0.0010341357487356998,2.123268335687665,0.6167385399482648,0.029056775553467976,-0.021021458493769702,0.12498074605613572,0.0004960937729370585,-8.103436717660555,-2.618624034469455,-2.798103775513386,-0.6943247758018565,-0.68578675963537,-0.003756377741277017,-1.281699970151531,-8.881215845581492,-4.717533563956679,-0.8704874561123281,-0.058999104143090474,-0.0006557596926519333
0.62,1.448881515215078,1.8682467534181009,-1.28965488167983,0.07258547933228221,0.11469179644501211,0.0010386169955244212,2.04253273286321,0.5905603270913119,0.0012669075870598775,-0.02796816833381379,0.11884973878520688,0.00044812467887213493,-8.288396689278375,-2.6916833292332565,-2.7474264976092018,-0.6761590277087954,-0.6798797897132758,-0.0033928576759336693,-1.3750089513849304,-8.881847481480309,-4.7348472589662585,-0.8765829356083613,-0.06310029664581449,-0.0006570476916031322
0.63,1.468481074199599,1.8738833060763485,-1.2899151030868916,0.07223810150168458,0.1158190639806638,0.0010426359469562687,1.9599558984521077,0.5636552658247566,-0.026022140706176422,-0.03473778305976251,0.11272675356516891,0.00040189514318474286,-8.45601150149642,-2.753709473455723,-2.693768952926783,-0.6579174140271178,-0.6733219904808436,-0.003065343657673303,-1.4643645669728746,-8.878996140912463,-4.751924355189065,-0.8827375596120112,-0.06698052948028624,-0.0006589276382617539
0.64,1.487238178437032,1.8792446400150902,-1.2904429103197226,0.07182481440775566,0.11688526070793756,0.0010462093135526344,1.8757104237433118,0.5361333938741768,-0.052780723283100156,-0.041328709392891974,0.10661967272737555,0.0003573366596365635,-8.606375739784308,-2.804746154383318,-2.637546674602582,-0.6396891721212654,-0.6661822371449944,-0.0027728179651278495,-1.5495506308006308,-8.8729140765192,-4.768613072140426,-0.8888979265132857,-0.07064033502271398,-0.0006615087435465996
0.65,1.5051378581921044,1.884325683043232,-1.2912327433467743,0.07134741149677506,0.11789061881483814,0.0010493530633312437,1.7899679755072402,0.5081043028141783,-0.07898330270517145,-0.047740291098059384,0.10053581069005836,0.0003143749778609329,-8.739604674228096,-2.844863780209951,-2.579133091841122,-0.6215484495495076,-0.6585232533242831,-0.002514134443532434,-1.630368535130197,-8.863827039999666,-4.784756139756644,-0.8950106263084125,-0.07408046342741709,-0.000664878372185947
0.66,1.5221668490855673,1.8891224517735052,-1.2922788236675267,0.07080768486262003,0.11883543839400354,0.0010520823777786742,1.7028990893462974,0.47967687302733286,-0.1046080320752379,-0.05397266341550418,0.094481957916539,0.00027293144474304206,-8.855831505138813,-2.8741576381910336,-2.5188591506665032,-0.6035547949846922,-0.650401686093673,-0.002288045672843353,-1.7066365491445699,-8.851935208011739,-4.800193567841849,-0.9010228860562246,-0.07730175559455087,-0.0006691022922542793
0.67,1.5383135789899707,1.8936320420436241,-1.2935751870015277,0.0702074187486736,0.1197200826446517,0.0010544116203207634,1.6146729904403267,0.45095902701189405,-0.12963633340010755,-0.06002661139464205,0.08846442506481586,0.0002329242542089272,-8.955205042062712,-2.8927464875426145,-2.4570136299605343,-0.5857538036608307,-0.6418682330277719,-0.0020932269035549567,-1.7781892078244117,-8.837414481772912,-4.814765337957432,-0.9068831783576213,-0.0803050357608774,-0.0006742251016417458
0.68,1.5535681533637495,1.8978526170105268,-1.2951157117943832,0.06954838441160904,0.1205449735129012,0.0010563543163686318,1.5254574373778822,0.422057496690266,-0.15405247928554922,-0.06590343370645603,0.08248908682494963,0.00019426960478685312,-9.03788781827708,-2.9007715703294785,-2.3938441005510844,-0.5681778998141862,-0.6329678130457168,-0.0019282967859082234,-1.844876811435499,-8.820418097774034,-4.828313988641247,-0.9125417903793447,-0.08309102429953658,-0.000680270807156448
0.6900000000000001,1.5679223392111736,1.901783393015913,-1.296894143637874,0.06883233627817331,0.12131058776293852,0.0010579231440258313,1.4354185847424068,0.3930776005386149,-0.1778431843490867,-0.07160481334357283,0.07656142500373249,0.00015688276571994124,-9.104054634200828,-2.8983960144165115,-2.329558471515748,-0.5508472389145229,-0.6237397742445481,-0.0017918350269185979,-1.9065650500290259,-8.80107849108844,-4.8406870691890935,-0.9179513515788005,-0.08566027092555734,-0.0006872435359481865
0.7000000000000001,1.5813695478130414,1.905424623282087,-1.2989041157596648,0.06806100931365999,0.12201745346764921,0.0010591299345599223,1.344720860186781,0.36412302661740586,-0.20099721217907943,-0.07713269645133185,0.07068657047106981,0.00012067905340909183,-9.153891515116268,-2.8858045941789277,-2.2643270647779277,-0.5337707127847349,-0.6142181328616019,-0.0016823971117823078,-1.963134761686808,-8.779509356966367,-4.8517394408967345,-0.9230673186945787,-0.0880131081573032,-0.0006951283628288797
0.71,1.593904816331783,1.9087775794613424,-1.3011391657904765,0.06723611750996968,0.1226661469039675,0.001059985681767513,1.2535268518741716,0.3352956179255392,-0.2235050030811764,-0.08248918036903176,0.06486934363182889,8.557472075906517e-05,-9.187595061234996,-2.863203807106118,-2.198285156430619,-0.516947040860213,-0.6044318381747971,-0.0015985262886033524,-2.0144818277717613,-8.75580786058952,-4.861335407696263,-0.9278484167852421,-0.09014962457291492,-0.0007038922406604286
0.72,1.6055247883555936,1.9118445310305325,-1.303592749062873,0.0663593533919996,0.12325728983528995,0.0010605005593928552,1.1619972023810636,0.30669515691901245,-0.2453583272396424,-0.08767641179700829,0.05911429313224495,5.1487762534225856e-05,-9.205372161494363,-2.8308222177725604,-2.1315359209235325,-0.5003659310054136,-0.594405058663412,-0.001538763033090973,-2.0605172031646815,-8.7300569489056,-4.869350660609541,-0.9322570351691983,-0.09206965711798243,-0.0007134850241322325
0.73,1.6162276934100206,1.9146287224957295,-1.3062582487357202,0.0654323884335759,0.12379154716081153,0.001060683945794806,1.0702905054426874,0.278419146519702,-0.2665499672847337,-0.09269649584236908,0.05342573255215846,1.8338640195068066e-05,-9.207440036604961,-2.7889110149724528,-2.0641537123387685,-0.4840092932960882,-0.584157485165683,-0.001501652220678551,-2.1011670743884214,-8.702327722291846,-4.8756740224924675,-0.936259577085902,-0.093772801459983,-0.0007238405798432047
0.74,1.6260133254326605,1.9171343483505408,-1.3091289830717403,0.06445687426824816,0.12426962490955072,0.0010605444550939973,0.9785632022639967,0.25056258548113586,-0.2870734336020238,-0.09755141653277487,0.04780777487391852,-1.3949070080857517e-05,-9.194026572389964,-2.7377447232104752,-1.9961876149893145,-0.4678524900722607,-0.5737046471410494,-0.0014857482614205608,-2.1363731338025786,-8.672681827304144,-4.8802089812146745,-0.9398267617918838,-0.09525843914983709,-0.0007348779775760068
0.75,1.6348830201777316,1.9193665257161945,-1.3121982102221863,0.06343444457602163,0.12469226855510869,0.0010600899740700032,0.8869694745071005,0.2232177365653702,-0.30692271504460783,-0.10224296922265322,0.04226436455579751,-4.544810239941129e-05,-9.165370896394208,-2.677622006413441,-1.927665197517686,-0.45186560625272953,-0.5630582384001386,-0.0014896184340891239,-2.166092952454654,-8.641173835521522,-4.882875001436234,-0.9429338778186724,-0.09652578006221815,-0.0007465027587870525
0.76,1.6428396314930742,1.921331264582249,-1.3154591308927195,0.062366717524441735,0.12506026162584666,0.001059327704116518,0.7956611315342544,0.19647388660545156,-0.326092067053326,-0.10677270515798917,0.03679930707379682,-7.622699534852391e-05,-9.1217241599167,-2.6088664993827337,-1.8585963949673356,-0.43601472171390654,-0.5522264492275823,-0.001511844673438567,-2.190300433050824,-8.607853575215838,-4.883608605262107,-0.9455609856941526,-0.0975739185549915,-0.0007586082793474016
0.77,1.6498875063917,1.9230354355639696,-1.3189048892771045,0.06125529864159394,0.1253744245841011,0.0010582642076003305,0.7047874898625701,0.17041709817206546,-0.3445758384385008,-0.11114188828477999,0.031416295825446736,-0.00010634965161873673,-9.0633504641833,-2.531827602049508,-1.7889774584340499,-0.42026317120190626,-0.5412143017719302,-0.0015510240529534869,-2.2089863152594855,-8.572768387559796,-4.8823642159011476,-0.9476930689950736,-0.09840190126677004,-0.0007710771226982096
0.78,1.6560324588256705,1.9244867350960821,-1.322528572651851,0.06010178399916605,0.12563561394733466,0.0010569054580063322,0.6144952433970592,0.14512995321124275,-0.3623683374746541,-0.1153514642427891,0.026118936323354727,-0.00013587495939983203,-8.990527890554011,-2.4468811720132866,-1.7187948975868519,-0.40457277385922197,-0.5300239862451335,-0.001605768200980684,-2.2221587078704914,-8.535965279592004,-4.8791147579119105,-0.9493201321021276,-0.09900880461723247,-0.0007837825796774898
0.79,1.6612817420597548,1.925693647992729,-1.3263232100240145,0.05890776358609102,0.12584472162364727,0.0010552568932859494,0.524928323408435,0.12069128966466884,-0.3794637372163475,-0.11940204130750284,0.020910767631261318,-0.0001648564720382772,-8.903549580841537,-2.3544300531055073,-1.6480293518911502,-0.38890501694122115,-0.5186551956341461,-0.0016747018809661895,-2.2298436161539525,-8.497492949890079,-4.873852010938412,-0.9504372435692754,-0.0993938197043269,-0.0007965901894650407
0.8,1.6656440195373496,1.9266654073197895,-1.3302817702170584,0.05767482475719248,0.12600267443386565,0.0010533234718595878,0.43622774775948536,0.0971759327060663,-0.3958560193043769,-0.12329388288985367,0.01579528102183836,-0.00019334214263616587,-8.802724819826336,-2.2549043813239398,-1.5766593258462676,-0.373222178184875,-0.5071054570079738,-0.0017564609470399617,-2.2320854320655354,-8.45740366489594,-4.866586715651449,-0.9510445242308836,-0.09955634222708527,-0.0008093593345356659
0.81,1.669129334130964,1.9274119515479224,-1.3343971597659368,0.056404555646710375,0.12611043379244638,0.001051109730754925,0.3485314593614561,0.07465442281328522,-0.41153895488784326,-0.12702691104821073,0.010775935858074487,-0.00022137411046627362,-8.688380073575798,-2.1487616145756965,-1.5046647274139242,-0.3574883722248643,-0.49537045783609557,-0.0018496898810722584,-2.2289473537250815,-8.415754966252944,-4.857348433250601,-0.9511470796488537,-0.09949606494920771,-0.0008219448803968537
0.8200000000000001,1.6717490756740077,1.9279438789822343,-1.3386622209727623,0.05509854844350033,0.12616899551964914,0.0010486198453919062,0.26197415430435,0.053192743431185935,-0.4265061206825503,-0.13060072032100445,0.005856172720276614,-0.00024898853630189066,-8.560859940435824,-2.036486239141219,-1.4320301532693689,-0.34167050758404294,-0.4834443660679568,-0.0019530391260413893,-2.220511700536346,-8.3726111918797,-4.846185162762284,-0.9507548770969488,-0.09921307015704545,-0.0008341988485916339
0.8300000000000001,1.6735159466793577,1.9282723994967477,-1.3430697304490191,0.05375840243297063,0.1261793897578314,0.0010458576905516034,0.1766871005350104,0.03285205145134071,-0.44075094762568523,-0.13401460105297003,0.0010394238182269751,-0.00027621548403028884,-8.420527975749247,-1.9185891135161806,-1.3587478699846232,-0.3257391421542817,-0.4713201430386533,-0.0020651623764731397,-2.206880091319305,-8.328044795916572,-4.833162723513228,-0.9498825679951628,-0.09870791955259126,-0.0008459721090850532
0.84,1.6744439261628083,1.9284092836380309,-1.3476123984398294,0.052385726720311845,0.1261426809652612,0.0010428269020902646,0.09279794834506604,0.013688414128329211,-0.4542667990810263,-0.13726757126587807,-0.003670879257020165,-0.00030307884613388293,-8.267767356345237,-1.7956064191405865,-1.2848204467013051,-0.30966922678926956,-0.45898984856921743,-0.002184714023921508,-2.1881734549453995,-8.282137455166867,-4.81836391349612,-0.948549257522505,-0.097981739063949,-0.000857116075871524
0.85,1.6745482315055007,1.9283668092016097,-1.3522828691909061,0.050982142560124045,0.126059967961513,0.0010395309389810297,0.010430534269235195,-0.004247443642117869,-0.4670470751076783,-0.14035841601877988,-0.008271300374821,-0.0003295963109234823,-8.102981356489982,-1.6680981972813789,-1.2102630021982916,-0.29344072858130676,-0.44644493789223816,-0.0023103469235374874,-2.1645318462149277,-8.234980952237619,-4.80188745778091,-0.946778224024189,-0.09703629615746624,-0.0008674843875868253
0.86,1.6738452783082662,1.9281577054261125,-1.3570737225802816,0.04954928522896778,0.12593238399928156,0.0010359731452842108,-0.07029531972344337,-0.020910377549714518,-0.4790853389375372,-0.14328573311562615,-0.012758396223145785,-0.0003557793696818945,-7.926593613118548,-1.5366464617530067,-1.1351050373760683,-0.2770391275597124,-0.4336765502611186,-0.0024407106308848014,-2.136114044064746,-8.186677828272437,-4.783846764546187,-0.9445965917547324,-0.09587406740034864,-0.0008769345532215045
0.87,1.672352638211846,1.9277950949924791,-1.3619774771954811,0.04808880538945014,0.1257610968382977,0.0010321568116627823,-0.14926400964200917,-0.03626104336333468,-0.49037546151996336,-0.14604798395176463,-0.017128716098385018,-0.0003816333621428447,-7.739048164590575,-1.4018528879704744,-1.0593918328938186,-0.2604557829175178,-0.42067578927908045,-0.0025744502738436204,-2.103096914564953,-8.137341800961861,-4.764368509584074,-0.942034961423797,-0.09449829425075476,-0.0008853295418359197
0.88,1.6700889946795519,1.9272924340579,-1.3669865949934057,0.046602369906977734,0.12554730879794065,0.0010280852360724086,-0.22636435322941484,-0.05026609345791264,-0.5009117797924661,-0.14864354824724024,-0.021378804035704246,-0.00040715755903738106,-7.540809253734258,-1.2643360897398355,-0.9831854008150267,-0.24368816734543053,-0.40743399509496214,-0.002710206201966159,-2.0656745274276807,-8.087097946403713,-4.743591073136565,-0.9391270038962063,-0.09291302534204755,-0.0008925392945745023
0.89,1.667074096762452,1.926663450595368,-1.3720934876356814,0.04509166209302669,0.12529225676609898,0.0010237617832651925,-0.3014897917099786,-0.06289834625321027,-0.5106892642275702,-0.15107078139510466,-0.02550520318416855,-0.00043234528072160996,-7.332360892360125,-1.1247285058974992,-0.9065649884155818,-0.2267399705709785,-0.39394300865242826,-0.0028466145334600235,-2.024057021732314,-8.03608264634715,-4.721662855522377,-0.9359090232010019,-0.09112314387399736,-0.0008984421373442492
0.9,1.6633287108909611,1.9259220813487412,-1.3772905245475833,0.04355838136145031,0.12499721214282823,0.0010191899427536913,-0.3745385871490922,-0.07413692466267925,-0.5197036911901893,-0.15332807315763772,-0.029504462327074675,-0.0004571840511501091,-7.114206190550547,-0.9836729291148074,-0.8296271415435743,-0.20962107569702582,-0.38019542815598584,-0.0029823087329186038,-1.9784692240500936,-7.984443305360875,-4.698740500092511,-0.9324194956883943,-0.08913437911840782,-0.0009029260733054748
0.91,1.6588745707601666,1.9250824077490196,-1.3825700427047443,0.042004242296726654,0.12466348069838126,0.0010143733848864181,-0.4454140130794459,-0.08396735997215493,-0.5279518157161047,-0.15541390647236533,-0.0333731444446973,-0.00048165578672730754,-6.886866459688806,-0.8418187186022617,-0.7524853438367558,-0.19234741435289404,-0.3661848577918647,-0.0031159223161409955,-1.9291490298713219,-7.932337845484322,-4.6749870535106055,-0.9286985927043709,-0.08695330147914909,-0.0009058899358322567
0.92,1.653734325398785,1.924158591169182,-1.3879243581096175,0.04043097314490314,0.12429240232624823,0.0010093160146887278,-0.5140245361381514,-0.09238165798376255,-0.5354315404873168,-0.15732691518235137,-0.03710783721330231,-0.000505737019769027,-6.650880103229313,-0.6998177468130703,-0.6752692564843885,-0.17494070888283142,-0.351906148554022,-0.0032460927596122957,-1.876345566919496,-7.879933988908371,-4.650570094114744,-0.9247876945030087,-0.08458730100388204,-0.0009072443848109064
0.93,1.6479314855327893,1.9231648079215848,-1.3933457788799044,0.03884031374910678,0.12388535067294436,0.001004022023124141,-0.5802839865995735,-0.09937832475972334,-0.5421420770286929,-0.1590659395796362,-0.04070516533038725,-0.0005293991564586776,-6.406801313510937,-0.5583201373353048,-0.5981235908072813,-0.15742811181264704,-0.3373556307540895,-0.003371466687311475,-1.8203171662866222,-7.827408342144512,-4.625659859135093,-0.9207289032668414,-0.08204454971195721,-0.000906912731997283
0.9400000000000001,1.641490368374069,1.9221151844228748,-1.3988266198346495,0.03723401296165645,0.12344373262743305,0.000998495935431115,-0.6441117158720358,-0.10496234987100485,-0.5480840954745213,-0.16063007874503218,-0.04416180455113058,-0.0005526087693026038,-6.155198596390689,-0.4179698567893019,-0.521206652558339,-0.13984175452867564,-0.32253133745226137,-0.0034907063489875156,-1.7613291740516064,-7.774945297930071,-4.600427400802942,-0.9165645630456111,-0.07933394856395423,-0.0009048315845553254
0.9500000000000001,1.634436040981623,1.921023732966051,-1.4043592184310862,0.0356138255738682,0.12296898765428811,0.0009927426561902562,-0.7054327392445987,-0.10914514568239193,-0.5532598596436739,-0.16201873877882544,-0.047474497314494046,-0.0005753279240858756,-5.896653148076877,-0.27940022757753835,-0.4446886023225446,-0.12221821848457681,-0.3074332176512442,-0.003602497396968385,-1.6996516418765097,-7.722735773729925,-4.575042799910521,-0.9123367941525552,-0.07646506033667223,-0.0009009512997282941
0.96,1.6267942623574823,1.9199042885473245,-1.4099359518771517,0.033981508812445216,0.12246258695599839,0.0009867675107774637,-0.7641778624140774,-0.11194444187263518,-0.5576733446065536,-0.1632316761422984,-0.05064006982897212,-0.0005975145412792627,-5.631757110255177,-0.14322943068671554,-0.368749480620303,-0.10459794324199034,-0.29206333767537274,-0.0037055579059468435,-1.6355569397713194,-7.670975808081505,-4.549673463219333,-0.9080870490840336,-0.07344803006699062,-0.0008952362477088591
0.97,1.6185914244516473,1.9187704471965334,-1.415549255221285,0.03233881845778794,0.1219260324512239,0.000980576282860852,-0.8202837905834894,-0.11338413507911599,-0.5613303344133252,-0.16426903546572752,-0.053655450477449275,-0.0006191227916611487,-5.361111730455538,-0.01005606838821188,-0.2935770491963843,-0.08702458627274445,-0.2764260686976847,-0.00379864856792711,-1.569317337580751,-7.619865038136862,-4.524482528347805,-0.9038556963706502,-0.07029349507415347,-0.0008876648840160446
0.98,1.6098544922597213,1.9176355062539943,-1.4211916402029614,0.030687504644577195,0.12136085555734645,0.000974175247604147,-0.873693219192589,-0.11349409425392062,-0.5642384981676383,-0.16513138132107438,-0.056517689387744846,-0.0006401035256705052,-5.085325454651098,0.11954514434970692,-0.21936450148557607,-0.06954434966919981,-0.2605282579627577,-0.0038805839068616343,-1.5012026036342003,-7.569605083532768,-4.499627396501386,-0.8996816379518788,-0.06701248684986767,-0.0008782296368915628
0.99,1.600610943203612,1.9165124070239385,-1.4268557146345562,0.02902930740854579,0.1207686157673416,0.0009675712002482882,-0.9243549056109329,-0.11230992300556655,-0.5664074431594673,-0.16581972360314012,-0.05922397900048413,-0.0006604047355858839,-4.80501197839999,0.24502749356019723,-0.14630809539772527,-0.052205288756185436,-0.2443793808474517,-0.003950244355181987,-1.4314776693346836,-7.520397863119845,-4.475258409762743,-0.8956019647238312,-0.06361632730906586,-0.0008669366192350942
