tonegas/nnodely-applications/joint_friction_estimation/dataset/train/mpc_mujoco_episode_40 copy.csv
time,q1,q2,q3,q4,q5,q6,dq1,dq2,dq3,dq4,dq5,dq6,ddq1,ddq2,ddq3,ddq4,ddq5,ddq6,tau1,tau2,tau3,tau4,tau5,tau6
0.0,0.0,1.57,-1.57,0.0,0.0,0.0,0.0,0.0,0.0,0.0,0.0,0.0,-3.084304755278879,-14.246297723411324,8.955201784386162,4.528974854008871,-0.4776005220504498,-2.302659460884371e-06,-0.4297681260161445,-10.036969562386531,-5.655692602503079,-1.1712087500451536,-0.0391765213940888,-0.0010347878916498136
0.01,-0.0003069108883816288,1.5685831926800902,-1.5691117312396112,0.00041802270648592634,-3.9727544771580095e-05,-1.6538003322093542e-07,-0.03069108883816288,-0.14168073199098646,0.08882687603888112,0.041802270648592633,-0.0039727544771580095,-1.6538003322093543e-05,-3.049400348335999,-14.199437041340316,8.842708325241613,4.181438939201133,-0.404649356802425,-0.0016733365630998698,-0.42415576320473286,-10.041718893879015,-5.660804246575256,-1.1722970107453776,-0.0388018080664012,-0.001030917626875498
0.02,-0.0009170161035694001,1.5657543925685111,-1.5673482636913978,0.0012263091200108804,-0.00011465950804111725,-5.000234724052199e-07,-0.06101052151877713,-0.2828800111578983,0.1763467548213415,0.0808286413524954,-0.007493196326953715,-3.3464343918428455e-05,-3.008037675506901,-14.153291603383503,8.704861076418826,3.9009754022772967,-0.36090219698840365,-0.0017657731236453422,-0.41363465962777396,-10.028019022696544,-5.658135020311017,-1.1715697155132156,-0.03812223719218273,-0.0010226385764993645
0.03,-0.001826051716553107,1.5615182793204712,-1.5647246855041883,0.0024021582815385665,-0.0002220432704035293,-9.962261438768328e-07,-0.09090356129837068,-0.4236113248039864,0.262357818720958,0.11758491615276859,-0.010738376236241205,-4.962026714716128e-05,-2.9605236180361256,-14.107970304843569,8.546590328174752,3.671065489835847,-0.3356402517613706,-0.0017715656648147338,-0.39836136848235243,-9.995741201789123,-5.647710185676705,-1.1690504201323764,-0.0371384380019949,-0.0010100335054194728
0.04,-0.0030291999014700863,1.5558794009820438,-1.561257730469212,0.003926672588522506,-0.00036024755537848957,-1.6525790869995118e-06,-0.12031481849169794,-0.5638878338427441,0.3466955034976369,0.1524514306983939,-0.013820428497496024,-6.56352943122679e-05,-2.9067526256811855,-14.063380004112705,8.371608211063016,3.479078521210189,-0.3223805105021018,-0.001868353540846357,-0.37856391778128834,-9.944719615405686,-5.629534320185883,-1.1647591115276137,-0.03585189710200932,-0.000993184582614692
0.05,-0.004521056611796302,1.5488421941415882,-1.556965499196446,0.005783798415613934,-0.0005283674493840146,-2.473702219713231e-06,-0.14918567103262154,-0.7037206840455583,0.42922312727659506,0.18571258270914276,-0.0168119894005525,-8.211231327137193e-05,-2.846364897503158,-14.019259473211662,8.182688446506514,3.315364818564122,-0.3171938390641582,-0.0020544776187092495,-0.35454328474790875,-9.874753671922946,-5.60359301142364,-1.1587130171051738,-0.034265183430082974,-0.0009721778193900382
0.06,-0.0062955831592280105,1.5404110183636024,-1.5518672525108177,0.007959592934445474,-0.0007259829853178748,-3.468499589640706e-06,-0.17745265474317087,-0.8431175777985778,0.5098246685628294,0.21757945188315392,-0.019761553593386022,-9.947973699274748e-05,-2.778841865309602,-13.975206333505039,7.981883041421725,3.172557254998134,-0.31769787173919184,-0.002315131889789157,-0.32667479719670917,-9.785612699187539,-5.56985543158767,-1.1509275397243566,-0.03238224709927494,-0.000947107812433822
0.07,-0.008346047641051818,1.530590202810275,-1.5459832604124593,0.010441664016954243,-0.0009530106172836124,-4.6489628606537665e-06,-0.2050464481823807,-0.9820815553327522,0.5883992098358425,0.24820710825087697,-0.022702763196573755,-0.00011804632710130603,-2.703565093062809,-13.930699036723151,7.770690280642022,3.0450347535109206,-0.32244846061344745,-0.0026424793593484708,-0.2954089229890846,-9.677042707940041,-5.528277653660815,-1.1414173030563166,-0.0302087678056778,-0.000918082578329952
0.08,-0.010664959987316515,1.5193841033076638,-1.5393346936680392,0.013218742467773721,-0.0012096107910547342,-6.029508813172758e-06,-0.23189123462646966,-1.1206099502611035,0.6648566744420018,0.27770784508194774,-0.025660017377112168,-0.00013805459525189913,-2.6198539845586053,-13.885115385248824,7.550185203926926,2.928510864711159,-0.3305688096788124,-0.003035572724204627,-0.26127094106245663,-9.548774958996098,-5.47880658567624,-1.1301972877259705,-0.027752535640683633,-0.0008852283617496
0.09,-0.01324400315917725,1.50679716835105,-1.5319435479629204,0.01628035536349538,-0.0014961291115128095,-7.626655107481762e-06,-0.25790431718607354,-1.2586934956613838,0.7391145705118691,0.3061612895721659,-0.028651832045807527,-0.00015971462943090045,-2.5269915224198565,-13.837748672950392,7.321121221157089,2.8197187224183615,-0.3415200031932937,-0.0034985884435303483,-0.22485899798892744,-9.400536107864312,-5.421384407547043,-1.1172840348277622,-0.025023850256944744,-0.0008486943296558952
0.1,-0.016073962354383037,1.4928340126998696,-1.523832592743285,0.019616576614999204,-0.0018130571317648446,-9.45888909914517e-06,-0.2829959195205786,-1.3963155651180439,0.8110955219635556,0.33362212515038236,-0.0316928020252035,-0.0001832233991663407,-2.4242437638789003,-13.78782180418317,7.084009562404397,2.716170151733847,-0.3549543766676244,-0.004039649717691773,-0.18684006270954326,-9.232059506785564,-5.355953323658115,-1.1026968749831965,-0.022035925209621263,-0.0008086570544351618
0.11,-0.019144653756902445,1.477499497352366,-1.5150253385637642,0.023217836511068176,-0.0021610037987176917,-1.1546637207102219e-05,-0.3070691402519408,-1.5334515347503577,0.8807254179520864,0.3601259896068971,-0.03479466669528473,-0.00020877481079570497,-2.31087686746304,-13.734501768321826,6.83918160047574,2.6159717067692725,-0.3706153782266952,-0.004670223119333183,-0.14794330429124855,-9.043098370866032,-5.282460845763854,-1.0864592193793585,-0.018805283263134957,-0.0007653247086850564
0.12,-0.022444854289274972,1.4607988146076452,-1.5055460180613776,0.027074776330851997,-0.0025406714277455013,-1.3912274578762242e-05,-0.3300200532372527,-1.6700682744720903,0.9479320502386553,0.38569398197838195,-0.037966762902780976,-0.00023656373716600236,-2.1861746876552943,-13.676910319541598,6.586838213801887,2.5176844827868656,-0.3882604858905303,-0.005404833580436197,-0.10895046894861948,-8.833438324942641,-5.200864685178059,-1.0685997175168345,-0.015352128182601541,-0.0007189407677344393
0.13,-0.02596223395513563,1.4427375772651339,-1.4954195766564482,0.031178137438452908,-0.002952831535867317,-1.658013044467549e-05,-0.35173796658606593,-1.8061237342511254,1.0126441404929332,0.41033611076009086,-0.041216010812181576,-0.00026678558659132495,-2.04945967071015,-13.614133783023474,6.327089119700844,2.4202174231164264,-0.4075910753714087,-0.006260844452347758,-0.07068288341399703,-8.602910475550768,-5.111137642455123,-1.0491533519390412,-0.011700675485798555,-0.0006697871183198322
0.14,-0.029683292680142897,1.4233219110712367,-1.4846716698424463,0.0355186768168617,-0.003398296398796017,-1.957644817162168e-05,-0.37210587250072663,-1.9415666193897132,1.0747906814001935,0.43405393784087953,-0.044546486292869975,-0.0002996317726946191,-1.9001192546389178,-13.545269467256768,6.059982374509762,2.322745491015853,-0.4281771467882578,-0.007258028045081577,-0.03398472306118416,-8.35142287471212,-5.013278744900261,-1.0281636972414565,-0.007879414962004387,-0.0006181869567057931
0.15,-0.03359330401671543,1.4025585458542091,-1.473328664744473,0.040087102895552555,-0.003877882075393926,-2.2929253128550178e-05,-0.39100113365725353,-2.076336521702764,1.134300509797317,0.45684260786908537,-0.04795856765979092,-0.0003352804956928496,-1.7376457837240142,-13.469342916580635,5.785534542924509,2.2246502324030253,-0.44936718902199857,-0.008417570583996836,0.0002972446954540575,-8.078929261358844,-4.9073019535783775,-1.0056806308547488,-0.00392131015310257,-0.0005645047242778577
0.16,-0.03767626922719277,1.380454913644034,-1.461417643344498,0.0448740271868476,-0.004392358053715209,-2.666806703817672e-05,-0.40829652104773406,-2.210363221017516,1.1911021399975006,0.4786924291295042,-0.05144759783212833,-0.0003738813909626543,-1.5616887575736715,-13.38537415085215,5.503749423840478,2.1254718620016977,-0.47017576382481874,-0.009759997569421142,0.03133790150276908,-7.785471161390932,-4.793250876473718,-0.9817631598331898,0.00013613004741484455,-0.000509147322129194
0.17,-0.04191488617228526,1.3570192472159732,-1.4489664058949716,0.04986992816666154,-0.004942377731227195,-3.082338468917771e-05,-0.42386169450924926,-2.343566642806082,1.2451237449526544,0.49959009798139464,-0.0550019677511985,-0.00041553176510009896,-1.3721337967615903,-13.292241581075729,5.214643487901828,2.024877266930371,-0.48914540010082685,-0.01130130835554044,0.05836114359086392,-7.471122936101041,-4.671179243510069,-0.9564754197302816,0.004250891868635535,-0.00045256092381331276
0.18,-0.04629053962508687,1.332260692650369,-1.436003472174768,0.0550651249794969,-0.005528382930222328,-3.542579820267452e-05,-0.43756534528016067,-2.4758554565604163,1.2962933720203622,0.5195196812835361,-0.05860051989951337,-0.0004602413513496806,-1.1811371406301507,-12.757333976663096,4.942347285465093,1.9316841489700547,-0.5042624450332625,-0.013046409857931485,0.07982659786879903,-6.934852748468863,-4.4717412663034715,-0.9165074622060082,0.008308508022700632,-0.0003893747227833497
0.19,-0.05078449175555316,1.3062324227914046,-1.4225554444740602,0.06045032398813731,-0.006150535579241331,-4.050498471121799e-05,-0.44939521304662944,-2.602826985896443,1.3448027700707923,0.5385199008640411,-0.06221526490190024,-0.0005079186508543473,-1.0009134451796067,-11.447464883772563,4.711243354560596,1.8507699515853808,-0.5130509554428477,-0.014948876299679226,0.09423661904578229,-6.031580661516609,-4.148752517738062,-0.8535296277873672,0.012164566130965622,-0.00031696372653880115
0.2,-0.05537906806490642,1.2790648462616845,-1.4086444327033583,0.06601691924847099,-0.006808633096412256,-4.60882206419057e-05,-0.45945763093532543,-2.7167576529720208,1.3911011770702086,0.5566595260333683,-0.06580975171709261,-0.0005583235930687711,-0.818116961041585,-10.034374836251676,4.494986150578152,1.7654779822349216,-0.5121126347125591,-0.016881375652786912,0.10194634424495307,-5.0835636361286625,-3.81943494761335,-0.7906732853409627,0.015768290106652216,-0.00024694283685824063
0.21,-0.060056329204065596,1.2508986714491317,-1.3942910932707122,0.0717559758668479,-0.007501851475909053,-5.2196654372806e-05,-0.4677261139159177,-2.816617481255284,1.4353339432645948,0.573905661837691,-0.06932183794967965,-0.0006108433730900298,-0.6338507890237149,-8.58348111883564,4.290823042074264,1.6759436578294977,-0.4967721390178874,-0.018681132795785982,0.10318217405895798,-4.12539747737854,-3.4974701639148513,-0.7307229575037647,0.019066197629017734,-0.00018116998159699565
0.22,-0.06479815029935188,1.2218783864516873,-1.3795149322402396,0.07765826540685028,-0.008228478283625532,-5.884049245570881e-05,-0.47418210952862827,-2.902028499744439,1.4776161030472577,0.5902289540002376,-0.07266268077164785,-0.000664383808290281,-0.45080860362427494,-7.103982098407394,4.097571333085318,1.5831996229735936,-0.462583388448619,-0.02013093481635264,0.09843553693283624,-3.165306255473825,-3.18697148131461,-0.674577780135196,0.022015236520701587,-0.00012050920374070707
0.23,-0.06958645304346223,1.1921513408762356,-1.3643344191228741,0.08371434349685931,-0.008985661904105182,-6.601371376318696e-05,-0.4788302744110348,-2.9727045575451765,1.5180513117365415,0.6056078090009035,-0.07571836204796499,-0.0007173221307478153,-0.27203962816706,-5.628020641638673,3.913781202609477,1.4878894099210915,-0.4062388714050855,-0.02097850998844994,0.08845168803449566,-2.2212054035987276,-2.894955187795067,-0.623620857400268,0.02457897360925325,-6.601784974634463e-05
0.24,-0.07440347755815964,1.1618645415056574,-1.3487671408775626,0.08991461157352736,-0.009769217998676367,-7.368896094618154e-05,-0.4817024514697412,-3.0286799370578197,1.5567278245311602,0.6200268076668045,-0.07835560945711852,-0.0007675247182994589,-0.10087913811516111,-4.188301792519564,3.7381051785843087,1.3906916500904312,-0.3266235558319259,-0.020983067170774063,0.07418087731087014,-1.3102897966954004,-2.6276198300794094,-0.579001829800232,0.026732146016799,-1.85481239379477e-05
0.25,-0.07923209788450365,1.1311613919462506,-1.3328299453300358,0.09624938313096405,-0.010573550170916523,-8.181365916696289e-05,-0.48286203263440086,-3.0703149559406766,1.5937195547526626,0.6334771557436703,-0.08043321722401563,-0.0008124698220781336,0.05956855126359892,-2.8163756745741013,3.569207853580155,1.292298596326864,-0.2256937811794487,-0.019978406139906424,0.05671128893172732,-0.4481953445541166,-2.3900480665689927,-0.5415824747519874,0.0284623379087272,2.1305653987041137e-05
0.26,-0.0840561396488447,1.1001785473329444,-1.316539082031391,0.10270895114571349,-0.011391737725138617,-9.030857901421772e-05,-0.4824041764341051,-3.098284461330632,1.6290863298644926,0.6459568014749442,-0.08181875542220937,-0.0008494919847254837,0.2070506914655058,-1.6491982573309125,3.4055098535362713,1.1933142552514573,-0.10871260476392253,-0.017932317249638285,0.037180637428467674,0.3069686546171415,-2.200092654647472,-0.5143425462308842,0.02975216215809113,5.187156155628858e-05
0.27,-0.08886064062711797,1.0690322666097551,-1.2999104202655984,0.10928372235402034,-0.012215818093695216,-9.906980613870537e-05,-0.48045009782732756,-3.11462807231892,1.6628661765792476,0.6574771208306853,-0.08240803685566,-0.000876122712448766,0.3402009416761423,-0.8154110411007769,3.245247579611311,1.0952466660307287,0.01643429169764299,-0.014985686739987125,0.0167102018243857,0.9048977170895408,-2.0711386115427883,-0.4992047514223801,0.03060621195725039,7.221599659662982e-05
0.28,-0.09363204148224001,1.0378055929982672,-1.2829596723743435,0.11596441836253074,-0.013037243939159842,-0.00010797451442696285,-0.47714008551220355,-3.1226673611487854,1.6950747891254891,0.6680696008510403,-0.08214258454646266,-0.0008904708288257478,0.45901768148883537,-0.3604297818843749,3.0858112799240187,0.9999773008841553,0.14076022351679984,-0.01142796545291258,-0.003692361585651144,1.3330881963021823,-2.00307919570011,-0.4955700518559366,0.031065634213097753,8.300725301191865e-05
0.29,-0.0983582430964364,1.006543826728431,-1.2657026532493478,0.12274224468314142,-0.013847437830996678,-0.00011688970050193896,-0.47262016141963853,-3.126176626983633,1.725701912499559,0.6777826320610676,-0.08101938918368363,-0.0008915186074976109,0.5642461402290562,-0.03577581356292657,2.9249949994343347,0.9093682816366524,0.2559221488804051,-0.007619064928760522,-0.023208040471687535,1.6973573537479179,-1.9589342842971575,-0.49667609134470525,0.0312385833011025,8.849658707564453e-05
0.3,-0.1030285745364016,0.9752792804798409,-1.2481553559656238,0.12960885156842122,-0.0146383411906913,-0.0001256821862648442,-0.46703314399652096,-3.1264546248590044,1.7547297283723966,0.6866606885279805,-0.07909033596946226,-0.0008792485762905252,0.6572717279330307,-0.009407722145528903,2.762025381037215,0.8230323968624331,0.35539310310705785,-0.0038853255576642987,-0.04130680197096273,1.9347278011408429,-1.9561098860585675,-0.5050930952585136,0.031121118820387456,8.746215484788332e-05
0.31,-0.10763367365497775,0.9440145453207814,-1.230334108816486,0.13655642294809,-0.015402885787620915,-0.00013422766533490395,-0.4605099118576155,-3.1264735159059462,1.7821247149137749,0.6947571379668791,-0.07645445969296144,-0.0008545479070059728,0.7399126692987179,-0.008703037051131995,2.595176998367113,0.7418189391506793,0.4350843453746862,-0.0005002997572426393,-0.057545238714691534,2.1562036287149056,-1.957762291522672,-0.5144418047191122,0.03082386253061836,8.395484851733237e-05
0.32,-0.11216530336629048,0.9127496521500151,-1.2122556034757777,0.1435775408297547,-0.016135315151148223,-0.0001424180767144395,-0.45316297113127246,-3.1264893170766284,1.8078505340708428,0.7021117881664698,-0.07324293635273092,-0.0008190411379535542,0.8139214771463517,-0.008160600297841158,2.4244797150539577,0.6645023509309187,0.49328517309024633,0.0023725959858594825,-0.07164638604611702,2.371816182288147,-1.9606208450353413,-0.5241692753985705,0.030371233212951158,7.848080765959182e-05
0.33,-0.11661615877490132,0.8814846133567513,-1.1939368874172742,0.1506650721426784,-0.016831353555304907,-0.00015016614056757114,-0.44508554086108454,-3.1265038793263833,1.8318716058503455,0.7087531312923696,-0.06960384041566836,-0.0007748063853131658,0.8809763463011594,-0.007430901151498178,2.25006185807483,0.5899793869015113,0.5302448645619633,0.0046585862183678994,-0.08340215078413947,2.5815515431426834,-1.9646911252894572,-0.5342774572574641,0.029777876060416656,7.119616101489884e-05
0.34,-0.12097967529538484,0.8502194585195765,-1.1753953581987557,0.15781208348600914,-0.017488232636703644,-0.0001574073114499432,-0.4363516520483522,-3.126515483717481,1.854152921851847,0.7147011343330723,-0.06568790813987381,-0.000724117088237206,0.942589230083203,-0.006591783843720876,2.072007061882128,0.5174152234346758,0.5476749864690991,0.006351666129267186,-0.09266079987907695,2.7852456629781592,-1.9700191437339956,-0.5447738228656814,0.029057208270355118,6.224045412773856e-05
0.35000000000000003,-0.1252498536152677,0.8189542273476096,-1.156648760611436,0.16501177681770723,-0.018104602239338876,-0.00016409956845371941,-0.4270178319882854,-3.1265231171966934,1.874659758731969,0.7199693331698082,-0.06163696026352314,-0.00066922570037762,1.000044272865874,-0.005570217419962682,1.8903696973227542,0.4461836725752848,0.548223572083155,0.007493879116534652,-0.09932154260564803,2.9828056973098724,-1.9766215453409852,-0.5556600677268729,0.028221767718800486,5.1744637503812636e-05
0.36,-0.1294211116293274,0.7876889775138185,-1.1377151852914038,0.17225744110825805,-0.01868036063982457,-0.00017022159987661387,-0.4171258014059705,-3.126524983379108,1.8933575320032108,0.7245664290550828,-0.05757584004856932,-0.0006122031422894463,1.0543720681032327,-0.004248586709289908,1.7051898807115347,0.3758176041000789,0.5350015638231889,0.008155738254957301,-0.10333002177249237,3.1741662703791533,-1.9844998382953438,-0.5669345191262076,0.027283383060825925,3.9832058293981866e-05
0.37,-0.13348816746695677,0.7564237968239207,-1.1186130676922248,0.1795424162686764,-0.019216439554478805,-0.00017576997779413544,-0.40670558376293797,-3.126518068989779,1.9102117599178974,0.7284975160418343,-0.05360789146542375,-0.0005548377917521559,1.106351134818041,-0.002617411681869934,1.5165042969841094,0.30597175707813395,0.5112064811077695,0.008420273143105672,-0.10467465277331747,3.3592344090324167,-1.9936559131926006,-0.5785943601611869,0.026253343697106014,2.6620173289366864e-05
0.38,-0.13744595333525542,0.72515880453089,-1.0993611866657031,0.18686006664046903,-0.019714574149339904,-0.0001807558545422018,-0.39577858682986533,-3.1264992293030716,1.9251881026521565,0.7317650371792644,-0.04981345948610972,-0.000498587674806636,1.1565330747537133,-0.010404005344203719,1.3243431198236437,0.2363911282975888,0.479855872966624,0.00837160260064207,-0.10338555280661893,3.5346560127964777,-2.0049631116592814,-0.5907506008045535,0.02514006432687806,1.215367103650184e-05
0.39,-0.1412895566638228,0.6938931826688635,-1.0799786673176337,0.19420376876940518,-0.02017708081178502,-0.00018520158651363312,-0.3843603328567407,-3.1265621862026536,1.9382519348069498,0.7343702128936148,-0.0462506662445117,-0.0004445731971431293,1.2052619106273352,-0.0014681867468761337,1.1287146532480217,0.1669711142922914,0.44362383811378736,0.00808752121767764,-0.09952684963307795,3.7092225903320184,-2.015925607757885,-0.6030591622611081,0.02396220390035967,-3.242277702914992e-06
0.4,-0.14501418530521826,0.6626277801576004,-1.0604849695534397,0.20156688414389018,-0.020606656387700182,-0.00018913761144296871,-0.37246286413954305,-3.126540251126305,1.9493697764193942,0.7363115374484992,-0.04295755759151607,-0.00039360249293356,1.2527087813562188,0.0025181786641161057,0.9297758739816608,0.0974571808284268,0.4047559076693198,0.007636407593218153,-0.09319622264865873,3.8754585230834446,-2.0286490847624226,-0.6158049730747015,0.022723004315480723,-1.9636845260544893e-05
0.41000000000000003,-0.14861515212901466,0.6313629543285713,-1.0408998836393484,0.20894275643790308,-0.021006208621501956,-0.00019259966569495926,-0.36009668237964165,-3.1264825829029097,1.9585085914091382,0.7375872294012906,-0.039955223380177374,-0.00034620542519905466,1.2989235897573304,0.007778335088923441,0.7275788646010367,0.027824824132325343,0.3650497053658529,0.007074968801946857,-0.08452662830607775,4.0354098475932965,-2.0424829522279095,-0.6288900345341437,0.021435336260648606,-3.685300900155584e-05
0.42,-0.15208787289496714,0.6000991909604582,-1.0212435226027288,0.2163247056064875,-0.021378718908860624,-0.00019562648946009018,-0.3472720765952489,-3.1263763368113135,1.9656361036619616,0.738194916858441,-0.03725102873586689,-0.00030268237651309243,1.343855614451539,0.014644317889971312,0.5222327825978329,-0.04197281088493221,0.3258797552413053,0.00644858815344429,-0.0736793470987721,4.189110423899441,-2.057361288074333,-0.6422970470154816,0.020109806499930032,-5.476307133905253e-05
0.43,-0.15542787462808527,0.5688371374969972,-1.001536311707535,0.2237060248774646,-0.021727136835769646,-0.00019825799630483857,-0.33400017331181403,-3.126205346346098,1.9707210895193759,0.7381319270977102,-0.034841792690902026,-0.00026315068447484017,1.387386305816918,0.02206246203993328,0.31386880900471337,-0.11195771170587454,0.288241859697515,0.005792428031523689,-0.06084245769003163,4.336171744978765,-2.0733157716880335,-0.6560180459199653,0.018756549366545822,-7.324261427561063e-05
0.44,-0.15863081077244068,0.5375774982307931,-0.9817989761755757,0.23107998085836504,-0.022054303404176065,-0.0002005338769914275,-0.3202936144355399,-3.1259639266204,1.97373355319595,0.7373955980900441,-0.032716656840642046,-0.00022758806865889476,1.4293550008116762,0.02874105783675545,0.10263268415958815,-0.1821230197497834,0.25281066798099755,0.005132790052384928,-0.04622790297712559,4.476175716204514,-2.0903592486500155,-0.670038405252233,0.017385602471162758,-9.216067786917545e-05
0.45,-0.16169248029150962,0.5063209057720303,-0.9620525273690815,0.23843981618170834,-0.022362898720084696,-0.00020249258480357763,-0.306166951906894,-3.1256592458762915,1.9746448806494126,0.7359835323343297,-0.030859531590863257,-0.00019587078121501234,1.4695791355486647,0.03393327783667423,-0.11131591087560219,-0.25243810205738026,0.21999991604243202,0.004488632169447948,-0.030067690971117153,4.608910111193823,-2.1084278754870613,-0.6843310517989026,0.016007044427166637,-0.0001113768445745949
0.46,-0.16460884856631383,0.47506784678123337,-0.9423182472167331,0.24577875368957897,-0.02265540961300568,-0.00020417064021942654,-0.29163682748042147,-3.1253058990796907,1.9734280152348433,0.733893750787062,-0.029251089292098208,-0.00016780554158489071,1.507869474779446,0.03774405239336455,-0.327799743281057,-0.32285785874295103,0.19001946511225465,0.0038730430253971493,-0.012609505865337614,4.7344341364428395,-2.1273763382751887,-0.6988582850670314,0.014630927086279041,-0.00013074344448540725
0.47000000000000003,-0.16737606852880466,0.4438186725221124,-0.9226176704850704,0.25309000119450786,-0.022934112852272013,-0.00020560219217460993,-0.2767219962490827,-3.1249174259121015,1.9700576731662718,0.7311247504928924,-0.02787032392663333,-0.00014315519551833875,1.4948774421471418,2.775124957422268,-0.42933393040461176,-0.342377226643775,0.16251806441128125,0.0032944230438090583,0.0018751517273932622,5.619227074590713,-1.9633834742841987,-0.6957771883176991,0.014010407698287703,-0.00014066133352609006
0.48,-0.16999536412153715,0.4128459324887212,-0.9029598137146352,0.26036937932534754,-0.02320103763767922,-0.0002068233429034161,-0.26192955927324857,-3.097274003339119,1.9657856770435223,0.7279378130839667,-0.026692478540720526,-0.00012211507288061716,1.4670366726434585,6.527699751353793,-0.4855346077164997,-0.3702581970558194,0.13814295016764505,0.002757144514197174,0.01657189550456524,6.725715439319293,-1.7780128608914691,-0.6956021248710776,0.013540774900915004,-0.00015224132011209824
0.49,-0.17246943275125295,0.38252324984350655,-0.8833489717748025,0.26761149967216014,-0.023457946475953777,-0.00020786912119215387,-0.24740686297158,-3.0322682645214623,1.9610841939832697,0.7242120346812617,-0.02569088382745572,-0.0001045778288737776,1.436750973088217,9.401091894640214,-0.5224722793222227,-0.42221786539378126,0.11687098696025755,0.0022962459355838627,0.03196318159397399,7.52541093888029,-1.695764865247928,-0.7090185443546061,0.01270053698364225,-0.00017216270674547725
0.5,-0.1748012208731766,0.35313669505531736,-0.8637880413721547,0.2748097963529435,-0.023706378163995658,-0.0002087701021926864,-0.23317881219236294,-2.938655478818917,1.9560930402647803,0.7198296680783359,-0.02484316880418807,-9.009810005325503e-05,1.4042524164071575,11.540296032074608,-0.5458344035367233,-0.48607987421467524,0.09829187251991711,0.0019231523327871147,0.04716908974042536,8.0765489382454,-1.6911484530249075,-0.73150499741182,0.01162855627813396,-0.000197401817757705
0.51,-0.17699390148081806,0.32489922262762394,-0.8442789443728446,0.28195736402025917,-0.023947676525044304,-0.00020955254933080448,-0.21926806076414657,-2.8237472427693393,1.9509096999310154,0.7147567667315645,-0.024129836104864525,-7.824471381180718e-05,1.3697635356788047,13.070037090142595,-0.5598367732469036,-0.5534595248879743,0.08213337208578564,0.0016212983259379365,0.061489197584371935,8.42807784174698,-1.7430256721269806,-0.7594240670953114,0.010430370625956007,-0.0002255875364691644
0.52,-0.17905085205936933,0.2979630911339166,-0.8248229391599988,0.2890475167658351,-0.024183009745628477,-0.00021023892806153516,-0.20569505785512512,-2.6936131493707354,1.9456005212845706,0.7090152745575947,-0.023533322058417218,-6.86378730730678e-05,1.333509965460014,14.097241670433426,-0.5675776568658382,-0.6187505073230457,0.06817451426293653,0.0013752329859970103,0.0744094221888324,8.62094404033602,-1.8343020925930436,-0.7899571168209579,0.009184233000524681,-0.00025492276328264687
0.53,-0.18097563191925495,0.2724305119636949,-0.8054208472401242,0.29607414435183654,-0.02441338631078051,-0.00021084838519136163,-0.19247798598856167,-2.553257917022174,1.940209191987461,0.7026627586001448,-0.023037656515203394,-6.09457129826478e-05,1.2957250735283723,14.713307807243728,-0.571309099750323,-0.6783664051206659,0.05620935760402568,0.001173027551947814,0.08559251825951524,8.689240261790259,-1.951470303967319,-0.8210034283080148,0.007946364431960076,-0.00028409682217405834
0.54,-0.1827719585695486,0.24836275231176771,-0.786073215917748,0.30303192275022156,-0.024639669994313176,-0.00021139717148265145,-0.1796326650293636,-2.406775965192718,1.9347631322376113,0.6957778398385036,-0.022628368353266495,-5.4878629128982456e-05,1.25664992673439,14.996112265144127,-0.5726445725245437,-0.7301750912812736,0.04603599860267327,0.0010053835710269465,0.09485733489880793,8.66120844345906,-2.0841011322156886,-0.8510664832698457,0.006755463953285589,-0.00031219841755456245
0.55,-0.18444368321918556,0.22578789196236282,-0.7667804329652156,0.3099164213173991,-0.024862594606321575,-0.00021189902218764857,-0.16717246496369806,-2.257486034940489,1.929278295253249,0.688449856717752,-0.022292461200839723,-5.018507049971081e-05,1.2165308163205195,15.011779946354157,-0.5727178680095975,-0.7730783234626217,0.03745665539639764,0.0008647702649700606,0.10215193370213696,8.560112263872796,-2.2243376206710916,-0.8791410703760444,0.005636534323233886,-0.00033863473181765534
0.56,-0.1859947657112744,0.2047074098433262,-0.7475428054654984,0.31672413791863413,-0.025082778443929848,-0.00021236550431202132,-0.15510824920888552,-2.1080482119036614,1.9237627499717131,0.6807716601235028,-0.022018383760827383,-4.664821243727565e-05,1.1756157529069846,14.816241487091427,-0.5723046353037908,-0.8067004127616499,0.030281436759369784,0.0007448932489689669,0.10752480463691096,8.404994276601306,-2.366423620814522,-0.904609059833796,0.0046040820839968076,-0.00036305966454983855
0.5700000000000001,-0.1874292492796891,0.18510175531502798,-0.7283606121297962,0.3234524850576695,-0.02530073815205651,-0.00021280633336320917,-0.143448356841469,-1.9605654528298215,1.9182193335702207,0.6728347139035358,-0.021795970812666227,-4.4082905118784544e-05,1.1341507725513664,14.456602790418776,-0.571915245842435,-0.8311586936842867,0.024332322214889235,0.0006404010495536169,0.11109723761293223,8.21133122940925,-2.506283423148574,-0.9271477906823725,0.003664753858798561,-0.0003853124429364367
0.58,-0.18875123552213582,0.16693504048925387,-0.7092341361826229,0.33009974388515084,-0.025516901700989296,-0.0002132296597048673,-0.13219862424467174,-1.8166714825774117,1.912647594717331,0.6647258827481372,-0.0216163548932787,-4.233263416581232e-05,1.0923765177939786,13.972347707018818,-0.5718656340257073,-0.8468952496534525,0.019446008017662386,0.0005467283460557221,0.11303875754346274,7.991599740481728,-2.6411588138472375,-0.9466524885799369,0.002819474016803641,-0.00040536667239932605
0.59,-0.18996485994641835,0.15015897329888656,-0.6901636842082097,0.33666499834116614,-0.02573162027708946,-0.0002136423241723791,-0.12136244242825245,-1.6776067190367308,1.9070451974413185,0.6565254456015275,-0.02147185761001642,-4.1266446751181514e-05,1.0505253178714908,13.396392756235437,-0.572331194457492,-0.8545544388766695,0.015475339648203246,0.0004600096427992608,0.11354657718861869,7.755763196194838,-2.76930365222818,-0.9631725659371131,0.0020651498572201344,-0.00042328918564109395
0.6,-0.19107426838969396,0.13471613633323432,-0.6711495950442121,0.3431480582442167,-0.025945178987984117,-0.00021405008310770122,-0.1109408443275608,-1.5442836965652236,1.9014089163997623,0.6483059903050516,-0.021355871089465763,-4.077589353221274e-05,1.0088188468334074,12.7560107167646,-0.5733876315467912,-0.8548946068281618,0.012289518752821138,0.0003770250099480524,0.11282931962349868,7.51168955503915,-2.8897323632783043,-0.9768607531849265,0.0013960087814771532,-0.00043920765817547766
0.61,-0.1920835945479307,0.12054270341446971,-0.6521922418012015,0.34954937757832294,-0.026157806372482384,-0.00021445780374773906,-0.10093261582367306,-1.417343291876461,1.8957353243010593,0.6401319334106278,-0.021262738449826582,-4.077206400378273e-05,0.9674663549044027,12.073638088079656,-0.5750417547457429,-0.848725264470545,0.009773424142220322,0.0002951573602732599,0.11109479971899214,7.265508684730955,-3.002016788695177,-0.9879335530811646,0.0008046278978698037,-0.00045328578879477445
0.62,-0.19299693879230434,0.10757067433831964,-0.6332920293101737,0.3558699723312314,-0.026369682768562865,-0.00021486963161417372,-0.09133442443736543,-1.2972029076150071,1.890021249102785,0.6320594752908489,-0.021187639608047926,-4.118278664346552e-05,0.9266634245152079,11.367579800847901,-0.5772545250137231,-0.8368631866883343,0.007826386622059145,0.00021235120003756935,0.10854138955264339,7.021916911968928,-3.1061250389597865,-0.9966413439283974,0.00028271085411880914,-0.000465704818472422
0.63,-0.19381834839484297,0.09572969797721378,-0.614449388702578,0.3621113408340724,-0.026580947630928862,-0.00021528913207852622,-0.08214096025386296,-1.1840976361105857,1.8842640607595709,0.6241368502841027,-0.021126486236599632,-4.195004643525106e-05,0.8865911827511667,10.65262311016801,-0.5799581328579473,-0.8201025196872527,0.006360696189217474,0.00012706864137654317,0.10535237522494968,6.784435613556178,-3.202295914477247,-1.0032464727577972,-0.000178339826325294,-0.00047665022535736624
0.64,-0.19455179923885058,0.08494854490413327,-0.5956647703677955,0.3682753885218281,-0.026791705907681474,-0.00021571940859485873,-0.07334508440076032,-1.0781153073080518,1.8784618334782546,0.6164047687755692,-0.021075827675261095,-4.3027651633250783e-05,0.8474158965634817,9.940571320477817,-0.583068485900303,-0.7991952133352864,0.005300043665511789,3.824157213236368e-05,0.10169269443845647,6.55562991267347,-3.290942822043172,-1.0080078000051043,-0.0005870133827016867,-0.0004863025473321147
0.65,-0.19520117905079423,0.07515628271348894,-0.5769386361805442,0.3743643582811442,-0.027002033589351035,-0.00021616320023100236,-0.06493798119436628,-0.9792262190644331,1.8726134187251364,0.6088969759316094,-0.02103276816695594,-4.43791636143639e-05,0.809288879698776,9.240706829556924,-0.586494174860444,-0.774839016085564,0.004578028424930047,-5.477959223915141e-05,0.09770748640816312,6.337292851847706,-3.372581704594996,-1.0111703315781813,-0.0009514094381707315,-0.0004948314200166975
0.66,-0.19577027215896461,0.0662832001766067,-0.5582714516214804,0.3803807670072079,-0.02721198253800884,-0.00021662296112964934,-0.056909310817039586,-0.8873082536882241,1.866718455906382,0.6016408726063673,-0.0209948948657805,-4.5976089864698834e-05,0.7723466466602413,8.560192000837173,-0.5901427474384908,-0.7476709618874899,0.004136807375536872,-0.00015227946346618726,0.0935219592044979,6.13059980074809,-3.447778194153005,-1.0129587690833952,-0.0012790556068638934,-0.0005023920595193994
0.67,-0.196262745759545,0.058261520176940695,-0.5396636782096875,0.38632734860195866,-0.027421584693525174,-0.00021710092443442746,-0.04924736005803817,-0.8021679999666005,1.8607773411792883,0.5946581594750737,-0.020960215551633257,-4.779633047781228e-05,0.7367112575117623,7.904415400148854,-0.5939249357684222,-0.7182647995166889,0.003925919008007789,-0.0002542322122849605,0.08924216473830573,5.936237284237565,-3.5171099091079703,-1.0135740027523163,-0.00157680043121152,-0.0005091235544325445
0.68,-0.19668213765180462,0.05102593592747624,-0.5211157665115237,0.3922070033722198,-0.027630855741190206,-0.00021759915305779294,-0.041939189225962015,-0.7235584249464455,1.8547911698163841,0.5879654770261156,-0.02092710476650327,-4.982286233654851e-05,0.7024908050675163,7.277290360561572,-0.5977573357091084,-0.6871312042347197,0.0039012883467643977,-0.00036035574436180107,0.08495635574237753,5.754509953053848,-3.581140491039038,-1.013191753327741,-0.001850762547366764,-0.0005151484552327693
0.6900000000000001,-0.1970318453901324,0.044514000223151384,-0.5026281498747952,0.3980227535987361,-0.02783979831182958,-0.00021811957947405635,-0.034970773832779016,-0.6511935704324856,1.8487616636728474,0.5815750226516297,-0.02089425706393741,-5.204264162634246e-05,0.6697800027808454,6.681512761068709,-0.6015639141281826,-0.6547199040810279,0.004024401394874005,-0.0004701643120882948,0.08073667543180914,5.5854290659900885,-3.640402591375067,-1.0119627334721975,-0.0021063207648599263,-0.0005205732594054385
0.7000000000000001,-0.19731511679082725,0.038666393416804584,-0.48420123895057776,0.4037777049231186,-0.02804840477339981,-0.00021866403651260742,-0.02832714006948443,-0.5847606806346798,1.8426910924217423,0.575495132438247,-0.02086064615702294,-5.444570385510768e-05,0.6386608645895281,6.118772930666388,-0.6052767929015617,-0.6214231399964385,0.004261628412689858,-0.0005830185370069851,0.0766409972399599,5.428783565661265,-3.695387615337427,-1.0100137863009326,-0.002348134929966054,-0.0005254894480905451
0.71,-0.19753504172267436,0.033427091238153704,-0.4658354170180103,0.409475013122961,-0.028256659662729517,-0.0002192342808898186,-0.021992493184710873,-0.523930217865088,1.8365821932567463,0.569730819984235,-0.02082548893297098,-5.702443772111768e-05,0.6092033364795322,5.589981298818021,-0.6088358262684238,-0.5875796536004225,0.0045836693636670395,-0.000698171757127497,0.07271477902830328,5.284205237152928,-3.7465402071212055,-1.0074498802723462,-0.0025801788923580796,-0.0005299750091400531
0.72,-0.1976945451153321,0.02874345493207687,-0.4475310360189052,0.41511785580263644,-0.028464541796421113,-0.0002198320111131936,-0.015950339265773116,-0.4683636306076836,1.8304380999105072,0.564284267967546,-0.020788213369159484,-5.977302233750186e-05,0.5814658543652327,5.095532637239557,-0.6121867720536156,-0.5534790168012114,0.004965108196545762,-0.000814813277560722,0.06899284550666884,5.151232049397085,-3.7942567234676834,-1.0043568103789449,-0.0028057780059392735,-0.0005340964012553672
0.73,-0.19779638112705955,0.024566270014795367,-0.429288413079865,0.4207094084935266,-0.028672026090774363,-0.00022045888136655193,-0.010183601172744285,-0.4177184917281502,1.8242622939040247,0.5591552690890172,-0.020748429435324997,-6.268702533583356e-05,0.5554958799303384,4.635528439232914,-0.6152780958871114,-0.519366287259404,0.005384066432671045,-0.0009321089016834372,0.06550103648331539,5.029357019194307,-3.838887108731969,-1.0008039316021835,-0.0030276618165728077,-0.0005379105730429708
0.74,-0.19784312841576937,0.020849755771933397,-0.4111078271872389,0.42625282467514725,-0.028879085114097335,-0.0002211165127711295,-0.004674728870982076,-0.3716514242861971,1.818058589262612,0.5543416181620612,-0.020705902332297108,-6.576314045775682e-05,0.5311688103344412,4.317024676354812,-0.6166439318473508,-0.48493584281668856,0.005823337422570497,-0.0010492394223731993,0.062253221663333864,4.934106929981885,-3.881117473067369,-0.9974006765170453,-0.003232920153907781,-0.0005418760309405744
0.75,-0.1978372024003847,0.01756219755783699,-0.39298936599067286,0.43175121750773016,-0.02908568780727573,-0.00022180676887145634,0.0005926015384673505,-0.3287558214096407,1.8118461196566027,0.5498392832582911,-0.02066026931783984,-6.90256100326836e-05,0.5086388819471617,4.031851184369034,-0.6170088136186157,-0.4511681044505793,0.006290766636165276,-0.0011681990340532689,0.0592595650138867,4.8478623266216125,-3.9212015965393157,-0.993580543690797,-0.003441285986438963,-0.0005456456390719989
0.76,-0.1977808400544461,0.014675199707337043,-0.3749330136803972,0.43720763148715486,-0.02929180132054758,-0.00022253152248196973,0.005636234593858219,-0.2886997850499947,1.8056352310275614,0.5456413979424708,-0.0206113513271848,-7.247536105133953e-05,0.48798811735379144,3.7403130661134205,-0.6169035787432378,-0.41822009673313465,0.006766263380586453,-0.0012859686462444453,0.05652861634921537,4.764493995179745,-3.9590854503701896,-0.9891537665119088,-0.003659173032879938,-0.000549092536787391
0.77,-0.1976760918119661,0.01215974298737238,-0.35693870676948264,0.4426250446483308,-0.029497393332268463,-0.0002232925333595658,0.010474824247999198,-0.25154567199646644,1.7994306910914597,0.5417413161175928,-0.020559201172088107,-7.610108775960714e-05,0.46924686798383025,3.440805130297971,-0.6165470919784644,-0.3859675185253635,0.007225547086319471,-0.001400635408552009,0.054066189230228365,4.683796878977553,-3.994760491325579,-0.9841447228039434,-0.003886600022247588,-0.0005522303981417087
0.78,-0.1975248185730193,0.009986025722660729,-0.339006354370449,0.44800637661028336,-0.02970243380018766,-0.00022409144255211338,0.015127323894681894,-0.2173717264711651,1.7932352399033604,0.5381331961952556,-0.020504046791919497,-7.989091925475777e-05,0.4524306697148363,3.128308730126917,-0.6160753543584283,-0.3543301972684878,0.007650002998049597,-0.0015114784587260677,0.051874333682829656,4.605097918156912,-4.0281565117282625,-0.9785568753474614,-0.004123697618286907,-0.0005550552304363292
0.79,-0.19732869018581095,0.008122966199932986,-0.3211358504362508,0.45335449415496115,-0.02990689635851347,-0.00022492977250373222,0.01961283872083379,-0.1863059522727744,1.7870503934198196,0.5348117544677784,-0.020446255832581268,-8.383299516188337e-05,0.43753265698999255,2.8293472534641397,-0.6154600016638444,-0.3232272088225221,0.008024905782710255,-0.0016178640566990865,0.04995495311422793,4.532044866398343,-4.05955904820073,-0.9725745115728589,-0.0043669003595635195,-0.0005577053595081183
0.8,-0.1970891861296783,0.006540836068331155,-0.30332706944634497,0.45867220668062736,-0.030110758728906003,-0.00022580901066745798,0.023950405613265908,-0.15821301316018305,1.7808780989905841,0.53177125256662,-0.020386237039253123,-8.792381637257549e-05,0.4245516606824331,2.52891514338669,-0.6147519149798384,-0.2927574956920487,0.008345359174766677,-0.0017201164181991635,0.04830417306199149,4.462424833270745,-4.088832957600343,-0.9661323167962171,-0.004617640644644337,-0.0005601341022643482
0.81,-0.19680759566686795,0.005209770927264774,-0.2855798716603437,0.4639622614311201,-0.030314003313903923,-0.00022673059125061001,0.028159046281034293,-0.13310651410663812,1.774719778600126,0.5290054750492793,-0.020324458499792006,-9.215805831520403e-05,0.4134723355139844,2.2349835815202033,-0.6139380752811168,-0.26296996793425587,0.008605074492399709,-0.0018175853373352535,0.04691871525607136,4.397198039820779,-4.116099742322313,-0.9593019675595704,-0.004874559243070599,-0.0005623988620692002
0.8200000000000001,-0.196485019383673,0.004100561613782988,-0.26789410165265803,0.46922733538090794,-0.030516617390660174,-0.0002276959250147635,0.032257628319496814,-0.11092093134817867,1.76857700076857,0.5265073949787796,-0.020261407675625058,-9.65333764153487e-05,0.40427369590438555,1.9604117250627362,-0.613457741946704,-0.23397516216342895,0.008801864771984188,-0.0019102077484468294,0.04579433797179593,4.337866291961014,-4.1416661175015586,-0.9521911435010671,-0.005136195995874058,-0.0005645900240652056
0.8300000000000001,-0.19612237128888116,0.0031859299789546206,-0.2502696324029373,0.47447002041456215,-0.030718592940568112,-0.00022870645272126766,0.03626480947918479,-0.09146316348283674,1.76244692497207,0.5242685033654221,-0.020197554990794,-0.00010105277065041687,0.3984464244268005,1.6970874043936488,-2.7471338495669446,-0.2065803058244402,0.008923733604221079,-0.0019983613147467882,0.04488916880459619,4.321469782979076,-4.4460041645154025,-1.0098947910685998,-0.005747141975911318,-0.0005947474678396243
0.84,-0.19572023668082336,0.0024398720506099755,-0.23291641469992713,0.4796853585019534,-0.03092008031494793,-0.00022977894697199998,0.04021346080578007,-0.0746057928344645,1.7353217703010178,0.521533808739121,-0.020148737437981765,-0.00010724942507323252,0.3935240696580142,1.4544310056841538,-4.551164323602146,-0.25401722636003043,0.007417272836416244,-0.0022204055883204843,0.04423690809473334,4.3136809011350286,-4.708393773910451,-1.0591264873452158,-0.006296339416098773,-0.000620754159849067
0.85,-0.19527910957657205,0.0018385020034468258,-0.2160122074526952,0.48486323793167957,-0.03112131649975146,-0.00023093100025996585,0.04411271042513016,-0.06013700471631495,1.6904207247231933,0.5177879429726214,-0.020123618480352847,-0.00011520532879658816,0.38920623495634826,1.2340564002643795,-5.899482964259828,-0.3530374602679913,0.0050048521333309615,-0.0024325659661547094,0.04380341993108561,4.309121595782184,-4.911337423647407,-1.095805487217685,-0.006760904399412682,-0.0006408572370769448
0.86,-0.19479942232290576,0.0013601680946534519,-0.1996900797127701,0.48999075517953594,-0.031322565490608155,-0.00023217739632605476,0.047968725366628294,-0.0478333908793374,1.6322127739925085,0.5127517247856348,-0.02012489908566996,-0.00012463960660889144,0.38536885814136435,1.0340662163779746,-6.874825892183949,-0.4804993028656739,0.002294080392439557,-0.002601587899837332,0.04354727293473461,4.305798811803048,-5.064750148523543,-1.1220752392650337,-0.00715405073181333,-0.0006560225801404826
0.87,-0.1942815582781124,0.000985239838015413,-0.1840464715032283,0.4950538614638864,-0.03152408244642895,-0.0002335297697941803,0.051786404479337876,-0.03749282566380388,1.5643608209541804,0.5063106284350488,-0.02015169558207991,-0.00013523734681255477,0.3819029848386745,0.8606889573608346,-7.546139332751397,-0.6199164742975363,-0.0003438675595598406,-0.002726926266173435,0.04343189485307862,4.303246088554249,-5.177237382303088,-1.1397766172933839,-0.007486706116684273,-0.0006671080008948237
0.88,-0.19372586290556087,0.0006967088620887885,-0.16914792480475743,0.5000385078945568,-0.03172609328722275,-0.0002349968609869002,0.055569537255150785,-0.028853097592662455,1.4898546698470871,0.49846464306703814,-0.020201084079379913,-0.00014670911927198895,0.3787174245795522,0.6976045462574164,-7.970962652368129,-0.7598676867591934,-0.0026962357178949015,-0.0028135970734206595,0.04342398783636368,4.29878034093277,-5.255663409722411,-1.15035293708228,-0.007769382148248842,-0.0006747310644522435
0.89,-0.19313265305921898,0.0004785605341819379,-0.15503670806762718,0.5049314111330316,-0.03192878493415858,-0.0002365848221424167,0.059320984634189174,-0.021814832790685062,1.4111216737130245,0.4892903238474784,-0.02026916469358259,-0.00015879611555164958,0.37573504263033913,0.5770948814105135,-8.197325914192618,-0.8927798193989354,-0.004660122395779731,-0.0028665650725321346,0.04349860791583668,4.295866461013168,-5.306904066991202,-1.1552654838078993,-0.008008684702426827,-0.0006796614235381671
0.9,-0.19250222479709328,0.0003189685378443479,-0.1417355262408651,0.5097205329435215,-0.03213230157727065,-0.00023829765833920295,0.06304282621257115,-0.015959199633759,1.3301181826762076,0.47891218104898126,-0.020351664311207013,-0.00017128361967862451,0.372891513123664,0.44210210067091843,-8.265236241479366,-1.013521476760264,-0.006191151366967351,-0.002891821175648901,0.04362890957556221,4.287780034600929,-5.334848089522023,-1.155327033880922,-0.008213965191589323,-0.0006821102557437117
0.91,-0.19183485994965377,0.0002046373665231252,-0.12925143489800875,0.5143953791858723,-0.03233674601060972,-0.00024013742635955275,0.06673648474395161,-0.011433117132122268,1.248409134285635,0.4674846242350832,-0.020444443333907308,-0.0001839768020349794,0.37013469087481976,0.3437766051436814,-8.208032063970872,-1.1192676042398517,-0.007301975290649687,-0.00289228464296698,0.04380015066881473,4.280645332134299,-5.34510429028934,-1.1517316825868333,-0.008388687463508168,-0.000682785140996911
0.92,-0.19113083138036444,0.0001258728534194162,-0.11757912425300869,0.5189471353403169,-0.032542182434191824,-0.00024210466431317227,0.07040285692893296,-0.007876451310370899,1.1672310645000064,0.45517561544445634,-0.020543642358210556,-0.00019672379536195175,0.36742270526929516,0.2538254767103183,-8.053411886494525,-1.2083575845063415,-0.008016687506104403,-0.002873141407250923,0.04399525641052457,4.271479456789798,-5.340724130088716,-1.1451302043631943,-0.00853877492672981,-0.0006819108546869754
0.93,-0.19039040725791329,7.378049893472165e-05,-0.10670363738109045,0.5233687162693406,-0.032748640978664735,-0.000244198612140235,0.0740424122451146,-0.005209235448469456,1.087548687191824,0.4421580929023671,-0.02064585444729134,-0.00020939478270626838,0.36472136956421536,0.17032496374281153,-7.824353349949388,-1.2803548802390274,-0.008380991260894977,-0.002837157398242973,0.044202436249930005,4.26045150356719,-5.324787519671691,-1.1361923661797497,-0.008668107727564886,-0.0006797957800010582
0.9400000000000001,-0.1896138545285819,4.007848578598966e-05,-0.09660263197312521,0.5276547298254006,-0.032956122831666004,-0.0002464174459167746,0.07765527293313973,-0.0033702013148731993,1.0101005407965244,0.42860135560601,-0.020748185300126995,-0.00022188337765396081,0.36200510058772406,0.14014017118053454,-7.539820435943029,-1.335491755720593,-0.00844506891171315,-0.0027871036136752902,0.0444145669870548,4.253228804281159,-5.301127912301189,-1.1256785009652424,-0.00877920581439498,-0.0006769644400091025
0.9500000000000001,-0.18880144149059683,2.1744730131507477e-05,-0.08724826053859144,0.5318014089003881,-0.03316460454304905,-0.00024875861269000704,0.08124130379850748,-0.0018333755654482181,0.935437143453377,0.4146679074987404,-0.020848171138304793,-0.00023411667732324155,0.3592621157114333,0.06565101776691673,-7.215324259969726,-1.3740356987460913,-0.0082483555532058,-0.002726999193360391,0.04462054787598621,4.239255539152846,-5.269402276148394,-1.1136438514695157,-0.008876654790896728,-0.0006731226486692377
0.96,-0.1879534390790397,1.1349697993992817e-05,-0.07860867614715995,0.5358065171782027,-0.03337404362475467,-0.000251218781696853,0.08480024115571275,-0.001039503213751466,0.8639584391431491,0.40051082778146097,-0.020943908170561746,-0.00024601690068459537,0.3564640373956885,0.0687860591395401,-6.863853900335164,-1.3978885528466805,-0.007857935247462922,-0.002656398631419754,0.044819545104051464,4.232534054880056,-5.234664380762681,-1.101002084119441,-0.00896104193153643,-0.0006691247907088854
0.97,-0.18707012363740416,9.139130241682727e-06,-0.0706493484369462,0.5396691792238287,-0.03358438222464097,-0.0002537942895492137,0.08833154416355408,-0.00022105677523100902,0.795932771021375,0.3862662045626012,-0.02103385998863003,-0.0002575507852360682,0.353613008443729,0.09355996712396429,-6.495656057628309,-1.4075497289920804,-0.007298542819118292,-0.002580598934951106,0.045005177544781616,4.227147157674992,-5.19694686745574,-1.0878183814191216,-0.009035676257757511,-0.0006648393337517085
0.98,-0.18615177677878705,1.749133860694733e-05,-0.06333406125023375,0.5433897932553874,-0.033795550586536396,-0.00025648117295482307,0.0918346858617107,0.0008352208365264601,0.7315287186712457,0.37206140315586816,-0.021116836189542958,-0.00026868834056093747,0.35069278403054277,0.10289820912807084,-6.119300905674572,-1.4047218382074185,-0.006615038862297695,-0.0025004644764080597,0.045172540292748524,4.2193284360304455,-5.156522530539687,-1.0742362360678501,-0.009102465232657212,-0.0006602066267475102
0.99,-0.18519868703688203,3.724836881663486e-05,-0.05662575210055847,0.5469698467201118,-0.03400747128342615,-0.0002592751832893664,0.09530897419050251,0.0019757030209687524,0.6708309149675273,0.35800534647244375,-0.021192069688974944,-0.00027940103345433135,0.3477057515812532,0.12199151514052267,-5.741292418339248,-1.390701715795494,-0.005844222113503106,-0.0024164072962284955,0.04532203912155199,4.2121284413483675,-5.115035939552188,-1.060570941530747,-0.009162512307136392,-0.0006554736374444711
