tonegas/nnodely-applications/joint_friction_estimation/dataset/train/mpc_mujoco_episode_34 copy.csv
time,q1,q2,q3,q4,q5,q6,dq1,dq2,dq3,dq4,dq5,dq6,ddq1,ddq2,ddq3,ddq4,ddq5,ddq6,tau1,tau2,tau3,tau4,tau5,tau6
0.0,0.0,1.57,-1.57,0.0,0.0,0.0,0.0,0.0,0.0,0.0,0.0,0.0,0.40301951675165115,1.5502531308703822,13.464230727525292,5.426296525739652,0.058454350705171354,-4.286071617620735e-06,0.05650648779702007,-1.211508286814993,-2.186573462584119,-0.4290233051173731,0.005141732034824558,-9.333305454508174e-05
0.01,4.009474284007543e-05,1.570159259509122,-1.5686591948432944,0.0005063910712421731,4.905734922415994e-06,3.307951331120329e-07,0.004009474284007543,0.015925950912189953,0.13408051567056503,0.050639107124217306,0.0004905734922415994,3.307951331120329e-05,0.4027489968182562,1.6220469081568214,13.44574679774762,5.076810576234159,0.049170851505289326,0.003304583172689668,0.05686445236092632,-1.2010847683634607,-2.1775876108188923,-0.42648744618959433,0.0051686069740775435,-9.185077898350041e-05
0.02,0.00012022648315928891,1.5704851314271244,-1.565981529816469,0.0014918305586648815,1.4152845051882212e-05,1.0156389286812672e-06,0.008013174031921349,0.0325871918002372,0.2677665026825373,0.09854394874227083,0.0009247110129466218,6.848437955692344e-05,0.40221867588896537,1.6969657474492708,13.405672724901608,4.80120485991835,0.043498023562862365,0.0035267155340967804,0.05739084790373054,-1.206131887783033,-2.17060290931359,-0.4238386845405183,0.005202996283751602,-9.057842054748205e-05
0.03,0.00024032427584500278,1.5709852099945358,-1.5619725504889757,0.0029345711140536333,2.7393191662848305e-05,2.0368303044691838e-06,0.012009779268571386,0.050007856741147654,0.40089793274933416,0.14427405553887518,0.001324034661096609,0.00010211913757879166,0.40152658037172273,1.7738306721405812,13.34892056379061,4.58085050358531,0.039968293460411086,0.00333081166907645,0.058078203761815994,-1.2269691659481405,-2.1657673126373775,-0.42110296577732453,0.005244134319380582,-8.954307519143433e-05
0.04,0.0004003087537864412,1.5716672286324438,-1.5566390455595058,0.0048170424971451745,4.440758255888935e-05,3.3750085523948317e-06,0.01599844779414384,0.06820186379079006,0.5333504929469769,0.18824713830915413,0.0017014390896041042,0.00013381782479256478,0.4007167749930593,1.851602295517973,13.278983197897405,4.401474004172378,0.03770829330189973,0.003109759770591136,0.05891451178477657,-1.2639236688635567,-2.1632152273941987,-0.41829754554094634,0.005290848522852525,-8.877131575974243e-05
0.05,0.0006000935030559138,1.5725389680751263,-1.5499888001972795,0.007124763678987411,6.505308094285393e-05,5.013793405127571e-06,0.019978474926947258,0.08717394426825087,0.6650245362226432,0.2307721181842236,0.0020645498383964588,0.00016387848527327388,0.39979907098191597,1.9293461272393424,13.198242284686655,4.2521286566923635,0.036191934874098,0.0029105309156078896,0.05988309530648595,-1.3173140366304543,-2.1630642288258484,-0.41543059103814095,0.005341565742717845,-8.828943201275144e-05
0.06,0.0008395842192646987,1.5736081722006763,-1.5420304363495105,0.009845506973426673,8.923110150838574e-05,6.939487173519261e-06,0.023949071620878493,0.10692041255499604,0.7958363847768939,0.2720743294439262,0.00241780205655318,0.000192569376839169,0.39876098489574785,2.0062068708929286,13.108207247403044,4.124406350281035,0.03510208157261463,0.0027310513281486593,0.060962424482095386,-1.387433222005745,-2.1654118850565034,-0.4125007880350383,0.005394317125490371,-8.812311157721682e-05
0.07,0.001118676366627111,1.5748824696529724,-1.532773321714149,0.012968654220427027,0.0001168681072819431,9.140308328110492e-06,0.027909214736241222,0.12742974522961337,0.9257114635361561,0.3123147247000353,0.0027637005773557366,0.00022008211545912316,0.3975750660809944,2.0813895334883696,13.009701657815791,4.011834198972515,0.03424844924992709,0.0025647452989190356,0.062125908703886394,-1.4745297768349257,-2.170332559512084,-0.40949696063166185,0.00544674367319959,-8.829678452029071e-05
0.08,0.0014372517847392168,1.5763692998718895,-1.5222275330548947,0.016484699163016783,0.00014790397232553704,1.160575861597924e-05,0.03185754181121059,0.1486830218916938,1.054578865925437,0.3516044942589756,0.0031035865043593947,0.0002465450287868748,0.39620345734516793,2.1541457577431276,12.903009553471492,3.909413675423565,0.033518091172752174,0.00240646385637433,0.06334169856969142,-1.5787876881160678,-2.1778741284593264,-0.40639771681846726,0.0054961045532567285,-8.88327508031066e-05
0.09,0.0017951745243532996,1.578075842551793,-1.5104038625493337,0.020384861044342208,0.00018228502226980348,1.4326156001065206e-05,0.035792273961408286,0.1706542679903336,1.1823670505561028,0.3900161881325424,0.003438104994426643,0.0002720397385085966,0.3946008203166924,2.22376420953529,12.787991618204922,3.8132695433158617,0.03284538494887412,0.002252740898213812,0.06457253289912532,-1.7003048556739895,-2.1880545625908283,-0.4031711285700065,0.005539290177898593,-8.97501486882337e-05
0.1,0.0021922860984461526,1.580008949863534,-1.4973138581075762,0.024660782835474952,0.00021995993993063827,1.729229664886365e-05,0.0397111574092853,0.19331073117409373,1.3090004441757421,0.42759217911327446,0.0037674917660834796,0.00029661406477984436,0.3927163121905197,2.289564133663548,12.66417825727807,3.7203833018891856,0.032193787420714326,0.0021013700600605034,0.06577566963312205,-1.8390705509707277,-2.2008584576349133,-0.39977448417595596,0.005572841997448381,-9.106380843004351e-05
0.11,0.0026284002816193515,1.5821750810228732,-1.482969890315519,0.029304293953061354,0.000260877434049606,2.0495211184063763e-05,0.043611418317319905,0.21661311593393093,1.4343967792057088,0.4643511117586401,0.004091749411896772,0.00032029145352001137,0.39049503028958993,2.350891434590817,12.53084586495726,3.628391606983527,0.0315447039293788,0.0019510072284096847,0.06690294284826902,-1.994942129711736,-2.2162334838677884,-0.3961541179338266,0.005592980895043625,-9.27830049298497e-05
0.12,0.00310329756289562,1.5845802389881836,-1.4673852398810212,0.03430722228606617,0.00030498499919386643,2.3925989298250517e-05,0.04748972812762684,0.24051579653104685,1.5584650434497853,0.5002928333004815,0.00441075651442604,0.0003430778114186756,0.38787917289630724,2.4071167677559253,12.387080223098366,3.535434613749146,0.03089066028047749,0.0018008650876550902,0.06790099014353287,-2.1676215718141028,-2.234086895842225,-0.39224536175905844,0.005595645933521126,-9.4910141540222e-05
0.13,0.003616719343930149,1.5872299092307587,-1.4505742003951634,0.03966124415962455,0.0003522283549873279,2.7575653995938292e-05,0.051342178103452936,0.26496702425751895,1.6811039485857797,0.5354021873558378,0.004724335579346146,0.0003649664697687777,0.38480906259244146,2.4576352523518787,12.231830351371546,3.4400426214972626,0.030231078160429137,0.0016504830634382905,0.06871169526092848,-2.35663244890625,-2.2542822012145347,-0.3879726494012896,0.0055765450257286965,-9.743939211780172e-05
0.14,0.004168361970234486,1.590129000651941,-1.432552191903801,0.04535776378671756,0.00040255131027295795,3.14350719480333e-05,0.0551642626304337,0.2899091421182333,1.8022008491362582,0.5696519627093015,0.005032295528563007,0.0003859417952095007,0.3812241142469667,2.501867488679343,12.063954805019735,3.3410520639457104,0.029569627583676317,0.0014995527595365044,0.06927288879180726,-2.5612981024834123,-2.2766361761332816,-0.38324982252368345,0.005531218812521333,-0.00010035534456094265
0.15,0.004757870683179996,1.5932817888273016,-1.4133358813294263,0.051387815995134443,0.00045589589316244315,3.5494890101801614e-05,0.05895087129455094,0.31527881753604986,1.9216310574374469,0.6030052208416883,0.005334458288948521,0.0004059818153768313,0.377063790876225,2.5392616165068507,11.882260344603989,3.2375439270938813,0.028912536960133517,0.0013477844102591785,0.06951934477638919,-2.7807221033968923,-2.300916629205597,-0.3779807376366804,0.005455118649849048,-0.00010363172408165219
0.16,0.005384833582853102,1.5966918618421875,-1.3929433063790069,0.0577419877146503,0.0005122026458057011,3.9745491343913255e-05,0.06269628996731061,0.34100730148857805,2.0392574950419364,0.6354171719515858,0.0056306752643258025,0.000425060124211164,0.3722685260549024,2.5692961484391006,11.685579532583276,3.128798564531998,0.02826748680823088,0.0011948044202154673,0.06938409780946322,-3.013765260171731,-2.326834703687791,-0.37205861467006063,0.005343698704991691,-0.00010722938694564417
0.17,0.006048775690779126,1.6003620690691565,-1.3713939956804975,0.06441035522077769,0.0005714110176161264,4.41769636378432e-05,0.06639421079260234,0.36702072269690866,2.1549310698509414,0.6668367506127388,0.005920837181042523,0.0004431472293929944,0.3667807594258946,2.591483659471228,11.472695837943057,3.0142676872724437,0.02764286113822645,0.0010400738463480774,0.06880011078443897,-3.259048529554544,-2.35405875840187,-0.3653708652326645,0.0051925231932292175,-0.00011109727899229313
0.18,0.006749153213969319,1.6042944732292035,-1.3487090926048169,0.07138243453690757,0.0006334598131468194,4.877907952683772e-05,0.07003775231901925,0.3932404160047094,2.2684903075680602,0.6972079316129874,0.006204879553069299,0.00046021158889945234,0.36054580160665695,2.6053742707413305,11.242492359452246,2.8935463403502055,0.027047226731054197,0.0008828363814279427,0.06770226399146757,-3.514926679424776,-2.382197708468606,-0.3577963949296118,0.0049973854674427,-0.00011516935782218462
0.19,0.007485348096067191,1.608490306177339,-1.3249114684857468,0.07864714375721768,0.0006982876628947901,5.354128218716538e-05,0.07361948820978724,0.41958329481355777,2.3797624119070075,0.7264709220310112,0.006482784974797072,0.00047622026603276636,0.35351298027618316,2.610560513941269,10.993746074872575,2.76636497551344,0.026488946704858574,0.0007220633690951939,0.06602969031227836,-3.7795172226441967,-2.4108343068922533,-0.3492154054465494,0.004754441321719696,-0.00011936840457633279
0.2,0.008256662969403101,1.6129499287921059,-1.3000258453051274,0.08619277547720804,0.0007658334955779522,5.845267753895962e-05,0.07713148733359103,0.4459622614766753,2.4885623180619394,0.7545631719990358,0.006754583268316215,0.0004911395351794235,0.34563677764576173,2.6066817589481954,10.725031036174547,2.632571714608595,0.02597589850148596,0.0005564360563257154,0.06372838895302897,-4.050713703702144,-2.439544583139277,-0.33951584095612697,0.004460352599552707,-0.00012360816451162002
0.21,0.009062316621548695,1.6176727953779024,-1.2740789374066708,0.0940069774500723,0.0008360369959566135,6.350203128959776e-05,0.08056536521455944,0.47228665857964924,2.594690789845663,0.7814201972864274,0.0070203500378661285,0.0005049353750638147,0.33743346847742545,2.595263062551245,10.000824645084647,2.4995343076958036,0.025521091954819886,0.0003843548963551324,0.060821193977269636,-4.378880923933414,-2.528399129194846,-0.34367670510070747,0.00411872430357898,-0.00013596566988457358
0.22,0.009901494677417537,1.6226573917131675,-1.2471418363514657,0.10207477138728108,0.0009088426825127543,6.868074533810982e-05,0.08391780558688416,0.4984596335265011,2.6937101055205033,0.8067793937208774,0.00728056865561408,0.0005178714048512057,0.32898552174552226,2.574884379867435,8.888048303194305,2.341907540294045,0.02515853544770552,0.00023398503030325202,0.057319521931302464,-4.743219717575717,-2.668587682898029,-0.359728031923384,0.003732246197039287,-0.00015523366414522282
0.23,0.010773357994002496,1.627901156500447,-1.2193236895820092,0.11037701628059768,0.0009842018719898279,7.39812787663367e-05,0.08718633165849575,0.5243764787279568,2.781814676945658,0.8302244893316605,0.00753591894770735,0.0005300533428226878,0.31994039781496303,2.543214913964783,7.75102088385782,2.1390721155217385,0.024899692616811686,8.755746270106002e-05,0.05321319850696397,-5.090122347729931,-2.8094773523444356,-0.37534475187238964,0.0033008094649172592,-0.0001745551489009904
0.24,0.011677008183454267,1.6334004441109118,-1.1907363444965569,0.11889094705997215,0.001062070939951979,7.939342867146644e-05,0.09036501894517716,0.5499287610464745,2.858734508545234,0.8513930779374469,0.007786906796215101,0.0005412149905129738,0.31026928836027784,2.5008373215764075,6.625351077927705,1.9008048158412905,0.024727172310855083,-9.445170025124128e-05,0.048538708241817954,-5.410945728024405,-2.9450164392871283,-0.3891776743702926,0.0028275682325136138,-0.00019306868450763624
0.25,0.012611484716549706,1.6391505938651436,-1.1614908159120703,0.12759114592479068,0.0011424101456250135,8.490414252098339e-05,0.09344765330954397,0.5750149754231857,2.924552858448649,0.8700198864818522,0.00803392056730347,0.0005510713849516946,0.2999652657768856,2.4485199909104227,5.522794999001043,1.6371610234767964,0.024625100330231575,-0.0003162971752326271,0.043352756452350635,-5.701079481157615,-3.072546858586036,-0.4007178232494909,0.0023168971554954404,-0.00021036676244987862
0.26,0.013575764187036347,1.6451460053728273,-1.1316960744586235,0.13645039500071682,0.0012251827135971417,9.049803654615532e-05,0.0964279470486641,0.5995411507683759,2.979474145344669,0.885924907592614,0.008277256797212824,0.0005593894025171931,0.28902316955998697,2.3870227549661824,4.459558730617639,1.356721642596046,0.024579111075869742,-0.0005750760031187907,0.03772927700886221,-5.956492379914381,-3.1889459658762416,-0.40934356721106085,0.0017741611315654415,-0.00022597718613193713
0.27,0.014568759778250322,1.651380215206833,-1.1014574082863355,0.1454404373487892,0.0013103539777743144,9.615790525349514e-05,0.0992995591213975,0.623420983400569,3.02386661722879,0.8990042348072367,0.008517126417717276,0.0005659868707339827,0.277438944238484,2.317109958531096,3.4636229510685217,1.0671129745981602,0.024574793948898055,-0.0008677826803447086,0.031756283036169744,-6.173240015431379,-3.2895908178104216,-0.4140578166253508,0.0012054683681979668,-0.00023922421177324828
0.28,0.015589320868275554,1.6578459787370128,-1.0708736390456224,0.15453272628609993,0.0013978904617295454,0.00010186510361724578,0.10205610900252322,0.6465763530179686,3.0583769240713115,0.9092288937310721,0.008753648395523096,0.0005707198363750646,0.26521148519195226,2.239597788874025,2.581432170192008,0.775824942847164,0.024596797982947782,-0.0011924442541335623,0.025531074147828917,-6.347306169732027,-3.3673947036670326,-0.41323849779048133,0.0006172725084552409,-0.0002490988369893343
0.29,0.01663623295908706,1.664535363409132,-1.040032532005577,0.16369926061106496,0.0014877588254094732,0.00010759980013026098,0.10469120908115054,0.6689384672119293,3.084110704004547,0.9166534324965023,0.008986836367992794,0.0005734696513015199,0.25235808573129753,2.155478542044036,1.7390078188249203,0.49133461826920577,0.024628757393260647,-0.0015481601882218476,0.019146868854585854,-6.48667561028224,-3.432107196705137,-0.40939468448738264,1.5906361657912812e-05,-0.000256879295770875
0.3,0.017708219309719126,1.6714398088561306,-1.0090179633106984,0.17291283566850918,0.001579925171508335,0.00011334197978712669,0.10719863506320652,0.6904445446998676,3.1014568694878606,0.9213575057444231,0.009216634609886169,0.0005742179656865703,0.23886520692331997,2.0652129004684436,1.135797244611057,0.2157641791905931,0.02465621736387602,-0.0019261120675099497,0.012718299299711217,-6.576536786088253,-3.4558143306620686,-0.39576784811187515,-0.0005916439715657807,-0.00025874592980898757
0.31,0.018803939839596058,1.6785502472636427,-0.9778904049329978,0.1821482762041097,0.001674353433265295,0.0001190705685111034,0.10957205298769303,0.7110438407512035,3.112755837770051,0.9235440535600522,0.009442826175695994,0.0005728588723976705,0.2247526418169784,1.9701011253829128,0.5948124415056313,-0.03842346392985441,0.024659015218119973,-0.0023364603711804044,0.006312634091626579,-6.635776937247972,-3.4625564076165913,-0.3782826817247842,-0.0012011082307508856,-0.00025791953102235473
0.32,0.019921992906537973,1.6858571500119952,-0.9467041397320983,0.19138244939643817,0.0017710047432648666,0.00012476513639897747,0.11180530669419148,0.7306902748352562,3.1186265200899483,0.9234173192328478,0.009665130999957172,0.0005694567887874061,0.21001714389471723,1.870504289208896,0.3160304166840371,-0.2713855135782397,0.024623853057978984,-0.002763154343577129,3.2259704571567516e-05,-6.652946007463949,-3.424660841652121,-0.3502137895527164,-0.001806712381604693,-0.00025063007926572284
0.33,0.02106091526940073,1.6933506344982003,-0.9154876933445173,0.20059529237719365,0.0018698358429563584,0.0001304049938867822,0.11389223628627594,0.7493484486205095,3.1216446387581,0.921284298075549,0.00988310996914917,0.0005639857487804746,0.19465862064121472,1.7674449614519325,0.1689595301176665,-0.47308778565940646,0.024531767641905233,-0.0032168913759572718,-0.006080889701559566,-6.6433203902554885,-3.35989016470578,-0.3158697123827953,-0.0024064545267137825,-0.00023925901676835422
0.34,0.022219181981920376,1.701020504129122,-0.8842565275122872,0.20976989690786368,0.0019707982482431163,0.00013597046892888906,0.11582667125196441,0.7669869630921656,3.1231165832230054,0.9174604530670035,0.010096240528675776,0.0005565475042106841,0.1786761972559096,1.661307210525171,0.08745631680934673,-0.6427498660636008,0.0243693610679786,-0.0036865365059308578,-0.011973982735129951,-6.614564655865735,-3.277503837081934,-0.2775299874017764,-0.0029971914599856864,-0.00022505164666547118
0.35000000000000003,0.02339520632495703,1.7088562588892127,-0.8530195031241874,0.21889222046241408,0.002073837514677032,0.00014144353048772826,0.11760243430366513,0.7835754760090766,3.123702438809978,0.9122323554550404,0.010303926643391588,0.0005473061558839208,0.1620687691852413,1.552193492806009,0.03926091733809667,-0.7832490752809458,0.024122514747297985,-0.004167345947585811,-0.0175895899829685,-6.570540078866356,-3.18224642115365,-0.23639849941731103,-0.003575144842545045,-0.00020865260502365317
0.36,0.02458733977423918,1.7168470945847838,-0.8217820532933373,0.22795069243786087,0.002178892309404927,0.00014680786805432194,0.11921334492821518,0.7990835695571025,3.1237449830850097,0.90584719754468,0.010505479472789472,0.0005364337566593684,0.14483520407870346,1.4400993242073303,0.008228102514339586,-0.8984770122842841,0.023773635163965134,-0.00465981436703506,-0.02287025219162031,-6.513332169417953,-3.076698171839375,-0.193164757312359,-0.004136233445944732,-0.00019042172691128979
0.37,0.02579387199411659,1.7249818987900505,-0.7905477867076547,0.23693582611525715,0.0022858931865421205,0.00015204872415266706,0.120653221987741,0.8134804205266772,3.1234266585682637,0.8985133677396274,0.010700087713719364,0.0005240856098345112,0.12697435017486886,1.3249905124065526,-0.013747218984641485,-0.9922537722906296,0.02330062045042408,-0.005166645549059233,-0.027761324754270216,-6.444168188406297,-2.9623473663018904,-0.14825882757933934,-0.004676265489073492,-0.000170578126728012
0.38,0.027013030847471784,1.733249247048604,-0.7593193039766435,0.2458398781488125,0.002394761031647134,0.00015715264661257485,0.12191588533551931,0.8267348258553526,3.1228482731011207,0.8904052033555341,0.010886784510501369,0.0005103922459907775,0.10848457431448323,1.2068346619294488,-0.03080554382372802,-1.0679245023353972,0.02267642943913184,-0.005691011689940018,-0.03221302121777623,-6.363864525118182,-2.8401369605426945,-0.10198080634945407,-0.0051910692745088935,-0.0001492736691924817
0.39,0.028242982373423667,1.741637400525686,-0.7280986231451669,0.254656565742742,0.0025054051597144964,0.00016210723885233153,0.12299515259518816,0.8388153477082093,3.122068083147652,0.8816687593929491,0.011064412806736243,0.0004954592239756699,0.0893645118333995,1.0856194647478803,-0.044942798351525814,-1.12824899476654,0.02186878728091779,-0.006235676555249592,-0.03618175367701434,-6.273034591998809,-2.710711004301461,-0.05455864328010497,-0.0056765753970192635,-0.00012662607359624305
0.4,0.029481830808439132,1.7501343061103363,-0.6968873917809056,0.26338084071048834,0.002617721053433441,0.0001669009401966958,0.12388484350154669,0.8496905584650264,3.1211231364261276,0.8724274967746386,0.011231589371894475,0.00047937013443642533,0.06961210905627822,0.9613517268115546,-0.05725599982493201,-1.1754314545415712,0.02083989517105811,-0.006802556649185776,-0.039631376377463376,-6.1722087746045275,-2.574587123240243,-0.006188641824812019,-0.006128898674479084,-0.00010274204119405598
0.41000000000000003,0.030727618559367863,1.7587275984305923,-0.6656870077916366,0.27200871181289155,0.0027315877210089944,0.00017152284876615343,0.12457877509287318,0.8593292320256165,3.1200383989269014,0.862787110240318,0.011386666757555324,0.00046219085694576247,0.04922533784678638,0.8340611176501882,-0.06870084535747295,-1.211190080714961,0.01954605722496497,-0.0073924430262578,-0.042533924438320964,-6.061890066580983,-2.4322626194666395,0.04293960077381279,-0.006544386521782808,-7.77314420840529e-05
0.42,0.031978326203536966,1.7674046039632796,-0.6344987236556903,0.2805371062913171,0.002846864650982093,0.00017596259111949604,0.12507076441691042,0.8677005532687139,3.1188284135946343,0.8528394478425559,0.011527692997309852,0.0004439742353342614,0.028203269187089364,0.7038033384436686,-0.08639610952614551,-1.2368459650323955,0.017937296749638162,-0.008004763475876059,-0.04487052372433708,-5.942700879882824,-2.2850799119605534,0.0924335674365821,-0.006919621125987324,-5.182403987887224e-05
0.43,0.03323187261939584,1.7761523461796695,-0.6033243533610267,0.28896373511510026,0.0029633883703934893,0.0001802102701240632,0.12535464158588733,0.874774221638994,3.1174370294663567,0.8426628823783171,0.011652371941139621,0.0004247679004567163,0.00654894718780017,0.5706611865183593,-0.13168570635521487,-1.2536561328781468,0.015957133547547873,-0.00863690177073384,-0.046630911839198416,-5.815358798030139,-2.1363394955725425,0.14142378235055564,-0.007251215950987439,-2.5520527576238673e-05
0.44,0.03448611552588392,1.7849575508824336,-0.5721683759316162,0.2972869011728641,0.0030809686455940256,0.00018425651912660682,0.12542429064880753,0.8805204702764072,3.115597742941061,0.8323166057763851,0.011758027520053631,0.0004046249002543615,-0.01573419192641084,0.4346985145211721,-0.17741416904830842,-1.2634895181385315,0.01354265871403404,-0.009283236017166255,-0.04780612404185426,-5.679443677269653,-1.9827687739726396,0.1906163738320568,-0.007535853748216133,1.5558453668211324e-06
0.45,0.03573885218086293,1.7938066609594336,-0.5410352806808708,0.30550547493448105,0.003199383991958007,0.00018809230227755585,0.12527366549790148,0.8849110077000171,3.113309525074534,0.8218573761616917,0.011841534636398155,0.0003835783150949029,-0.03864018547205088,0.2960695881117786,-0.2133103172591287,-1.2665726458896271,0.010622789276882483,-0.009939279740106936,-0.04840400868508138,-5.53540703330126,-1.823355442674994,0.240196342757772,-0.007771270069745317,2.947558716902747e-05
0.46,0.03698782036085939,1.8026858543649389,-0.509928560461983,0.3136189232675325,0.003318376712940846,0.00019170890178432326,0.12489681799964597,0.887919340550519,3.110672021888784,0.8113448333051451,0.011899272098283892,0.0003616599506767397,-0.0621536308042495,0.15499482313331067,-0.2596441438644272,-1.2625552292838222,0.007120307328334352,-0.01059685405934916,-0.0484461183867654,-5.384157886393913,-1.6612334302783687,0.28936226740379045,-0.007955726994398145,5.774766834941071e-05
0.47000000000000003,0.03823070029516725,1.8115810629708402,-0.4788527018786722,0.3216272527338964,0.0034376477277411146,0.00019509815856746132,0.12428799343078659,0.8895208605901285,3.1075858583310794,0.8008329466363904,0.011927101480026852,0.0003389256783138063,-0.08624891579287816,0.011703235649287588,-0.3286851885783958,-1.2519529826748557,0.002954339657185029,-0.011242314118915658,-0.04795811895415746,-5.226158194496301,-1.498494505320865,0.3375519554260374,-0.008087468320544997,8.601355065134743e-05
0.48,0.039465117708442174,1.820477995571867,-0.4478143946485084,0.32953092020128244,0.00355685115708437,0.00019825269527728323,0.12344174132749208,0.8896932601026785,3.1038307230163773,0.7903667467385999,0.011920342934325534,0.0003154536709821901,-0.10584584814456324,-0.10017539715404825,-3.5440647328947006,-1.18212800841175,-0.001997418500913506,-0.011857707702940645,-0.046929740610626075,-5.058585038995196,-1.7574575705401378,0.2833043697047838,-0.008110751298778012,5.703089291546668e-05
0.49,0.04068913719161552,1.8293651145881569,-0.417129301811009,0.337322245388307,0.0036756207729438444,0.00020118364637759,0.12240194831733459,0.8887119016289805,3.0685092837499424,0.7791325187024554,0.011876961585947456,0.00029309511003067635,-0.12373656426726984,-0.2011042513995833,-7.124293161323025,-1.2210621407831574,-0.007487092662827044,-0.012139378598632233,-0.04486826831281073,-4.8439098695926175,-2.0693358457670716,0.2121844430629464,-0.007985407468069531,1.9684475904370446e-05
0.5,0.04190099319816759,1.8382321383354343,-0.38714949928968745,0.3449834191149495,0.003793560809632193,0.00020390061129226415,0.12118560065520717,0.8867023747277333,2.9979802521321512,0.7661173726642515,0.011794003668834863,0.00027169649146741286,-0.1415326044403284,-0.2997118154763468,-9.819976801946853,-1.3787466686210124,-0.013558237072945373,-0.012214463045748802,-0.04188317204407489,-4.59359113439549,-2.267450597912166,0.16370913230713352,-0.007727230272976229,-3.7960520854795406e-06
0.51,0.04309893441468305,1.847069286095522,-0.3581406684058884,0.3524906835660139,0.003910229673445763,0.0002064034477840946,0.11979412165154563,0.8837147760087671,2.9008830883799073,0.7507264451064377,0.011666886381357022,0.0002502836491830455,-0.1589425064030982,-0.3919499703290313,-11.793217370431911,-1.5958558760104467,-0.020280987328187977,-0.012137975656159705,-0.03830510474562859,-4.32802821886463,-2.3732354383231637,0.1336235591214509,-0.0073644994729521246,-1.621061449033585e-05
0.52,0.044281252188619974,1.855867577854179,-0.33029772841120447,0.3598183931063201,0.004025136961224462,0.0002086863621665587,0.11823177739369228,0.8798291758657066,2.7842939994683893,0.7327709540306178,0.011490728777869944,0.00022829143824641,-0.1756668241370335,-0.4752177666946965,-13.1775006538393,-1.8331923512118422,-0.027564781727854565,-0.011856507135688199,-0.0344079093037858,-4.062399091319074,-2.404705143254735,0.11842947515112195,-0.00692336900861279,-1.9868944713227738e-05
0.53,0.04544630995727104,1.8646190168345724,-0.30375776639458135,0.366941602117247,0.004137751527889451,0.00021074224851711458,0.11650577686510635,0.8751438980393326,2.65399620166231,0.7123209010926931,0.011261456666498883,0.0002055886350555878,-0.19140525843528208,-0.5480541747806182,-14.083249609767595,-2.065776440587804,-0.0352015635133239,-0.011331394554998653,-0.030408826250045446,-3.8073608166171162,-2.376989907491315,0.11523124837034943,-0.006427446070690581,-1.6676462923109162e-05
0.54,0.046592572785776165,1.8733166798080898,-0.2786107766222478,0.37383762307720386,0.004247517685659422,0.00021256574920797217,0.1146262828505129,0.8697662973517276,2.514698977233356,0.6896020959956819,0.010976615776997083,0.00018235006908575831,-0.20586903784804012,-0.6098773320927188,-14.60216103657942,-2.2784971150649724,-0.04290484333166761,-0.010554670502121777,-0.02647216151282593,-3.569863965961003,-2.3027736701821984,0.12162016122913516,-0.005897503181719088,-8.20225301224447e-06
0.55,0.047718635626769784,1.8819547365875038,-0.2549086107619039,0.38048687960806465,0.004353876870425673,0.00021415506914211868,0.11260628409936176,0.8638056779414066,2.3702165860343896,0.6649256530860816,0.010635918476625112,0.00015893199341465028,-0.21879635230122405,-0.6607631925957802,-14.810595418793314,-2.4629587011064302,-0.050347105763339256,-0.009546952570294476,-0.02271524893111242,-3.3539568702072717,-2.1926580299374194,0.13558619513264503,-0.00535133362590594,4.265863810232965e-06
0.56,0.04882324866559477,1.890528417053446,-0.23267245433792622,0.3868732887106692,0.004456292125583,0.00021551278006826173,0.11046130388249892,0.8573680465942155,2.2236156423977684,0.6386409102604579,0.010241525515732696,0.00013577109261430611,-0.22996815770317897,-0.7012583628563913,-14.772243593097896,-2.615232027026778,-0.05719603190867134,-0.008351186989029147,-0.019215625429958614,-3.1615115418910986,-2.0554684065817463,0.15544958326562142,-0.004803740725762632,1.9675774252526e-05
0.5700000000000001,0.04990533814281007,1.899033941354317,-0.2118990789832726,0.3929843381361959,0.004554272762877587,0.00021664586013710757,0.10820894772152938,0.8505524300870951,2.077337535465361,0.6111049425526646,0.009798063729458729,0.00011330800688458468,-0.2392217355299638,-0.732223662455157,-14.540244383595935,-2.7342796091292527,-0.06314787026765432,-0.007024892310590447,-0.016018538903274444,-2.992840158033747,-1.8985144608638211,0.17980675496505982,-0.004266641164069418,3.717281307037348e-05
0.58,0.050964021334995134,1.9074684264105155,-0.19256607004600199,0.3988109740980761,0.004647396730378337,0.00021756519816793605,0.1058683192185063,0.8434485056198568,1.9333008937270604,0.5826635961880209,0.00931239675007493,9.19338030828463e-05,-0.2464598983815653,-0.7547060139331475,-14.158886169970598,-2.820874517538499,-0.0679552179401691,-0.005632059467934658,-0.01314414980832008,-2.847194480360504,-1.7278134365969837,0.20748690037118772,-0.0037492582151485085,5.60673200449517e-05
0.59,0.05199861486457963,1.915829779476195,-0.17463619110229345,0.4043473774996585,0.0047353286241139285,0.00021828477088708421,0.10345935295844914,0.8361353065679396,1.7929878943708533,0.5536403401582392,0.008793189373559229,7.195727191481631e-05,-0.2516545847950848,-0.7698366268620247,-13.66499243854133,-2.876873595667952,-0.07144657259618595,-0.0042356935674212615,-0.010594016566815169,-2.7231544192267036,-1.5482827640766064,0.23751648739687353,-0.0032583798629253857,7.580700674354144e-05
0.6,0.053008636104341,1.9241165872606256,-0.15806101792446828,0.409590680404275,0.004817831904937672,0.0002188206733002191,0.10100212397613703,0.828680778443079,1.6575173177825175,0.5243302904616479,0.008250328082374369,5.359024131348793e-05,-0.2548445979200776,-0.7787532969537613,-13.089065597132324,-2.9047393106567725,-0.07353603036273328,-0.002891813226858053,-0.00835664657699361,-2.6189191322580694,-1.363906664962098,0.2690898307420914,-0.002798657848040798,9.595341811820666e-05
0.61,0.05399379803539561,1.932328007022958,-0.14278395211639708,0.41454065604047463,0.004894774637702243,0.00021919014662049514,0.09851619310546152,0.8211419762332524,1.5277065808071195,0.4949975636199637,0.007694273276457042,3.6947332027605466e-05,-0.2561281859605995,-0.7825442612796393,-12.456243553529035,-2.9072317814515216,-0.07422299423526457,-0.0016454103491798655,-0.006412040537150404,-2.532516861066259,-1.1778804066694994,0.301544352398918,-0.0023729259347692547,0.00011616194898471895
0.62,0.05495399841530632,1.9404636641800268,-0.1287427071777074,0.41919940313139803,0.0049661288330662455,0.00021941070729933205,0.09602003799107114,0.8135657157068718,1.4041244938689683,0.46587470909234047,0.00713541953640024,2.2056067883691568e-05,-0.25565184626118015,-0.7822106645991854,-11.787108704750437,-2.8872142841745685,-0.07358323439022443,-0.000528491744507642,-0.00473525935499287,-2.461949819336846,-0.9927351105003135,0.33433955436310103,-0.0019825187485514612,0.00013616497499463562
0.63,0.055889304453635984,1.9485235593521044,-0.11587134586304094,0.4235710371001727,0.005031964125159217,0.0002194994393401356,0.09353060383296595,0.8059895172077601,1.2871361314666445,0.43716339687746303,0.0065835292092971355,8.873204080355847e-06,-0.25359705961956186,-0.7786444489717684,-11.098378099699055,-2.8475324680977394,-0.07175371725968932,0.0004400199654284176,-0.003299106457478619,-2.405289037110995,-0.8104455089649558,0.36703899336435203,-0.0016275761618475767,0.00015575771198870716
0.64,0.056799934353554904,1.9565079864430173,-0.10410193639583831,0.42766139543931325,0.005092436978060592,0.00021947247512202884,0.09106298999189194,0.7984427090912745,1.1769409467202627,0.4090358339140544,0.0060472852901374795,-2.6964218106744316e-06,-0.25016663243958775,-0.7726184431743789,-10.403495794227144,-2.7909403024505224,-0.06891409757687902,0.0012529789020470083,-0.0020760517637256077,-2.3607319410713337,-0.632522698031553,0.399294735281054,-0.001307322135409464,0.00017478644802095805
0.65,0.05768623707312022,1.9644174623130175,-0.09336588569473453,0.43147776126732024,0.005147776847131752,0.00021934466103587483,0.0886302719565315,0.7909475870000305,1.0736050701103776,0.38163658280070084,0.005533986907115948,-1.2781408615399514e-05,-0.2455720289584898,-0.7647855970546337,-9.713142919171782,-2.7200550995177686,-0.0652676539412152,0.0019128449046164064,-0.00103953482672928,-2.3266331262871143,-0.4600936641164258,0.43083390083253753,-0.0010203108447099161,0.00019313881649466556
0.66,0.05854867152585208,1.972252667838844,-0.08359499979171442,0.4350286071234519,0.005198270741096528,0.00021912938492308232,0.08624344527318582,0.7835205525826457,0.9770885903020102,0.3550845856131684,0.0050493893964777105,-2.1527611279250524e-05,-0.24002263799508997,-0.7556846321119652,-9.035677482803097,-2.637330489307736,-0.06102389925415349,0.002429160614213055,-0.000164780759991845,-2.3015165457940263,-0.29396919670819566,0.46144699890305557,-0.0007646365185662971,0.00021073579870672875
0.67,0.05938778622494513,1.9800143996340611,-0.07472231476149903,0.43832335988000387,0.0052442474838184355,0.00021883853223850718,0.08391146990930488,0.7761731795217294,0.8872685030215391,0.32947527565519635,0.004597674272190747,-2.908526845751481e-05,-0.23371745869997282,-0.7457498042312937,-8.377513189309463,-2.5450406168411916,-0.05638433056901191,0.0028160792463959305,0.000570750652116902,-2.284075385473877,-0.13470160505481177,0.4909778140644557,-0.0005381064450563024,0.0002275251761147306
0.68,0.060204200125157814,1.9877035313837286,-0.06668273549949667,0.44137218695387953,0.005286062722414921,0.00021848253530328603,0.08164139002126815,0.7689131749667466,0.8039579262002357,0.30488270738756396,0.0041815238596485055,-3.559969352211579e-05,-0.2268392926844462,-0.7353229310900669,-7.7434452936247995,-2.445271625518423,-0.0515320020648026,0.003090206331340939,0.0011871801534060996,-2.273164238718979,0.017366427149101193,0.5193146454277244,-0.0003383789007390359,0.0002434761772692192
0.6900000000000001,0.06099858516851913,1.995320983588248,-0.059413514474716954,0.4441858035693932,0.005324085431190964,0.00021807048264811131,0.07943850433613162,0.761745220451936,0.7269221024779717,0.2813616615513632,0.003802270877604346,-4.120526551747179e-05,-0.21955124354748137,-0.7246662922773258,-7.136929534059247,-2.3399182133599297,-0.04662495220442617,0.0032688866317633902,0.0017022053730956373,-2.267786899413345,0.16206075091692418,0.5463827496119815,-0.00016306932604006507,0.00025857511319191644
0.7000000000000001,0.06177165081956766,2.0028677004698596,-0.05285459796043653,0.4467753005409112,0.0053586863678883965,0.00021761026098489786,0.07730656510485297,0.7546716881611663,0.655891651428042,0.25894969715179855,0.0034600936697432028,-4.602216632134549e-05,-0.21199515168335964,-0.7139753959988594,-6.560320857517831,-2.230683959154515,-0.041793060788930095,0.0033689639358353007,0.002131213604406522,-2.267082033058035,0.29934124850512966,0.5721378168287199,-9.828920905442969e-06,0.0002728218028024814
0.71,0.06252413069653012,2.010344632837452,-0.04694886328094338,0.44915199183875965,0.005390228682913503,0.0002171087089440991,0.07524798769624605,0.7476932367592481,0.5905734679493152,0.23766912978484478,0.0031542315025106763,-5.015520407987643e-05,-0.20429152618514365,-0.7033909623782999,-6.015076139126713,-2.1190846892062467,-0.037137659664620036,0.0034059735430016502,0.002487462777472156,-2.270308267960946,0.42927309909356115,0.5965603826971302,0.00012359983482365273,0.0002862266546697921
0.72,0.06325677127024217,2.017752725798879,-0.04164226706320816,0.4513272810423676,0.0054190606806418075,0.0002165717681010239,0.07326405737120491,0.7408092961426828,0.5306596217735224,0.217528920360792,0.0028831997728304606,-5.3694084307518463e-05,-0.19654053949611772,-0.6930097364401769,-5.501925505515228,-2.0064543348957535,-0.032733140113746284,0.003393691604067439,0.0027822960117764315,-2.276829666989239,0.5520029796905193,0.6196510636932421,0.00023934633512044787,0.00029880828333523257
0.73,0.063970322510224,2.025092910332262,-0.036883921388569656,0.4533125456578136,0.005445510588903297,0.00021600462227873944,0.07135512399818365,0.7340184533382746,0.47583456746385006,0.19852646154460077,0.0026449908261490067,-5.671458222844611e-05,-0.18882369614935132,-0.6828939088594406,-5.021019140669991,-1.8939527722935754,-0.028629839851622707,0.0033439545486491085,0.0030253660111847318,-2.286102067354854,0.6677391059819778,0.6414264315599265,0.00033938969791895814,0.00031059151404184504
0.74,0.06466553030139129,2.032366097866108,-0.03262611232435364,0.45511903817257404,0.005469883103922532,0.00021541182038765426,0.06952077911672899,0.7273187533845832,0.4257809064216019,0.1806492514760474,0.002437251501923428,-5.928018910851974e-05,-0.18120587733706556,-0.6730791839154902,-4.572051107035842,-1.7825754672428165,-0.02485760186835213,0.0032666667452045384,0.003224853876298567,-2.297660641929696,0.776734750834674,0.6619154995843142,0.00042554779124706166,0.00032160573484092756
0.75,0.06534313042601582,2.0395731771474015,-0.028824273053580565,0.4567578026304329,0.005492457434098829,0.0002147973811148426,0.0677600124624535,0.7207079281293627,0.3801839270773074,0.16387644578588573,0.0022574330176297172,-6.144392728116749e-05,-0.17373750519056327,-0.663581393330674,-4.154351551544177,-1.6731642801195328,-0.021429537225137456,0.003169927103660708,0.0033876748673203425,-2.311109095554608,0.8792762603808889,0.6811571090406683,0.000499474255727771,0.00033188374299505073
0.76,0.0660038438995471,2.046715012809989,-0.025436920710884534,0.4582396055111814,0.005513486555968642,0.00021416487974945436,0.06607134735312807,0.7141835662587356,0.3387352342696032,0.1481802880748484,0.0021029121869813074,-6.325013653882212e-05,-0.16645669669618118,-0.6544020360097912,-3.766954569553817,-1.5664189783495441,-0.018345663904838792,0.003060220764151078,0.0035196643724746345,-2.326110415714728,0.9756745323198004,0.6991980135242423,0.0005626610460554424,0.00034146096274437443
0.77,0.06664837345367318,2.0537924451508505,-0.022425563638242926,0.4595748797167915,0.0055331974089559924,0.00021351751860248746,0.06445295541260851,0.7077432340861696,0.3011357072641608,0.13352742056101014,0.0019710852987350445,-6.473611469668914e-05,-0.15939126568016931,-0.6455326502826549,-3.4087552971585997,-1.4629084637530614,-0.015596216309084785,0.002942637824923988,0.0036257341313527163,-2.342376102236605,1.066244924747702,0.7160881912830647,0.0006164467524796258,0.0003503730447033317
0.78,0.06727740097678352,2.060806290761128,-0.019754594544701208,0.4607736801500605,0.005551791783943814,0.0002128581834892205,0.0629027523110338,0.7013845610277603,0.26709690935417174,0.1198800433268969,0.0018594374987821643,-6.59335113266975e-05,-0.15256052854090285,-0.6369579475676643,-3.0784428513903945,-1.3630855283563923,-0.013164498380861481,0.0028210986060965837,0.0037100279460079177,-2.359662145611965,1.1513166359204452,0.731882950422288,0.0006620243255218925,0.00035865732074582223
0.79,0.0678915857425347,2.067757343705652,-0.017391163025615705,0.4618456498967243,0.005569447694577107,0.00021218948801673816,0.061418476575119424,0.6951052944523609,0.23634315190855038,0.10719697466637802,0.0017655910633293142,-6.686954724823345e-05,-0.14597692192257522,-0.6286587847115406,-2.7746415586880935,-1.2672968425404925,-0.011029274779753177,0.0026985551661278806,0.003776033691004305,-2.377760319079096,1.23121495257049,0.7466387058855666,0.0007004528966574471,0.0003663506034367498
0.8,0.06849156327532983,2.0746463770224275,-0.015305041359603715,0.46279999564871654,0.005586321057797049,0.00021151380829631828,0.05999775327951278,0.6889033316775593,0.20861216660119905,0.09543457519922909,0.0016873363219942555,-6.756797204198767e-05,-0.1396473475481356,-0.6206138077154675,-2.495900630526132,-1.1757959251877885,-0.009166678366566816,0.0025771809950557167,0.003826693937797466,-2.3964940760379676,1.3062633071371494,0.7604133279526504,0.0007326685873435099,0.0003734895731744421
0.81,0.06907794472803849,2.0814741443920086,-0.01346848261066592,0.46364547131256395,0.005602547545197643,0.00021083330990453636,0.0586381452708659,0.6827767369581176,0.1836558748937796,0.08454756638474262,0.0016226487400593818,-6.804983917819061e-05,-0.1335743485010816,-0.6128010496956902,-2.240745365973062,-1.0887540872712327,-0.007551693648736563,0.002458529319417896,0.003864491542010031,-2.4157134597202234,1.376777334647176,0.7732646249636802,0.0007594961312405584,0.0003801100715370379
0.8200000000000001,0.06965131666296771,2.0882413818473093,-0.011856076105493066,0.4643903686881552,0.005618244499070124,0.0002101499689048127,0.05733719349292141,0.6767237455300752,0.16124065051728542,0.07448973755912483,0.0015696953872480844,-6.833409997236897e-05,-0.12775706920746327,-0.6051988728397228,-2.007701603811998,-1.0062713152124898,-0.006159262272575981,0.0023436687563360425,0.0038915243030106022,-2.4352912046328576,1.4430624040908686,0.7852496276175843,0.0007816600169294895,0.00038624682944630144
0.8300000000000001,0.07021224114744638,2.094948809447405,-0.010444602725964067,0.4650425142061457,0.005633512834696288,0.0002094655883766267,0.056092448447866435,0.6707427600095588,0.14114733795289985,0.06521455179904981,0.0015268335626163433,-6.843805281859729e-05,-0.12219205487922528,-0.597786658852167,-1.7953082775356437,-0.9283864979946319,-0.004965073508864656,0.002233294514499634,0.0039095676525065185,-2.4551196090420397,1.5054126945212756,0.7964242336830807,0.0007997949186176836,0.00039193338143662834
0.84,0.0707612560902565,2.1015971328571346,-0.00921289128512233,0.46560927081100706,0.005648438873445523,0.00020878181158493235,0.05490149428101269,0.6648323409729457,0.12317114408417376,0.05667566048613838,0.0014926038749235183,-6.837767916943499e-05,-0.11687389703452548,-0.5905452273167677,-1.6021381276843305,-0.8550865042909455,-0.003946100411926789,0.0021278180944681035,0.003920126084653077,-2.4751075619596996,1.5641091851169118,0.8068426068860887,0.0008144555931435422,0.0003972018205673273
0.85,0.07129887575937605,2.1081870448019266,-0.008141678053277406,0.4660975441434277,0.005663096069825443,0.00020810013273650252,0.053761966911953396,0.6589911944792088,0.10712132318449227,0.048827333242063856,0.0014657196379919857,-6.816788484298107e-05,-0.11179575685085923,-0.5834570674336236,-1.4268086656288517,-0.7863147010684846,-0.0030809339269121314,0.00202743947978018,0.003924476498695389,-2.495178152481717,1.6194188822225484,0.8165568693477239,0.0008261259343270457,0.0004020827062354777
0.86,0.07182559143274277,2.1147192263807817,-0.007213470540766835,0.46651379225895456,0.005677546610141685,0.00020742190603004014,0.05267156733667272,0.6532181578855005,0.09282075125105711,0.04162481155268848,0.0014450540316242437,-6.782267064623951e-05,-0.10694977637470429,-0.5765063801860745,-1.267996511701437,-0.7219785329729405,-0.002349963331586307,0.001932203815214542,0.003923704086366272,-2.5152664562007243,1.6715935673414724,0.8256166919492357,0.0008352273449014906,0.00040660489977640147
0.87,0.07234187214408759,2.121194348239031,-0.006412416972685388,0.46686403818674327,0.005691842871473883,0.00020674835355678902,0.051628071134482666,0.6475121858249119,0.08010535680814472,0.035024592778872994,0.0014296261332198345,-6.735524732511289e-05,-0.10232738730759115,-0.5696788863955353,-1.1244671615361916,-0.6619563404336684,-0.0017354419873483948,0.001842045824935551,0.003918731667285037,-2.5353171201577123,1.720866462033612,0.8340684096707627,0.0008421267419452929,0.00041079511621607863
0.88,0.072848165495357,2.1276130716298955,-0.005724184405475312,0.46715388463978924,0.005706028737972278,0.0002060805725313674,0.05062933512694114,0.6418723390864521,0.06882325672100753,0.028984645304598735,0.0014185866498394744,-6.677810254216207e-05,-0.09791883587336411,-0.5629562992348426,-0.9955499704009863,-0.6060964552105634,-0.0012214791074496058,0.00175682488027179,0.003910339887684612,-2.555269462804348,1.7673902547555826,0.8419405633895207,0.0008471532109780119,0.0004146696628352983
0.89,0.07334489858271687,2.1339760500738025,-0.005135892184500189,0.46738852919738055,0.005720140780893656,0.00020541954420947607,0.04967330873598711,0.6362978443907121,0.05882922209751238,0.02346445575913393,0.001411204292137743,-6.610283218913355e-05,-0.09371070108955708,-0.5562948055789048,-0.8834110814431977,-0.5542124431718007,-0.000793937545823447,0.0016763732443552254,0.0038991447123729994,-2.574992020212229,1.8109373428125202,0.8491742320791856,0.0008506558181539596,0.0004181944933579852
0.9,0.07383247927639124,2.1402839345111184,-0.0046363242137263845,0.46757277196702723,0.005734209332249183,0.00020476615363861412,0.048758069367436985,0.6307884437316099,0.049956797077380426,0.018424276964668453,0.0014068551355527425,-6.533905708619576e-05,-0.08958333716123898,-0.5488656492283536,-0.86092095379056,-0.5050602701729976,-0.000441547289579132,0.001600626842827732,0.003884911918673746,-2.5923505705275827,1.841969882645642,0.8535543256753433,0.000854438580169987,0.00042009616186708897
0.91,0.07431130777951571,2.146537480415125,-0.004223089503877713,0.46771085160901416,0.005748260020871676,0.00020412152286773832,0.04788285031244686,0.6253545904006709,0.04132347098486713,0.013807964198692457,0.0014050688622492878,-6.446307708758056e-05,-0.08558723611577285,-0.5408128353290956,-0.865721924332877,-0.4621432925465201,-0.00014129692686715156,0.0015327219737032438,0.003872624438109736,-2.6090117692381836,1.86853263577037,0.8569296226284587,0.0008581346833725691,0.0004214395810742784
0.92,0.07478177176610694,2.1527375107764297,-0.003896503782718909,0.46780637976603456,0.0057623148039165325,0.0002034866170232775,0.04704639865912303,0.6200030361304917,0.0326585721158804,0.009552815702042895,0.001405478304485664,-6.349058444608066e-05,-0.0817306561996094,-0.5322142928077995,-0.8783132333104683,-0.4256849797671931,0.00011827999807869152,0.001468386467379068,0.0038638554889558157,-2.6255063121383935,1.8931734202236281,0.8598881795194445,0.0008616473037611628,0.0004225629458886045
0.93,0.07524424557827805,2.158884901697721,-0.0036576728918310763,0.46786239419022746,0.00577639261632123,0.0002028620967006679,0.046247381217111194,0.6147390921291037,0.023883089088783296,0.005601442419287529,0.0014077812404697536,-6.245203226096227e-05,-0.07802662326684316,-0.5232507125049881,-0.8791684051977326,-0.3952127607581377,0.00034452750253690344,0.0014057740610581848,0.003859363434219252,-2.642388468737978,1.9184825607278553,0.8630316966325547,0.0008646850373158778,0.0004238116558452169
0.9400000000000001,0.07569908895481767,2.1649805581735064,-0.003506571062153942,0.46788147074207653,0.005790509734446175,0.00020224825196682222,0.04548433765396179,0.6095656475785445,0.015110182967713427,0.0019076551849066458,0.001411711812494514,-6.13844733845684e-05,-0.07445442096116482,-0.5139179952036774,-0.8800918923388075,-0.3692308044090087,0.0005404627207741854,0.001343862244918198,0.0038585134380353667,-2.6593404171536528,1.942974007881237,0.8660198656964061,0.0008674377724558095,0.0004249893001448435
0.9500000000000001,0.07614664901739313,2.1710254192570675,-0.0034431960390853824,0.467865806093046,0.0058046801414668794,0.0002016451252877393,0.04475600625754619,0.6044861083561212,0.006337502306855985,-0.001566464903050492,0.0014170407020704723,-6.0312667908292205e-05,-0.07100760515545697,-0.5042615745951164,-0.8794469343101756,-0.3470595686903355,0.0007103259815007014,0.0012835601013131553,0.0038613952884889134,-2.676412018704212,1.9668959986518932,0.8689119936038733,0.0008699133345903207,0.00042612949841910517
0.96,0.07658726088166848,2.1770204533697233,-0.0034674056208180725,0.4678172811476403,0.005818915838922256,0.00020105256353850887,0.04406118642753506,0.5995034112655762,-0.0024209581732689885,-0.004852494540570761,0.0014235697455377127,-5.9256174923043616e-05,-0.06767354266278094,-0.4942792658753295,-0.8813664204571993,-0.32799014203433297,0.0008573954263987882,0.0012250966258584989,0.0038679306125480014,-2.6934906233688474,1.9897384434310554,0.8715916493794702,0.000872224247100555,0.0004271648968784197
0.97,0.07702124886858226,2.18296666028628,-0.0035793213953008002,0.4677375056379386,0.0058332271427697065,0.0002004702816112742,0.04339879869137798,0.5946206916556349,-0.01119157744827278,-0.007977550970173823,0.0014311303847450213,-5.8228192723465325e-05,-0.06445730180319235,-0.4840767511849899,-0.8751795491520657,-0.31176823109957263,0.0009852950459786156,0.0011688404887557902,0.0038784401628586098,-2.7108788245253064,2.012924277424793,0.8743896699669204,0.0008741996869185562,0.0004282852820481742
0.98,0.07744892600352646,2.188865057220083,-0.0037782785743171693,0.46762787900620706,0.005847622853606726,0.00019989784567509626,0.04276771349441972,0.5898396933803518,-0.019895717901636908,-0.010962663173153444,0.0014395710837019906,-5.724359361779443e-05,-0.06134540488479798,-0.47365577298624023,-0.8684440689553211,-0.29757419370399063,0.0010954027981791778,0.001114375490604294,0.0038925029268118694,-2.728371014790263,2.035503868300569,0.8770881400161741,0.0008759678127619353,0.0004293648916558771
0.99,0.07787059530919055,2.1947166816451715,-0.004063566061713585,0.4674896316866427,0.005862110448949839,0.00019933474604166707,0.042166930566409334,0.5851624425088351,-0.028528748739641566,-0.013824731956433304,0.0014487595343113352,-5.630996334292024e-05,-0.058332391547704754,-0.46304211268335743,-0.8606735787010152,-0.285077377586092,0.0011899980052236785,0.0010622051672468519,0.0039101300560241,-2.7459809674616764,2.057565042898941,0.8797082317292141,0.0008775449935956371,0.00043041554855922996
