tonegas/nnodely-applications/joint_friction_estimation/dataset/train/mpc_mujoco_episode_25.csv
time,q1,q2,q3,q4,q5,q6,dq1,dq2,dq3,dq4,dq5,dq6,ddq1,ddq2,ddq3,ddq4,ddq5,ddq6,tau1,tau2,tau3,tau4,tau5,tau6
0.0,0.0,1.57,-1.57,0.0,0.0,0.0,0.0,0.0,0.0,0.0,0.0,0.0,5.197479330649454,1.4646727189860973,3.036242995247923,1.141051665572709,0.7542723193092478,-4.246149117648201e-06,0.7245648691859231,-3.256228073877028,-3.8335867163982753,-0.8586707164377527,0.06547693689935014,0.00041083038777187857
0.01,0.0005170257108627664,1.5701470664371926,-1.569697481555219,0.00010705583412764046,6.376018031542721e-05,7.100946061233792e-07,0.051702571086276634,0.014706643719254158,0.030251844478115825,0.010705583412764046,0.0063760180315427205,7.100946061233793e-05,5.13027767951248,1.4380802230448895,2.982359160013493,1.0546058340726994,0.6301793094871257,0.007089102987353435,0.7197146405960723,-3.2837602542348496,-3.8465757319727363,-0.8615886295011701,0.06500625985323553,0.00040253446461747955
0.02,0.0015439987918077966,1.5704385707577728,-1.5690982324599665,0.0003141204387706429,0.00018351734611843967,2.1588534138802795e-06,0.10269730809450303,0.029150432058026022,0.0599249095252538,0.020706460464300244,0.011975716580301245,0.00014487588077569002,5.056005358579262,1.4092719010214392,2.9213448206062598,0.9829413424777496,0.5517204863208498,0.007336582933897162,0.7154436635005677,-3.316782538839547,-3.86109400056054,-0.8647148364119004,0.06455257377170591,0.00039299899262670466
0.03,0.0030733011119649283,1.5708716496030866,-1.5682086386682044,0.0006152514293537722,0.0003542436106388113,4.295948795095228e-06,0.15293023201571315,0.04330788453138259,0.08895937917621063,0.030113099058312935,0.01707262645203716,0.00021370953812149484,4.976323541033558,1.3781383895590777,2.85444903600662,0.9223451680455153,0.5004603127947149,0.006764072912710084,0.7116829202171018,-3.3551007845809484,-3.877092226276634,-0.868041314442962,0.06411157011798453,0.00038224136488844245
0.04,0.0050968754421133215,1.571443197030841,-1.5670355868247134,0.0010053306689946663,0.0005725374094525811,7.074569507411755e-06,0.2023574330148393,0.057154742775427626,0.11730518434909233,0.039007923964089405,0.021829379881376985,0.00027786207123165266,4.892242620845006,1.3446123033618333,2.7826522470339965,0.8700147067816939,0.46531932662530906,0.0061955006008931335,0.7083571745527107,-3.3985045911203704,-3.8945133740457982,-0.8715582116745284,0.06367846399602121,0.00037028450668811174
0.05,0.007606286916451084,1.5721498601936392,-1.565586387071091,0.001479852646821522,0.0008359556632911071,1.0457545848275586e-05,0.2509411474337762,0.07066631627983216,0.1449199753622308,0.04745219778268556,0.026341825383852605,0.00033829763408638305,4.804378964034653,1.3086588270031723,2.7067315924437274,0.8238362223737852,0.43963274748913506,0.005693951902668637,0.7053857607379058,-3.446769094909361,-3.913293550688053,-0.8752540636258856,0.0632480846056668,0.00035715381513162683
0.06,0.010592760727526724,1.5729880377150245,-1.5638687112049259,0.0020347651084867166,0.001142612039506198,1.4414315704477078e-05,0.2986473811075641,0.08381775213853614,0.17176758661653146,0.05549124616651946,0.030665637621509097,0.0003956769856201492,4.713110749574723,1.27026907582544,2.6273103704557053,0.7822190163044862,0.41939878446101986,0.005231939079702208,0.7026833653072964,-3.4996563160845255,-3.9333627131107924,-0.8791159750619629,0.06281496209635544,0.0003428760163826964
0.07,0.014047205461189758,1.5739538802327,-1.5618905424405178,0.0026663493840887375,0.00149093592916476,1.8918082778097633e-05,0.34544447336630335,0.09658425176756096,0.19781687644081375,0.06315842756020211,0.03483238896585618,0.0004503767073620557,4.618672734920814,1.2294553480334383,2.5448957074769454,0.7439697034860959,0.40222407132483795,0.004784401748492151,0.7001608155570446,-3.5569162551145332,-3.954645278910427,-0.8831297830862229,0.06237341190741843,0.00032747900950262025
0.08,0.01796022780896052,1.575043292735094,-1.5596601339097718,0.0033711308730316044,0.0018795285256844832,2.3943980578656045e-05,0.3913022347770759,0.10894125023939485,0.22304085307461313,0.07047814889428668,0.038859259651972324,0.000502589780055841,4.521214030666514,1.1862476988926423,2.4599072577391676,0.708196679017222,0.38668703363824974,0.004336564992008185,0.6977258817025013,-3.618287863420495,-3.97706068597119,-0.8872802110762357,0.06191761713990077,0.00031099218087528746
0.09,0.022322142172450828,1.5762519384254496,-1.5571859737223774,0.004145812434975787,0.002307077578743969,2.946798413785764e-05,0.4361914363490308,0.12086456903556445,0.24741601873943198,0.07746815619441821,0.04275490530594856,0.0005524003559201595,4.420833472217351,1.140691447244835,2.3726990503796213,0.674237511445229,0.3719532616598613,0.0038811968479333103,0.6952840957485031,-3.6834999662687906,-4.0005239297834585,-0.8915510189959641,0.06144170904809565,0.0002934469129263727
0.1,0.027122977328119555,1.5775752439225372,-1.554476754925104,0.004987225177070001,0.002772307605917031,3.5466296891267636e-05,0.48008351556687284,0.13233054970876415,0.27092187972735515,0.08414127420942139,0.0465230027173062,0.0005998312753409996,4.317601421246727,1.0928453403166887,2.283576095336321,0.6416037661781591,0.3575430397488475,0.003415780107051347,0.6927395874778809,-3.752272187089992,-4.024946095943128,-0.8959251531316114,0.060939845434844396,0.0002748771416384118
0.11,0.03235248150468088,1.5790084056589586,-1.551541349098735,0.005892292451089778,0.0032739515294141004,4.191502930808619e-05,0.5229504176561328,0.14331617364213906,0.29354058263689004,0.09050672740197768,0.05016439234970697,0.0006448732416818559,4.211573339675071,1.0427801810232427,2.192806977961096,0.6099390765871338,0.3431907661186244,0.002940607338556056,0.6899959360934875,-3.8243159036402687,-4.050234898066849,-0.9003848967354944,0.06040628654437162,0.0002553198871048973
0.12,0.0380001267300318,1.5805463973736191,-1.5483887826367193,0.006858003879554195,0.003810735252105528,4.879005484113922e-05,0.5647645225350917,0.153799171466059,0.3152566462015687,0.09657114284644168,0.05367837226914275,0.0006875025533053025,4.102798363517842,0.9905777762591574,2.100633381068849,0.5789872788893682,0.32875986885805375,0.0024575842735647946,0.6869570344996282,-3.8993352540776383,-4.076295226595792,-0.90491202205929,0.05983546793356668,0.00023481571804831371
0.13,0.04405511300245189,1.582183978618919,-1.5450282149840577,0.007881396993342163,0.004381370036654861,5.606697284055283e-05,0.6054986272420092,0.16375812452997113,0.3360567652661583,0.10233931137879683,0.05706347845493338,0.0007276917999413612,3.9913248228317286,0.9363301031036291,2.00727725069619,0.548568188326092,0.31419124197775616,0.00196948596693014,0.6835279617949727,-3.977028202598156,-4.103029710712301,-0.9094879435964286,0.059222069742060554,0.0002134091303635467
0.14,0.050506372655062706,1.5839157042188103,-1.5414689182951617,0.008959544642739601,0.004984549574628536,6.372113514978345e-05,0.6451259652610815,0.17317255998913755,0.35592966888960464,0.10781476493974378,0.06031795379736746,0.0007654162309230617,3.877203878963733,0.8801386175469103,1.9129461520746776,0.5185591747136922,0.29947193413485707,0.0014794928393753182,0.6796158582125114,-4.05708766825733,-4.130339293286001,-0.914093871903852,0.058561081757192365,0.00019114882976273664
0.15,0.0573425751665693,1.5857359346234081,-1.5377202581082299,0.010089546783385455,0.005618949854661677,7.172770962091327e-05,0.6836202511506594,0.18202304045977563,0.3748660186931803,0.1130002140645854,0.06344002800331414,0.0008006574471129825,3.7604919821144067,0.8221136505843282,1.8178372329654224,0.48888113775628383,0.28461608205938305,0.0009908996423018124,0.6751307954900492,-4.1392027160913365,-4.158123817059575,-0.9187109670599755,0.05784786367227738,0.0001680879139956173
0.16,0.06455213259705415,1.587638847110983,-1.533791674740894,0.011268525571879915,0.006283230677637679,8.006176388127696e-05,0.7209557430484852,0.1902912487574842,0.3928583367335951,0.11789787884944591,0.06642808229760026,0.0008334054260363689,3.641252569946175,0.7623738515292157,1.7221401130836211,0.4594878192413887,0.26965325597442913,0.0005069324252446883,0.6699866345242185,-4.223059806122741,-4.1862826189817115,-0.9233204905947026,0.05707819995968332,0.00014428395326795615
0.17,0.07212320577815005,1.5896184477901694,-1.529692665194905,0.012493622958465511,0.006976038114041923,8.869835888620478e-05,0.7571073181095893,0.1979600679186359,0.40990095459890696,0.1225097386585596,0.06928074364042439,0.0008636595004927817,3.519557258272963,0.7010456496627595,1.6260389435717046,0.43035764546576516,0.25462130073739786,3.063407815417918e-05,0.66410186119992,-4.308344092985382,-4.214715128583278,-0.9279039545740677,0.05624834882063348,0.00011979896959113682
0.18,0.08004371135215607,1.591668584354984,-1.5254327654221118,0.013762000155659176,0.007696007469846349,9.761264563382928e-05,0.7920505574006017,0.20501365648146969,0.4259899772793133,0.1268377197193665,0.07199693558044262,0.0008914286747624489,3.395486673307399,0.6382627138955024,1.5297138237651344,0.40148748806904333,0.23956191272451122,-0.00043520564109478244,0.6574003905433354,-4.394740766568038,-4.243321465511316,-0.9324432664230662,0.05535508472914269,9.469931746164178e-05
0.19,0.08830132972855377,1.59378295954349,-1.5210215328541903,0.015070838506800037,0.008441766492260144,0.00010677996082243266,0.8257618376397702,0.2114375188506083,0.44112325679215264,0.13088383511408613,0.07457590224137949,0.0009167315188603381,3.2691310145813532,0.5741653966843535,1.433341719517872,0.37288787957093383,0.22451788990670174,-0.0008880904869243977,0.6498123288619815,-4.481936422171211,-4.2720030307524235,-0.9369208680184937,0.054395734156369134,6.905546975810866e-05
0.2,0.09688351400538432,1.5959551452481846,-1.5164685291377433,0.016417341388432816,0.009211938647537197,0.00011617591875751659,0.8582184276830547,0.21721857046944676,0.4553003716446884,0.13465028816327798,0.07701721552770531,0.0009395957935083932,3.1405904021759103,0.5089001535310318,1.3370969948326812,0.3445793324167292,0.20953141306075018,-0.00132583791697094,0.6412746833419822,-4.569620447157878,-4.300663085677201,-0.9413198675753129,0.05336820414232801,4.2941714156182875e-05
0.21,0.10577749988501568,1.5981785972228573,-1.511783303046958,0.01779873686381337,0.010005146365145628,0.00012577649780219202,0.8893985879631362,0.2223451974672571,0.46852260907852616,0.1381395475380554,0.07932077176084322,0.0009600579044675428,3.009975041403434,0.44261893334957175,1.241151643934911,0.31658949579449747,0.19464296948618198,-0.0017465851608453598,0.6317320086911401,-4.657486409941668,-4.329207312813336,-0.9456241628830732,0.05227100347262256,1.6435766715196406e-05
0.22,0.11497031659781752,1.600446670327086,-1.5069753735698026,0.019212280868089657,0.010820014181278351,0.0001355581203156033,0.9192816712801837,0.22680731042289046,0.4807929477155407,0.14135440042762853,0.08148678161327233,0.0009781622513411275,2.877405226590392,0.375478538087428,1.14567529230964,0.28895094935387977,0.17989068326821922,-0.0021487852368915483,0.6211369808561801,-4.745233436391496,-4.357544352202351,-0.9498185545211336,0.05110325631674593,-1.0381689434477669e-05
0.23,0.12444879883256527,1.6027526342459624,-1.5020542131821824,0.02065526075380256,0.011655171739135129,0.00014549772546405398,0.9478482234747748,0.23059639188763256,0.4921160387620223,0.1442979885712904,0.08351575578567781,0.0009939605148450669,2.7430111994619812,0.3076399524031034,1.050835021120131,0.261699482146208,0.16530990806016277,-0.00253119575727645,0.6094508885972402,-4.832567558339852,-4.385586307309854,-0.9538888477908976,0.04986470828921013,-3.7427531214694336e-05
0.24,0.13419959965872785,1.6050896896192681,-1.4970292313385898,0.022124999062000206,0.012509256619188518,0.00015557283459405273,0.9750800826162579,0.2337055373305653,0.5024981843592629,0.14697383081976467,0.08540848800533893,0.0010075109129998754,2.6069328746312626,0.2392676460811836,0.956795058702552,0.2348727424225001,0.1509329937067374,-0.002892862581355349,0.596644034757622,-4.9192030188586,-4.413249214734464,-0.9578219422467897,0.048555725002990525,-6.461677843757382e-05
0.25,0.14420920441305318,1.6074509845113307,-1.4919097582183876,0.02361885741229831,0.013380916983101995,0.00016576160907227179,1.0009604754325316,0.23612948920626384,0.511947312020212,0.1493858350298105,0.08716603639134766,0.0010188774478219053,2.4693194434856403,0.17052885330056475,0.8637163746447292,0.20850917215811338,0.13678917135175617,-0.0032330998927474486,0.582696040390919,-5.004863519303675,-4.4404534723871905,-0.9616059078817616,0.047177283293692765,-9.186322144288912e-05
0.26,0.15446394551105094,1.609829631150262,-1.486705028774568,0.0251342404267893,0.01426881402211159,0.00017604290065293904,1.0254741097997768,0.23786466389312363,0.5204729443819548,0.1515383014490991,0.08878970390095946,0.001028129158066724,2.330328867544654,0.10159283394071704,0.7717562056507915,0.18264716154037686,0.12290452176233835,-0.0035514679258812354,0.5675960464654871,-5.0892833938103434,-4.467124221376653,-0.9652300472226792,0.045730955400037146,-0.00011908008201382171
0.27,0.16495001813313404,1.6122187228633416,-1.4814241671371036,0.026668599619424055,0.015171624205725856,0.00018639629454668925,1.0486072622083082,0.2389091713079659,0.5280861637464487,0.15343591926347536,0.09028101836142667,0.0010353393893750217,2.1901272726124232,0.032630122867367294,0.68106753746885,0.1573243747987716,0.10930200373901222,-0.003847749328590666,0.5513428096062564,-5.1722086979230655,-4.493191677520849,-0.968684942811,0.04421888648867134,-0.0001461806956804459
0.28,0.1756534967253871,1.6146113511340028,-1.476076171426231,0.0282194371955846,0.016088041330275266,0.00019680214544786292,1.070347859225307,0.23926282706611726,0.5347995710872662,0.15508375761605447,0.09164171245494097,0.0010405850901173662,2.0488882554825243,-0.03618822637074722,0.5917985632642984,0.13257721090151398,0.09600152686544128,-0.00412192496423236,0.5339446902048406,-5.253398199334315,-4.51859140919152,-0.9719624897782114,0.04264376600662972,-0.0001730792033961802
0.29,0.18656035224625625,1.6170006227052385,-1.4706698990324765,0.029784309716952215,0.01701677836959567,0.00020724160683721897,1.0906855520869148,0.23892715712356258,0.5406272393754352,0.15648725213676154,0.09287370393204034,0.0010439461389356048,1.9067921153852874,-0.10469139674340472,0.5040921356624263,0.10844037178468868,0.08302005738808305,-0.004374149787464088,0.5154195331708797,-5.332624260247811,-4.543264559060727,-0.9750559134672453,0.0410087934304539,-0.0001996912406965162
0.3,0.19765647008295614,1.619379676654308,-1.465214052420196,0.03136083159514262,0.017956569132233206,0.00021769665391949722,1.10961178366999,0.23790539490696425,0.5455846612280599,0.15765218781904056,0.09397907626375358,0.0010455047082278247,1.7640250226938001,-0.17270955509002295,0.4180852270661246,0.08494651761912264,0.07037174886776221,-0.004604729332198465,0.4957944435503636,-5.409673602629341,-4.567158008235949,-0.9779597722937425,0.03931763905501151,-0.00022593461281662325
0.31,0.20892766855511696,1.6217417013643731,-1.459717165510066,0.032946678384442526,0.01890616973117938,0.00022815010058343485,1.1271198472160828,0.23620247100650651,0.5496886910129944,0.1585846789299905,0.09496005989461752,0.0010453446663937639,1.6207781375707955,-0.24007458498884024,0.3339084106265195,0.06212599371905275,0.05806809108598188,-0.004814097196347955,0.47510546114042107,-5.484347949512999,-4.590224482213904,-0.9806699462778927,0.03757440052566673,-0.00025172994484025954
0.32,0.22035971791816614,1.6240799513201136,-1.454187590693525,0.03453958984972115,0.019864359873393123,0.00023858561078913927,1.1432049363049164,0.23382499557405242,0.5529574816540843,0.15929114652786203,0.09581901422137418,0.0010435510205704416,1.4772466912169624,-0.30662079877934534,0.2516853722982718,0.040006617467575174,0.046118071942599315,-0.005002793845448439,0.45339714002769727,-5.556464537541024,-4.612422599028454,-0.9831836119023012,0.03578355586336565,-0.00027700129675830144
0.33,0.23193835977516358,1.6263877636564497,-1.4486334865287627,0.03613737279048656,0.02082994397731365,0.0002489877047957604,1.1578641856997456,0.23078123363360906,0.5554104164762521,0.15977829407654098,0.09655841039205268,0.001040209400662111,1.333629042167846,-0.37218562276938283,0.17153246266874694,0.01861351641640363,0.03452834797869908,-0.005171446947436986,0.4307220406172217,-5.625856497979649,-4.633716860889557,-0.9854992041581553,0.0339499137625543,-0.0003016767343035021
0.34,0.24364932680326737,1.6286585743921633,-1.4430628061636694,0.037737903606314675,0.021801752127264658,0.0002593417606433049,1.1710967028103778,0.22708107357137197,0.5570680365093144,0.16005308158281129,0.09718081499510083,0.0010354055847544535,1.190125719687724,-0.43661025015906735,0.09355829566382923,-0.00203098926152534,0.02330341985136375,-0.005320753381314658,0.4071401431555391,-5.692373105516917,-4.654077591483556,-0.9876163668256399,0.03207856195627291,-0.0003256888475691045
0.35000000000000003,0.25547836269966123,1.63088593428344,-1.4374832865263205,0.03933913059264492,0.022778640874134823,0.0002696340112975572,1.182903589639388,0.22273598912768408,0.5579519637348863,0.1601226986330241,0.09768887468701638,0.0010292250654252305,1.04693846574123,-0.49974025680053724,0.01786339976555651,-0.021907465329002118,0.012445809648039763,-0.005451463003551482,0.38271819294958626,-5.75587989616367,-4.673480821909961,-0.9895358921910399,0.03017481444137213,-0.0003489752106800308
0.36,0.26741124225157553,1.633063524236063,-1.4319024383181922,0.040939075959315153,0.0237594938920223,0.00027985153785754877,1.1932879551914286,0.2177589952622847,0.5580848208128399,0.15999453666702337,0.09808530178874773,0.0010217526559991533,0.9042692863080006,-0.5614261755650996,-0.055460073989118674,-0.040999407385151176,0.0019562374121422366,-0.005564364194533322,0.3575289884143337,-5.81625865749844,-4.6919081289473805,-0.9912596515290396,0.028244158340127248,-0.0003714787771283205
0.37,0.27943379143590513,1.6351851702191291,-1.4263275368395598,0.042535837567270314,0.024743222500677727,0.00028998225921199864,1.2022549184329594,0.21216459830662499,0.5574901478632313,0.15967616079551597,0.09837286086554275,0.0010130721354449847,0.7623195219661593,-0.6215240257863274,-0.1263285842412647,-0.05929325370686844,-0.008166205321971987,-0.005660271143027196,0.33165062373079346,-5.873407296279444,-4.709346429956512,-0.9927905177722447,0.026292201143547286,-0.0003931482067753818
0.38,0.29153190745579466,1.6372448576276528,-1.4207656136704896,0.044127590381673645,0.02572876606359372,0.0003000149185158143,1.2098116019889529,0.20596874085236952,0.5561923169070193,0.1591752814403333,0.09855435629159941,0.0010032659303815606,0.6212889467335035,-0.6798957949730084,-0.194667369978047,-0.07677837015027178,-0.017923886799973143,-0.005740012842307629,0.30516569825506645,-5.927239590057584,-4.725787739230511,-0.9941322818500363,0.02432461903772102,-0.0004139381219258613
0.39,0.30369157862432594,1.639236745046185,-1.4152234492246398,0.045712587642206245,0.026715092271489684,0.00030993906684003927,1.2159671168531259,0.19918874185323393,0.5542164445849765,0.15849972605326015,0.09863262078959624,0.0009924148324224997,0.4813749031464612,-0.7364098707215204,-0.2604105589520491,-0.09344700989367549,-0.027320472590958378,-0.005804423676856407,0.27816050489192323,-5.9776848308350194,-4.741228890985398,-0.9952895642055491,0.022347106959232373,-0.0004338092912567035
0.4,0.31589890400900883,1.6411551773705644,-1.409707566186844,0.04728916175367907,0.027701197320747366,0.00031974504433022923,1.220732538468288,0.1918432324379365,0.5515883037796003,0.15765741114728235,0.09861050492576816,0.000980597749018996,0.3427714805014988,-0.790941421485485,-0.32350121419151634,-0.10929425058760556,-0.03636077054815123,-0.005854335505045702,0.25072420944546125,-6.0246873700024945,-4.755671234442288,-0.9962677229939855,0.020365330960872337,-0.00045272874171055095
0.41000000000000003,0.32814011275503846,1.6429946982500179,-1.4042242238392402,0.048855724902212495,0.02868610599608241,0.00032942395918892227,1.2241208746029653,0.1839520879453591,0.5483342347603625,0.15665631485334272,0.0984908675335046,0.0009678914858693044,0.205668742106734,-0.8433727255703755,-0.38389131987638603,-0.12431791133789716,-0.04505058404649631,-0.005890571110315039,0.22294803250522527,-6.0682060747427915,-4.769120306590236,-0.9970727604296767,0.01838488339658246,-0.00047066979970594567
0.42,0.34040158301013174,1.64475006181701,-1.3987794132746494,0.050410769404167166,0.02966887166640546,0.00033896766477837,1.2261470255093299,0.17553635669921286,0.5444810564590795,0.1555044501954672,0.09827656703230517,0.0009543705589447769,0.07025200631398619,-0.8935934483971025,-0.44154170868988496,-0.1385184518712963,-0.05339657409563925,-0.005913938897661647,0.19492444474610865,-6.1082137067997815,-4.781585488237262,-0.9977112286860489,0.016411241356877007,-0.00048761206415544426
0.43,0.3526698603790879,1.6464162436773992,-1.3933788534900444,0.051952867796737266,0.030648576202447635,0.00034836873512015534,1.2268277368956135,0.16661818603893241,0.5400559784604906,0.15420983925700996,0.0979704536042174,0.0009401070341785336,-0.06329881495555978,-0.9415008687103127,-0.49642193350206076,-0.15189885615873688,-0.061406130698256234,-0.0059252286723818215,0.16674638564699346,-6.144696234983889,-4.793079648865429,-0.9981901366653845,0.014449728705009553,-0.0005035413147964996
0.44,0.3649316758419256,1.6479884511385656,-1.388027988347403,0.05348067268064543,0.03162432982431206,0.00035762043904958364,1.2261815462837737,0.1572207461166318,0.5350865142641448,0.152780488390816,0.09757536218644279,0.0009251703929428294,-0.19480981749837467,-0.9870000549874397,-0.5485100868790553,-0.16446450273639712,-0.06908725362476498,-0.005925208416177663,0.13850651460268693,-6.177652093021711,-4.803618785613172,-0.9985168588478147,0.012505481981914805,-0.0005184493602160856
0.45,0.3771739630754317,1.6494621326581382,-1.3827319843840182,0.054992916326706165,0.032595270886676825,0.00036671671326379536,1.2242287233506104,0.14736815195726272,0.5296003963384637,0.1512243646060736,0.09709410623647605,0.000909627421421174,-0.3241136442021366,-1.030003993824059,-0.5977925724505886,-0.17622302391679856,-0.07644844259904637,-0.0059146218688685415,0.11029650225460803,-6.207091394372538,-4.813221661426778,-0.9986990473054818,0.010583420366401607,-0.0005323338306781736
0.46,0.38938387512411443,1.6508329865007507,-1.377495729449545,0.056488410059153185,0.03356056560892526,0.00037565213448527944,1.2209912048682698,0.1370853842612378,0.5236254934473312,0.1495493732447019,0.09652947222484343,0.0008935421221484088,-0.45104996168216355,-1.0704336725260002,-0.6442638326063581,-0.18718415603440253,-0.0834985967481856,-0.0058941868495085425,0.08220636863671235,-6.233035115444725,-4.821909447066235,-0.9987445478325323,0.008688219797952819,-0.0005451979214394384
0.47000000000000003,0.4015488003728023,1.6520969685948144,-1.3723238321426974,0.057966043429556656,0.03451940775702555,0.0003844218909451216,1.2164925248687823,0.12639820940636276,0.5171897306847477,0.14776333704034703,0.09588421481002928,0.0008769756459842163,-0.5754658741860946,-1.1082181185242206,-0.6879260373259881,-0.19735958281064203,-0.09024692304488635,-0.005864594165348125,0.05432387346233282,-6.255514258270738,-4.829705371232971,-0.9986613209987212,0.0068242912943715164,-0.0005570500926618978
0.48,0.413656377779379,1.6532502995856109,-1.3672206220166474,0.059424783195892734,0.03547101828353013,0.000393021753374419,1.210757740657678,0.11533309907965938,0.5103210126049986,0.14587397663360768,0.09516105265045832,0.0008599862429297448,-0.6972162755202564,-1.1432943985448083,-0.7287887391876968,-0.20676277384933872,-0.09670285337557605,-0.005826507017718252,0.026733962600742737,-6.274569003165017,-4.836634382622848,-0.9984573687879225,0.004995763426717706,-0.0005679037323069036
0.49,0.4256945113323253,1.6542894710850133,-1.3621901505187939,0.06086367212187419,0.036414644931622844,0.00040144804567707025,1.2038133552946222,0.10391714994025052,0.5030471497853515,0.14388889259814594,0.09436266480927123,0.0008426292302651222,-0.8161641404138342,-1.1756075807120778,-0.7668684997407251,-0.21540882019433383,-0.10287596979076241,-0.005780560816607161,-0.0004817264579095211,-6.290247861218698,-4.842722827211907,-0.9981406673365638,0.0032064688505907906,-0.0005777767885280518
0.5,0.43765138370377776,1.6552112511218395,-1.357236192627729,0.06228182761201382,0.03734956180871281,0.0004096976154427323,1.1956872371452472,0.09217800368262392,0.49539578910649373,0.1418155490139631,0.09349168770899642,0.0008249569765662037,-0.9321807573122428,-1.205110662938283,-0.802188492487766,-0.2233142687729801,-0.1087759374393027,-0.005727363305498279,-0.027245298545401555,-6.302606835705609,-4.847998143568341,-0.9977191061441723,0.0014599347366444594,-0.000586691378083571
0.51,0.44951546907466583,1.6560126888001996,-1.3523622491478935,0.06367844019807989,0.038275068934662475,0.00041776780444543885,1.1864085370888082,0.08014376783599825,0.48739434798355374,0.13966125860660725,0.09255071259496678,0.0008070189002706529,-1.045145905078451,-1.2317644710634241,-0.8347780876958448,-0.23049695743373544,-0.11441244464859324,-0.005667494944664342,-0.05348297367710775,-6.311708600611287,-4.85248857846529,-0.9972004339918107,-0.00024062310515802826,-0.0005946733771722765
0.52,0.46127554511408425,1.6566911181762078,-1.3475715496206087,0.06505277189262527,0.039190491769346164,0.0004256564192606069,1.1760076039418426,0.06784293760083439,0.479069952728479,0.13743316945453918,0.09154228346836919,0.0007888614815168095,-1.1549479764820096,-1.2555375302556986,-0.8646724241492394,-0.23697585217512795,-0.11979514959089599,-0.005601509466468535,-0.07912539935954348,-6.317621703575775,-4.856222924556433,-0.9965922116765236,-0.001892302653310171,-0.0006017520008758013
0.53,0.4729207041003793,1.6572441613660918,-1.3428670558088733,0.06640415442513847,0.04009518072386672,0.0004333617021215861,1.1645158986295046,0.05530431898840021,0.47044938117353624,0.1351382532513201,0.09046889545205507,0.0007705282860979156,-1.2614840516731178,-1.2764059131697854,-0.8919119727995306,-0.24277088800164925,-0.12493363296574067,-0.005529934584493579,-0.10410790377297119,-6.320419799586544,-4.8592302813812145,-0.9959017715530327,-0.003492514932383096,-0.0006079593770796322
0.54,0.48444036317642475,1.6576697309010349,-1.3382514657125102,0.06773198737608978,0.040988510659412794,0.0004408823021255749,1.1519659076045454,0.042556953494306736,0.46155900963630603,0.13278329509512998,0.08933299355460787,0.000752060000398881,-1.364659925077142,-1.294353068295546,-0.9165420970297484,-0.24790281472694353,-0.1298373561326569,-0.005453272775736928,-0.12837069203695964,-6.320180920790545,-4.861539840495972,-0.9951361837689637,-0.005038980402313303,-0.0006133301203598428
0.55,0.49582427373622256,1.657966031346061,-1.333727218069915,0.06903573622374033,0.04186988037741865,0.0004482172468887071,1.1383910559797827,0.029630044502604425,0.4524247642595243,0.13037488476505577,0.08813697180058555,0.0007334944763132186,-1.4643900893090913,-1.30936963181559,-0.9386126139807134,-0.2523930488706245,-0.13451562414060092,-0.005372002137150389,-0.15185898841693957,-6.316986786836132,-4.863180695090094,-0.9943022289880838,-0.006529722797357647,-0.0006179009108795145
0.56,0.5070625299442637,1.6581315602018993,-1.3292964973027668,0.07031493031806109,0.042738712104391396,0.0004553659147402019,1.1238256208041137,0.016552885583849722,0.44307207671481263,0.12791940943207541,0.08688317269727494,0.0007148667851494746,-1.5605976798037313,-1.3214532261344654,-0.9581773610640907,-0.25626353265538615,-0.13897755311697946,-0.0052865772633077235,-0.1745231278503153,-6.310922159221178,-4.864181674046149,-0.9934063773175008,-0.007963060741551169,-0.0006217100828522147
0.5700000000000001,0.5181455763930171,1.6581651081100888,-1.3249612388605843,0.07156916079548582,0.04359445097449836,0.0004623280075365968,1.1083046448753373,0.0033547908189423287,0.43352584421825935,0.12542304774247404,0.08557388701069611,0.0006962092796394941,-1.6532143838900313,-1.3306082480515522,-0.9752937714308718,-0.2595366009554967,-0.14323204151474211,-0.005197430142662718,-0.19631860056428438,-6.3020742422300025,-4.864571200044932,-0.9924547730898545,-0.009337597469551463,-0.0006247972266139262
0.58,0.5290642149074762,1.658065758382597,-1.3207231349229014,0.07279807844751272,0.044436564512756876,0.00046910352416849806,1.091863851445916,-0.009934972749160813,0.4238103937682909,0.12289176520269031,0.08421135382585196,0.0006775516631901237,-1.7421803180185087,-1.3368456493278607,-0.9900224617880644,-0.2622348568874173,-0.14728774473789663,-0.005104971043858653,-0.21720605383005823,-6.290532132198915,-4.864377171001881,-0.9914532250997109,-0.010652208977678138,-0.0006272028078141739
0.59,0.5398096105088847,1.657832885877985,-1.3165836404180762,0.0740013915553863,0.04526454212144108,0.0004756927348244466,1.0745395601408405,-0.02328725046121653,0.41394945048251064,0.12033131078735872,0.08279776086841992,0.0006589210655948565,-1.8274438767796493,-1.340182712154026,-1.0024268355532433,-0.2643810565903957,-0.15115305270955126,-0.005009589392986014,-0.23715125505795315,-6.276386316068879,-4.863626863852006,-0.9904072018542469,-0.01190603092047103,-0.0006289678067018456
0.6,0.5503732965525895,1.6574661552466314,-1.3125439793192717,0.07517886370225083,0.04607789457211199,0.0004820961560689839,1.0563686043704845,-0.03667306313534456,0.4039661098804418,0.11774721468645238,0.08133524506709126,0.0006403421244537288,-1.9089615572411163,-1.3406428217640118,-1.0125727039272325,-0.2659980035976499,-0.15483606998208188,-0.0049116546234007075,-0.2561250204952557,-6.2597282194693955,-4.862346859475573,-0.9893218313709058,-0.013098444553964196,-0.0006301333799534328
0.61,0.5607471790574509,1.656965518567818,-1.3086051511799373,0.07633031157328064,0.04687615350548822,0.0004883145267851256,1.0373882504861398,-0.05006366788134602,0.39388281393345453,0.11514478710298193,0.07982589333762283,0.0006218370716141725,-1.986697761986005,-1.338255238166651,-1.020527927052603,-0.26710845305079367,-0.15834459802759326,-0.004811517005963051,-0.2741031137555518,-6.2406498039360665,-4.860562987375754,-0.9882019050382034,-0.014229062008872553,-0.0006307405469794106
0.62,0.5709235402463725,1.6563312124015366,-1.304767937873121,0.07745560275337729,0.04765887094120183,0.0004943487850248357,1.017636118892167,-0.06343061662815262,0.38372133068162567,0.1125291180096649,0.07827174357136121,0.0006034258239710136,-2.060624584060532,-1.3330548686872603,-1.0263620770061745,-0.26773502589236564,-0.16168611939088073,-0.00470950844798268,-0.29106611829694734,-6.219243212296018,-4.858300288579686,-0.9870518850490008,-0.015297711155785754,-0.0006308299021554213
0.63,0.5808950413193392,1.6555637542777992,-1.3010329105011218,0.07855465353108844,0.0484256187993267,0.0005002000458050353,0.99715010729667,-0.07674581237373451,0.37350273719991856,0.10990507777111437,0.07667478581248659,0.0005851260780199555,-2.130721576844126,-1.3250820427311472,-1.0301461239732843,-0.2679001330275943,-0.16486778342571107,-0.004605943258956691,-0.30699928779032265,-6.195600460762552,-4.855582995133889,-0.9858759149173458,-0.016304420301000495,-0.0006304413539658042
0.64,0.5906547244818643,1.6546639386459907,-1.2974004364442946,0.07962742671646438,0.049175988435422056,0.0005058695798810405,0.9759683162525068,-0.08998156318085636,0.3632474056827166,0.10727731853759333,0.07503696360953604,0.0005669534076005153,-2.1969755116430636,-1.3143822899040711,-1.031952146547023,-0.26762590935767605,-0.1678963933759139,-0.004501118902022316,-0.3218923780903239,-6.169813175860276,-4.8524345245001985,-0.9846778325990836,-0.017249402926503,-0.0006296138916209439
0.65,0.6001960142529891,1.653632832306457,-1.2938706865202305,0.08067392947963245,0.0499095901907009,0.0005113587935237682,0.9541289771124765,-0.10311063395336076,0.35297499240640257,0.10465027631680812,0.07336017552788493,0.000548921364272775,-2.25938012558604,-1.3010061223541218,-1.0318530667263428,-0.26693415744860793,-0.1707783946035466,-0.004395316701422569,-0.3357394642538139,-6.141972373953068,-4.848877487126278,-0.9834611857517919,-0.018133042661493827,-0.0006283853793210525
0.66,0.6095127180779566,1.6524717693460946,-1.29044364222699,0.0816942112159518,0.050626052958808815,0.0005166692093223251,0.931670382496756,-0.11610629603624394,0.3427044293240386,0.10202817363193553,0.07164627681079108,0.0005310415798556861,-2.3179358621716912,-1.2850088219425702,-1.029922409816031,-0.2658463005369791,-0.173519863799374,-0.004288802532984359,-0.3485387457547667,-6.112168280865408,-4.844933705461564,-0.9822292486900229,-0.018955878646321627,-0.0006267923779890016
0.67,0.6185990262714284,1.6511823455992065,-1.2871191030465476,0.08268836144271681,0.051325023770582574,0.0005218024480288107,0.9086308193471785,-0.128942374688802,0.3324539180442317,0.09941502267650094,0.06989708117737617,0.0005133238706485641,-2.3726496065871405,-1.26645023260647,-1.0262340891025157,-0.26438334446437217,-0.1761264990554139,-0.004181827491790191,-0.3602923427320844,-6.080490188868744,-4.84062424271186,-0.9809850406163327,-0.019718591423298897,-0.0006248699939841878
0.68,0.627449511317646,1.6497664126543696,-1.2838966937870717,0.08365650773151868,0.05200616739804721,0.0005267602114578145,0.8850485046217631,-0.14159329448369395,0.32224092594759907,0.09681462888018688,0.06811436274646367,0.0004957763429003845,-2.423534417688939,-1.2453945580501211,-1.0208622148596151,-0.2625658480800066,-0.17860361070435893,-0.004074628526162805,-0.371006085787327,-6.047026348143397,-4.835969439669848,-0.9797313447361262,-0.02042198946307332,-0.0006226517540385669
0.6900000000000001,0.636059126554286,1.6482260714275088,-1.2807758719450844,0.08459881367955567,0.05266916597880352,0.0005315442664492202,0.8609615236639983,-0.15403412268607797,0.3120821841987394,0.09423059480369894,0.0662998580756307,0.0004784054991405687,-2.470609258314664,-1.2219101646952555,-1.0138809269601088,-0.26041390156521427,-0.18095611286812918,-0.003967429056029204,-0.3806893015316055,-6.01186388971798,-4.830988958021335,-0.9784707278941311,-0.021066996410428186,-0.0006201695054238377
0.7000000000000001,0.644423204266933,1.6465636653208466,-1.2777559350708954,0.08551547692241251,0.05331371866185427,0.0005361564298990912,0.8364077712646976,-0.16624061066621668,0.30199368741889454,0.09166632428568422,0.06445526830507463,0.00046121634498710016,-2.5138987253788154,-1.1960693896345334,-1.005364250107408,-0.25794711209992816,-0.18318851568647965,-0.0038604395590229323,-0.3893545957722696,-5.975088776826889,-4.82570182860484,-0.9772055604015455,-0.02165463910991712,-0.0006174533401637097
0.71,0.6525374532211301,1.6447817729868832,-1.2748360281229518,0.08640672719011219,0.053939541275814344,0.0005405985548601018,0.8114248954197092,-0.17818923339633605,0.2919906947943524,0.08912502676996784,0.06258226139600737,0.00044421249610105383,-2.553432781002653,-1.167948353170586,-0.9953859704772294,-0.2551845962421462,-0.18530491822517803,-0.0037538581385494485,-0.3970176359366852,-5.936785781606311,-4.820126503191836,-0.9759380357548965,-0.022186036449872153,-0.0006145315419458072
0.72,0.6603979556588726,1.6428832007161003,-1.2720151507988744,0.08727282440758365,0.05454636602034694,0.000544872517709698,0.786050243774254,-0.18985722707828595,0.28208773240774115,0.08660972174714558,0.06068247445325923,0.00042739628495961973,-2.589246485736243,-1.1376267753835616,-0.9840195323650949,-0.25214497835209926,-0.1873090020853425,-0.003647871061423835,-0.4036969340573188,-5.897038484065688,-4.814280908454267,-0.9746701899799048,-0.022662389043274198,-0.0006114305542610143
0.73,0.6680011637862133,1.640870974466671,-1.2692921648329405,0.0881140568400911,0.055133941181563374,0.0005489802063813167,0.7603208127340777,-0.20122262494292667,0.2722985965933988,0.08412324325074577,0.05875751612164384,0.00041076886716187453,-2.6213797347526793,-1.1051877960563743,-0.9713379532673667,-0.248846394384584,-0.1892040257654486,-0.0035426532595697058,-0.40941363139317866,-5.855929290318839,-4.808182500891975,-0.9734039203656308,-0.02308496974589268,-0.0006081749682022895
0.74,0.6753438957783612,1.638748331554117,-1.2666658012516037,0.08893073928363614,0.055702030872016944,0.0005529235096514118,0.7342731992147836,-0.2122642912554021,0.262636358133691,0.08166824435450276,0.05680896904535709,0.00039433032700950446,-2.6498769977323167,-1.070717797196286,-0.9574137556947084,-0.2453065003425774,-0.19099281984047956,-0.0034383688109447252,-0.41419128554012163,-5.813539467132548,-4.801848321603233,-0.9721410033855291,-0.023455114996093984,-0.0006047875282867904
0.75,0.6824233313282964,1.636518712018589,-1.2641346675803022,0.0897232112998752,0.056250414795810465,0.000556704307472403,0.7079435549935212,-0.22296195355279477,0.25311336713013144,0.07924720162390682,0.05483839237935171,0.00037807978209912556,-2.674787063006552,-1.0343062273264958,-0.9423189139095598,-0.2415424846955787,-0.19267778305234096,-0.003335171386994684,-0.4180556606881701,-5.769949189946113,-4.7952950498948494,-0.970883111632491,-0.023774216946844035,-0.0006012891546224018
0.76,0.6892370067645112,1.6341857496872654,-1.2616972549962904,0.09049183549469308,0.05677888803922198,0.0005603244623393693,0.6813675436214803,-0.23329623313234327,0.2437412584011879,0.07686241948178761,0.05284732434115161,0.00036201548669663247,-2.696162786400176,-0.9960454266801719,-0.926124813709317,-0.23757108406016414,-0.19426087941057446,-0.003233204647458132,-0.42103452151847826,-5.725237601628774,-4.788539054842504,-0.9696318296242142,-0.02404371634870341,-0.0005976989797195525
0.77,0.6957828097630234,1.6317532629492686,-1.2593519454235165,0.09123699583923668,0.057287260887132894,0.0005637858116764346,0.6545802998512279,-0.24324867379967655,0.23453095727738538,0.07451603445436028,0.05083728479109168,0.00034613493370653397,-2.714060845094796,-0.9560304524103843,-0.9089022233341109,-0.23340860145084896,-0.19574363642725956,-0.003132602620923741,-0.4231574310958412,-5.679482879369686,-4.781596444025361,-0.9683886683631531,-0.024265096133020646,-0.0005940343982491088
0.78,0.70205897367832,1.6292252452604925,-1.2570970185666819,0.09195909603194427,0.05777535866541655,0.0005670901612264271,0.6276163915296594,-0.25280176887760597,0.2254926856834628,0.07221001927075897,0.04880977782836525,0.0003304349549992475,-2.7285414967356902,-0.9143589029340576,-0.8907212735598449,-0.22907092643228477,-0.19712714461985925,-0.0030334900160251532,-0.42445555300373483,-5.632762307234014,-4.774483108770693,-0.9671550785617461,-0.024439875637013567,-0.0005903111280646229
0.79,0.7080640715173708,1.626605855395821,-1.2549306588825153,0.09265855789989931,0.05824302160931288,0.0005702392794259492,0.6005097839050754,-0.26193898646714897,0.21663596841665922,0.06994618679550424,0.046766294389632736,0.0003149118199522122,-2.739668343919946,-0.8711307405525752,-0.8716514450512032,-0.22457355652737254,-0.19841205842162601,-0.0029359825131232142,-0.4249614578864778,-5.585152352066508,-4.767214765352986,-0.9659324624685075,-0.02456960540692195,-0.0005865432808402104
0.8,0.7137970095803254,1.6238994074663826,-1.2528509624870217,0.09333581983769502,0.05869010475767589,0.0005732348927458398,0.5732938062954627,-0.270644792943838,0.20796963954937667,0.06772619377957144,0.0447083148363011,0.00029956133198905615,-2.7475081041318616,-0.826448111535917,-0.8517615610847811,-0.21993161926114357,-0.19959859865479146,-0.0028401869897438647,-0.4247089345051192,-5.536728740577326,-4.759806991696679,-0.964722184253781,-0.02465586251180752,-0.0005827434407215659
0.81,0.7192570207909689,1.6211103607197408,-1.2508559439979887,0.09399133528191222,0.05911647787283473,0.0005760786819756077,0.546001121064345,-0.2789046746641906,0.19950184890328457,0.06555154442171951,0.04263731151588424,0.00028437892297678626,-2.752130385134833,-0.7804151629190156,-0.8311197838138784,-0.21515989425946502,-0.2006865567228271,-0.0027462017139683326,-0.42373280537793023,-5.487566535603251,-4.752275259232071,-0.9635255789355601,-0.02470024629876217,-0.0005789227494453737
0.8200000000000001,0.724443657739473,1.6182433091412443,-1.2489435433123874,0.0946255712192861,0.05952202538565642,0.0005787722794285061,0.5186636948504055,-0.2867051578496596,0.19124006856012712,0.06342359373738665,0.04055475128216959,0.00026935974528984443,-2.7536074657837135,-0.7331378553373112,-0.8097936123258933,-0.2102728348648668,-0.20167530068032669,-0.0026541164782660776,-0.42206874706012554,-5.437740209698287,-4.74463495964887,-0.962343959845634,-0.024704374520119386,-0.0005750909964498192
0.8300000000000001,0.7293567854594466,1.6153029708751583,-1.2471116323184686,0.09523900672666326,0.05990664636523893,0.0005813172670424363,0.4913127719973705,-0.2940338266086059,0.18319109939189437,0.06134355073771602,0.03846209795825094,0.0002544987613930172,-2.752014082187665,-0.6847237713196312,-0.7878498808470329,-0.20528458876928646,-0.20256378334152103,-0.0025640126926074203,-0.4197531151179139,-5.387323714369958,-4.736901426381217,-0.9611786246545166,-0.02466987976460569,-0.0005712567125745827
0.84,0.7339965739607591,1.6122941774846484,-1.2453580215423747,0.095832131540925,0.0602702545124973,0.0005837151753500895,0.4639788501312518,-0.3008793390509754,0.17536107760938244,0.05931248142617458,0.03636081472583686,0.00023979083076532514,-2.7474272191298823,-0.6352819185604959,-0.7653547555668364,-0.20020901721560902,-0.2033505525870538,-0.0024759634294813093,-0.4168227738662583,-5.336390543440813,-4.729089950741391,-0.9600308599900989,-0.024598406127065937,-0.0005674272660312059
0.85,0.738363490539088,1.609221863070193,-1.2436804667289412,0.0964054446571715,0.06061277817673359,0.0005859674832900579,0.43669165783288705,-0.3072314414455394,0.16775548134335327,0.057331311624650626,0.03425236642362918,0.0002252307939968312,-2.739925906636,-0.5849225278073797,-0.742373728687631,-0.19505971237298336,-0.20403376401652906,-0.002390033425561766,-0.4133149309646911,-5.28501378917738,-4.721215792696348,-0.9589019446997629,-0.024491606055275825,-0.0005636089594128598
0.86,0.7424582918826349,1.6060910532665345,-1.2420766753560775,0.09695945295361995,0.06093416039410416,0.0005880756188288714,0.40948013435468605,-0.3130809803658692,0.16037913728636188,0.05540082964484484,0.03213822173705679,0.00021081355388134383,-2.7295910215754917,-0.5337568451186516,-0.7189716084541077,-0.18985001253372502,-0.2046111960903847,-0.002306279037225689,-0.4092669769983755,-5.233266189990826,-4.713294186351716,-0.9577931518188142,-0.024351137317263065,-0.0005598071266051502
0.87,0.7462820159959502,1.6029068541388471,-1.2405443130817206,0.09749466984186271,0.06123435894671608,0.0005900409603621765,0.38237241133152955,-0.31841991276873466,0.15323622743568566,0.05352168882427643,0.03001985526119247,0.00019653415333051067,-2.7165050941799773,-0.4818969183749401,-0.6952125040728079,-0.18459301484466417,-0.20508026788872868,-0.002224748168640156,-0.4047163302093316,-5.181220168674445,-4.70534034027175,-0.9567057493195584,-0.024178660038315626,-0.0005560262285557892
0.88,0.7498359739603182,1.599674440999373,-1.2390810101218346,0.09801161394135406,0.06151334644089954,0.0005918648388612196,0.35539579643679425,-0.3232413139474002,0.14633029598860717,0.051694409949135246,0.027898749418345737,0.00018238784990430885,-2.7007521193666078,-0.4294553780555052,-0.6711598045973675,-0.17930158533565255,-0.2054380595983396,-0.002145480170557157,-0.3997002865826733,-5.128947860302204,-4.697369432820874,-0.9556409997251694,-0.023975833763294364,-0.0005522699469596627
0.89,0.7531217415496727,1.5963990471663494,-1.23768436755733,0.09851080777724042,0.061771110403015736,0.0005935485407287725,0.3285767589354544,-0.32753938330237065,0.1396642564504654,0.04991938358863546,0.025776396211619212,0.0001683701867552881,-2.6824173727639526,-0.3765452124215634,-0.6468761510282365,-0.17398836606279922,-0.20568133581627634,-0.0020685057038505317,-0.39425587553232155,-5.076521129069871,-4.689396602762964,-0.9546001586807125,-0.02374431450682242,-0.0005485412750163422
0.9,0.7561411507205436,1.5930859526876142,-1.2363519635670965,0.09899277650091466,0.062007653390972466,0.0005950933113267131,0.3019409170870836,-0.3313094478735199,0.13324039902333148,0.04819687236742435,0.023654298795672993,0.00015447705979406201,-2.6615872313492597,-0.32327953737830306,-0.6224234010487522,-0.16866577923965886,-0.20580657173685424,-0.001993846599460225,-0.3884197214676099,-5.024011573515354,-4.681436935398386,-0.9535844725803224,-0.023485751761223493,-0.0005448426045184931
0.91,0.7588962809940668,1.589740473051812,-1.2350813595836077,0.0994580466329543,0.06222299311943297,0.0005965003591350807,0.27551302735233013,-0.33454796358021593,0.1270603983488795,0.04652701320396341,0.021533972846050273,0.0001407047808367637,-2.63834899862069,-0.26977136141320135,-0.5978625859958033,-0.1633460282856083,-0.20580998225493552,-0.001921515722549172,-0.3822279115545147,-4.971490519707456,-4.673505444556282,-0.9525951753546306,-0.023201785439570195,-0.0005411758086312179
0.92,0.7613894507476372,1.586367947910612,-1.2338701063667779,0.09990714482839055,0.0624171625965205,0.0005977708604999597,0.24931697535703692,-0.3372525141199981,0.12112532168297974,0.04490981954362555,0.019416947708753046,0.00012705013648788734,-2.6127907342436463,-0.21613334613025437,-0.5732538598378769,-0.15804109577094927,-0.20568755398895533,-0.001851516805069231,-0.3757158700111887,-4.919029002142136,-4.665617050790718,-0.9516334845261495,-0.02289404273872519,-0.0005375423198233793
0.93,0.7636232084333233,1.5829737298357969,-1.2327157499909602,0.10034059666454644,0.0625902102696434,0.0005989059649257064,0.22337576856861113,-0.33942180748152545,0.11543563758176087,0.04334518361558864,0.017304767312290407,0.00011351044257467609,-2.5850010881270498,-0.1624775630143407,-0.5486564401054542,-0.15276273828706843,-0.20543508018811707,-0.0017838443490960643,-0.36891823929561346,-4.866697732231984,-4.657786556154313,-0.9507005966424489,-0.022564134914667043,-0.0005339432025115821
0.9400000000000001,0.7656003237397184,1.5795631731354587,-1.2316158377391664,0.10075892545197103,0.06274220017789534,0.0005999068008637141,0.19771153063951588,-0.34105567003382575,0.10999122517939454,0.04183287874245996,0.015198990825193957,0.00010008359380076577,-2.555069138902039,-0.10891524716743467,-0.52412854088159,-0.14752247832644882,-0.2050481984494752,-0.0017184834970791485,-0.36186876855248706,-4.814567054417893,-4.650028615942302,-0.949797682197783,-0.022213653969553222,-0.0005303792200751301
0.9500000000000001,0.7673237787134469,1.576141622753846,-1.2305679238977991,0.10116265106927995,0.06287321210832558,0.0006007744819483267,0.17234549737285418,-0.34215503816126636,0.10479138413673572,0.04037256173089168,0.013101193043024673,8.676810846125873e-05,-2.523084236792563,-0.05555654885501282,-0.4997272981225259,-0.14233159329263767,-0.2045224311230971,-0.0016554099980985448,-0.35460020968614736,-4.762706890070834,-4.642357707813613,-0.9489258801532519,-0.021844169256757452,-0.0005268508959950374
0.96,0.7687967588560964,1.5727144032796259,-1.229569575444427,0.10155228882298396,0.06298334175322755,0.0006015101136271138,0.14729801426494846,-0.3427219474220226,0.09983484533722722,0.03896377537040083,0.011012964490196862,7.356316787870494e-05,-2.4891358508829495,-0.002510283789065086,-0.4755086877256794,-0.13720110180587564,-0.2038532282466754,-0.001594590182234068,-0.3471442214160753,-4.711186669486582,-4.634788098704172,-0.9480862921638716,-0.021457224016423797,-0.0005233585689615606
0.97,0.7700226442118925,1.5692868080874551,-1.228618377620404,0.10192834833364521,0.06307270086546236,0.0006021148001308771,0.12258853557959878,-0.34275951921706466,0.09511978240228174,0.03760595106612497,0.008935911223481299,6.046865037633327e-05,-2.4533134208038536,0.050116316852200374,-0.4515274369000969,-0.13214174751334617,-0.20303601278806482,-0.0015359810131558849,-0.33953128165113694,-4.660075252405111,-4.6273338099512555,-0.9472799766179996,-0.02105433185979296,-0.0005199024418817939
0.98,0.7710050004609759,1.5658640886377886,-1.2277119393794762,0.10229133244993864,0.06314141740872181,0.0006025896517260951,0.09823562490833274,-0.3422719449666624,0.09064382409278762,0.03629841162934309,0.006871654325945305,4.7485159521802896e-05,-2.415706212871222,0.102217855603518,-0.42783692952334135,-0.12716398063709566,-0.20206622794479223,-0.0014795302269592359,-0.33179060848855024,-4.609440837610364,-4.620008581047013,-0.9465079425906573,-0.02063697322560629,-0.0005164826248011727
0.99,0.7717475700326805,1.5624514439597683,-1.2268478987029108,0.10264173619241292,0.06318963569954328,0.000602935792190002,0.07425695717046456,-0.341264467802038,0.08640406765654308,0.03504037424742804,0.004821829082146725,3.4614046390690786e-05,-2.376403180727892,0.1536910159776389,-0.4044891062782914,-0.12227793753685634,-0.20093938618202323,-0.0014251765345337786,-0.32395009010407844,-4.559350862282603,-4.612825832434421,-0.9457711438074229,-0.020206591836205174,-0.000513099171829491
