tonegas/nnodely-applications/joint_friction_estimation/dataset/train/mpc_mujoco_episode_45.csv
time,q1,q2,q3,q4,q5,q6,dq1,dq2,dq3,dq4,dq5,dq6,ddq1,ddq2,ddq3,ddq4,ddq5,ddq6,tau1,tau2,tau3,tau4,tau5,tau6
0.0,0.0,1.57,-1.57,0.0,0.0,0.0,0.0,0.0,0.0,0.0,0.0,0.0,-13.329921290238952,-19.518026689387533,3.7073644844156846,2.6620242008772266,-2.1168552363159776,5.041124317983758e-07,-1.8598686783412852,-13.701513724881892,-7.40052608352161,-1.5723496653816524,-0.16869442812958577,-0.0028470705579239234
0.01,-0.0013266328764457006,1.5680559195567465,-1.569635612918199,0.00024290915818053806,-0.000174670968644098,-1.6353832207624431e-06,-0.13266328764457005,-0.19440804432536093,0.03643870818010203,0.024290915818053805,-0.0174670968644098,-0.0001635383220762443,-13.05136922904555,-19.243440175410882,3.518582621235719,2.3767283385438773,-1.7787489237395917,-0.016491443277953266,-1.8118258516733579,-13.60640411598531,-7.376573709849612,-1.5683644335273348,-0.16517725027980204,-0.0028073459701106326
0.02,-0.003951104702255572,1.5641951813688157,-1.5689267823933877,0.0007051802204954478,-0.0005026780466198908,-4.972346453841592e-06,-0.2624471825809871,-0.3860738187930727,0.07088305248112939,0.04622710623149097,-0.03280070779757928,-0.0003336963233079149,-12.726935314643123,-18.94160647891707,3.317212664394251,2.1385505360409383,-1.5728676653762506,-0.017586234745605722,-1.7322109687059177,-13.479817767160721,-7.334192677792468,-1.5600838744428707,-0.15964061894442505,-0.0027488726902324774
0.03,-0.007840481337150103,1.5584478836640006,-1.567894352804835,0.0013668381710924373,-0.0009706733450758102,-9.91483261512398e-06,-0.38893766348945313,-0.5747297704815183,0.10324295885527512,0.06616579505969895,-0.046799529845591936,-0.0004942486161282389,-12.357280187868675,-18.611263512374148,3.109345713336559,1.9371928507123712,-1.4514255806881309,-0.017378412888549022,-1.623275018944506,-13.320622197577382,-7.273301951074222,-1.5475262346593164,-0.15214191943072664,-0.0026721132566460705
0.04,-0.012957592766564736,1.5508469366816096,-1.5665595439554314,0.0022107154300691594,-0.0015703956261294161,-1.6395380717819495e-05,-0.5117111429414634,-0.7600946982391092,0.13348088494035984,0.08438772589767218,-0.059972228105360584,-0.0006480548102695516,-11.94155034029345,-18.25130213767816,2.90027871467365,1.7649840397476524,-1.3854720399364737,-0.017815823901177197,-1.4879369287999484,-13.12768181032241,-7.1939002105115595,-1.530733096088623,-0.1427518096914937,-0.002577484663220358
0.05,-0.019260855523056838,1.541428181602088,-1.5649434861836697,0.003221887404685467,-0.0022968952490601525,-2.438828491077165e-05,-0.6303262756492103,-0.9418755079521419,0.16160577717616895,0.10111719746163075,-0.07264996229307363,-0.0007992904192952154,-11.478128819506136,-17.86088944661285,2.6946401650099645,1.6162529806264843,-1.3573924291461665,-0.019086725599439802,-1.3297539494008215,-12.899924379435834,-7.0960865473697154,-1.509773992678753,-0.13155694785594185,-0.002465415136760903
0.06,-0.02670406094215212,1.5302304801776172,-1.563066807714917,0.0043872597590206945,-0.0031474392955616578,-3.390186481469379e-05,-0.744320541909528,-1.1197701424470898,0.18766784687527233,0.1165372354335227,-0.08505440465015054,-0.0009513579903922142,-10.965093240002242,-17.439575166471926,2.496467823329546,1.4868347981319303,-1.3564482465723913,-0.021191520008970954,-1.1528776105040268,-12.63640707263008,-6.980077416473947,-1.4847498659654002,-0.11866291440673005,-0.002336392803307928
0.07,-0.03523615925408782,1.5172957648496936,-1.5609492698964307,0.0056952693966721216,-0.004120828643505154,-4.497162373974616e-05,-0.8532098311935703,-1.2934715327923656,0.2117537818486239,0.1308009637651427,-0.0973389347943496,-0.0011069758925052375,-10.400498620151714,-16.98738156920299,2.309249997340739,1.3736854153817504,-1.3760745405275188,-0.02416470711080443,-0.9619894003393161,-12.336382122733596,-6.846219678629043,-1.4557952987778668,-0.10419699734171178,-0.002191008980457173
0.08,-0.044801058702540655,1.5026690406758902,-1.5586094487998872,0.007135669458653319,-0.005216963428873242,-5.765612833455861e-05,-0.9564899448452829,-1.4626724173803451,0.23398210965434504,0.14404000619811974,-0.1096134785368089,-0.0012684504594812451,-9.78255311212793,-16.50487598575806,2.1359407658331904,1.274581003165764,-1.4122099793553105,-0.02809787982358003,-0.7622119393148633,-11.999361738411814,-6.694999631452217,-1.4230794920038163,-0.08831057347496622,-0.0020299970314882256
0.09,-0.055337452101639935,1.4863983320448415,-1.5560644636573213,0.008699375095853928,-0.006436555346578685,-7.203493991401682e-05,-1.0536393399099278,-1.6270708631048645,0.25449851425658104,0.15637056372006092,-0.1219591917705443,-0.0014378811579458218,-9.109728033451278,-15.99322461853301,1.9789579546812845,1.1878836212681279,-1.4622260825367306,-0.03313794083450361,-0.5589932264311169,-11.625181491783856,-6.527048109130183,-1.3868060053364988,-0.07118086263467249,-0.0018542666959558039
0.1,-0.06677867894844375,1.4685345689679856,-1.5533297538425255,0.01037835181556505,-0.0077809214546223264,-8.820787842575094e-05,-1.144122684680381,-1.7863763076855814,0.27347098147959165,0.1678976719711123,-0.13443661080436412,-0.0016172938511734114,-8.380830642611445,-15.454225721968697,1.8401713240922604,1.1123587319315362,-1.5241861629891815,-0.039484352539023604,-0.357963604593193,-11.214060737606083,-6.343141816409745,-1.3472113250461182,-0.053011868982679275,-0.0016649332317618844
0.11,-0.07905262869810961,1.4491314097551367,-1.5504189067235155,0.012165532168714618,-0.009251814386788067,-0.00010629506764204183,-1.2273949749665858,-1.9403159212848906,0.2910847119009972,0.17871803531495678,-0.14708929321657405,-0.001808718921629089,-7.595063850027491,-14.890321572453853,1.7208871600319107,1.047033695151356,-1.5962571357398652,-0.047385962399459025,-0.1647673333467572,-10.766658770499099,-6.144201433605706,-1.304562425975118,-0.03403435943375918,-0.0014633404251566187
0.12,-0.09208168992339587,1.428244998970527,-1.5473435387943046,0.014054749700285083,-0.01085125384839142,-0.0001264372927158183,-1.302906122528626,-2.0886410784609533,0.3075367929210787,0.18892175315704654,-0.15994394616033517,-0.0020142225073776477,-6.752099979669907,-14.30458553007438,1.6218344999171883,0.991089061616627,-1.6761478575967814,-0.05713339053602162,0.015126979801065255,-10.284123193082715,-5.931286500122499,-1.2591534160381166,-0.014504771819874668,-0.0012510764395668934
0.13,-0.10578275113992633,1.4059336620354954,-1.5441132321206024,0.016040681631852828,-0.012581327240774513,-0.0001487961689156341,-1.3701061216530457,-2.231133693503154,0.32303066737023484,0.1985931931567745,-0.17300733923830938,-0.00223588761998158,-5.852204445170085,-13.70067672166942,1.5431573936731944,0.9437765483442533,-1.7604747071136408,-0.06904015231282301,0.1766305696546311,-9.768124389164804,-5.705586379136949,-1.2113012382722215,0.00529701044829671,-0.001029981560920207
0.14,-0.12006726279500143,1.3822575410689266,-1.5407355273698295,0.0181187938333764,-0.014443925167778888,-0.00017355346572388948,-1.42845116550751,-2.367612096656875,0.3377704750772893,0.20781122015235706,-0.18625979270043758,-0.0024757296808255377,-4.896572203021143,-13.081847586665118,1.4844399569324302,0.9043693469859555,-1.843975374124362,-0.08340180890882998,0.31523609354578086,-9.22041598417913,-5.468247365140903,-1.161308423629487,0.025070148029792044,-0.0008021464830994653
0.15,-0.13484138847501229,1.3572782709429752,-1.537215970753605,0.02028528372997924,-0.016440372463934268,-0.00020090864781138415,-1.4774125680010857,-2.497927012595146,0.3519556616224536,0.21664898966028404,-0.19964472961553814,-0.0027355182087494675,-3.890109675226664,-12.432432058106755,1.4451550488355096,0.8723081984812282,-1.9185397982098458,-0.10041717539039219,0.42705587423720426,-8.633675741108524,-5.21715811002998,-1.1088172840781552,0.0444797563248259,-0.0005699060558789863
0.16,-0.15000650929430698,1.331060540247326,-1.5335581593975818,0.0225370231483291,-0.018570920429314654,-0.0002310735013384047,-1.516512081929469,-2.6217730695649295,0.36578113560232894,0.22517394183498574,-0.21305479653803852,-0.003016485352702056,-2.9328464752120307,-11.015308713140708,1.4395650514474134,0.8538520107284633,-1.972640372481317,-0.1200476280860503,0.503197474078081,-7.643167936411686,-4.825412761056014,-1.0285460114038139,0.0625526516600673,-0.000335833514304645
0.17,-0.1654690120202222,1.3037455400451141,-1.5297618775293138,0.02487164919526815,-0.020834550514541635,-0.0002642732729660909,-1.5462502725915244,-2.731500020221183,0.3796281868267895,0.23346260469390545,-0.22636300852269803,-0.003319977162768618,-1.9597076158040014,-9.536693782274032,1.4563223167358021,0.8362070636401242,-1.9920123823038525,-0.1416426775519648,0.5461928053997767,-6.6034936379244,-4.423835531221475,-0.9471912067468147,0.07923980553095476,-0.00010845196956813451
0.18,-0.18113385207227622,1.2754806014333613,-1.5258247028897398,0.02728695765005916,-0.023227850697478652,-0.00030072153843240223,-1.566484005205401,-2.8264938611752823,0.39371746395739365,0.2415308454791008,-0.2393300182937018,-0.0036448265466311304,-0.9736736305926614,-8.066682950357439,1.4914794318141542,0.8187560988542728,-1.952921423630527,-0.1637330157990604,0.5573930849426859,-5.552383664975056,-4.027044759500373,-0.8677861766910155,0.09428374332283487,0.00010884215935026524
0.19,-0.19690471600603598,1.2464122105993207,-1.521742436113443,0.02978087470296645,-0.025743683015173404,-0.00034058710192465627,-1.5770863933759751,-2.9068390834040465,0.40822667762967535,0.24939170529072902,-0.25158323176947506,-0.003986556349225405,0.013077042258552846,-6.635013830039302,1.5414857782997355,0.8015737988918143,-1.8287124964929435,-0.1839175595062228,0.5394468394684674,-4.5076836103361755,-3.6419437115230444,-0.7917558402392104,0.10744991666948622,0.00031306530241804033
0.2,-0.21268502366767034,1.2166830452675892,-1.5175094631413495,0.03235145805535801,-0.02836973837735205,-0.00038395042268556486,-1.5780307661634365,-2.972916533173145,0.42329729720935316,0.25705833523915583,-0.26260553621786464,-0.00433633207609086,0.9832817775915061,-5.268856971160982,1.6028283262656,0.7847533148957258,-1.5946885602368492,-0.19885875907924086,0.4963051427530721,-3.4860572801012086,-3.27455477405449,-0.7203025296508574,0.11855333197825621,0.0005015144455649289
0.21,-0.22837939895958928,1.1864292672469632,-1.5131191122764358,0.03499689737021325,-0.031087196612549748,-0.00043075128919645996,-1.5694375291918952,-3.025377802062606,0.4390350864913661,0.2645439314855241,-0.27174582351976967,-0.004680086651089509,1.9159956815243309,-3.991966904721938,1.6721179082635356,0.7684278343526296,-1.2356556933922196,-0.2047453370866379,0.432959452418969,-2.5024781036908204,-2.9298746455118065,-0.6543803492120936,0.12746956394235537,0.0006719109970546274
0.22,-0.24389554511788553,1.1557781552730364,-1.5085639965974778,0.037715516009210956,-0.03386986621061012,-0.00048073577319305454,-1.551614615829624,-3.0651111973926706,0.4555115678958076,0.27186186389977113,-0.2782669598060373,-0.004998448399659459,2.790204586965444,-2.846428160422563,1.7461376518249594,0.7527490826349881,-0.7545419458248785,-0.19831221158911472,0.3551056051082578,-1.5806226674807937,-2.61548959966825,-0.5954055769950539,0.13413428660929347,0.0008222179639125512
0.23,-0.2591462684653416,1.1248439108430688,-1.5038363496701461,0.04050578830345405,-0.03668426896565188,-0.0005334169705275833,-1.5250723347456097,-3.093424442996759,0.47276469273316274,0.27902722942430913,-0.2814402755041761,-0.005268119733452876,3.588103479119724,-1.823047506328734,1.821905500315187,0.7380771713506031,-0.17793823493819527,-0.17816134546061235,0.26875866186173003,-0.7190326552686914,-2.329833782097533,-0.5429571631240069,0.13858129510938977,0.0009519331009918892
0.24,-0.2740513919136826,1.0937285718604062,-1.49892830599878,0.04336634194451701,-0.03949105404038517,-0.0005880678654734183,-1.4905123448341007,-3.111533898266263,0.4908043671366229,0.2860553641062962,-0.28067850747332956,-0.005465089494583499,4.300450537584891,-0.9899939557694183,1.8968605643675864,0.7244906762666039,0.44570010088610523,-0.14566821428404753,0.1797901081214183,0.0468945005426995,-2.083930022759949,-0.4990492411587959,0.140860638882752,0.001059930669287595
0.25,-0.28853899998487176,1.0625152170659673,-1.4938321871591633,0.04629599658813476,-0.0422477937355994,-0.0006437584477718189,-1.4487608071189122,-3.1213354794438883,0.509611883961655,0.2929654643617752,-0.2756739695214225,-0.005569058229840059,4.926448401023775,-0.4614456944951182,1.96853182807487,0.7124527046289115,1.0561354668954568,-0.10490491412876768,0.09356619642227415,0.6608191733866361,-1.8951314433490036,-0.46683122799651827,0.14105648225636466,0.001145223638586755
0.26,-0.3025458879277903,1.0312565849093467,-1.4885408029740022,0.04929386819190839,-0.04491274399884692,-0.0006994370463155759,-1.4006887942918556,-3.1258632156620703,0.5291384185161108,0.29978716037736247,-0.2664950263247518,-0.0055678598543757,5.473717863919564,-0.19683142375279125,2.0341460271745424,0.7029740492049541,1.5957997454044541,-0.06141623543806762,0.014734820470256184,1.1415606095151078,-1.7540088476473057,-0.4441814058240279,0.13941411646576557,0.0012105749173156079
0.27,-0.31601706247264916,0.9999791103134615,-1.4830476878087206,0.05235941069645553,-0.04744873166283353,-0.0007540381088870655,-1.3471174544858855,-3.1277474595885137,0.5493115165281505,0.30655425045471385,-0.2535987663986614,-0.005460106257148969,5.954682133864145,-0.06249992133047678,2.0915384302346567,0.696434743857913,2.021885220720751,-0.020480360289938382,-0.053010080974479845,1.5523836812442355,-1.636527570921409,-0.4262384365096328,0.13622881681540544,0.0012602789830691685
0.28,-0.3289045705653291,0.9686962368970701,-1.4773472284974163,0.05549234731961398,-0.049826309739475404,-0.0008065882197858057,-1.2887508092679947,-3.1282873416391452,0.570045931130432,0.313293662315845,-0.23775780766418728,-0.005255011089874011,6.3838578053477635,-0.0032709096199960864,2.139500931565743,0.6920848101172759,2.3117576439755485,0.014117035632336794,-0.10681940114835516,1.9189780290395984,-1.5328496128306028,-0.4110057796241248,0.1316901232025161,0.0012967254126686235
0.29,-0.34116595384320003,0.9374139127684145,-1.4714347534582837,0.058692571012453405,-0.052025641596801,-0.0008562866333593498,-1.2261383277870899,-3.1282324128655583,0.5912475039132713,0.32002236928394256,-0.21993318573255988,-0.0049698413573544195,6.775661204304172,0.017678798374915,2.1771218738625344,0.6888731057445616,2.4623864059693963,0.04046233161859991,-0.1444344109247875,2.258299233684403,-1.4367148568208354,-0.3972362167671768,0.12594599728441946,0.0013217204368653683
0.3,-0.3527626339231564,0.9061342586088569,-1.4653066063770102,0.061960033446702534,-0.054036975961777554,-0.0009025494999178941,-1.159668007995633,-3.1279654159557593,0.6128147081273533,0.3267462434249131,-0.2011334364976552,-0.004626286655854422,7.142799160415932,0.03377913951783973,2.2035953041022385,0.6856587247519279,2.486013459288843,0.058280338955160715,-0.16404709495682634,2.58563213001261,-1.3428487340500657,-0.3839176350385699,0.11911942365548701,0.0013367487263823562
0.31,-0.36365847147379005,0.8748588986653915,-1.458960212746078,0.06529462790383438,-0.05585992114378241,-0.0009450184956902624,-1.0895837550633645,-3.1275359943465446,0.6346393630932242,0.3334594457131845,-0.18229451820048556,-0.004246899577236832,7.495510755995598,0.04079227052412868,2.218169258143941,0.6812608720378215,2.4044122220916604,0.06840637710583497,-0.16423066686793872,2.898625612921401,-1.2522702748833634,-0.3712619823951322,0.11128586913458217,0.0013424444705447695
0.32,-0.37381862236723096,0.8435885393792049,-1.4523941634233568,0.0686960943723809,-0.05750191523763282,-0.0009835420880748313,-1.0160150893440931,-3.1270359286186564,0.6566049322721006,0.3401466468546531,-0.1641994093850406,-0.0038523592384568763,7.841341274706404,0.043052739474800025,2.219930351671085,0.6747387146059838,2.2435194309082442,0.07224559038878642,-0.14389458865370103,3.199067071581344,-1.1645639809413055,-0.3592093867040342,0.10252399723265201,0.0013395069612563769
0.33,-0.3832087248361501,0.8123234023727989,-1.4456083075324064,0.07216393584519712,-0.05897630887459715,-0.0010181404744160755,-0.9390102468919161,-3.1265137006405994,0.6785855890950279,0.346784147281621,-0.14743936369643296,-0.0034598386341244272,8.185237032539055,0.04277047378581956,2.2079003161469495,0.6652774484453552,2.029252439956542,0.07135632313423379,-0.1022671917370917,3.4878460329147276,-1.079651580061141,-0.34776830533362435,0.09290724322207958,0.0013285034946597404
0.34,-0.3917943974107952,0.7810634458972971,-1.438603852137575,0.07569734541009517,-0.0603004078383929,-0.0010489640978534158,-0.8585672574645095,-3.125995647550172,0.70044553948313,0.353340956489805,-0.13240989637957457,-0.003082362343734029,8.529897248377123,0.041089429956162576,2.181067984605247,0.6521784639281991,1.7847751960277332,0.06719133720825621,-0.038889507726078076,3.7654531352205893,-0.9975929209279355,-0.33697485748582806,0.08250781832683478,0.0013099237323723244
0.35000000000000003,-0.399540994153155,0.7498084800628959,-1.4313834649800998,0.07929514310786583,-0.061493709034602405,-0.0010762529654993428,-0.7746596742359863,-3.125496583440124,0.7220387157475304,0.3597797697770662,-0.11933011962095089,-0.002728886764592691,8.876226232707879,0.03861108879360323,2.1384276136863574,0.6348459008872327,1.5290840204249658,0.06097128140939834,0.046384052527873476,4.032225878425172,-0.9184834675334761,-0.326871726623546,0.07139920770151727,0.0012842230071934573
0.36,-0.4064135548976962,0.7185582279050102,-1.4239513763043747,0.08295572152114711,-0.06257645292036237,-0.0011003010497120074,-0.6872560744541155,-3.125025215788572,0.7432088675725167,0.3660578413281283,-0.10827438857599739,-0.0024048084212664727,9.223792491708549,0.03566525509677939,2.079016178905626,0.6127745495444463,1.2765976039743854,0.053648094312331196,0.153383354050596,4.288474057963576,-0.8423978779935267,-0.31749641937751044,0.05965752159809848,0.0012518560915627964
0.37,-0.4123768922939718,0.6873123592093882,-1.416313476061083,0.0866769992395661,-0.0635685299103371,-0.0011214276494897124,-0.5963337396275572,-3.1245868695622057,0.7637900243291897,0.3721277718418988,-0.09920769899747284,-0.002112659977770497,9.57123859336874,0.03244815495293893,2.0019465374796868,0.5855405610430262,1.0374054108019388,0.04591975300602602,0.2816221560189762,4.534540618528413,-0.7693582921624185,-0.3088745103469349,0.047361972093394815,0.0012133013928463886
0.38,-0.41739576742472984,0.656070510838471,-1.4084774032481795,0.09045638157799847,-0.06448872238806853,-0.0011399559544498933,-0.5018875130758023,-3.1241848370917142,0.7836072812903345,0.3779382338432371,-0.09201924777314328,-0.0018528304960180955,9.916616282802035,0.0290967736215801,1.90643561423895,0.5527950378433308,0.8178770240478146,0.03826870710569619,0.43030196603034565,4.770829540845515,-0.6993154552239187,-0.3010154624878808,0.034594723669289104,0.0011690761346117376
0.39,-0.4214351171865462,0.6248323009783887,-1.400452624660564,0.09429072813432089,-0.06535423387665686,-0.0011561981151957652,-0.40393497618163643,-3.1238209860082247,0.8024778587615493,0.38343465563224205,-0.08655114885883174,-0.0016242160745872072,10.25764103572513,0.02574109810640675,1.7918279433307165,0.5142600169747702,0.6214123791529742,0.03100698993314399,0.5983212155600013,4.997819650496099,-0.6321358797478973,-0.2939096714218833,0.021440331586586665,0.0011197435482278855
0.4,-0.42446030723230205,0.5935973425425919,-1.3922505007706836,0.09817632693360219,-0.06618044565939428,-0.0011704457004209563,-0.30251900457558345,-3.1234958435796862,0.8202123889880364,0.3885598799281297,-0.08262117827374232,-0.001424758522519092,10.591873410011472,0.02254265951320806,1.6576154943621944,0.4697261763302114,0.4491898718693026,0.024318929460735994,0.784290056591581,5.2160682848825,-0.5675936641586885,-0.28752643769266195,0.007984927392638622,0.0010659133206119228
0.41000000000000003,-0.4264373930010575,0.5623652596111763,-1.3838843368189067,0.10210887502352431,-0.06698084177740717,-0.0011829643284468616,-0.19770857687554128,-3.1232082931415497,0.8366163951776856,0.3932548089922124,-0.0800396118012889,-0.0012518628025905423,10.916839883374237,0.01966313020659332,1.5034547859356744,0.41905175812785167,0.30083222696524103,0.018297481131721582,0.9865504235989505,5.42618082079364,-0.505374734054704,-0.2818142021037736,-0.005684779211258394,0.0010082359479650703
0.42,-0.4273333780235524,0.5311357038165897,-1.3753694174829303,0.10608346551714853,-0.0677670503837736,-0.0011939913526254312,-0.0895985022494952,-3.122955579458664,0.851491933597641,0.39745904936242293,-0.07862086063664343,-0.0011027024178569625,11.230107210129754,0.017136188133538004,1.3291818783560907,0.3621628150904095,0.17495508087830558,0.012973129554481488,1.2032006883423647,5.628736677814363,-0.4450957352604769,-0.2767032856676781,-0.01948261979732619,0.0009473922487147794
0.43,-0.4271164634725338,0.49990835794402666,-1.3667230237399721,0.11009458124621713,-0.0685489591024009,-0.0012037356556850076,0.02169145510186106,-3.1227345872563066,0.8646393742958207,0.4011115729068596,-0.07819087186272895,-0.0009744303059576422,11.529322704019721,0.01479675937777232,1.1348255552611226,0.2990551463481088,0.0695920972815749,0.00833578490672604,1.432124376079489,5.824241180776816,-0.38631407963516445,-0.27210686257903643,-0.03332401643011394,0.000884081374027365
0.44,-0.42575628621712247,0.4686829197247323,-1.3579644306627483,0.1141360952748043,-0.06933487197387246,-0.001212378806710278,0.13601772554113378,-3.122543821929437,0.8758593077223875,0.40415140285871703,-0.07859128714715602,-0.0008643151025270381,11.79871152123845,0.21505573194891237,0.9197998755738008,0.23010644160950777,-0.017621592269506436,0.00435072452768992,1.669468020142792,6.099407387088115,-0.30100445520505875,-0.2632043965415345,-0.04687928844556226,0.0008204505845823861
0.45,-0.42322548530937926,0.4374792687087306,-1.349114854258501,0.11820114699630263,-0.07013166788730758,-0.001220079194371857,0.2530800907743205,-3.120365101600172,0.8849576404247392,0.4065051721498329,-0.07967959134351171,-0.0007700387661578813,11.772097490258146,4.319115179185034,0.6706948291693271,0.1605917951652831,-0.09122271951764915,0.0009552430078239027,1.879250784539376,8.015343927778877,0.3045621413851735,-0.16638757994851747,-0.055296680684279585,0.0007816937923349017
0.46,-0.4195261102704744,0.40670622418312297,-1.3401967571461422,0.12227970956577022,-0.07094463861030491,-0.0012270148542708938,0.3699375038904863,-3.077304452560762,0.8918097112358792,0.4078562569467586,-0.08129707229973186,-0.000693565989903694,11.72186069255503,7.639248063544422,0.4284954097555609,0.05523605886604699,-0.14536045935135888,-0.0021612261544960987,2.0783256284921965,9.559452489932927,0.750757438185515,-0.10148739844269258,-0.06316647343462709,0.0007331089018960161
0.47000000000000003,-0.4146626357939544,0.3766945290629738,-1.3312325891663066,0.12635954404153577,-0.07177763164845574,-0.0012333334797174668,0.4863474476519979,-3.0011695120149184,0.896416797983564,0.40798344757655364,-0.08329930381508394,-0.0006318625446572924,11.650029270427655,10.151121806725927,0.18741475518438477,-0.07209652332923255,-0.18387609539056982,-0.004536935628391525,2.259697845190983,10.728224113460712,1.0465031130757605,-0.0656727931069126,-0.07020164093578458,0.000679112830113857
0.48,-0.40864175751927934,0.3476944127187464,-1.3222452711148784,0.13042727728081877,-0.07263334629752924,-0.0012391492920766438,0.602087827467504,-2.9000116344227402,0.8987318051428238,0.4067733239282998,-0.08557146490734965,-0.0005815812359177021,11.556975858415345,11.990238710126482,-0.05735134086768312,-0.2105378320855884,-0.21007038221658902,-0.006201652837042992,2.4182958643651715,11.585701682083537,1.2226622792506125,-0.05241278909255359,-0.07611546031914589,0.00062466291892833
0.49,-0.4014723490536776,0.3198890817127704,-1.3132585179791787,0.13446913179676395,-0.07351357633527542,-0.0012445480258128432,0.7169408465601723,-2.780533100597598,0.8986753135699654,0.4041854515945174,-0.08802300377461776,-0.0005398733736199358,11.443340366961953,13.272885594924416,-0.30891472571114065,-0.35273497365784223,-0.22663589280261576,-0.0072713143513585266,2.550902761131072,12.186917437486986,1.3055132930258475,-0.056188972801165304,-0.0807564261405471,0.0005732547915600809
0.5,-0.39316539146903423,0.2934062994402502,-1.3042970309293944,0.13847140369176322,-0.07441940810838424,-0.0012495924398913108,0.8306957584643373,-2.648278227252023,0.8961487049784307,0.40022718949992614,-0.09058317731088252,-0.0005044414078467487,11.309974707513357,14.098564720504978,-0.5690995294760981,-0.49385829137369797,-0.2357488794199618,-0.007864274399817184,2.6559858584084375,12.578975533278772,1.3170301282812698,-0.0724422953337528,-0.08407658241458599,0.0005271699570366661
0.51,-0.38373388154304605,0.26832829592923435,-1.2953865896490746,0.14242076203845963,-0.07535138034402507,-0.0012543271728521711,0.9431509925988204,-2.5078003511015874,0.8910441280319833,0.3949358346696413,-0.09319722356408311,-0.00047347329608603565,11.157883851064362,14.552159364108629,-0.8387554652104505,-0.6308705588233927,-0.23914062972004757,-0.00808570096587058,2.7334427150094514,12.802032635876689,1.2753003703572157,-0.09748175445813234,-0.08610453148222902,0.00048771223093601224
0.52,-0.37319272506556034,0.24470022285767784,-1.2865540695341076,0.14630442345079972,-0.07630961090590761,-0.001258782798248067,1.054115647748574,-2.3628073071556495,0.8832520114967121,0.3883661412340102,-0.09582305618825426,-0.00044556253958959695,10.988170604170673,14.705843833203321,-1.1180004511417039,-0.7619913230933015,-0.23816357088932705,-0.00802480263483396,2.7843082697718495,12.89017508052666,1.1950001162403265,-0.12837605122676005,-0.08692298313191794,0.00045542393527053316
0.53,-0.3615586209432448,0.22253734356354563,-1.2778274028165006,0.15011024097263248,-0.07729389546706175,-0.0012629791289055158,1.1634104122315512,-2.216287929413221,0.8726666717606922,0.3805817521832757,-0.09842845611541405,-0.00041963306574487784,10.80198744523549,14.620764555614125,-1.406408552473703,-0.8863064280056925,-0.23385505631246417,-0.007755303240410072,2.8104590215967553,12.872200151298475,1.0878759525594819,-0.16284152140349006,-0.0866505404034601,0.0004302765537169907
0.54,-0.3488499409928,0.2018311251516824,-1.2692354984172691,0.15382673557470278,-0.07830378292207237,-0.0012669278628772989,1.270867995044483,-2.0706218411863246,0.8591904399231448,0.3716494602070302,-0.10098874550106114,-0.00039487339717830154,10.600496416417421,14.348517735573404,-1.7031555351420984,-1.0034851454893712,-0.2269974917583042,-0.0073370068354590146,2.814339214724694,12.772309891144598,0.9632039121608085,-0.1991344971089382,-0.08542729844470169,0.0004118334957305403
0.55,-0.3350866094270319,0.18255437963473373,-1.2608081320208986,0.1574430905486175,-0.07933863206560393,-0.001270634673395054,1.376333156576811,-1.927674551694866,0.8427366396370641,0.3616354973914702,-0.10348491435315595,-0.0003706810517755156,10.38483682121048,13.932446547632647,-2.007131463081368,-1.1135767740248035,-0.21817273481434185,-0.006817709078780432,2.798723736270598,12.610725706450854,0.8282086681612993,-0.2359527341020889,-0.08340376150651607,0.00039938490698212354
0.56,-0.32028998521498714,0.1646655831423856,-1.2525758152754423,0.1609491232027236,-0.08039765360378516,-0.0012741008414180741,1.4796624212044767,-1.7888796492348125,0.8232316745456275,0.35060326541061015,-0.10590215381812326,-0.0003466168023020079,10.1560999055865,13.40877838612863,-2.3170275799062097,-1.2168656932762474,-0.20780930024155708,-0.006235113028717265,2.766524122123594,12.404231610759098,0.6884351458369488,-0.272348168297461,-0.08073255955279458,0.00039205605907162205
0.5700000000000001,-0.3044827497802621,0.14811248635532773,-1.2445696509912554,0.16433524395981122,-0.08147994100044327,-0.001277324519505807,1.5807235434725058,-1.6553096787057868,0.8006164284186885,0.3386120757087639,-0.10822873966581163,-0.0003223678087732763,9.9153095122987,12.807620469318964,-2.6314030476546577,-1.3137692314416292,-0.19622178397393952,-0.005618586954033056,2.7206380893438133,12.166653409322258,0.54807051620341,-0.3076517115421352,-0.07756246109122442,0.0003888918408240016
0.58,-0.28768880189969404,0.13283511525129377,-1.2368211796110402,0.16759240982428017,-0.08258449306154135,-0.0012803017033554353,1.6793947880568012,-1.5277371104033945,0.7748471380215265,0.3257165864468955,-0.11045520610980807,-0.0002977183849628352,9.663407712003462,12.153830116610557,-2.948735850088072,-1.4047667291340211,-0.18364266247137806,-0.004990699897164497,2.663839209394738,11.90928052859525,0.41021811722613455,-0.3414098212356694,-0.07403422073797089,0.00038892037834109105
0.59,-0.26993316117016497,0.11876824879646448,-1.2293622209582307,0.17071207692275228,-0.08371023058360481,-0.0012830269746101407,1.7755640729529094,-1.4066866454829285,0.7458958652809545,0.31196670984721003,-0.1125737522063469,-0.0002725271254705387,9.401244523616366,11.467774250969482,-3.267461211562683,-1.4903511982371365,-0.17024711830871198,-0.004368524834633458,2.598701294238003,11.641236586673234,0.27712691032238446,-0.3733320054906488,-0.0702778571395957,0.0003911989598413522
0.6,-0.251241881009338,0.1058434492030999,-1.2222247142671128,0.17368615519964806,-0.08485600887008447,-0.0012854940666827883,1.8691280160827013,-1.2924799593364578,0.7137506691117993,0.2974078276895784,-0.11457782864796637,-0.00024670920726475263,9.12957097930536,10.765991103779767,-3.5860001609536454,-1.5709972270429753,-0.15617180312567314,-0.0037647267937246376,2.5275513074700866,11.369804212644302,0.15038111432189138,-0.4032481273835129,-0.06641101972622356,0.00039484534995875577
0.61,-0.23164197183013147,0.0939907106485782,-1.215440558701672,0.17650696719815956,-0.08602062747043666,-0.001287696294944888,1.9599909179206494,-1.1852738554521702,0.6784155565440779,0.28208119985114893,-0.11646186003521974,-0.00022022282620997376,8.849034934952435,10.06176570133583,-3.902780326450433,-1.6471404646695844,-0.14152853377641605,-0.0031884649272728716,2.4524446954613484,11.100709076256816,0.031055020376412612,-0.4310742561185313,-0.06253816455840382,0.00039905734077889715
0.62,-0.21116133476273033,0.08313978377426601,-1.2090414559397253,0.1791672120506708,-0.08720283812443837,-0.0012896268838907805,2.048063706740114,-1.0850926874312194,0.6399102761946656,0.266024485251123,-0.11822106540016979,-0.00019305889458924314,8.560179177524603,9.365629474884658,-4.216250638368466,-1.7191652725822189,-0.1264138881514434,-0.0026461400988972983,2.375157608839243,10.838367594944739,-0.08016207062811875,-0.4567858138784955,-0.05875031611219823,0.00040312307512528113
0.63,-0.18982870607620272,0.07322122573268991,-1.203058755903453,0.1816599352465379,-0.0884013515952031,-0.0012912792167538956,2.133262868652761,-0.9918558041576091,0.5982700036272537,0.2492723195867107,-0.11985134707647278,-0.0001652332863115125,8.263441371954908,8.68579355395294,-4.524891300195499,-1.787398063441505,-0.11091557554263431,-0.002142017308754518,2.297191260345618,10.58610246203809,-0.1828661233926418,-0.4803968334881299,-0.05512523949692579,0.0004064243339800561
0.64,-0.16767361227485553,0.06416721895124713,-1.1975233063326665,0.18397850436891178,-0.08961484384054492,-0.0012926470273657313,2.2155093801347197,-0.9054006781442779,0.5535449570786434,0.2318569122373876,-0.12134922453418322,-0.00013678106118355797,7.959155789550661,8.028525189128239,-4.8272201689439465,-1.852104550432525,-0.09511633147003806,-0.001678747910158318,2.219784591414557,10.34633005979234,-0.2768595499097636,-0.5019442407577517,-0.051727889246821396,0.000408434671089452
0.65,-0.14472633567245066,0.05591219611951234,-1.1924653066063982,0.18611659074235226,-0.09084196179409555,-0.0012937245495778583,2.2947276602404854,-0.8255022831734788,0.5057999726268324,0.21380863734404948,-0.12271179535506258,-0.00010775222121269582,7.647556327748516,7.398479573847632,-5.121796470431527,-1.9134896395490681,-0.07909596752095638,-0.0012578112548315978,2.143932122912447,10.12072481617406,-0.3620891051482089,-0.5214761497432413,-0.04861102465545856,0.00040871396921569213
0.66,-0.12101789012331156,0.048393304466828574,-1.1879141660027446,0.18806815676845043,-0.09208132889485039,-0.0012945066361434907,2.37084455491391,-0.7518891652683771,0.4551140603653535,0.19515660260981715,-0.1239367100754845,-7.820865656323953e-05,7.3287789888877235,6.799180799459793,-5.407222499110371,-1.9716987089408402,-0.06293214027850524,-0.0008798907760012575,2.070404427307569,9.910431582839243,-0.4385777582983717,-0.5390406365541098,-0.04581567145918887,0.0004069019641579623
0.67,-0.09658000664602698,0.04155075725509679,-1.1838983663335756,0.18982744850526617,-0.09333155039245297,-0.0012949888580479673,2.443788347728457,-0.6842547211731783,0.4015799669168989,0.1759291736815742,-0.12502214976025827,-4.822219044765933e-05,6.998732948745422,6.546062679426783,-5.68184968079394,-2.026069680453502,-0.046823699734083846,-0.0005451956673820924,1.9991734688792226,9.829678703729941,-0.4738436246470826,-0.5501668222518933,-0.042955846177899125,0.0004046828825395774
0.68,-0.07144553844246848,0.03535925724615243,-1.180445147398622,0.19138880721093693,-0.0945911926848449,-0.001295170639517729,2.5134468203558495,-0.6191500008944362,0.34532189349537484,0.15613587056707648,-0.12596422923919237,-1.8178146976173295e-05,6.659131244370367,6.420615726906016,-5.942916470100228,-2.079461381629798,-0.030398675005613995,-0.00027356981406656544,1.9286384909746914,9.797908977638146,-0.4920430639118986,-0.558345388109026,-0.040140111287629524,0.00040156301831287565
0.6900000000000001,-0.045648291263562804,0.02980623158513432,-1.1775803580068587,0.1927466287250107,-0.09585877843088099,-0.0012950529020795897,2.5797247178905676,-0.555302566101811,0.28647893917631867,0.13578215140737515,-0.1267585746036101,1.1773743813930337e-05,6.3120435464170175,6.223020004145521,-6.189042907625183,-2.132461490419084,-0.013583133287466964,-3.7324297858631894e-05,1.8584931606933455,9.742699491875566,-0.5142016355650818,-0.5665000213763309,-0.03757396238109954,0.00039659162606569816
0.7000000000000001,-0.01922281804304663,0.02487192654243197,-1.1753284188748734,0.1938954813346225,-0.09713280254282952,-0.0012946356341794634,2.6425473220516174,-0.49343050427023505,0.22519391319853155,0.11488526096117986,-0.12740241119485393,4.172679001263609e-05,5.9574603307385035,5.98984334262881,-6.419765477609937,-2.183566436523444,0.003385281098182702,0.00018530858925047689,1.789464172698252,9.677468858711187,-0.5363270651050892,-0.5740437552431492,-0.03526847123055605,0.0003895947305404526
0.71,0.0077955807841282865,0.02053304918892679,-1.1737122509189504,0.19483019797864604,-0.09841174560233212,-0.0012939182869784426,2.7018398827174916,-0.43388773535051817,0.16161679559230555,0.09347166440235331,-0.12789430595026022,7.173472010209788e-05,5.59563244530828,5.69643221010141,-6.63441357912872,-2.231921054142809,0.020361345727687663,0.00038897621577427266,1.7219716515308465,9.593422385644947,-0.5608411130354677,-0.5812787427651227,-0.033289582793282216,0.00038014781347473815
0.72,0.035370882477382556,0.016760310823831774,-1.1727532161059167,0.1955459666807795,-0.09969408700246825,-0.0012928998587567549,2.7575301693254266,-0.3772738365095013,0.09590348130336597,0.07157687021334672,-0.12823414001361208,0.0001018428221687628,5.226496013433371,5.332630026332885,-6.832410361828885,-2.2765919827939385,0.03718410164787045,0.000570413248611068,1.6565041192495884,9.486889206114766,-0.5886633128864563,-0.5882965707766783,-0.03169634293401443,0.00036780121387251037
0.73,0.06346633589213353,0.013517414466610436,-1.1724710602788426,0.19603841532187327,-0.1009783175313003,-0.0012915791194785492,2.809545341475098,-0.3242896357221339,0.028215582707404804,0.04924486410937605,-0.12842305288320432,0.00013207392782055958,4.849771183908095,4.9278355814846275,-7.013208120268648,-2.316705233574936,0.053698161512024,0.0007242265861548969,1.5935826498500456,9.368225039615803,-0.6167244157362399,-0.5946487344732758,-0.030499486946982547,0.000352291074047989
0.74,0.09204443400586364,0.010763982811481167,-1.1728838406646431,0.19630366020103884,-0.10226294724049657,-0.0012899552369537658,2.8578098113730106,-0.27534316551292687,-0.04127803858003978,0.026524487916556733,-0.1284629709196283,0.00016238825247832738,4.4638047969270795,4.514544559599877,-7.176076401135316,-2.3517659693318187,0.06978886249595995,0.000841484895343747,1.5331715091739488,9.24876235600716,-0.6417180662088756,-0.5998619472549197,-0.02967252692184863,0.00033341228489221
0.75,0.12106674967886433,0.008458795049533412,-1.1740078363449664,0.19633832301194873,-0.1035465084979505,-0.0012880284624824712,2.9022315673000696,-0.23051877619477554,-0.11239956803233367,0.0034662810909888465,-0.12835612574539285,0.000192677447129464,4.020023818136539,4.040101572837563,-7.31872786474903,-2.3811663769771023,0.08480727176452163,0.0009133129708573939,1.4640786015771672,9.109315156863097,-0.6689031528919794,-0.6046121352573504,-0.028917829389416828,0.0003079833642318505
0.76,0.15048910141636448,0.006554541446325962,-1.1758573465875106,0.19613963322222247,-0.10482755880121054,-0.0012858026226695905,2.9422351737500145,-0.190425360320745,-0.1849510242544148,-0.019868978972626107,-0.1281050303260043,0.0002225839812880695,3.4626021744583264,3.5792929199902788,-7.439208718412343,-2.4038435597197,0.09844616652510929,0.0009104249710076839,1.3736381254435246,8.975875946091588,-0.6909153985546114,-0.6078770569955962,-0.02772913853961565,0.0002729814375121308
0.77,0.18025599704758702,0.005005272957759316,-1.1784444591268497,0.19570546333835034,-0.10610463847804094,-0.0012832892940310328,2.9766895631222536,-0.15492684885666458,-0.25871125393389816,-0.04341698838721228,-0.1277079676830402,0.00025133286385576687,2.913013486534243,3.1083926552137675,-7.540179832438422,-2.421027900742896,0.11329147742717893,0.0007886422375079638,1.2890925384161256,8.838387259861097,-0.7114504178519033,-0.6102038809146455,-0.02703314809454728,0.00023478347402164972
0.78,0.21031272137118687,0.0037640379991445596,-1.1817793275740527,0.19503423457434418,-0.10737621192823397,-0.0012805002887799307,3.0056724323599857,-0.12412349586147564,-0.33348684472030865,-0.06712287640061569,-0.12715734501930287,0.0002789005251102089,2.401844505817445,2.6420640044524206,-7.621877895250136,-2.4328455439690373,0.1290603100965173,0.0006193529871401093,1.2174576001112043,8.701589181644122,-0.7290894488045669,-0.6113829938388314,-0.02703727325914506,0.00019498318454510847
0.79,0.24060838088237035,0.0027843430844380302,-1.185870188370433,0.19412489365220534,-0.10864071619595995,-0.0012774454882140713,3.0295659511183475,-0.09796949147065291,-0.40908607963803584,-0.09093409221388524,-0.12645042677259732,0.0003054800565859372,1.933104501965734,2.219869174585412,-7.683843731756285,-2.439316758175199,0.14501866607131397,0.00042043778693690026,1.1596395797323602,8.5796206182842,-0.7394701118097959,-0.6107843244438935,-0.027699423686525997,0.00015398463894030151
0.8,0.27109630374975213,0.00202409402583602,-1.1907232974457105,0.1929768821508235,-0.10989661195337397,-0.0012741333762517095,3.048792286738177,-0.076024905860201,-0.48531090752774775,-0.11480115013818382,-0.1255895757414013,0.0003312111962361751,1.5138224647398912,1.812153538919825,-7.725474077524053,-2.4407445964464145,0.16070752588997905,0.00018414175907932595,1.1168902784694392,8.46179840385258,-0.7452982331599487,-0.6087424377953925,-0.029070437767901997,0.00011211860328400055
0.81,0.3017347398332594,0.001442642200427262,-1.1963428873424786,0.19159013949560097,-0.11114242595251755,-0.001270570844209225,3.0638436083507274,-0.058145182540875806,-0.5619589896768222,-0.13867426552225304,-0.12458139991435858,0.00035625320424845106,1.143506953360266,1.46913299311017,-7.746253768501131,-2.437055029186048,0.17567237105887745,-9.105852531327008e-05,1.0890851896598428,8.366574185132997,-0.7408284022942744,-0.6044213837386925,-0.031048600218980635,6.969865723900842e-05
0.8200000000000001,0.3324868125528735,0.0010057872004618261,-1.2027310926498267,0.18996507178015956,-0.11237677667303891,-0.0012667641351559837,3.0752072719614105,-0.0436854999965436,-0.6388205307347993,-0.1625067715441395,-0.12343507205213651,0.00038067090532414307,0.8204051167199513,1.1590964584491643,-7.745442905107507,-2.428547843881386,0.18966421222969743,-0.0004156832635731633,1.0753205675561401,8.282841905299971,-0.7288368703548362,-0.5981634393814763,-0.033604342068905835,2.6704335422580574e-05
0.8300000000000001,0.363320344633511,0.00068261841283414,-1.2098878948596745,0.18810255769865064,-0.11359839358684741,-0.0012627188918156167,3.0833532080637487,-0.03231687876276861,-0.7156802209847876,-0.18625140815089142,-0.1221616913808493,0.00040452433403669643,0.5387215931378646,0.9075346487544095,-7.722520833327501,-2.415158877306503,0.20253846636830186,-0.0007919321503924714,1.07406105805789,8.220464408569411,-0.7060464240188613,-0.5894683474176249,-0.03661371917470237,-1.6865488141871266e-05
0.84,0.39420728161896346,0.00044805474766834117,-1.2178110590616416,0.18600393659406791,-0.11480611850319011,-0.001258440846335803,3.088693698545247,-0.023456366516579882,-0.7923164201967057,-0.20986211045827396,-0.12077249163427044,0.0004278045479813565,0.2155674730409349,0.7002686754158111,-7.676459955440279,-2.396862238474206,0.21332292383380969,-0.0012263377677248777,1.0647016560425344,8.174855157314466,-0.6734523336947341,-0.5784509644135362,-0.03935235190919754,-6.521216348970428e-05
0.85,0.4251154408540522,0.00028143230750115494,-1.2264960407957026,0.18367102808468463,-0.11599889061518805,-0.0012539403943187134,3.0908159235088726,-0.016662244016718626,-0.868498173406105,-0.2332908509383293,-0.11927721119979387,0.00045004520170897043,-0.22970449651235056,0.543002515413093,-7.6070670124800435,-2.3736914436927883,0.22189448590388844,-0.001763322300817008,1.026225027302327,8.148084955126208,-0.6307161146771946,-0.5650820907597915,-0.041042981280643535,-0.0001222086439927524
0.86,0.45600048165701434,0.00016707262573776132,-1.2359359649412416,0.18110612633675752,-0.11717567059201257,-0.00124923713073502,3.0885040802962163,-0.011435968176339361,-0.9439924145538914,-0.2564901747927112,-0.11767799768245324,0.0004703263583693355,-0.7070673953963764,0.3998172919045977,-7.515219976062018,-2.3460555093859767,0.23099588633443902,-0.002444615627802252,0.9786438451999984,8.126013063862692,-0.5828034955600407,-0.5501063973722213,-0.042357778261052824,-0.00018284496097554994
0.87,0.48681486403765245,9.070531150709672e-05,-1.246121731419075,0.1783119920235919,-0.11833534390216777,-0.001244353559674043,3.081438238063813,-0.007636731423066459,-1.0185766477833273,-0.27941343131656093,-0.11596733101551875,0.000488357106097707,-1.192903459274824,0.3206767165919818,-7.401574302850799,-2.3138954405366405,0.24103445038530724,-0.003203817028444911,0.9267709031354063,8.127618499003043,-0.5243924060650985,-0.532766692022577,-0.04333792326422712,-0.0002451370604451389
0.88,0.5175101993340674,4.4445831303545883e-05,-1.257042054267543,0.17529181431960772,-0.11947671004842861,-0.0012393131610283535,3.0695335296414896,-0.0046259480203550835,-1.0920322848467898,-0.3020177703984177,-0.1141366146260835,0.000504039864568928,-2.673394706352765,1.9548067518842858,-7.1306205196415515,-2.2646519829973784,0.24779462522142737,-0.004024664759117891,0.6198296155449138,8.80774951130533,-0.24544825476404508,-0.48022399384099856,-0.03245462425649408,-0.0003445278589192964
0.89,0.5479390648908293,0.00019115477492517063,-1.2686693498859936,0.17204966450282572,-0.12059753641146705,-0.0012342003422873143,3.0428865556761893,0.014670894362162474,-1.1627295618450717,-0.32421498167820073,-0.11208263630384323,0.0005112818741039098,-2.1579627726039243,-1.7926247858177724,-7.106878015478383,-2.2460112206088922,0.2747071763954896,-0.005330839079732863,0.7893734073531193,7.364317327537737,-0.6394988613219951,-0.5314833688140608,-0.04603656099357011,-0.0003765154634867116
0.9,0.578152725384547,0.0001574586292330481,-1.2810030323832182,0.16859007706030388,-0.1216969518631488,-0.0012289503713738884,3.0213660493717605,-0.0033696145692122537,-1.2333682497224714,-0.34595874425218476,-0.10994154516817478,0.0005249970913425961,-2.657269767812123,-0.5694508134335854,-6.943340520606656,-2.1835165183241365,0.2805600611751178,-0.00543870597349172,0.7391738302279496,7.861184054157936,-0.42098273954530085,-0.4875677223686534,-0.04523838437383784,-0.00044261302771395473
0.91,0.6081014464481729,6.521444376064287e-05,-1.2940261095229522,0.1649178816716649,-0.1227738601366092,-0.0012235977089360838,2.9948721063625845,-0.009224418547240522,-1.3023077139733905,-0.36721953886389597,-0.10769082734603953,0.0005352662437804569,-4.577298589469561,5.921783218593191,-6.116375288860726,-2.091660471760772,0.2894447609035069,-0.006507472519486912,0.3007085526759281,10.56376757947617,0.542483349217031,-0.3198730835384689,-0.02061110094880731,-0.0005183104776467579
0.92,0.6375940244413285,0.0005614442832481231,-1.3076540402610952,0.16103988598334013,-0.1238247313414173,-0.0012182713084448443,2.9492577993155633,0.04962298394874802,-1.3627930738143013,-0.38779956883247774,-0.10508712048081058,0.0005326400491239481,-3.6257445642128867,-3.692305102176353,-6.534411350068717,-2.1013692461643174,0.321962148323367,-0.007946933678842583,0.5243457634762951,6.6720091337303975,-0.6709810316820612,-0.506589624086273,-0.044078751981203215,-0.0005574952472640187
0.93,0.6667251173410076,0.0006880712383896207,-1.3219325534884685,0.15696049022518546,-0.12484957915099291,-0.0012128443613721484,2.91310928996791,0.012662695514149766,-1.4278513227373204,-0.4079395758154666,-0.1024847809575615,0.0005426947072695916,-4.1265961497570185,-2.2173334086197887,-6.33047564416113,-2.0131648494037933,0.32334917303592015,-0.0075794455794279125,0.46655872352386163,7.267200825075696,-0.41346428450633477,-0.4540755914800509,-0.042483793077566195,-0.0006291001212796642
0.9400000000000001,0.6954448253088482,0.0005920400136662384,-1.336840425761191,0.15268658991763434,-0.12584757254027393,-0.0012073529972360811,2.87197079678406,-0.009603122472338226,-1.4907872272722553,-0.4273900307551121,-0.09979933892810015,0.0005491364136067343,-4.625365348921505,-0.9455517265054243,-6.102330476504692,-1.9415381090796515,0.3303895028131354,-0.008733266558611508,0.38596424846716815,7.802423714090641,-0.17141807944700083,-0.4031006656662972,-0.03940489731113712,-0.0006894543515142414
0.9500000000000001,0.7237034418496829,0.00040008081893252436,-1.3523542663628103,0.14822407962671008,-0.1268175062925216,-0.0012018436549220708,2.825861654083477,-0.01919591947337141,-1.5513840601619413,-0.44625102909242526,-0.0969933752247668,0.0005509342314010397,-5.120612757888395,0.14014968065923095,-5.853667100147639,-1.8803833198330864,0.3413468845942731,-0.00989211498414444,0.283491547907732,8.281856620456596,0.05469556723321389,-0.35396889415632193,-0.03495200133062114,-0.0007387872428177177
0.96,0.7514515991830003,0.0002204069315765427,-1.3684488369736056,0.14357830369289087,-0.1277579237706348,-0.001196352679290146,2.7748157333317356,-0.017967388735598167,-1.6094570610795402,-0.46457759338192195,-0.09404174781132264,0.0005490975631924823,-5.610773478825969,0.8597759643990147,-5.5877716648336415,-1.8251756281354652,0.3549245992967158,-0.010842342346613076,0.15989877685554332,8.625574466753571,0.23792733228565632,-0.31130381523522366,-0.02959046435100124,-0.000779586275545255
0.97,0.7786404246605625,0.00012477609434524982,-1.3850974497050113,0.138754541107808,-0.12866723734702162,-0.001190903356461062,2.718882547756217,-0.009563083723129287,-1.664861273140563,-0.48237625850828714,-0.09093135763868258,0.0005449322829084006,-6.094170279313555,0.10944141983949832,-5.308720357983712,-1.771045961016826,0.36984428115817636,-0.011561458722958884,0.016409237419957368,8.347729983577016,0.22053156354897574,-0.30162939091826463,-0.02561093723230709,-0.0008271416845482755
0.98,0.8052217032931046,3.850261045289493e-05,-1.4022729636023454,0.1337592493376236,-0.1295439803208741,-0.001185496563667719,2.6581278632542085,-0.00862734838923549,-1.717551389733415,-0.49952917701843985,-0.08767429738524893,0.0005406792793342936,-7.8136359626537,11.395949748044778,-4.302980386596314,-1.6484290013895055,0.3870216063299097,-0.012077357917489873,-0.48962053396855443,13.443702202780639,2.01402707907806,0.021227645524471334,0.01419366382697293,-0.0007752617955887717
0.99,0.8310241267638651,0.0010865024869409511,-1.4198703402404327,0.12859907466152085,-0.1303834596974358,-0.0011802681155935473,2.5802423470760463,0.1047999876488056,-1.7597376638087205,-0.5160174676102739,-0.08394793765617152,0.0005228448074171665,-6.994952127061454,-5.891162556580822,-4.705193479853854,-1.6990004288416607,0.4225697110980242,-0.012874033981977284,-0.39970240239904764,5.828670377898133,-0.49698498234552746,-0.40391429467744505,-0.016595628496116024,-0.0008856445684498851
