tonegas/nnodely-applications/joint_friction_estimation/dataset/train/mpc_mujoco_episode_48.csv
time,q1,q2,q3,q4,q5,q6,dq1,dq2,dq3,dq4,dq5,dq6,ddq1,ddq2,ddq3,ddq4,ddq5,ddq6,tau1,tau2,tau3,tau4,tau5,tau6
0.0,0.0,1.57,-1.57,0.0,0.0,0.0,0.0,0.0,0.0,0.0,0.0,0.0,-1.9477835926950653,6.271500131831854,13.792620185199254,5.272401935921614,-0.27738203524182126,-4.1178078448167454e-06,-0.2712157503360816,1.2305622137771435,-1.3094556201455507,-0.24892423625242066,-0.02434558757393979,-0.0003614203669653749
0.01,-0.0001937370649824196,1.5706299554839038,-1.568625444088375,0.0004935196321116358,-2.3600136714256514e-05,2.9545968860754393e-08,-0.01937370649824196,0.06299554839036875,0.13745559116250694,0.04935196321116358,-0.0023600136714256514,2.9545968860754393e-06,-1.9461966890888078,6.250800215304432,13.688894571539196,4.908420209290021,-0.23497012131323558,0.0003139913174716735,-0.27362935681809425,1.1738607385942084,-1.3301996618926766,-0.2531790910983476,-0.02451586695074986,-0.0003642210745065245
0.02,-0.000580910142343082,1.5718879612451464,-1.565888692730259,0.0014516036708587757,-6.821438003173999e-05,9.605130500143917e-08,-0.03871730773606624,0.12580057612425205,0.27367513581157904,0.09580840387471398,-0.004461424331748347,6.650533614068477e-06,-1.942735589861809,6.225711043001574,13.556127000825999,4.613559525729414,-0.20858259426637282,0.00045360754145340465,-0.27776330569116847,1.0849997061332282,-1.3559697656513188,-0.2577659603501403,-0.024785137893727393,-0.00036603277785019676
0.03,-0.0011610923077290778,1.5737716035738991,-1.561804466101412,0.0028504772993107087,-0.00013221322936273914,2.000035245666096e-07,-0.058018216538599565,0.1883642328752727,0.4084226628847081,0.13988736284519326,-0.006399884933099917,1.0395221956517042e-05,-1.93779575805782,6.1950151286854425,13.399151093641853,4.369828924067953,-0.19149270923763595,0.0005770188218373606,-0.2835254052644915,0.964486279776545,-1.3867603603321674,-0.2626801260834457,-0.025144139265279877,-0.00036676369705227743
0.04,-0.0019337464475576104,1.5762778540621631,-1.5563894910427538,0.00467017762284198,-0.00021451718595904678,3.402666500204405e-07,-0.07726541398285328,0.2506250488263927,0.541497505865832,0.1819700323531272,-0.008230395659630761,1.4026312545383086e-05,-1.9315215315198893,6.157679107065609,13.22148444101958,4.16351365604482,-0.17965416663050604,0.0007358163648274463,-0.2907931204927219,0.8129494967830295,-1.4225028986045198,-0.2678966477413086,-0.025580496234928123,-0.0003662916313330785
0.05,-0.0028982252092254685,1.5794029782683863,-1.5496622490036163,0.006893510077683842,-0.00031435231427745264,5.163307039489612e-07,-0.09644787616678582,0.31251242062232343,0.6727242039137472,0.22233324548418615,-0.00998351283184059,1.7606405392852077e-05,-1.9238999887973305,6.112826885344293,13.025638181285201,3.984172060690206,-0.17065339739315277,0.0009468095093010387,-0.29941228923762064,0.6311590892925079,-1.463062949941167,-0.2733705662101268,-0.0260789141452461,-0.00036446371353424063
0.06,-0.004053760970794013,1.5831424574067492,-1.541642801104554,0.009505253349829438,-0.0004311044749860202,7.29265582422091e-07,-0.11555357615685445,0.37394791383628806,0.8019447899062202,0.2611743272145596,-0.011675216070856758,2.129348784731297e-05,-1.9148201306357637,6.059721437955048,12.813358961947875,3.823866838613732,-0.1630718216063265,0.0012115836032988714,-0.30919545282238503,0.4200440649053929,-1.508237949271706,-0.2790372838380628,-0.02662138289059449,-0.00036109986209898707
0.07,-0.005399449511134325,1.5874909218847582,-1.5323526715926814,0.012491554356904808,-0.0005642336833842801,9.820173122291082e-07,-0.13456885403403113,0.4348464478008888,0.9290129511872594,0.298630100707537,-0.013312920839825982,2.5275172980701728e-05,-1.904110995438379,5.997752822621892,12.585818779500714,3.6765770872543726,-0.15609756752626858,0.0015241888425980843,-0.3199201976131731,0.18071045108391282,-1.5577556239662633,-0.284813157240151,-0.027187409163950904,-0.0003559984728454278
0.08,-0.006934229816726593,1.5924420959801313,-1.52181477491872,0.015839468660111062,-0.0007132251495937399,1.2793575498108918e-06,-0.15347803055922685,0.49511740953731864,1.0537896673961327,0.3347914303206255,-0.014899146620945986,2.973402375817835e-05,-1.8915670542080398,5.92643058446809,12.343764627214663,3.5377494135712197,-0.1492886379650571,0.0018751719613895323,-0.331327902831308,-0.08554249735705088,-1.611273172147781,-0.29059633603,-0.027754290730682314,-0.0003489435521600198
0.09,-0.008656861719474083,1.5979887532697028,-1.510053374711901,0.01953661228881231,-0.0008775627135918347,1.6276575129573576e-06,-0.17226319027474904,0.5546657289571378,1.1761400206819208,0.3697143628701249,-0.01643375639980948,3.482999631464659e-05,-1.8769659400002892,5.845379139866591,12.087637091261543,3.403955820674291,-0.14242792999306175,0.0022539622909109047,-0.34312328742841974,-0.3772083862107998,-1.6683772944518274,-0.2962678762385125,-0.028297443742516158,-0.00033971282631322275
0.1,-0.010565902619181458,1.6041226826321355,-1.4970940652828184,0.023570899100218867,-0.0010567159355254355,2.0345843047176184e-06,-0.19090408997073752,0.6133929362432742,1.2959309429082488,0.40342868114065594,-0.017915322193360082,4.0692679176026064e-05,-1.8600815219578404,5.7543350455867985,11.817664858330193,3.2726333956845366,-0.13543397760949993,0.0026503381402193105,-0.3549751362737735,-0.6925628418841585,-1.7285851938886023,-0.30169315159647114,-0.0287907908217614,-0.00032808651615717993
0.11,-0.012659684279125675,1.610834664767021,-1.4829637681136798,0.02793034402489279,-0.0012501354632286801,2.508776175029799e-06,-0.20937816599442177,0.6711982134885509,1.4130297169138666,0.43594449246739214,-0.01934195277032446,4.741918703121808e-05,-1.8406940713015552,5.653145296453156,11.533940406483595,3.14188653219383,-0.12830556583161723,0.003055320184905508,-0.36651855575477504,-1.0296565011733616,-1.7913466572142762,-0.3067235787252923,-0.029207214078674854,-0.0003138565245517415
0.12,-0.014936290515794839,1.6181144592240362,-1.4676907372306383,0.03260291730351084,-0.0014572533394801046,3.0595291436476825e-06,-0.2276606236669163,0.7279794457015188,1.5273030883041618,0.4672573278618047,-0.020711787625142437,5.507529686178833e-05,-1.8185984960995887,5.541765981624815,11.236480576291571,3.0103368509426005,-0.12108702726500375,0.0034616817702276537,-0.3773590558899699,-1.3863125751713108,-1.8560473556022212,-0.31119867287351144,-0.029519073321144857,-0.0002968357968085285
0.13,-0.017393536487184495,1.6259508019319304,-1.4513045685205952,0.03757643843926988,-0.0016774861555167496,3.6965130696924502e-06,-0.2457245971389656,0.7836342707894143,1.6386168710043076,0.4973521135759043,-0.022023281603664513,6.369839260447679e-05,-1.7936111562805224,5.420260769643923,10.925276363857503,2.8770093728676613,-0.11384627045874929,0.003864189605062074,-0.38707867622132497,-1.7601293811343872,-1.9220132488698867,-0.3149483827045596,-0.02969878543999545,-0.00027686756761553403
0.14,-0.020028950189708145,1.6343314131702837,-1.433836208872056,0.04283850134312331,-0.0019102397214845034,4.429526530793215e-06,-0.26354137025236496,0.838061123835332,1.7468359648539227,0.5262062903853428,-0.023275356596775376,7.330134611007648e-05,-1.7655755096293215,5.288798835636138,10.600331015761366,2.741246282456686,-0.10666074432711525,0.004259649096053142,-0.3952442678984009,-2.14848882868432,-1.9885165726226957,-0.31779579778358813,-0.029719456652638088,-0.0002538342691585407
0.15,-0.02283975668678952,1.6432430158467348,-1.4153179619804586,0.048376424220745826,-0.002154914399593341,5.268294459853809e-06,-0.2810806497081376,0.8911602676451102,1.8518246891597516,0.5537922877622516,-0.024467467810883773,8.387679290605935e-05,-1.734366682888182,5.147651925158471,10.261691799134235,2.602641381543556,-0.0996084366713692,0.004646808210344577,-0.4014179116929678,-2.548570582609335,-2.0547828935373014,-0.31956007102867545,-0.02955555470270116,-0.00022766572707613774
0.16,-0.025822865503598413,1.6526713638392594,-1.3957834881410565,0.054177219317614884,-0.002410910546258461,6.222309021229781e-06,-0.2983108816808894,0.9428347992524536,1.9534473839402018,0.5800795096869059,-0.025599614666511956,9.540145613759722e-05,-1.6998949986097656,4.9971903626502625,9.909473912367218,2.4609902333389257,-0.0927621345365548,0.00502616178226678,-0.4051693029055438,-2.957372488077679,-2.1199995727387657,-0.3200596096225825,-0.02918360407978793,-0.00019834637993238133
0.17,-0.028974861529877785,1.6626012800433092,-1.3752677960160606,0.060227578807216256,-0.002677633703730445,7.300711994308092e-06,-0.31519960262793734,0.9929916204049845,2.051569212499581,0.6050359489601375,-0.02667231574719842,0.00010784029730783113,-1.6621084599983205,4.837877890332869,9.543878071417247,2.316251983294187,-0.08618584757652137,0.00539969088189296,-0.40608977213525543,-3.3717370737581884,-2.183325463240905,-0.3191154587934649,-0.028582883613122036,-0.00016592119951371536
0.18,-0.03229199967602085,1.6730167036361145,-1.35380722490324,0.06651387397328809,-0.0029544993103610326,8.512215522581975e-06,-0.3317138146143066,1.0415423592805269,2.1460571112820728,0.6286295166071835,-0.027686560663058767,0.0001211503528273884,-1.620994202186892,4.670265314323914,9.16520124956119,2.168519859166963,-0.07993269543840498,0.005770565452827059,-0.40380745049412364,-3.7883839892925124,-2.2439018736153504,-0.3165548546248699,-0.027736103024106545,-0.00013050004363120165
0.19,-0.03577020342864569,1.6839007459425392,-1.331439416644206,0.07302216546686045,-0.003240936785855407,9.865057236153554e-06,-0.3478203752624839,1.0884042306424775,2.2367808259033977,0.6508291493572367,-0.028643747549437423,0.00013528417135715785,-1.576578588184202,4.4949816337174795,8.773908652919125,2.017996723205222,-0.07404379720711862,0.006142832694853606,-0.3980028758089753,-4.203939346728324,-2.300855331072005,-0.3122125411219727,-0.02663002795484834,-9.22589321610158e-05
0.2,-0.039405067319025336,1.6952357540639342,-1.3082032703190287,0.07973822317453251,-0.0035363929071876763,1.1366984989806577e-05,-0.3634863890379645,1.1335008121395096,2.323614632517723,0.6716057707672056,-0.029545612133226925,0.00015019277536530232,-1.528927475241459,4.312729001080343,8.3704520371173,1.8649836864457896,-0.0685478503551673,0.006521107389644953,-0.3884245311913338,-4.615001990806659,-2.353335108262216,-0.30594056700684363,-0.02525604892774145,-5.144382823860715e-05
0.21,-0.04319186333527814,1.707003381676331,-1.2841388974778014,0.08664755372630298,-0.0038403344348155836,1.3025267619893709e-05,-0.37867960162528064,1.1767627612396896,2.4064372841227204,0.6909330551770464,-0.030394152762790713,0.0001658282630087132,-1.4781437481135793,4.124268447075484,7.955496721934449,1.7098527438489555,-0.06346117649279392,0.006910283528395511,-0.37490298800219657,-5.0181587302339725,-2.400494946673027,-0.29760394680410224,-0.023610628115568723,-8.364824221719999e-06
0.22,-0.04712555103709659,1.7191846657033683,-1.259287555988734,0.09373543487409979,-0.004152249974176211,1.4846725683043979e-05,-0.3933687701818452,1.2181284027037114,2.485134148906739,0.7087881147796807,-0.031191553936062762,0.00018214580631502702,-1.4243655110628157,3.9304120086780556,7.529786642345896,1.5530436654591213,-0.05878805195639636,0.00731525054532467,-0.35736329656100535,-5.410050155090407,-2.441523458773598,-0.28708817095184197,-0.021695645326233366,3.660553206789562e-05
0.23,-0.05120079119653438,1.731760108007715,-1.2336915756564393,0.10098695568843044,-0.004471651078284242,1.6837778549165388e-05,-0.40752401594377874,1.257544230434661,2.559598033229468,0.7251520814330662,-0.0319401104108031,0.00019910528661214104,-1.3677630149233067,3.732011289132739,7.094149605655368,1.3950505994482079,-0.05452121600291271,0.007740651446389468,-0.33583448167541524,-5.787417702112016,-2.475655062023065,-0.2743016320146798,-0.019518597947785567,8.303856733277107e-05
0.24,-0.05541196266144553,1.7447097609694846,-1.2073942751891702,0.10838706156007395,-0.004798072608192493,1.9004503499094556e-05,-0.4211171464911151,1.2949652961769564,2.629730046726902,0.7400105871643513,-0.0326421529908251,0.00021667249499291688,-1.3085359131590493,3.5299487391165596,6.649342809685168,1.2364143578709772,-0.05064245477410978,0.008190655031271588,-0.310455653318683,-6.14716722866396,-2.502201923411649,-0.2591830324719829,-0.017092662111757972,0.00013045498262941908
0.25,-0.05975318216965466,1.7580133160152327,-1.1804398856334677,0.11592060251174709,-0.005131072376034944,2.1352703243502082e-05,-0.4341219508209128,1.3303555045748117,2.6954389555702467,0.7533540951673132,-0.03329997678424503,0.00023481997444075263,-1.2469175504889207,3.3251508428935432,6.194756097537212,1.0777318616133371,-0.04712321822907395,0.008668746682435668,-0.2814794824250835,-6.486538804982986,-2.5207420781742593,-0.24174758153829146,-0.014436716347968486,0.0001783113435892565
0.26,-0.06421832753988885,1.771650195833588,-1.1528736067395473,0.12357237818110114,-0.005470230117329315,2.3887981944837745e-05,-0.4465145370234192,1.3636879818355276,2.756627889392037,0.7651775669354064,-0.03391577412943707,0.00025352787013356636,-1.1831202126269282,3.118414606171852,5.736745574243484,0.9193947392793831,-0.0439251892042698,0.009177506184549156,-0.2492609430281078,-6.802306709168257,-2.529986842171432,-0.22180444739655897,-0.011574343109155581,0.00022615941757373308
0.27,-0.06880105879464499,1.785599636861782,-1.1247409849038874,0.13132720648708393,-0.005815145692476881,2.6615792531278775e-05,-0.4582731254756145,1.394944102819395,2.8132621835659855,0.7754828305982795,-0.034491557514756604,0.0002727810586441029,-1.1176740929063629,2.911441493586927,5.233941758802878,0.7631536299563457,-0.041000466552644,0.009718413689383754,-0.2143101718650155,-7.096007979907069,-2.5352791005861977,-0.20081862407270112,-0.008538493441505842,0.0002726919497737625
0.28,-0.0734948709090817,1.7998408404213722,-1.096091940883621,0.13916983044296707,-0.006165437403973025,2.9541651721391213e-05,-0.4693812114436722,1.4241203559590219,2.8649044020266556,0.7842623955883149,-0.03502917114961441,0.00029258591901124383,-1.0516541961454764,2.7071137008230686,4.577356107585671,0.6099039539139177,-0.03829716678330808,0.010291288081409222,-0.17735756975543895,-7.373971985895938,-2.551461695643213,-0.18265151342399083,-0.005377024303573407,0.00031533769346963063
0.29,-0.07829320072330574,1.8143532157075473,-1.06699141102295,0.14708439086145214,-0.006520741512856998,3.267139507086412e-05,-0.47983298142240377,1.4512375286175188,2.910052986067099,0.7914560418485073,-0.03553041088839725,0.0003129743349472903,-0.9846856273576283,2.5036593721827805,3.8993309282580864,0.4498286208578186,-0.035765083802698605,0.010888818588273008,-0.13903971476860832,-7.619792630084769,-2.5606402768640883,-0.16311651822027412,-0.0021259481033315923,0.00035560982740424094
0.3,-0.08318938975191507,1.8291162684168971,-1.037506490467048,0.1550544038685412,-0.006880707861158227,3.601031712209053e-05,-0.4896189028609326,1.4763052709349798,2.9484920555902026,0.7970013007089062,-0.03599663483012288,0.00033389220512264144,-0.9166487609581294,2.300822197268183,3.267441306060863,0.28361962489659653,-0.03332132111759556,0.011496994002329786,-0.10001999349312443,-7.826440986185496,-2.5534996672149672,-0.14008595892889153,0.0011771204746760938,0.00039410030509630953
0.31,-0.08817667237151618,1.8441096023634205,-1.007699826348089,0.1630631862403543,-0.007244993863799549,3.9562960849140105e-05,-0.4987282619601102,1.4993333946523337,2.9806664118958914,0.8008782371813093,-0.03642860026413219,0.0003552643727049573,-0.8477395829242946,2.099495866770333,2.686199955100393,0.11654189193730602,-0.030867713347147774,0.012110008011847917,-0.06098655678670825,-7.994041166479711,-2.5293374456837134,-0.11351981654115614,0.0044921405077114306,0.0004304551263361275
0.32,-0.09324819539005466,1.8593130055449985,-0.977629141043161,0.1710942888065199,-0.00761325828967051,4.3333393411198556e-05,-0.5071523018538492,1.5203403181577946,3.0070685304927958,0.8031102566165597,-0.03682644258709611,0.00037704325620584514,-0.7781398191137403,1.9004829515777246,2.1638168046372313,-0.04713382765088614,-0.02830331756163096,0.012725443226209165,-0.02260791571171697,-8.123074419960421,-2.487078631341644,-0.08327455960321728,0.007780207183246773,0.0004644550500529314
0.33,-0.09839703621617676,1.8747065289179639,-0.9473463997838233,0.1791318710961389,-0.00798515469562909,4.732547827902586e-05,-0.5148840826122105,1.5393523372965376,3.0282741259337667,0.8037582289619016,-0.03718964059585803,0.00039920848678273003,-0.7080586361287249,1.704619033016661,1.6969829173391295,-0.2035953105674757,-0.02552400427375101,0.01333963776581959,0.014486490957365622,-8.215444046070935,-2.4273509639735775,-0.04961076152648014,0.011003995503264365,0.0004957666144945668
0.34,-0.10361622377033711,1.8902705641986046,-0.9168981074692653,0.18716097840483448,-0.008360324676663573,5.154311419531953e-05,-0.5219187554160339,1.5564035280640818,3.044829231455806,0.8029107308695571,-0.03751699810344826,0.00042176359162936737,-0.6376713422411002,1.5125760080152755,1.291577792141136,-0.350196048328848,-0.022423787741864043,0.013946716230131134,0.04972469344487787,-8.272731150712449,-2.349636605682583,-0.012496960170301136,0.014129039560618483,0.0005242839155850176
0.35000000000000003,-0.10889875604235703,1.9059859094490896,-0.886324713981818,0.19516777580608693,-0.008738390764089521,5.599037234176546e-05,-0.5282532272019931,1.5715345250485107,3.05733934874472,0.8006797401252457,-0.03780660874259474,0.00044472581464459336,-0.5671693986864672,1.3250267725633373,0.9418904264460795,-0.48456261560116953,-0.018893763939590524,0.014538489885688843,0.08260811812347954,-8.297621183483592,-2.2550975473675225,0.02770198030982829,0.017123969897644628,0.0005497890293172322
0.36,-0.11423761926381983,1.9218338307202785,-0.8556611556128595,0.20313970049927738,-0.009118949168064423,6.067158888708551e-05,-0.5338863221462792,1.5847921271188885,3.06635583689585,0.7971924693190442,-0.038055840397490104,0.0004681216545320046,-0.4967372705729897,1.1425459165769059,0.6414325056250718,-0.6052030337509313,-0.014823740589800849,0.015104274478785984,0.11271397319088555,-8.29285989187052,-2.145093260246243,0.07058173051126114,0.01996060419129116,0.0005721147700972202
0.37,-0.1196258063935954,1.9377961144620492,-0.824937478725573,0.2110655421274578,-0.009501562362263726,6.559137126354515e-05,-0.5388187129775562,1.5962283741770789,3.072367688728654,0.7925841628180426,-0.038261319419930336,0.0004919782376459649,-0.42655618588965927,0.9656230867510075,0.38118986480676575,-0.7113247339683928,-0.010102458197891462,0.01563035011244579,0.1396993978557512,-8.261252543673553,-2.0214039466806666,0.1156427033089911,0.02261398109310491,0.0005911093821820962
0.38,-0.12505633528973073,1.953855111423032,-0.7941797158505445,0.21893545674718276,-0.009885751562586717,7.075451935544119e-05,-0.543052889613534,1.6058996960982823,3.075776287502851,0.7869914619724967,-0.03841892003229911,0.0005163148091896041,-0.3568244871209092,0.7946990704014211,0.14580170987604235,-0.8027233274090934,-0.004618346269390727,0.01609971473809206,0.16329818164657212,-8.205694248915663,-1.8867435901385927,0.1621616141671966,0.025061831896001616,0.0006065632235438752
0.39,-0.1305222685871218,1.9699937745876437,-0.7634113881630016,0.22674090497193428,-0.01027098926389889,7.6165861966417e-05,-0.5465933297391063,1.6138663164611557,3.0768327687542922,0.7805448224751524,-0.03852377013121737,0.0005411342610975814,-0.2881618626385884,0.6308415761001466,-0.15238748848852007,-0.8786259836830729,0.0017415507889824156,0.016491534011352574,0.1832591517190066,-8.13139159044883,-1.7537928232612712,0.20697336479530345,0.027277384830727242,0.0006171100528846976
0.4,-0.1360167753522507,1.9861957392359217,-0.7326620931114451,0.23447428790070055,-0.010656693670568273,8.183004251726404e-05,-0.549450676512891,1.6201964648277993,3.0749295051556413,0.7733382928766273,-0.038570440666938224,0.0005664180550847044,-0.2210456353275168,0.47440711161311,-0.5484285806666657,-0.9430020121714398,0.00906963938296046,0.016775549491060464,0.19934196579486113,-8.039391293397498,-1.6282334931832645,0.248560436632914,0.029231998830114427,0.0006221604693440595
0.41000000000000003,-0.14153317861517667,2.0024453543787466,-0.7019709679264006,0.2421284760232454,-0.011042223595953174,8.775092915083406e-05,-0.5516403262925956,1.6249615142825016,3.069112518504463,0.7654188122544835,-0.03855299253849016,0.0005920886633570025,-0.15529270963930464,0.3245623313496184,-0.9630869218625695,-1.0026016313452075,0.017441955284600463,0.016912571612935745,0.2114408917908542,-7.926686323502806,-1.5001978806647347,0.28917680789346684,0.03090739846795682,0.0006229775477769141
0.42,-0.14706493747342525,2.0187276291387586,-0.6713789609223485,0.2496966616518557,-0.01142687109661606,9.393080360483109e-05,-0.5531758858248585,1.6282274760012074,3.059200700405207,0.7568185628610307,-0.03846475006628855,0.0006179874453997023,-0.09093908452287452,0.18117635027655318,-1.3702848158495575,-1.0582264063925053,0.0269483663927923,0.01686614606640599,0.21960307727138068,-7.794027049822106,-1.3669106232830979,0.3294216644799487,0.03229319283208283,0.000620153391866445
0.43,-0.15260565093119338,2.0350282279221865,-0.64092627850314,0.25717242049869665,-0.011809854357577042,0.00010036985730117585,-0.5540713457768119,1.6300598783428017,3.0452682419208523,0.747575884684094,-0.038298326096098186,0.0006439053696344762,-0.02810490221478799,0.04431669952802203,-1.7632209679621746,-1.109057165309049,0.037661617215510354,0.01660500357279196,0.2239822588931838,-7.643395754624902,-1.2281906886328082,0.36929718529810135,0.03338484619244044,0.0006140606652608647
0.44,-0.15814907012864657,2.0513334784439636,-0.6106517130480192,0.26454980866576894,-0.012190312193143395,0.00010706581055184608,-0.5543419197453173,1.6305250521777168,3.027456545512072,0.7377388167072313,-0.03804578355663536,0.0006695953250670226,0.03304309554339391,-0.0859086509750175,-2.144699875801737,-1.1540624060437539,0.04962261106344229,0.016100995019703995,0.2248116665810046,-7.477177478014862,-1.085168535019412,0.4085060835172068,0.03418247129716843,0.0006049671480835054
0.45,-0.16368911524939253,2.067630381240951,-0.5805929121359947,0.2718234318224786,-0.01256730100600641,0.00011401354916587791,-0.554004512074596,1.6296902796987478,3.0058800912024495,0.7273623156709663,-0.037698881286301555,0.0006947738614031841,0.09235190413394939,-0.20945894130959386,-2.5131491116094478,-1.192705410578312,0.06282925505164283,0.015328711250198301,0.22238692481083072,-7.297634890210592,-0.93838921143217,0.44690400719794093,0.034690724444206456,0.0005932341662546965
0.46,-0.1692198911397275,2.083906613865211,-0.5507862208660886,0.27898849484160504,-0.012939794620594611,0.0001212047473848713,-0.5530775890334964,1.62762326242598,2.9806691269906107,0.716506301912644,-0.03724936145882005,0.0007191198218993395,0.14965442971850254,-0.3263069752549446,-2.8683606606644445,-1.2245753888492965,0.07723110206469125,0.014267242694963322,0.2170541283896661,-7.107066951642911,-0.7885767159555015,0.4843175965019306,0.0349184675223998,0.0005792237968200927
0.47000000000000003,-0.1747357043852181,2.1001505334838777,-0.5212666587171292,0.28604083489722676,-0.01330668761095351,0.00012862751310086805,-0.551581324549061,1.6243919618666844,2.9519562148959464,0.7052340055621747,-0.03668929903588976,0.0007422765715996762,0.2047739393855164,-0.4364427633604187,-3.2099706639751613,-1.2494598099256695,0.09272167072671533,0.012902226538574812,0.2091942269917365,-6.90772800503608,-0.636421893766673,0.5205941959117868,0.03487833228202037,0.0005633118708414462
0.48,-0.18023108139167365,2.1163511779054063,-0.4920678820766834,0.29297693907650557,-0.013666802684153746,0.00013626608380220504,-0.5495377006455552,1.6200644421528496,2.9198776640445816,0.6936104179278798,-0.03601150732002371,0.000763857070133699,0.2575226314187453,-0.5398647502574161,-3.5376839910880133,-1.2673106809167027,0.10913292997036067,0.011227928924322728,0.19920863773128566,-6.7018067046499015,-0.48260570899057786,0.5555957264524609,0.03458625004217797,0.0005458761974451381
0.49,-0.18570078758696268,2.1324982658182545,-0.46322215428422797,0.29979394812263455,-0.014018902583079943,0.00014410060762143362,-0.5469706195289038,1.6147087912848093,2.884572779245545,0.6817009046128996,-0.03520998989261979,0.0007834523819228587,0.30770229394336013,-0.6365734660322058,-3.851385743041089,-1.2782296372806972,0.12623217043003332,0.009249166991476376,0.18750545138655994,-6.491401577519527,-0.3278084922118004,0.5891956298480088,0.03406092251478532,0.0005272867106821468
0.5,-0.19113984764141884,2.14858219683166,-0.43476033404921716,0.3064896469772204,-0.014361706791796955,0.0001521070435071577,-0.5439060054456148,1.6083931013405428,2.8461820235010817,0.6695698854585855,-0.03428042087170102,0.0008006435885724061,0.3551100130821922,-0.7265670210031273,-4.150407849026515,-1.2824719915301461,0.14372232185512257,0.006982814620092204,0.1744870005552826,-6.278497595148363,-0.17260552801832055,0.6213030002763146,0.03332332174080091,0.000507909299964714
0.51,-0.1965435660949804,2.164594051826427,-0.4067118101846283,0.3130624448490575,-0.01469391303309606,0.0001602572119271471,-0.540371845356154,1.601185499476689,2.804852386458882,0.6572797871837084,-0.03322062412991048,0.0008150168419989417,0.39953029401525425,-0.8098354519512928,-4.4374532259674915,-1.2803624087350975,0.16124749403030936,0.004458726940550717,0.16053883122513593,-6.064952303341322,-0.017993971609964965,0.6517352680406526,0.03239588341221443,0.00048803906181991616
0.52,-0.20190754910645464,2.1805255937440093,-0.37910476788304626,0.3195113351937527,-0.015014223320888712,0.00016851901664722058,-0.5363983011474247,1.5931541917582561,2.7607042301582085,0.6448890344695215,-0.03203102877926514,0.0008261804720073487,0.4330575701655556,-0.8878314689554068,-7.27577766147108,-1.2437935926277284,0.1786138000290417,0.0017199692218647922,0.14570253101662622,-5.839984615668619,-0.2119031862316254,0.5968964066666987,0.03109726924186413,0.0004282954122333968
0.53,-0.2072284815312595,2.1963689707936878,-0.3522179988049467,0.3258276310675948,-0.01532145570687604,0.0001768527641887351,-0.5320932424804851,1.584337704967828,2.6886769078099575,0.6316295873842162,-0.030723238598732872,0.0008333747541514516,0.4631179282820884,-0.9619286482967124,-9.508556998776596,-1.3116822362697071,0.19384432009706049,-0.001374340642093852,0.12872228671082678,-5.594580609912716,-0.3328017135225513,0.5555995141918239,0.029431146132523532,0.00037461207577107976
0.54,-0.21250339891746184,2.2121169011025024,-0.3262712508303389,0.33199668916423153,-0.015614565610716905,0.0001852096491406305,-0.5274917386202348,1.5747930308814417,2.5946747974607782,0.6169058096636708,-0.0293109903840864,0.0008356884951895388,0.48972127166705637,-1.0294992831362038,-11.120356393208782,-1.4414877443328713,0.2066784134719798,-0.004674505222909797,0.11075830876742365,-5.34391490101345,-0.37823509317847404,0.5291941235774797,0.027508467610142938,0.0003287738398552704
0.55,-0.2177296856999392,2.2277628694957867,-0.30142349878891606,0.3380013652584131,-0.015892665053816344,0.000193535639754161,-0.5226286782477364,1.5645968393284264,2.4847752041422875,0.6004676094181574,-0.027809944309944,0.0008325990613530506,0.512640529220662,-1.0888716506575276,-12.227525883467083,-1.5982448594802037,0.2168121723721248,-0.007982276612345185,0.0927693774985141,-5.099556213948966,-0.363567367928215,0.5148087114980571,0.025427774468017306,0.0002903378277059569
0.56,-0.22290509638060604,2.24330123501462,-0.2777842157700826,0.34382434673116724,-0.016155049663445744,0.00020177543301020146,-0.5175410680666835,1.5538365518833348,2.363928301883342,0.5822981472754113,-0.026238460962940136,0.0008239793256040478,0.5317709738927712,-1.1392219975821196,-12.926253049920447,-1.7591354763545652,0.22394703468611663,-0.011123816019898536,0.07543402458327214,-4.869360409101867,-0.3015995613762317,0.5100751219595036,0.023270851352832436,0.0002588104155205802
0.5700000000000001,-0.22802776444414583,2.25872727111649,-0.255422725250049,0.34944960219638466,-0.016401224072908876,0.00020987560784204654,-0.5122668063539771,1.5426036101869982,2.236149052003361,0.5625255465217408,-0.024617440946313112,0.0008100174831845075,0.5471242461893908,-1.1803684713156881,-13.29629931551007,-1.9098633523458517,0.22788368548508892,-0.013964269522288797,0.05920006621694718,-4.658209663281032,-0.2029766851094985,0.5130315419996596,0.021103697884366734,0.00023364870030963427
0.58,-0.23309619963533104,2.274037155326669,-0.23437598134086982,0.35486321941048354,-0.016630919139997095,0.0002177869522191917,-0.5068435191185222,1.5309884210179276,2.1046743909179186,0.5413617214098898,-0.022969506708821894,0.0007911344377145174,0.5588164138300581,-1.2125977487328372,-13.403943353470932,-2.042017323470695,0.22857098339088544,-0.016410682329223825,0.04433310436192225,-4.468701989154158,-0.07652521073654683,0.5220479875115801,0.01897788274843561,0.00021427228454918882
0.59,-0.23810927488706043,2.289227922544012,-0.2146550521387922,0.360053827787632,-0.016844097590301105,0.0002254660412473465,-0.501307525172939,1.5190767217342915,1.9720929202077613,0.5190608377148486,-0.021317845030400986,0.00076790890281548,0.5670508613459532,-1.2365204787015216,-13.304314009396847,-2.1511793961666967,0.22611862307324432,-0.01841043550706689,0.0309607217827806,-4.301751991618111,0.07046472685905236,0.5357682380905542,0.016932160507198236,0.0002000798743985137
0.6,-0.24306620472086288,2.304297393905578,-0.1962505253811613,0.36501274557121854,-0.017040947311641935,0.00023287615784830127,-0.49569298338024476,1.506947136156583,1.8404526757630915,0.49589177835865456,-0.019684972134082823,0.0007410116600954763,0.5720978534409294,-1.2529526138592522,-13.043256290161308,-2.2355866448507626,0.22078289358557643,-0.0199466077860595,0.019110559967382743,-4.1570888855441535,0.23200146935328148,0.5530638878140326,0.014994223155089876,0.00019046684841641539
0.61,-0.24796651725370566,2.319244091003543,-0.17913701286825717,0.36973394998333886,-0.01722186348608244,0.00023998765921306344,-0.49003125328427777,1.4946697097964652,1.711351251290413,0.4721204412120325,-0.01809161744405042,0.0007111501364762167,0.574272995560055,-1.2628202553392056,-12.658839984453573,-2.295198708743886,0.21293519511120512,-0.02103128065268023,0.008741617994288665,-4.0336529663840555,0.4031901159202025,0.5729974327770712,0.013182471121833381,0.00018484136266453215
0.62,-0.25281002201506164,2.3340671432927964,-0.16327689726419964,0.37421393820906756,-0.017387421999359016,0.0002467779023167274,-0.484350476135596,1.4823052289253773,1.5860115604057545,0.44799882257287166,-0.016555851327657693,0.0006790243103663961,0.5739166517971489,-1.267085786321272,-12.182593525984242,-2.3310574641832424,0.20302231794986408,-0.021697910526059072,-0.00023108320662258274,-3.9299000599433884,0.5800607124024142,0.5947921903172766,0.01150771171327215,0.00018263766093390042
0.63,-0.2575967756378617,2.3487661947318923,-0.14862343950797727,0.3784515252144768,-0.017538347152721935,0.00025323084457239153,-0.4786753622800088,1.4699051439095898,1.465345775622236,0.42375870054092313,-0.015092515336291771,0.00064529422556641,0.5713758767056295,-1.2666929759098904,-11.640524833698622,-2.344853496582008,0.1915259021654698,-0.021993804063365374,-0.007917830508706297,-3.8440272839006586,0.7594215245156861,0.6178074586276152,0.009974719813474045,0.00018332606527602115
0.64,-0.2623270471976045,2.3633413140863735,-0.1351233452524377,0.38244760900559815,-0.017675476735598397,0.0002593364291239349,-0.4730271559742818,1.4575119354481378,1.3500094255539579,0.3996083791121357,-0.013712958287646175,0.0006105584551543342,0.5669897824954747,-1.2625285489490068,-11.05397483486244,-2.3386363475242646,0.178926361993766,-0.02197346503025277,-0.014440653029216294,-3.774134406851781,0.938733599779003,0.6415177647244199,0.008583621374049286,0.00018641966674799162
0.65,-0.267001284604854,2.377792911919025,-0.12271887306151412,0.38620492330487355,-0.017799727160549266,0.00026508984985016077,-0.4674237407249502,1.4451597832651595,1.2404472190923566,0.3757314299275396,-0.012425042495086934,0.0005753420726225903,0.5610786607970233,-1.25539759502316,-10.440337669025103,-2.3146230058415185,0.16567433831193093,-0.021693248633542828,-0.01992390180069511,-3.718334368627259,1.1160035305165958,0.6654953531958194,0.0073310820539492835,0.00019147805901384
0.66,-0.2716200830690145,2.392121666113571,-0.11134955448687875,0.3897277904179614,-0.01791206078288669,0.00027049077214793003,-0.46187984641604907,1.4328754194545787,1.1369318574635365,0.35228671130878514,-0.01123336223374255,0.0005400922297769288,0.5539367063778093,-1.246010153619428,-9.813672562770632,-2.275072515440417,0.15217080743377961,-0.02120745699093507,-0.024488059439993867,-3.6748249447271477,1.2896919027865184,0.6893952979402749,0.00621130021513572,0.00019810862148502843
0.67,-0.27618415629078835,2.40632845683344,-0.10095358580900306,0.3930218822681401,-0.01801345687155904,0.00027554256541346164,-0.4564073221773868,1.4206790719869256,1.0395968677875695,0.32940918501787014,-0.010139608867235191,0.0005051793265531625,0.5458278840903442,-1.2349764399049339,-9.185226282927193,-2.222204557640218,0.13875553414274516,-0.02056578832881195,-0.02824597232510444,-3.6419316124978067,1.4586352879657258,0.7129427698696718,0.005216815195020112,0.00020596590009076802
0.68,-0.2806943107341844,2.420414311095073,-0.09146894262616136,0.3960939944294868,-0.01810488707243996,0.00028025158450694623,-0.4510154443396036,1.4085854261632478,0.94846431828417,0.307211216134667,-0.009143020088091954,0.00047090190934845886,0.536984329737783,-1.2228084001417656,-8.563880416796668,-2.1581471132857466,0.12570265955670132,-0.01981192382457364,-0.03130083231024228,-3.6181297400726278,1.621979965017693,0.7359221108810065,0.004339148979227105,0.00021474960853983793
0.6900000000000001,-0.2851514230877214,2.434380356615697,-0.08283426119366041,0.3989518359463063,-0.018187295675229184,0.00028462652193555614,-0.4457112353537028,1.3966045520624162,0.8634681432500947,0.28578415168194937,-0.008240860278922478,0.00043749374286099305,0.5276066447970387,-1.2099256034323675,-7.9565352292718305,-2.084903389535768,0.11322179663703408,-0.01898298619846006,-0.03374537185152765,-3.6020524274125534,1.7791257184532514,0.7581674230463642,0.003569302905736585,0.00022420169634076477
0.7000000000000001,-0.2895564208485758,2.4482277842497138,-0.07498952423927223,0.4016038364004516,-0.018261584589857723,0.00028867784059889836,-0.44049977608544005,1.3847427634016927,0.784473695438818,0.26520004541453046,-0.007428891462853976,0.0004051318663342242,0.5178654996484273,-1.1966638121641449,-7.368437221867284,-2.0043317086040595,0.10146294667161537,-0.018109609375911107,-0.03566186182354792,-3.592488852570619,1.929678577169494,0.7795545134425573,0.0028981321035899768,0.00023410288283479504
0.71,-0.2939102658452788,2.461957818124749,-0.06787658347553843,0.404058970826593,-0.018328602659945972,0.0002924172885840336,-0.4353844996703011,1.3730033875035124,0.7112940763733795,0.2455134426141393,-0.0067018070088251,0.00037394479851352426,0.5079040413067017,-1.1832849717406948,-6.803462653469034,-1.918134194391616,0.09052372118931047,-0.01721639494577365,-0.0371226076154296,-3.588376561947791,2.0734106398723027,0.7999938660953512,0.0023166189832756925,0.0002442688750392909
0.72,-0.2982139404448293,2.4755716924933764,-0.06143954671276281,0.40632660249503244,-0.018389138775557933,0.0002958574921289143,-0.4303674599550505,1.361387436862762,0.6437036762775619,0.2267631668439455,-0.006053611561196245,0.00034402035448806694,0.4978407346529825,-1.1699875789642267,-6.2643527083390875,-1.8278519006041645,0.08045763369563341,-0.016322579958197525,-0.0381907274045516,-3.588790495061104,2.2102273243450146,0.8194248218696464,0.0018160662296421736,0.00025454663824879705
0.73,-0.30246843615505964,2.4890706343071005,-0.055625052728243723,0.4084163432055098,-0.018443918172713916,0.0002990116198528811,-0.4254495710230321,1.3498941813723995,0.5814493984519085,0.2089740710477344,-0.005477939715598348,0.00031541277239668193,0.4877723235069518,-1.1569168912789018,-5.752924584592668,-1.7348641985320299,0.071282551626478,-0.015442789464815365,-0.038921060608030356,-3.5929300795375845,2.3401386126864776,0.8378102546751858,0.0013882252243991792,0.0002648105938939342
0.74,-0.306674744326961,2.5024558505562435,-0.05038245467974126,0.4103379304452819,-0.01849360129955527,0.0003018931099483043,-0.4206308171901357,1.3385216249142964,0.5242598048502458,0.19215872397720715,-0.004968312684135548,0.0002881490095423149,0.4777767502675037,-1.144174362155114,-5.270240550100523,-1.64039196452085,0.06298867896362438,-0.014587789679737284,-0.039361111364280575,-3.6001061092411417,2.4632364672358884,0.8551323342759387,0.0010253758490395108,0.00027495917454741306
0.75,-0.3108338486696812,2.515728519502478,-0.045663928720323946,0.4121011205832628,-0.018538784665787917,0.00030451545176771356,-0.41591043427202123,1.3272668946234523,0.47185259594173157,0.17631901379809573,-0.004518336623264552,0.0002622341819409268,0.4679158721854361,-1.1318262626590805,-4.816767885932294,-1.5455029879061595,0.055545707508461745,-0.013765190770073321,-0.03955196140044491,-3.609727493048312,2.579673905955386,0.871388389224595,0.0007203677319644912,0.0002849113764375736
0.76,-0.3149467193133465,2.528889785019196,-0.041424523574050125,0.4137155970986391,-0.018580003155788186,0.00030689201357620116,-0.4112870643665284,1.3161265516717615,0.42394051462738236,0.16144765153762697,-0.004121849000026909,0.00023765618084875786,0.45823790924830343,-1.1199113566805177,-4.392533279337623,-1.4511196822080752,0.04890894518605181,-0.012980072759846972,-0.039529121068335324,-3.621288298994632,2.6896450973190915,0.8865867722990342,0.0004666316879484903,0.00029460333635107264
0.77,-0.3190143081825901,2.5419407533523892,-0.037622166287365685,0.41519089265200687,-0.018617733362659573,0.0003090359088989027,-0.4067588869243573,1.3050968333193305,0.38023572866844413,0.14752955533678036,-0.0037730206871388655,0.00021438953227015067,0.4487388905338981,-1.1087047121048534,-4.032361924369336,-1.3577303585094853,0.043027176515077134,-0.012235522377739505,-0.03932231436445781,-3.6334814307823717,2.7887062044330775,0.8996448049151349,0.00025488428600153705,0.00030346703542677694
0.78,-0.32303754942758034,2.554882476634754,-0.03422108688105172,0.41653621334044977,-0.018652398989478347,0.00031095978589142765,-0.4023241244990239,1.294172328236493,0.3401079406313965,0.13453206884428914,-0.0034665626818772277,0.00019238769925249556,0.4391605078918682,-1.1000708106842367,-3.985817834546391,-1.265216533914625,0.037840679032855096,-0.011532837888725556,-0.03895928249170684,-3.639650825332459,2.843809575404129,0.9027308390727845,5.451548707628045e-05,0.00030776558812008366
0.79,-0.3270173845538318,2.5677158432381355,-0.03121634820338641,0.41775948577120386,-0.018684386614980796,0.0003126749286680625,-0.3979835126251461,1.2833366603381575,0.3004738677665311,0.12232724307541164,-0.0031987625502448557,0.00017151427766348506,0.4297987097207583,-1.091515014230907,-3.9413119726101304,-1.1873936579154645,0.033103655393092735,-0.01086976664076339,-0.038538352579705296,-3.6470366431095576,2.8958007009487816,0.9053233052399854,-0.00012318788717305385,0.00031198765816096736
0.8,-0.330954733868834,2.5804417283375733,-0.028603271162579696,0.4188673994526145,-0.018714048141107227,0.0003141918502902535,-0.3937349315002241,1.27258850994378,0.26130770408067133,0.1107913681410588,-0.0029661526126431343,0.00015169216221909792,0.4206756821113114,-1.0830816980443398,-3.889025149642434,-1.121984925691697,0.02880111828489848,-0.01023979255952856,-0.038067742060771646,-3.655780484280322,2.946155631063759,0.907776716897741,-0.0002790387970943404,0.00031628356662569753
0.81,-0.3348504943327334,2.5930609870584895,-0.02637646069295314,0.41986563520031644,-0.01874170174661155,0.0003155204764700106,-0.38957604638994014,1.2619258720916229,0.22268104696265564,0.09982357477019785,-0.002765360550432414,0.00013286261797571008,0.411799413751317,-1.074909166007692,-3.831882839199783,-1.0666173095205664,0.02491793920214576,-0.009640742436812066,-0.03755209276172468,-3.665717086934761,2.9946650168187205,0.9100516956882779,-0.00041451464599144984,0.0003206167878211267
0.8200000000000001,-0.33870553877781695,2.6055744423242797,-0.024530084086463528,0.4207590525859411,-0.01876763343587775,0.0003166702207054388,-0.38550444450835686,1.2513455265790365,0.18463766064896125,0.08934173856246548,-0.0025931689266200063,0.0001149744235428221,0.40317758532655745,-1.0670985168899014,-3.769949365437595,-1.0194292619974465,0.021432065334896375,-0.00907132408043737,-0.036996133042777234,-3.676751870483783,3.0414781295001583,0.9121906530922022,-0.0005309034756035955,0.0003249903826034776
0.8300000000000001,-0.34252071515742544,2.6179828754459535,-0.023057870067330278,0.42155184558766023,-0.018792098902810434,0.00031765003853673055,-0.3815176379608485,1.2408433121673914,0.14722140191332506,0.07927930017191545,-0.0024465466932685137,9.798178312917576e-05,0.3948152473074151,-1.0597419516642155,-3.703716309707704,-0.9788568577966945,0.018318814204198897,-0.008530372011758436,-0.036403967248648784,-3.6887819221415996,3.0866751785180355,0.9142184916182838,-0.0006294809225121156,0.00032939975479160066
0.84,-0.3462968460483008,2.6302870176951543,-0.021953151012306084,0.42224767167729643,-0.018815325568358195,0.0003184684694269137,-0.37761308908753555,1.2304142249200742,0.11047190550241923,0.06958260896362035,-0.00232266655477609,8.18430890183147e-05,0.38671538640835484,-1.0529202344383692,-3.6337754700937013,-0.94360408146356,0.015552049860873426,-0.008016765659216829,-0.035779254710535405,-3.7017041967529174,3.130311342886635,0.9161528955439499,-0.0007114991121352449,0.00033383763604242177
0.85,-0.3500347283522053,2.6424875429990706,-0.0212089160553713,0.42284975808057834,-0.018837514694401678,0.0003191336701468788,-0.3737882303904481,1.220052530391633,0.07442349569347842,0.060208640328190295,-0.0022189126043484476,6.652007199650844e-05,0.378879617806781,-1.0466988561265234,-3.560269600781096,-0.9126077855362347,0.013105138604822361,-0.0075294034138905785,-0.03512531432259454,-3.7154298046486813,3.172490699149505,0.9180217990875741,-0.0007781374004581813,0.00033830240875399627
0.86,-0.3537351331304333,2.6545850619593288,-0.020817820954205625,0.42336099025526225,-0.018858843483297527,0.00031965344343247383,-0.3700404778228018,1.2097518960257914,0.039109510116567305,0.05112321746838808,-0.0021328788895850354,5.1977328559505964e-05,0.3713077855154376,-1.041136315449821,-3.4838040024396943,-0.8849771210862514,0.010951992153400217,-0.0070671960591600635,-0.03444505451557769,-3.7298615121504386,3.2132475052172116,0.9198357126743694,-0.0008305710523182436,0.00034278497305470615
0.87,-0.3573988056098262,2.6665801166686327,-0.02077224408734508,0.42378398415046575,-0.01887946713548533,0.00032003526097691524,-0.3663672479392871,1.1995054709304016,0.004557686686054205,0.04229938952035178,-0.002062365218780055,3.818175444414101e-05,0.3639986295911254,-1.0362789905462644,-3.40475408557535,-0.8599883247423623,0.009067205902846986,-0.006629072191356056,-0.03374114855367837,-3.7449112166427247,3.252637830253187,0.9216092022455558,-0.0008699227359655555,0.0003472790164533451
0.88,-0.3610264652964425,2.678473176605955,-0.021064320501912735,0.4241211453477453,-0.0188995208243837,0.00032028628327579104,-0.3627659686616308,1.189305993732241,-0.02920764145676548,0.03371611972795653,-0.0020053688898369806,2.5102229887576773e-05,0.3569499651775164,-1.0321621033702304,-3.3232824620095114,-0.8370496363245801,0.007426519593928149,-0.00621397227831072,-0.03301603480496533,-3.760499895037884,3.290738571659647,0.9233608307362511,-0.0008972542265425086,0.00035178095180616784
0.89,-0.3646188061797274,2.6902646355258795,-0.021685955557165022,0.42437471795814774,-0.01891912155991722,0.0003204133774886273,-0.3592340883284933,1.1791458919924513,-0.062163505525228646,0.02535726104024376,-0.0019600735533522704,1.2709421283623922e-05,0.350158605161085,-1.0288141142539922,-3.2397368246450897,-0.8156696507668233,0.0060071355681405175,-0.00582085391940762,-0.03227190303307669,-3.776547747731573,3.3275958543244886,0.9251011599200621,-0.0009135969461143667,0.00035628419834877784
0.9,-0.3681764970345653,2.7019548090386856,-0.02262885715081836,0.4245468243980448,-0.018938369939510057,0.0003204231327941711,-0.35576908548378944,1.1690173512806015,-0.09429015936533383,0.01721064398970444,-0.001924837959283624,9.755305543784695e-07,0.34362066465472935,-1.0262547488954055,-3.1543514987604695,-0.7954504023483411,0.004787663965742053,-0.005448698243669725,-0.03151078219241221,-3.7929816892147894,3.363264681003014,0.9268420818722801,-0.0009199302394707891,0.00036078362536299174
0.91,-0.37170018179210534,2.7135439329806803,-0.02388455716672551,0.4246394977714917,-0.018957351777985063,0.0003203218743043025,-0.35236847575400493,1.1589123941994925,-0.12557000159071496,0.00926733734468473,-0.0018981838475006984,-1.012584898685944e-05,0.3373316310106666,-1.0244966725391702,-3.067343426812608,-0.7760677388740911,0.003748223977049478,-0.005096509539381844,-0.030734549099623976,-3.809733009206388,3.3977969308654776,0.9285940960998277,-0.0009171868657016934,0.00036527422561843833
0.92,-0.3751904799725642,2.7250321624443923,-0.02544443150300575,0.42465470813587697,-0.018976139615870483,0.0003201156757335682,-0.34902981804588473,1.1488229463712025,-0.15598743362802442,0.0015210364385294878,-0.001878783788542068,-2.0619857073426956e-05,0.33128646794712224,-1.0235462254913439,-2.978911997992502,-0.7572590165107185,0.0028704300106448394,-0.004763318961122032,-0.029944955551726514,-3.8267373598375602,3.43124181020277,0.9303664764997351,-0.0009062530354527581,0.0003697511702954279
0.93,-0.3786479871699591,2.7364195713987916,-0.027299718616516647,0.42459438368350555,-0.01899479410878313,0.00031981037104805124,-0.3457507197394931,1.1387408954399127,-0.18552871135108953,-0.00603244523714116,-0.0018654492912649528,-3.0530468551698086e-05,0.32547970508426355,-1.0234041633226412,-2.8892406879851897,-0.7388127226324404,0.0021373503211256917,-0.004448186891042899,-0.029143651177613663,-3.8439346707960795,3.463646011853554,0.9321673654574646,-0.0008879688028066634,0.000374209825744056
0.9400000000000001,-0.382073275580104,2.7477061528298385,-0.02944153670478676,0.42446042770304115,-0.019013365302413102,0.0003194115652706023,-0.34252884101448794,1.1286581431047096,-0.21418180882701154,-0.013395598046439468,-0.001857119362997043,-3.988057774489054e-05,0.3199055155435466,-1.0240664365335088,-2.7984990236931324,-0.7205597985514176,0.0015334466377680822,-0.0041502047751142135,-0.02833220272367342,-3.8612690396444727,3.4950537871490046,0.9340038426215657,-0.0008631287153313277,0.0003786457560296339
0.9500000000000001,-0.3854668945643298,2.7588918193277543,-0.03186089968490194,0.4242547320408022,-0.019031893798824612,0.00031892464457590464,-0.3393618984225823,1.1185666497915925,-0.24193629801151784,-0.020569566223895094,-0.0018528496411510853,-4.869206946976715e-05,0.3145577834265824,-1.0255252328812225,-2.7068444399361917,-0.7023664105786347,0.001044501784009097,-0.0038684965348052824,-0.027512110138635863,-3.8786886379241854,3.5255070007898954,0.9358819845324894,-0.0008324826684871071,0.00038305472017041356
0.96,-0.3888293712423519,2.7699764040211865,-0.03454873212363763,0.423979187660615,-0.019050411820477068,0.00031835478577553364,-0.33624766780221127,1.1084584693432091,-0.26878324387356867,-0.02755443801872205,-0.0018518021652457646,-5.698588003710052e-05,0.30943016241189325,-1.027771734400789,-2.6144239291831974,-0.6841279477241153,0.0006575405724794231,-0.003602219562518938,-0.026684819687127718,-3.8961457987091483,3.555045225465271,0.9378069245273046,-0.0007967369366842574,0.00038743267096144304
0.97,-0.392161211108551,2.7809596615883625,-0.03749588325694663,0.423635692797958,-0.019068944178708726,0.00031770696526919304,-0.3331839866199106,1.0983257567176126,-0.2947151133309003,-0.034349486265701085,-0.0018532358231656651,-6.478205063406089e-05,0.3045161293583912,-1.0307789148014737,-2.521375168297033,-0.6657639444492398,0.00036074709573986896,-0.0033505652751396053,-0.02585173443581537,-3.9135949395518397,3.5837053638619607,0.9397828606076873,-0.0007565552008798088,0.0003917757092201156
0.98,-0.39546289866641404,2.791841271051651,-0.040693140194917474,0.42322615913772266,-0.01908750915334821,0.0003169859675136249,-0.33016875578630167,1.0881609463288597,-0.3197256937970845,-0.04095336602353178,-0.0018564974639486138,-7.209977555680926e-05,0.2998090231904202,-1.0345573038296298,-2.427828658442352,-0.6472141217741978,0.00014338556508335099,-0.003112759985801572,-0.025014224055343547,-3.930998382522428,3.611523010632909,0.9418132396356074,-0.0007125601462928562,0.0003960801887818326
0.99,-0.3987348980772757,2.802620834835719,-0.04413124049069374,0.42275251631347155,-0.019106119290462808,0.00031619639306613827,-0.3271999410861639,1.0779563784067683,-0.3438100295776261,-0.04736428242511128,-0.0018610137114595203,-7.895744474866807e-05,0.2953019594662393,-1.039909827711857,-2.333914978035445,-0.6284391268780585,-4.265664350952547e-06,-0.0028880634319852494,-0.024173615608182993,-3.9484085902666837,3.63855086945323,0.9439029270645387,-0.0006653417194076475,0.00040034452356991004
