tonegas/nnodely-applications/joint_friction_estimation/dataset/train/mpc_mujoco_episode_33 copy.csv
time,q1,q2,q3,q4,q5,q6,dq1,dq2,dq3,dq4,dq5,dq6,ddq1,ddq2,ddq3,ddq4,ddq5,ddq6,tau1,tau2,tau3,tau4,tau5,tau6
0.0,0.0,1.57,-1.57,0.0,0.0,0.0,0.0,0.0,0.0,0.0,0.0,0.0,14.452636090648094,-3.9610120046759527,4.079908051575438,1.8890246301068712,2.1430511195487156,-5.860774875188213e-06,2.0154095710907733,-5.790527562402083,-4.6194530867800765,-1.0076943204480404,0.1820166633174435,0.001768941548599276
0.01,0.001437853122485104,1.5696066477078434,-1.5695948628990701,0.00017526396929141514,0.0001800582569929283,1.9380636925336203e-06,0.1437853122485104,-0.03933522921565447,0.04051371009300287,0.017526396929141513,0.018005825699292828,0.00019380636925336203,14.284998515097056,-3.6423229423834527,4.088695573476274,1.7525856278656948,1.7958521434070462,0.019391308794762807,1.9988249303752312,-5.6368426888719565,-4.5626681289477915,-0.9957308169782279,0.18067872844794933,0.0017579218855372628
0.02,0.004295755368425447,1.5688517849664307,-1.5687844034189165,0.0005150374690353517,0.0005185670725859993,5.895240936871549e-06,0.28579022459403436,-0.07548627414126682,0.08104594801537325,0.03397734997439365,0.0338508815593071,0.0003957177244337928,14.100552395387737,-3.306397472928529,4.0909474868150175,1.6438645377421262,1.579752391597708,0.020220688587119895,1.9765112126946245,-5.478617437970087,-4.503309190122435,-0.9829987020901317,0.17897498341088464,0.0017413633422774808
0.03,0.008554681730160604,1.5677689486857496,-1.5675688813930813,0.0010106680411887756,0.001001829350348581,1.1743170059385545e-05,0.4258926361735157,-0.10828362806812253,0.1215522025835245,0.0495630572153424,0.048326227776258154,0.0005847929122513995,13.903682889969609,-2.955348875150143,4.087991475691063,1.5559138048394976,1.4433879521524773,0.01893778758854836,1.9493139810953464,-5.317147114596833,-4.441990895494131,-0.9696411808806885,0.17695418599658252,0.0017196064796408238
0.04,0.014194644360691094,1.5663931654576242,-1.565948918392167,0.0016550750760805462,0.0016209632017858669,1.936858124684251e-05,0.5639962630530491,-0.1375783228125308,0.16199630009141014,0.06444070348917705,0.06191338514372859,0.0007625411187456965,13.696948541004723,-2.5913043514577887,4.080588558495786,1.4833910770070435,1.355632618076747,0.017769056423077245,1.9181004261224828,-5.153779127403583,-4.3793461422847795,-0.9558043957318623,0.17466637145219094,0.0016929893019784715
0.05,0.021194839837156223,1.5647607434322406,-1.5639254591963252,0.002442340270646329,0.0023700193232330706,2.8689111470014428e-05,0.7000195476465128,-0.16324220253835364,0.20234591958418924,0.07872651945657828,0.07490561214472038,0.0009320530223171919,13.481799284873611,-2.216432251510956,4.069051766359591,1.4221668777211844,1.2974890657125613,0.016857021620038992,1.8837411087167613,-4.989916962517896,-4.316022948911125,-0.9416364828593341,0.17216193533559332,0.001661843269957396
0.06,0.02953372867397694,1.5629090590844372,-1.5614997691336978,0.003367389599424062,0.003244829197288398,3.964401127922055e-05,0.8338888836820718,-0.18516843478032774,0.24256900626272943,0.09250493287777332,0.08748098740553276,0.001095489980920612,13.259006282320273,-1.8329565276628,4.053339279963975,1.3690332189154333,1.25726984909587,0.016094449360211982,1.847092981970746,-4.827018396018353,-4.252679371631899,-0.9272862020466189,0.16949079211969856,0.001626490403359221
0.07,0.039189072903323505,1.5608763376703667,-1.5586734600878653,0.004425744794663935,0.0042422944405679855,5.218533532952461e-05,0.9655344229346566,-0.20327214140704078,0.2826309045832455,0.10583551952398726,0.09974652432795872,0.0012541324050304057,13.028919682955483,-1.4431621785143998,4.033129489675747,1.321483524668536,1.227701250314432,0.015379723139286483,1.8089836305356664,-4.666589118511025,-4.189977030449,-0.9129012727932158,0.16670157045060066,0.0015872408559520533
0.08,0.050137947184598755,1.5587014270127357,-1.555448539274296,0.005613327686120986,0.005359942663756383,6.627185895107315e-05,1.094887428127525,-0.21749106576308883,0.32249208135692514,0.11875828914570506,0.11176482231883975,0.0014086523621548539,12.79162356877019,-1.049393905464087,4.007882903837603,1.2775464279575068,1.2041780417980945,0.014639228820398031,1.770196812330113,-4.510172490535049,-4.1285736106219355,-0.8986265111935061,0.16384083017686865,0.001544390693025363
0.09,0.06235673272913158,1.556423564887355,-1.551827475822064,0.0069263048543310715,0.006595644519512806,8.186503139942152e-05,1.2218785544532826,-0.22778621253806272,0.3621063452231903,0.13129771682100852,0.1235701855756424,0.0015593172448348366,12.547029579529791,-0.6540493857820798,3.976894524248119,1.2356607819189094,1.1837119114544592,0.013820694513066556,1.7314594512557964,-4.359335905177098,-4.069114609832346,-0.8846018403004585,0.1609523006966951,0.0014982198282569423
0.1,0.07582109966240463,1.5540821407896186,-1.5478132808622094,0.008360963199638725,0.007947428470267942,9.89262374070621e-05,1.3464366933273062,-0.23414240977364892,0.40141949598547677,0.14346583453076533,0.13517839507551352,0.001706120600764058,12.294934171265487,-0.25956810882879566,3.9393393784962414,1.1945822331011389,1.164299004939103,0.012886299677523638,1.6934302442117066,-4.215654129615538,-4.012224553772577,-0.8709602358667725,0.15807614888211155,0.0014489901962839319
0.11,0.09050598129561147,1.5517164532787056,-1.543409597288297,0.00991360944257991,0.009413355117553389,0.00011741488396462556,1.4684881633206837,-0.23656875109131018,0.440368357391239,0.1552646242941185,0.1465926647285447,0.0018488646557563457,12.035054540444401,0.1315835273773938,3.894313170764453,1.1533139232447933,1.1445410359725656,0.011808330028589609,1.656690030008017,-4.080689980651551,-3.9584978857137223,-0.8578256648454389,0.15524829006618635,0.0013969442928884195
0.12,0.10638554254155982,1.54936546445247,-1.5386207956747155,0.011580488417245384,0.010991428253524359,0.00013728701954123017,1.587956124594836,-0.23509888262357195,0.4788801613581456,0.1666878974665474,0.157807313597097,0.0019872135576604606,11.767052274359148,0.5169302871321073,3.840869427669753,1.111055577759215,1.1234199349416087,0.010566779228094347,1.6217340334672974,-3.955972727814591,-3.9084897363306244,-0.8453110730943512,0.15249975850105335,0.00134230423177626
0.13,0.12343314402452085,1.5470675534081684,-1.5334520730603702,0.013357716426417695,0.012679529074040567,0.0001584943146368837,1.704760148296102,-0.22979110443015197,0.5168722614345324,0.17772280091723117,0.1688100820516209,0.002120729509565353,11.490550157141383,0.8940088115507733,3.7780540418516018,1.0671665333678924,1.1001654769592761,0.009148168494162334,1.588966051489028,-3.842974689193786,-3.86270679078347,-0.8335164795320181,0.14985615480806105,0.0012852714574788262
0.14,0.14162130307725107,1.5448602707971397,-1.5279095514677363,0.015241226993694765,0.014475365612868078,0.0001809833070007958,1.818815905273021,-0.22072826110286356,0.5542521592633957,0.18835105672770702,0.17958365388275105,0.0022488992363912104,11.205145266154316,1.2603904498608913,3.7049377320214063,1.0211392474481702,1.0741791254884703,0.00754507018438666,1.5586945877383984,-3.743086574801347,-3.8215984855892007,-0.8225272353195613,0.14733718691866432,0.0012260272173431695
0.15,0.16092165264622246,1.5427800967842313,-1.5220003731609448,0.01722672714833648,0.016376432854438183,0.00020469485947066792,1.930034956897138,-0.20801740129083976,0.5909178306791399,0.1985500154641713,0.19010672415701038,0.0023711552469872104,10.910419809740835,1.6137056371464156,3.6206466295759654,0.972580590334502,1.044991676204667,0.005755996148600673,1.5311308526940457,-3.6575922307825084,-3.785548785145863,-0.8124125077771441,0.14495631611933024,0.0011647338144614066
0.16,0.18130489902083957,1.5408622048702463,-1.5157327897770156,0.01930966297044334,0.018379981023387535,0.00022956380438884848,2.0383246374617094,-0.19178919139850006,0.6267583383929184,0.20829358221068603,0.20035481689493523,0.0024868944918180562,10.6059487431586,1.9516691178909007,3.524390959382067,0.9211988102098712,1.0122409429979484,0.003785425537817133,1.5063882996234808,-3.587643560184917,-3.754868812591284,-0.8032240507608075,0.14272049923458915,0.0011015364042450619
0.17,0.2027407790549596,1.539140234114514,-1.5091162426115379,0.021485193551706333,0.020482990749944086,0.0002555187627769692,2.143588003412003,-0.1721970755732384,0.6616547165477866,0.21755305812629938,0.21030097265565517,0.002595495838812071,10.29137037137167,2.2721093139713506,3.4154916418839845,0.8667942522907701,0.9756604493052592,0.0016438198375414714,1.4844920746525971,-3.5342345050892927,-3.7297899419557456,-0.7949951887126232,0.14063081825038679,0.0010365744144416509
0.18,0.22519802381887413,1.537646072703321,-1.5021614315141876,0.02374817280154067,0.022682154700206986,0.0002824821350216057,2.2457244763914535,-0.1494161411192929,0.6954811097350304,0.22629792498343348,0.21991639502628993,0.002696337224463649,9.966234826018548,2.572984721408431,3.293404193567837,0.8092535481211129,0.9350780455338068,-0.000652464368524619,1.4653614610418275,-3.49818334446776,-3.710460412789516,-0.7877406018542371,0.13868062875885453,0.0009699629285479462
0.19,0.2486443136880107,1.5364096545124897,-1.4948803700959898,0.02609313878921258,0.02497386505591071,0.00031037025698071316,2.344628986913658,-0.12364181908313217,0.7281061418197639,0.2344965987671912,0.22917103557037252,0.0027888121959107454,9.630202751678278,2.8524186683607153,3.157740127760741,0.7485442370907727,0.8904082179676394,-0.003081475648666121,1.4488388537142385,-3.480106982262194,-3.6969401269343365,-0.7814559066112066,0.13685799560749992,0.0009018234306885056
0.2,0.2730462444913237,1.5354587721399908,-1.4872864251779387,0.02851431031484228,0.0273542071018848,0.0003390937198353307,2.4401930803312966,-0.09508823724989282,0.7593944918051153,0.24211715256296987,0.2380342045974089,0.002872346285461757,9.282904367464456,3.1087145390714115,3.0082847306931626,0.684711407832129,0.8416561806897391,-0.005616143280105845,1.434676442884696,-3.4804085978501025,-3.6892003808377383,-0.7761182697846205,0.1351442781654561,0.0008322681781063383
0.21,0.2983692907968228,1.5348189079332493,-1.4793943387600232,0.03100559054899385,0.02981895866194439,0.00036855784538810516,2.5323046305499095,-0.0639864206741482,0.7892086417915456,0.24912802341515708,0.24647515600595904,0.002946412555277442,8.922534940043692,3.3403038141804187,2.8450151291294947,0.617880798477696,0.7889243354826831,-0.008224995383973699,1.42236123367136,-3.499297429505605,-3.6871349618758,-0.7716893157316792,0.1334979011716713,0.0007612208991359745
0.22,0.324577627454126,1.5345130778335854,-1.471220230758301,0.03356057813397157,0.03236359070285803,0.00039866327451422483,2.620833665730321,-0.03058300996638618,0.8174108001722163,0.25549875849777215,0.2544632040913645,0.0030105429126119684,8.538375627280086,3.5453919722308345,2.6681428587921854,0.5482944124564142,0.7324192602841961,-0.010873212888530048,1.4101538099212998,-3.5369315172693065,-3.6906138450826713,-0.7681264971173948,0.1317661347218923,0.0006874698460715381
0.23,0.35163306971002734,1.5345616527292567,-1.462781578344633,0.03617258905572771,0.03498324261861741,0.0004293064892543761,2.7055442255901316,0.004857489567142152,0.8438652413668175,0.2612010921756141,0.26196519157593756,0.0030643214740151276,7.700466861700262,3.702709085147975,2.4798382998988053,0.47839469321737127,0.6756478610964649,-0.013524237571951758,1.3420661358533543,-3.6018110125075524,-3.702197864618168,-0.765893538944426,0.12482713126289258,0.0005566369758932191
0.24,0.3794525600694628,1.5349802376066526,-1.4540970022160664,0.03883487745478138,0.037671391223172306,0.0004603731938594769,2.78194903594355,0.04185848773959882,0.8684576128566502,0.26622883990536705,0.26881486045548936,0.0031066704605100777,6.733741344403064,3.82563096465672,2.2804869202102074,0.4072167334514418,0.6000999709733215,-0.01615732661599445,1.2582201816471446,-3.682603747753273,-3.7189486344086573,-0.7645703583177895,0.11639723372949655,0.0004121916515795593
0.25,0.407940234476806,1.5357810068454003,-1.445186227940612,0.04154055192756573,0.04041990974407553,0.0004917360816667198,2.8487674407343184,0.08007692387476724,0.8910774275454441,0.27056744727843457,0.2748518520903218,0.0031362887807242917,5.778893679091323,3.9201166467275965,2.070562636989136,0.33447818877566604,0.5075022646332314,-0.018752672215647692,1.1757003537918735,-3.7741872674388848,-3.7394692056642733,-0.7639519070151982,0.10806858172757829,0.0002725075719133608
0.26,0.4370013415433713,1.5369732990628995,-1.436070038484299,0.044282552210407555,0.04321968391806094,0.0005232595846508068,2.90611070665653,0.11922922174991925,0.911618945631292,0.2742000282841826,0.27997741739854143,0.0031523502984086953,4.859754883807667,3.98744406760592,1.8509267752321659,0.26044141819838984,0.4050081237246772,-0.021242208052242084,1.0968377236685143,-3.8748491331988446,-3.763211340187807,-0.7639521587946673,0.1000761715880442,0.00014068348511592265
0.27,0.4665446237324066,1.538563744798086,-1.4267701882477732,0.04705367478603965,0.04606113478574216,0.0005548059398586709,2.9543282189035334,0.1590445735186581,0.9299850236525823,0.277112257563209,0.28414508676812233,0.003154635520786409,3.9925857876908224,4.028681576280272,1.6225602853746688,0.18542873883944289,0.2980896831615638,-0.023551030168229126,1.023085488209135,-3.9832572528061196,-3.7897109244343676,-0.7644945347293355,0.09257147262335153,1.8678571777648828e-05
0.28,0.49648394423629977,1.5405563733144765,-1.4173093051881227,0.04984660406452015,0.04893461144610397,0.0005862400581976721,2.9939320503893128,0.19926285163905613,0.9460883059650494,0.2792929278480501,0.2873476660361804,0.003143411833900109,3.2014503366569222,4.044992068724733,1.3865286172019111,0.10978059549582753,0.19084000686305735,-0.02562248323983507,0.9570590022288182,-4.0982728897196345,-3.8185342590924956,-0.7655026831314395,0.08580694875833982,-9.08216083776827e-05
0.29,0.5267406814922447,1.542952728891452,-1.407710784525214,0.052653945360436716,0.05183072638361486,0.0006174332222759914,3.025673725594501,0.23963555769754566,0.9598520662908784,0.2807341295916564,0.2896114937510896,0.003119316407831931,2.474207433483198,4.037248704986226,1.1440341981307514,0.033904022684815516,0.08684075697984106,-0.02741943941783731,0.8967711491271818,-4.219170219687565,-3.849321221265304,-0.7669041417617446,0.07961413082388878,-0.00018949593906226103
0.3,0.5572425406577268,1.5457519580958499,-1.3979986688299464,0.055468264311801234,0.0547405305068119,0.0006482656349478352,3.0501859165482097,0.27992292043978323,0.9712115695267471,0.28143189513645184,0.29098041231970356,0.003083241267184381,1.8480222288004837,4.006852864759932,0.8962766066962571,-0.04184834550051875,-0.01214849897380077,-0.028918895863723648,0.8468707502915156,-4.344980327069889,-3.8816590440613608,-0.7686201265263372,0.07441883659128168,-0.0002734541208494717
0.31,0.5879272373407272,1.5489509499754126,-1.3881975284052053,0.05828212128709293,0.05765574981332601,0.00067862801206391,3.0684696683000294,0.3198991879562777,0.9801140424741179,0.2813856975291698,0.2915219306514109,0.0030362377116074798,1.3256792990257003,3.954919904135426,0.6445670361163076,-0.11706803490485207,-0.10359857365906411,-0.030116940011440274,0.80771613876141,-4.475274615337866,-3.915196268020429,-0.770565147269991,0.07025292966040307,-0.00034293004001611767
0.32,0.6187427833532542,1.5525444475382824,-1.378332330561626,0.06108811129223445,0.060568945762491645,0.0007084229287973825,3.081554601252697,0.3593497562869815,0.9865197843579319,0.28059900051415193,0.29131959491656334,0.0029794916733472546,0.9256523590178781,3.882811136226071,0.39021935514264605,-0.1913767453573456,-0.18591576556135658,-0.031015585444906235,0.7819518082982869,-4.60962767278412,-3.949552960797673,-0.7726434875313047,0.0673458816880826,-0.00039655148221623356
0.33,0.6496493223256017,1.5565251838453529,-1.368428308644653,0.06387890120679372,0.06347367166657318,0.0007375654670342996,3.0906538972347573,0.39807363070705126,0.990402191697313,0.2790789914559276,0.29047259040815404,0.0029142538236917063,0.5986634155511031,3.7916794405465084,0.13463094792491237,-0.26435649541966555,-0.2574489387267904,-0.031628801192054246,0.7631700381751718,-4.747895708473214,-3.9843689144915126,-0.774752849593283,0.06512150174278847,-0.00044018384199608887
0.34,0.6806142604156941,1.5608839969589052,-1.3585108227697025,0.06664727112377489,0.06636439887682936,0.0007659835902818985,3.0964938090092398,0.43588131135523783,0.9917485874950457,0.27683699169811615,0.28907272102561843,0.0028418123247598882,0.3675445264682022,3.6828971771998362,-0.12082955752821167,-0.33562751970799987,-0.3189873628577732,-0.0319678874183042,0.7547185823128804,-4.889459271031043,-4.019247347705319,-0.776802485027474,0.06386734472430644,-0.00047191789487307205
0.35000000000000003,0.7116145250382141,1.5656099672649602,-1.348605223443395,0.06938615169508693,0.06923654289454968,0.0007936171172956465,3.100026462251999,0.4725970306054831,0.9905599326307537,0.2738880571312036,0.2872144017720317,0.002763352701374808,0.21251931361373916,3.5578104183894608,-0.37478460503480093,-0.40481655988951815,-0.37028098931738107,-0.03206301914198792,0.7542545273699817,-5.033965046669859,-4.053794593158575,-0.7786903541062886,0.06336663567019656,-0.000494293106903859
0.36,0.7426346100031154,1.5706905518576197,-1.3387367143221858,0.07208866130237357,0.07208640669395434,0.0008204171396343397,3.102008496490126,0.5080584592659666,0.9868509121209208,0.270250960728664,0.2849863799404662,0.0026800022338693223,0.10850589319347072,3.417758391187053,-0.6258675440764137,-0.47156259311268567,-0.41192489500442986,-0.03193765680840932,0.7586113687525247,-5.180920347180766,-4.087618587909387,-0.7803230904540306,0.06333525365957834,-0.000510161206880848
0.37,0.7736640917176674,1.5761117182405309,-1.3289302160852077,0.07474814205625095,0.07491105664601837,0.0008463451572128467,3.1029481714551954,0.5421166382911189,0.9806498236978083,0.2659480753877384,0.28246499520640234,0.0025928017578506937,0.038152202078893346,3.264077350409934,-0.8727380208467705,-0.5355235857650986,-0.4451923154258466,-0.03161515532851359,0.765586722342342,-5.329655454263567,-4.120341837420688,-0.7816219043524262,0.0635781499270867,-0.0005213924805150073
0.38,0.8046959075661037,1.5818580778027438,-1.3192102329507973,0.07735819392418898,0.07770818500041723,0.0008713718537603009,3.1031815848436266,0.5746359562212962,0.9719983134410346,0.26100518679380263,0.279712835439887,0.002502669654745422,-0.011005120581998033,3.09809265586579,-1.1140942110592196,-0.5963812185278661,-0.47149279075702233,-0.031120707156730196,0.77358769213228,-5.479409536553501,-4.151612914128324,-0.7825218285510677,0.06395687110579294,-0.0005292324148143788
0.39,0.8357251173582758,1.5879130182281291,-1.3096007230555002,0.07991270661679167,0.08047598164205093,0.000895475805581231,3.1029209792172145,0.6054940425385383,0.9609509895297172,0.2554512692602687,0.2767796641633697,0.0024103951820930152,-0.05617312328093244,2.9210956385223943,-1.3486773413949535,-0.6538401539434973,-0.4921335219505991,-0.030478964773252792,0.780256117512276,-5.629386299001619,-4.181116976727487,-0.7829723575591974,0.06427235194549596,-0.0005352134367085253
0.4,0.8667471948079772,1.5942588324539286,-1.3001249731509872,0.08240588935169946,0.08321299794315651,0.0009186424150079716,3.1022077449701464,0.6345814225799528,0.9475749904512969,0.24931827349077787,0.2737016301105586,0.002316660942674057,-0.10583428346177158,2.7343571414859213,-1.575289306204151,-0.7076349669068841,-0.5085061228437668,-0.02971049593903946,0.7843953049071053,-5.778718782324334,-4.208585996710772,-0.7829417319914386,0.06442868204460747,-0.0005399458332682134
0.41000000000000003,0.8977571823470715,1.6008768456279938,-1.290805479363929,0.08483229775491308,0.08591803515613841,0.0009408628052682247,3.1009987539094275,0.6618013174065258,0.9319493787058217,0.24264084032136157,0.2705037212981905,0.002222039026025319,-0.1476720107657309,2.539144782153686,-1.792813532628228,-0.7575389876327883,-0.5217775756648284,-0.028835538465250832,0.7878627275889335,-5.926563007796858,-4.233796559341882,-0.782410496396716,0.06458582438202097,-0.0005422437527275775
0.42,0.9287509071022418,1.6077475418409912,-1.2816638360817483,0.08718685708029406,0.0885901131178913,0.0009621325319159136,3.0993724755170353,0.6870696212997413,0.9141643282180637,0.2354559325380982,0.2672077961752889,0.0021269726647688892,-0.19217791543652507,2.336662179301178,-2.0001981489904663,-0.8033507020522221,-0.5322766431480455,-0.027877472552492233,0.7892022740473239,-6.072284133208392,-4.256560112287316,-0.7813604895261519,0.06462636485658613,-0.0005428921176015758
0.43,0.9597239402253429,1.6148506842228234,-1.2727206313241388,0.08946488324015607,0.09122841717512724,0.0009824512347480715,3.097303312310105,0.7103142381832184,0.8943204757609432,0.2278026159862018,0.263830405723593,0.00203187028321578,-0.25175412863794894,2.128070696698691,-2.1964754463236393,-0.8449001006853041,-0.5405603702234654,-0.026848579318735633,0.7865752294941731,-6.215242434908942,-4.276741441972518,-0.7797903848983664,0.06440576993575131,-0.0005427292231367
0.44,0.9906703657176095,1.6221654308038869,-1.2639953505156651,0.09166210078269943,0.09383222639395893,0.001001822388221221,3.0946425492266516,0.73147465810635,0.8725280808473702,0.2197217542543355,0.26038092188316886,0.0019371153473149631,-0.3327881030182363,1.914482819750736,-2.380765910031991,-0.8820486169219044,-0.5473385162637077,-0.025758613765583083,0.7789595570233117,-6.354782947045581,-4.294266200444675,-0.777717744717415,0.06385059673540856,-0.0005420338870743787
0.45,1.0215821444022875,1.629670445533382,-1.2555062890483613,0.09377465778667851,0.09640085221805834,0.0010202528876082561,3.091177868467796,0.7505014729495161,0.8489061467303961,0.21125570039790859,0.256862582409942,0.0018430499387035123,-0.5407253467008928,1.6967388327593824,-2.5521512204874717,-0.9146185057891767,-0.5523006099818493,-0.02461836756809499,0.749780299700089,-6.4902738462042215,-4.3091572338627,-0.775194346384869,0.061648438542325205,-0.000548169195821632
0.46,1.0524386617218453,1.6373439813042308,-1.2472704611344305,0.09579914462464942,0.09893334058375675,0.0010377560529969002,3.085651731955781,0.7673535770848833,0.8235827913930753,0.20244868379709105,0.2532488365698399,0.0017503165388644128,-0.9451486553753258,1.4761012165434306,-2.7101396146648686,-0.94263838584284,-0.5581899687094243,-0.023395875395676002,0.6870701509527359,-6.6200773582612005,-4.321680963481949,-0.7723921480002811,0.0568998012919561,-0.0005649714694083698
0.47000000000000003,1.083199816735737,1.6451640055539254,-1.2393035511904982,0.09773259295794925,0.10142810637400071,0.0010543524639986834,3.0761155013891845,0.7820024249694589,0.7966909943932354,0.19334483332998434,0.24947657902439588,0.001659641100178308,-1.3741352369724082,1.2543079044305547,-2.8547357757815597,-0.9663676136998678,-0.5709540908982929,-0.02207874580912228,0.616787650957181,-6.742077123143444,-4.332271485522471,-0.769537560323198,0.05171416584249894,-0.0005795035275671357
0.48,1.1138230436590297,1.6531083754236495,-1.2316199142471826,0.09957245206298207,0.10388309312991266,0.0010700610318617409,3.062322692329267,0.7944369869724177,0.7683636943315607,0.18398591050328214,0.24549867559119518,0.0015708567863057456,-1.7898762685748866,1.0325682262076294,-2.9857738106964735,-0.9859391755452247,-0.5881685553775036,-0.02076893717966133,0.5449784352225985,-6.8559161785214,-4.341176161191486,-0.7667182772342342,0.046575900899627806,-0.0005892773901724481
0.49,1.1442670681478795,1.6611549582814211,-1.2242325595624874,0.10131657830375707,0.10629603444447197,0.00108489814189527,3.044402448884981,0.8046582857771579,0.7387354684695189,0.17441262407749952,0.24129413145593162,0.0014837110033529151,-2.201252906451955,0.8119716882821447,-3.103185062538326,-1.0014952671829205,-0.6068932983779654,-0.01948818813567832,0.47043432478865344,-6.9616545829063226,-4.348608378843056,-0.7639920863738389,0.041391765837335844,-0.0005951200086315161
0.5,1.174491036234051,1.6692817398195043,-1.2171531439716181,0.10296322368626858,0.10866460788364131,0.0010988798102470416,3.0223968086171458,0.8126781538083295,0.7079415590869245,0.16466453825115152,0.2368573439169335,0.0013981668351771585,-2.6011156317001567,0.5935216755140529,-3.2070075922487673,-1.0131928628698326,-0.6257850278203367,-0.018225063345433723,0.39449547427938647,-7.059364174194977,-4.354805369716861,-0.7614204508037542,0.036265882101823785,-0.0005968429519392785
0.51,1.204455227840938,1.6774669238418705,-1.2103919757547354,0.10451102240876706,0.11098653759369834,0.001112022593629613,2.9964191606886974,0.8185184022366179,0.676116821688259,0.15477987224984807,0.23219297100570324,0.0013142783382571314,-2.991810437818613,0.3781567845906251,-3.297400203617327,-1.0212154888744074,-0.6437938351171937,-0.016979388620479874,0.31698184032507926,-7.149237125462969,-4.35999852853165,-0.7590562023959136,0.03118257697024445,-0.0005948986696516302
0.52,1.234120827726995,1.6856890255147197,-1.2039580305165456,0.10595897465979573,0.11325965117081123,0.0011243443980997,2.9665599886057015,0.8222101672849134,0.643394523818975,0.14479522510286674,0.22731135771128966,0.001232180447008698,-3.371979887335451,0.16673213800380934,-3.3746164423887883,-1.0257612615748677,-0.6604327954243239,-0.015750396546939882,0.23830664756555348,-7.231504790803221,-4.364423075738351,-0.7569497445570089,0.02617050615405138,-0.0005895323903194138
0.53,1.263450061995435,1.6939269563714183,-1.1978589764453735,0.10730642868956775,0.11548191240323202,0.0011358647208977147,2.9329234268440016,0.8237930856698614,0.6099054071172085,0.13474540297720153,0.22222612324207985,0.0011520322798014857,-3.741051655188423,-0.03997226108011395,-3.439001686856242,-1.027044261765452,-0.6754173610867795,-0.014541885997978454,0.15875518417619883,-7.306454972006242,-4.368306533666093,-0.7551453432288975,0.02124695984142312,-0.0005810585279081694
0.54,1.2924062561345886,1.702160101828864,-1.1921012086871812,0.10855306113404013,0.11765143915991638,0.0011466046828765707,2.89561941391536,0.8233145457445685,0.5757767758192371,0.12466324444723828,0.21695267566843598,0.001073996197885611,-4.098100010612709,-0.24125404558109928,-3.4909789849855186,-1.0252893308891995,-0.6886180498495236,-0.01335872854925757,0.07867090640363372,-7.3744168413863616,-4.371865265322636,-0.7536810357356595,0.016432113997902845,-0.0005697879651149126
0.55,1.3209539276724505,1.710368390974225,-1.1866898914213746,0.10969885609496575,0.11976651256636954,0.0011565869040752253,2.8547671537861845,0.820828914536126,0.5411317265806467,0.11457949609256231,0.2115073406453158,0.0009982221198654576,-4.442979636106947,-0.43648077776726735,-3.531044224026984,-1.0207317217760412,-0.6999801400069927,-0.012206460115260054,-0.0017382932138624851,-7.435752188829669,-4.375300425327064,-0.7525882425428732,0.011734715874580484,-0.0005560830767714846
0.56,1.34905880119162,1.718532359373504,-1.18162900716545,0.11074408304556269,0.12182557931327583,0.001165835337427325,2.8104873519169504,0.8163968399278912,0.5060884255924463,0.10452269505969314,0.20590667469062796,0.0009248433352099681,-4.775255883428685,-0.6250920062177636,-3.5597506454991503,-1.0136113470595216,-0.7095231241340052,-0.011090176393384166,-0.08222149539576096,-7.490842279272446,-4.378796094517117,-0.7518920513960194,0.007165573080391126,-0.000540293916404415
0.5700000000000001,1.376687851839557,1.726633204710815,-1.1769214117614144,0.11168927410603512,0.12382725010541865,0.0011743750394006313,2.7629050647937126,0.8100845337311056,0.4707595404035666,0.09451910604724363,0.2001670792142817,0.0008539701973306306,-5.094575598278698,-0.8065945449490539,-3.577699637277724,-1.0041705110843893,-0.7172996429530869,-0.010014830296795285,-0.16254711128958627,-7.540081885078052,-4.382516185351098,-0.7516109000132564,0.0027329943129747805,-0.0005227737262090851
0.58,1.403809340662303,1.7346528357233404,-1.1725688941309351,0.1125352009275274,0.12577029578155,0.001182231921714868,2.712148882274579,0.8019631012525398,0.43525176304792274,0.08459268214922812,0.19430456761313564,0.0007856882314236778,-5.400648749215342,-0.980558905619535,-3.5855302394267503,-0.9926509755942625,-0.7233831089103653,-0.008984847387544903,-0.24250027001380903,-7.583871692441066,-4.386602723520924,-0.7517566935119134,-0.0015568856936888503,-0.0005038733258852381
0.59,1.430392843617415,1.7425739147889783,-1.1685722397553728,0.1132828514768829,0.12765364194003326,0.001189432500803146,2.658350295511203,0.7921079065637826,0.3996654375562395,0.07476505493555007,0.1883346158483253,0.000720057908827788,-5.693240050559047,-1.1466153888151753,-3.583909031976498,-0.979291288974462,-0.7278593751948783,-0.00800401420430985,-0.321881519986159,-7.622611720256669,-4.391174698432872,-0.7523350157875945,-0.005699882096481888,-0.0004839366063398945
0.6,1.4564092751185411,1.7503798945577773,-1.1649312968751322,0.11393340698975699,0.1294763626257795,0.001196003654363602,2.60164315011261,0.7805979768798946,0.3640942880240738,0.06505555128740927,0.18227206857462305,0.0006571153560456088,-5.972163604575942,-1.3044499501582105,-3.5735205059759525,-0.9643243930734027,-0.7308212513884627,-0.007075438654273736,-0.4005057754481591,-7.656695663370021,-4.396327455385988,-0.7533454253922077,-0.009693555753295079,-0.00046329673124842545
0.61,1.4818309066563649,1.7580550490407374,-1.1616450444511468,0.11448821933352354,0.13123767344815893,0.0012019723908347074,2.5421631537823837,0.7675154482960034,0.32862524239854995,0.05548123437665614,0.17613108223794177,0.0005968736471105217,-6.237278416987218,-1.4537999401096142,-3.555058005245632,-0.9479755148507536,-0.7323648954061,-0.00620154518687821,-0.4782012144306077,-7.686506108947483,-4.402132580734212,-0.7547818202682071,-0.013537007522195887,-0.0004422729293247678
0.62,1.5066313809488325,1.7655844995821033,-1.1587116609883763,0.11494878899457371,0.1329369243795264,0.0012073656353952362,2.480047429246774,0.7529450541365986,0.29333834627705746,0.04605696610501729,0.1699250931367482,0.0005393244560528792,-6.488484148417712,-1.594449804462259,-3.529215309299079,-0.9304603431863203,-0.7325874108540908,-0.005384092383310168,-0.5548080779188946,-7.712410576490493,-4.408638222611489,-0.7566328547473202,-0.017230668130517227,-0.0004211678338642706
0.63,1.5307857220469923,1.77295423614509,-1.1561285933852568,0.1153167438776289,0.13457359240716063,0.001212210034577715,2.415434109815972,0.7369736562986786,0.2583067603119616,0.03679548830551832,0.16366680276342255,0.00048443991824788303,-6.725716941275582,-1.7262268225660211,-3.496678910618793,-0.9119834852063136,-0.731585212515995,-0.00462420580376488,-0.630177394558452,-7.734758325911346,-4.415869786977845,-0.7588823931946467,-0.020776086210435946,-0.0004002653397592234
0.64,1.5542703418134014,1.7801511343370688,-1.1538926250423638,0.1155938190781053,0.13614727416210318,0.0012165317805467918,2.348461976640923,0.7196898191978851,0.22359683428929297,0.027707520047640627,0.15736817549425328,0.00043217459690766946,-6.948945312650591,-1.8489969511201476,-3.4581210232222213,-0.8927371918396734,-0.7294528823631623,-0.003922421184328506,-0.7041696746937665,-7.753877872040701,-4.4238309492156755,-0.7615099864176539,-0.02417571842941245,-0.0003798289454444054
0.65,1.5770630431823995,1.7871629685895531,-1.1519999425365064,0.11578183776279832,0.13765767861635347,0.0012203564553758994,2.2792701368998194,0.7011834252484375,0.18926825058572963,0.018801868469302735,0.1510404454250301,0.0003824674829107754,-7.158166149244131,-1.9626608325767403,-3.4141933448408164,-0.8729003389452821,-0.7262823423218023,-0.0032787344199483037,-0.7766536183362764,-7.770075140028506,-4.432504924089373,-0.7644913590008577,-0.027432725582414302,-0.00036010054127302426
0.66,1.5991430206007806,1.7939784218917367,-1.1504462002416032,0.11588269326952029,0.139104619918604,0.0012237088951546201,2.207997741838098,0.6815453302183514,0.15537422949032206,0.010085550672196656,0.14469413022505348,0.00033524397787206716,-7.353400850693217,-2.0671500187737966,-3.3655215822653926,-0.852637648149889,-0.7221622360610738,-0.0026926557109048233,-0.8475048761021333,-7.78363219461755,-4.441855940876404,-0.7677988978431187,-0.030550777989526295,-0.000341299600623675
0.67,1.6204908580323132,1.800587092454707,-1.1492265823537364,0.1158983325130445,0.14048801042408166,0.001226613073407488,2.134783743153249,0.6608670562970194,0.12196178878666494,0.0015639243524211456,0.13833905054776371,0.00029041782528679383,-7.534691666276882,-2.162423452374542,-3.31270073855043,-0.8320991302264655,-0.7171774536053306,-0.002163265839545847,-0.916604894701462,-7.794806476937709,-4.451830875374712,-0.7714021342318127,-0.03353387288991119,-0.0003236227266796906
0.68,1.6410885248901625,1.8069794976575928,-1.1483358618536523,0.11583074076292321,0.1418078539635323,0.0012290920030590409,2.0597666857849446,0.6392405202885764,0.0890720500084114,-0.006759175012129292,0.13198435394506355,0.0002478929651552707,-7.7020982648489715,-2.2484642410625972,-3.2562911517124715,-0.8114197333584858,-0.711408758503417,-0.0016892729753190672,-0.9838398709543472,-7.803830484860727,-4.46236099588356,-0.7752682137000823,-0.03638616587000553,-0.0003072435064466056
0.6900000000000001,1.6609193702380032,1.813147075597565,-1.147768456014772,0.11568192783852428,0.14306423938835172,0.0012311676560106837,1.9830845347840655,0.6167577939972054,0.05674058388801562,-0.014881292439892793,0.12563854248194323,0.00020756529516429022,-7.85569457168745,-2.3252767522317703,-3.196815267201563,-0.790719178706409,-0.704932493355308,-0.0012690687019163427,-1.0490998313054842,-7.810911836624229,-4.473363785811858,-0.7793623496235461,-0.03911181776419276,-0.0002923126240005581
0.7000000000000001,1.6799681155740438,1.8190821845335183,-1.147518478137788,0.11545391574798675,0.14425733442234506,0.0012328608992831864,1.9048745336040631,0.593510893595334,0.024997787698388764,-0.02280120905375302,0.11930950339933544,0.00016932432725026857,-7.995565899746615,-2.3928840491068706,-3.134755120570255,-0.7701019662407784,-0.6978203493184196,-0.000900782203661965,-1.1122778477329165,-7.816233661972996,-4.484744811025017,-0.7836482579872559,-0.04171485794290669,-0.000278958186904011
0.71,1.6982208464829147,1.8247781004791017,-1.1475797852635408,0.1151487277806996,0.145387379844993,0.0012341914466108797,1.8252730908870893,0.5695915945583376,-0.006130712575267209,-0.03051879672871573,0.11300454226479437,0.00013305473276931811,-8.121806396855387,-2.4513256828062207,-3.07055050222451,-0.7496575346653458,-0.6901391911187389,-0.0005823317415858398,-1.1732693959094824,-7.81995527011999,-4.496399605193677,-0.788088571975704,-0.04419906446425706,-0.00026728622287143945
0.72,1.7156650034089538,1.8302290131651624,-1.1479460216836799,0.1147683790473011,0.14645468402606068,0.0012351778243402725,1.7444156926039136,0.5450912686060613,-0.03662364201390561,-0.038034873339849666,0.10673041810676706,9.863777293928332e-05,-8.234516824804896,-2.500655848771974,-3.004597772697663,-0.729460560310887,-0.681950932485968,-0.0003114727444430976,-1.231971857473488,-7.822213049106267,-4.508215551104888,-0.7926452360054119,-0.04656786121075787,-0.0002573813078101137
0.73,1.7322893717714352,1.8354300205552498,-1.1486106581332574,0.11431486844699755,0.14745961782670375,0.0012358373504792622,1.662436836248134,0.5201007390087379,-0.06646364495775814,-0.045351060030354766,0.1004933800643054,6.595261389895512e-05,-8.333802680996756,-2.5409419102036894,-2.9372492943259996,-0.7095713810405258,-0.6733124587995363,-8.584197941408078e-05,-1.2882841652190673,-7.82312155640113,-4.520073740037307,-0.7972798795386985,-0.04882423185745427,-0.0002493072910183127
0.74,1.748084071608222,1.8403771220611473,-1.1495670266106317,0.11379017202911763,0.148402609877798,0.0012361861257578794,1.5794699836786912,0.49471015058975026,-0.09563684773743064,-0.052469641787991836,0.09429920510942408,3.487752786171238e-05,-8.419772668347754,-2.5722632855941545,-2.8688134433199806,-0.6900365323735738,-0.6642755946061172,9.700254958566745e-05,-1.3421065878037153,-7.822774765649694,-4.53185079482747,-0.8019541715039603,-0.050970650313379606,-0.00024310808834073476
0.75,1.763040546899697,1.8450672105690233,-1.1508083508276998,0.1131962377041578,0.14928414224199765,0.0012362390355923395,1.4956475291475144,0.46900885078760135,-0.12413242170682338,-0.05939343249598249,0.08815323641996604,5.290983446001201e-06,-8.49253751441753,-2.5947106921422987,-2.799555164824864,-0.6708893841168599,-0.6548871139858861,0.00023954621488897487,-1.3933406490420746,-7.821247439209199,-4.543420645141528,-0.8066301564230977,-0.0530090271345698,-0.00023880851924179948
0.76,1.7771515546900867,1.8494980633512463,-1.1523277723473868,0.11253498124904454,0.15010474646199942,0.0012360097618874064,1.4111007790389603,0.4430852782222949,-0.15194215196869962,-0.06612564551132678,0.08206042200017767,-2.292737049330041e-05,-8.552209136204155,-2.6083857316806958,-2.7296970324616217,-0.6521508667910201,-0.6451887917081578,0.00034428697039112777,-1.4418891758518821,-7.81859660042337,-4.554656245722965,-0.8112705734349788,-0.05494067131250098,-0.0002364151688742246
0.77,1.790411154088912,1.8536683319046987,-1.1541183725153872,0.111808283541858,0.15086499999366237,0.0012355108036638102,1.3259599398825432,0.41702685534523304,-0.179060016800038,-0.07266977071865398,0.0760253531662954,-4.989582235962531e-05,-8.598900142705018,-2.6134008007862652,-2.6594207729090824,-0.6338302779175979,-0.6352174929234664,0.00041370914727156816,-1.4876564682818691,-7.814863083406198,-4.565431230044394,-0.8158391593318558,-0.056766266785183345,-0.00023591726113998663
0.78,1.8028146952016983,1.857577530724049,-1.1561731903393029,0.11101798895276349,0.1515655230190245,0.0012347535055551963,1.24035411127864,0.39091988193503113,-0.20548178239157677,-0.07902945890945051,0.07005230253621393,-7.57298108613903e-05,-8.63272366314746,-2.60987930194266,-2.5888692151835824,-0.61592615885675,-0.6250052988656591,0.0004502617116726171,-1.530548584633135,-7.8100731414095605,-4.5756214929015675,-0.8203009365211431,-0.05848586298786364,-0.00023728753333772797
0.79,1.8143588080066666,1.8612260249883756,-1.158485236510447,0.11016590481032892,0.15220697563088595,0.0012337480932798914,1.15441128049683,0.3648494264326751,-0.23120461711440946,-0.08520841424345713,0.0641452611861426,-0.0001005412275304991,-8.653793484749654,-2.5979561280094905,-2.518148623321835,-0.5984272332736555,-0.6145796657660938,0.00045634078988188165,-1.5704737343520148,-7.804240097624193,-4.5851066961181095,-0.8246224865162517,-0.06009887874569685,-0.00024048310716588364
0.8,1.8250413911633352,1.8646150171122393,-1.1610475038016028,0.10925380185573709,0.152790055377516,0.0012325037152547784,1.0682583156668604,0.3388992123863614,-0.2562267291155859,-0.09121029545918341,0.058307974663003796,-0.000124437802511297,-8.662224479988689,-2.5777783878617178,-2.4473313701146813,-0.5813133984926253,-0.6039636139376441,0.00043427619864555567,-1.607342771011327,-7.797366024518844,-4.593771691758961,-0.8287722091753781,-0.061604118802254304,-0.000245446354527609
0.81,1.8348616007101481,1.8677465320882092,-1.1638529741078356,0.10828341559161667,0.1533154951532053,0.001231028489580069,0.982020954681293,0.31315149759697847,-0.28054703062328945,-0.09703862641204297,0.052543977568930464,-0.00014752256747093973,-8.658133299655002,-2.5495063369467506,-2.376458908350344,-0.5645567609698645,-0.5931759438054058,0.00038632165640661853,-1.6410697772191216,-7.789443439580644,-4.601507857166318,-0.8327205674738887,-0.06299980226708385,-0.0002521057597048472
0.8200000000000001,1.8438198385817968,1.870623401527377,-1.166894622426925,0.10725644842731949,0.15378406141783682,0.0012293295556831882,0.8958237871648574,0.2876869439167927,-0.3041648319089436,-0.10269671642971773,0.04685662646315014,-0.00016989338968809677,-8.641639304504235,-2.5133144727412535,-2.305544994712771,-0.5481227069316645,-0.5822314755342646,0.0003146483412113099,-1.6715727326366743,-7.780457006615453,-4.608214335826838,-0.836440317141204,-0.06428360224602374,-0.00026037678199480104
0.8300000000000001,1.8519177408531577,1.8732492462879073,-1.170165418100998,0.10617457251848335,0.15419655272640095,0.0012274131299667237,0.8097902271361029,0.2625844760530272,-0.3270795674072925,-0.10818759088361474,0.041249130856413296,-0.00019164257164644663,-8.612865705133274,-2.4693927517558976,-2.2345791201030747,-0.5319709988481467,-0.5711413088526882,0.00022134139403418018,-1.6987742554137633,-7.770385232642377,-4.613799177647803,-0.8399067200427976,-0.06545269588461133,-0.0002701627248077674
0.84,1.8591581655960507,1.8756284575695112,-1.173658323661352,0.1050394331956733,0.15455379854743506,0.001225284564858016,0.7240424742893046,0.23792112816038924,-0.34929055603539916,-0.11351393228100448,0.035724582103411374,-0.00021285651087076709,-8.571940876876457,-2.417947881941079,-2.1635300987519304,-0.5160568879859326,-0.5599130996710144,0.00010839901146963982,-1.7226024062491094,-7.7592021509227695,-4.618180371757614,-0.843097739766786,-0.06650382400450283,-0.00028135561849994045
0.85,1.8655451802176026,1.87776617634418,-1.177366291634126,0.10385265287483196,0.15485665834772497,0.0012229484107068515,0.6387014621551959,0.2137718774668781,-0.3707967972774044,-0.11867803208413413,0.030285980028991286,-0.00023361541511644226,-8.51899981411214,-2.3592046421874975,-2.0923497671979696,-0.5003322327436397,-0.5485513501682746,-2.2266274879001458e-05,-1.7429915429730056,-7.746878980855332,-4.621286764543405,-0.8459942175056754,-0.06743335944400666,-0.00029383712486048645
0.86,1.87108404813514,1.8796682709907706,-1.1812822596752743,0.10261583534123872,0.155106020919264,0.001220408480021916,0.5538867917537426,0.19020946465906477,-0.39159680411482195,-0.1236817533593241,0.024936257153905093,-0.00025399306849356384,-8.454185686472883,-2.293407179207078,-2.020976743100273,-0.48474661197670166,-0.537057709116894,-0.000168824509514387,-1.7598832120674215,-7.733385755405107,-4.6230588553808,-0.8485800260281647,-0.06823738312710481,-0.0003074794712040461
0.87,1.8757812146323978,1.8813413130032608,-1.1853991444091143,0.10133057029872725,0.15530280392341544,0.0012176679135763601,0.4697166497257801,0.1673042012490239,-0.4116884733839891,-0.12852650425114792,0.01967830041514448,-0.0002740566445555854,-8.377651458134217,-2.220820231520914,-1.949340193087262,-0.469248422039211,-0.5254312793884495,-0.00032952376316019993,-1.7732270619478658,-7.7186929064773775,-4.623449462473642,-0.8508421993320415,-0.06891176678296916,-0.0003221464214661381
0.88,1.8796442917355691,1.8827925506497283,-1.1897098343454788,0.09999843807708253,0.15544795362645647,0.001214729247948327,0.3863077103171274,0.14512376464675847,-0.43106899363644524,-0.133213222164471,0.014514970304102785,-0.000293866562803325,-8.289561530696098,-2.141730230666039,-1.877363558532918,-0.45378594590160404,-0.5136689297593335,-0.0005026844944873154,-1.7829817612121481,-7.70277279826092,-4.622424251468434,-0.8527710354723873,-0.06945226112391917,-0.00033769429060077634
0.89,1.8826820419453913,1.8840298804713271,-1.194207182246169,0.09862101439286843,0.15554244480018448,0.0012115944840930936,0.30377502098221976,0.12373298215989467,-0.4497347900690243,-0.13774236842141022,0.009449117372799609,-0.00031347638552332423,-8.190093370217998,-2.056446231136612,-1.8049681884182394,-0.43830838251604654,-0.5017656083593636,-0.0006866931198095116,-1.789115903509084,-7.685601198113001,-4.619962120088165,-0.8543601700812254,-0.06985458816938642,-0.00035397300699247343
0.9,1.8849043606630644,1.885061816527592,-1.1988839973020102,0.09719987506244003,0.15558728076102302,0.0012082651565706879,0.22223187176731174,0.10319360562648847,-0.46768150558412647,-0.14211393304283942,0.004483596083855356,-0.0003329327522405674,-8.079439079771229,-1.9653006230454344,-1.7320768294198357,-0.4227668245642988,-0.4897146553477967,-0.0008799950952926849,-1.7916088793022105,-7.667158674103163,-4.616055432974263,-0.8556066182424994,-0.07011453628341695,-0.00037082722558707333
0.91,1.8863222571532479,1.8858974573160556,-1.2037330374674515,0.0957366005705762,0.15558349352105952,0.0012047424030762217,0.14178964901834745,0.0835640788463434,-0.48490401654412574,-0.14632744918638296,-0.00037872399635079015,-0.00035227534944661307,-7.957806880446707,-1.868649585053802,-1.6586169251280158,-0.4071151729864315,-0.4775081126476124,-0.001081087795685498,-1.790451693710736,-7.647431907935185,-4.6107101022462516,-0.8565107826622531,-0.07022805638104185,-0.00038809749209939824
0.92,1.8869478338965278,1.8865464503200597,-1.2087470022805014,0.09423278040399982,0.1555321440246599,0.0012010270339400007,0.06255767432798034,0.06489930040040462,-0.5013964813049823,-0.15038201665763826,-0.005134949639962497,-0.0003715369136221076,-7.825422466099059,-1.7668732397519245,-1.5845236789380728,-0.39131097717144403,-0.46513702884529096,-0.0012885134192130998,-1.7856477089139604,-7.6264149116825415,-4.6039455109775025,-0.8570764264749818,-0.07019135766258375,-0.0004056214560646485
0.93,1.8867942641963504,1.8870189541683184,-1.2139185264721177,0.0926900170659919,0.15543432244471905,0.0011971196012814467,-0.015356970017722696,0.047250384825862135,-0.5171524191616466,-0.1542763338007922,-0.009782157994084547,-0.00039074326585539676,-7.682530200188886,-1.6603754793320298,-1.5097428386953826,-0.37531619047776665,-0.4525917576184284,-0.0015008521503854233,-1.7772132894103387,-7.604110136654113,-4.595794278813491,-0.8573106095447987,-0.07000100116277919,-0.00042323512776887404
0.9400000000000001,1.8858757679211804,1.8873255984226818,-1.219240174641325,0.09110992969627513,0.15529114851319728,0.0011930204675149152,-0.09184962751700378,0.03066442543632632,-0.5321648169207331,-0.15800873697167722,-0.014317393152177671,-0.00040991337665315943,-7.529394126842215,-1.5495834359900966,-1.4342331656130165,-0.35909783182540167,-0.4398622483222212,-0.001716715776526545,-1.7651783288195828,-7.58052946279861,-4.586301871276358,-0.8572235877401627,-0.06965398936131696,-0.00044077417133395213
0.9500000000000001,1.8842075852811726,1.8874774410460067,-1.2247044372407572,0.08949415722924134,0.15510377186134322,0.001188729872917026,-0.166818264000776,0.015184262332495547,-0.5464262599432188,-0.1615772467033794,-0.018737665185404727,-0.00042905945978892094,-7.366298772594728,-1.4349465788907252,-1.357968555282743,-0.3426285454442599,-0.42693832761697337,-0.0019347419230140162,-1.749586637977382,-7.555695057394974,-4.575526056838475,-0.856828675364061,-0.06914785010000543,-0.0004580752235603231
0.96,1.8818059485595395,1.8874859236393173,-1.2303037280825593,0.08784436103329807,0.1548733723458912,0.0011842480019745446,-0.24016367216330609,0.0008482593310670684,-0.5599290841802129,-0.16497961959432642,-0.023039951545199548,-0.00044818709424813155,-7.193549720118269,-1.316935427572258,-1.280939784687663,-0.3258870524466637,-0.41380997124704777,-0.002153589077000806,-1.73049617584409,-7.529640092391279,-4.563536218524077,-0.8561420716837186,-0.06848071309499118,-0.00047497722566300035
0.97,1.878688051741534,1.8873628245757352,-1.236030383537219,0.08616222698446113,0.15460116033852533,0.0011795750482389527,-0.3117896818005399,-0.012309906358205816,-0.5726655454659868,-0.16821340488369416,-0.027221200736588624,-0.00046729537355917573,-7.011473940405026,-1.196039880160311,-1.2031558658726633,-0.3088584897064628,-0.4004675652920895,-0.002371932514348085,-1.707979107247077,-7.502409310663714,-4.550412529515564,-0.8551826532972812,-0.0676513774242578,-0.000491322752884898
0.98,1.8748720180080671,1.8871202101971358,-1.2418766635586294,0.08444946693814953,0.15428837695700565,0.0011747112774193858,-0.3816033733466977,-0.024261437859938645,-0.5846280021410393,-0.17127600463115963,-0.03127833815196903,-0.0004863770819566916,-6.8204198752679694,-1.0727671634821052,-1.1246449941929406,-0.29153463349605335,-0.38690215637373626,-0.0025884612699149656,-1.6821216746844256,-7.474059432680548,-4.536245004896669,-0.8539717348691274,-0.06665936851297682,-0.0005069593252388297
0.99,1.8703768650858794,1.8867703842772636,-1.247834754628221,0.08270781957425893,0.15393629421753685,0.0011696570884491,-0.44951529221878106,-0.03498259198722958,-0.5958091069591446,-0.17416473638906033,-0.035208273946878546,-0.0005054188970285779,-6.620757267445291,-0.9476394208944278,-1.045455086666419,-0.27391400739424654,-0.37310569043471276,-0.0028018762072097303,-1.653023875281374,-7.444659396569503,-4.521132444151929,-0.8525328015288355,-0.06550498333177833,-0.0005217406814039265
