tonegas/nnodely-applications/joint_friction_estimation/dataset/train/mpc_mujoco_episode_35.csv
time,q1,q2,q3,q4,q5,q6,dq1,dq2,dq3,dq4,dq5,dq6,ddq1,ddq2,ddq3,ddq4,ddq5,ddq6,tau1,tau2,tau3,tau4,tau5,tau6
0.0,0.0,1.57,-1.57,0.0,0.0,0.0,0.0,0.0,0.0,0.0,0.0,0.0,-5.615968292243919,1.3740635619665782,4.486220149752936,1.7423722974763685,-0.8151346071647296,-2.256613865547763e-06,-0.7827618080679102,-3.0234116468117014,-3.622819343283269,-0.8025319930086923,-0.07066850941868275,-0.0012344938485008604
0.01,-0.000558654149343226,1.570138545120527,-1.5695531446420852,0.000163088273465055,-6.891741439781427e-05,-6.148382073318137e-07,-0.0558654149343226,0.013854512052684141,0.04468553579148866,0.0163088273465055,-0.006891741439781427,-6.148382073318138e-05,-5.552714707298802,1.3565458217887336,4.422896853921242,1.6135191395680373,-0.6825542569438348,-0.006133010216243129,-0.7788796800055756,-3.05034332572939,-3.6358011897016147,-0.8054427269743849,-0.07028295591858831,-0.0012299799354702793
0.02,-0.0016692453818466508,1.5704139321899473,-1.568666400386516,0.00047885457364971385,-0.00019848720015772125,-1.8665635973508678e-06,-0.11105912325034248,0.027538706942040022,0.08867442555691375,0.03157663001846588,-0.012956978575990697,-0.0001251725390019054,-5.4823369571557645,1.3370465125503455,4.349547573830594,1.507913836212662,-0.5990683636547516,-0.006301057844991131,-0.7757815617586651,-3.0838913544347033,-3.6506011189597993,-0.808580920341294,-0.0699283957460118,-0.0012239918653189565
0.03,-0.0033245240355130384,1.5708242385613638,-1.5673475569865984,0.0009386328018907473,-0.00038338889235123725,-3.7113819897416357e-06,-0.16552786536663877,0.04103063714164514,0.131884339991761,0.04597782282410334,-0.0184901692193516,-0.0001844818392390768,-5.4065737034408885,1.3153169379330845,4.268022010785179,1.419735504637762,-0.5448496179075875,-0.005766419850566695,-0.7733886760048765,-3.1238588487095793,-3.6671761794930733,-0.8119399136416062,-0.06959954756158923,-0.0012165445673521056
0.04,-0.00551681133895016,1.571367302322971,-1.56560508544375,0.0015350599936709173,-0.0006200530348842186,-6.109996940419781e-06,-0.21922873034371218,0.05430637616071948,0.17424715428484125,0.059642719178017015,-0.023666414253298136,-0.0002398614950678146,-5.326461103153823,1.2911721774964302,4.179746566237423,1.344573623411181,-0.5079708359678108,-0.005231595941284972,-0.771611765003324,-3.17002680847595,-3.6854720480853294,-0.815510121612306,-0.06929030627350677,-0.0012076551725118969
0.05,-0.008238060447584681,1.5720407076810434,-1.5634480280550997,0.0022617426003366746,-0.0009059419872407073,-9.031837366051677e-06,-0.27212491086345203,0.06734053580724517,0.21570573886502417,0.07266826066657574,-0.02858889523564887,-0.00029218404256318943,-5.24260941960981,1.2644769163524965,4.08582613309025,1.2790928767742749,-0.4812537555234897,-0.004740990574632509,-0.7703522020637745,-3.22215566580979,-3.705423953568847,-0.8192792935380642,-0.06899387241997085,-0.001197339404911335
0.06,-0.011479891717761537,1.5728417743927798,-1.5608859127928787,0.0031130043778468887,-0.00123911706482892,-1.2451803351416714e-05,-0.32418312701768554,0.08010667117363528,0.2562115262221008,0.0851261777510214,-0.03331750775882128,-0.0003419965985365037,-5.155371141882638,1.2351353507701528,3.987122141656689,1.2207756455456593,-0.4603867993732145,-0.004265743550161627,-0.7695030737433727,-3.2799863609900743,-3.7269574227850435,-0.8232327375665219,-0.0687028765822863,-0.0011856106671170276
0.07,-0.015233612387730697,1.5737675504613973,-1.5579286860796502,0.004083696306171703,-0.0016179786979150022,-1.6347503980144765e-05,-0.375372066996916,0.09257760686175145,0.29572267132284336,0.09706919283248146,-0.03788616330860822,-0.00038957006287280494,-5.06494340538411,1.2030839672281957,3.8843122103623773,1.1677258055405098,-0.4427908004483463,-0.0037827067337197207,-0.768950266601145,-3.3432411737640453,-3.7499889342651525,-0.8273535283702822,-0.06840950112584045,-0.0011724804903419353
0.08,-0.01949022688429061,1.574814807538135,-1.554586659420093,0.005169053651801885,-0.0020411111766634885,-2.069755665473604e-05,-0.42566144965599123,0.10472570767377984,0.33420266595572357,0.10853573456301817,-0.04231324787484862,-0.0004350052674591276,-4.971430614017497,1.1682863539281498,3.7779357196334664,1.1185195344148813,-0.4269339216161825,-0.003279720569993483,-0.7685735800326744,-3.411624459203951,-3.7744265344465227,-0.8316227099897854,-0.06810560059824379,-0.0011579596302189066
0.09,-0.024240441581303583,1.5759800386379472,-1.5508704664170516,0.00636458885961242,-0.002507190632480647,-2.5480637459650227e-05,-0.4750214697012974,0.11652310998123024,0.3716193003041294,0.11955352078105351,-0.04660794558171585,-0.00047830808049141864,-4.874882958986613,1.1307294553110698,3.668428633920439,1.0720919358816943,-0.41191760103779274,-0.0027522636365096,-0.7682478786878042,-3.4848233870577214,-3.8001704517065504,-0.8360195009462514,-0.06778282131903626,-0.0011420594268316997
0.1,-0.029474666387567468,1.5772594578891932,-1.5467910275149839,0.0076660116793559885,-0.0030149312638939724,-3.067499583646827e-05,-0.5234224806263883,0.12794192512459013,0.40794389020678257,0.1301422819743568,-0.05077406314133252,-0.0005194358376818043,-4.775320338699906,1.0904208509452602,3.5561501084697786,1.027650907728189,-0.3972261876457637,-0.002200428204231386,-0.7678442924092022,-3.562508750727863,-3.827113730930648,-0.8405215057062817,-0.06743272012606243,-0.0011247932284339222
0.11,-0.0351830146638825,1.578649002116934,-1.5423595204377163,0.009069169999116073,-0.003563054696314851,-3.6258246244158396e-05,-0.5708348276315033,0.13895442277408246,0.44315070772675524,0.1403158319760084,-0.05481234324208785,-0.0005583250407690122,-4.672747427507972,1.0473867574855857,3.4414028122040925,0.984611716684439,-0.3825754527868419,-0.0016269377008426567,-0.7672314672722804,-3.644335890256415,-3.8551429030132938,-0.8451049346188455,-0.06704688184463761,-0.00110617777294845
0.12,-0.04135530243638922,1.580144334114309,-1.5375873547653567,0.010570006428533195,-0.004150273333220189,-4.220732213143638e-05,-0.6172287772506719,0.14953319973751375,0.47721656723596745,0.15008364294171217,-0.058721863690533775,-0.0005949075887277978,-4.5671633626311205,1.0016705344142272,3.324448436385496,0.9425473029604117,-0.3678208277147661,-0.0010359186811617072,-0.7662768674787263,-3.729945758631036,-3.884138697927962,-0.8497448331103684,-0.06661703476607922,-0.0010862344700162262
0.13,-0.04798104754821203,1.5817408474936505,-1.532486149462168,0.012164526867161473,-0.004775282160927496,-4.849852305210646e-05,-0.662574511182281,0.15965133793414113,0.5101205303188605,0.15945204386282777,-0.06250088277073072,-0.0006291200920670077,-4.458568138121257,0.9533315326050266,3.205519507125206,0.9011505274040346,-0.35290172263377784,-0.00043214644712019634,-0.7648481242369508,-3.818966149672546,-3.9139768057633413,-0.8544153199631925,-0.06613516322636646,-0.0010649905509826489
0.14,-0.05504946919104663,1.583433673033295,-1.5270677124497758,0.013848778198355621,-0.0054367556464906645,-5.5107613300978795e-05,-0.7068421642834594,0.16928255396445413,0.5418437012392099,0.16842513311941473,-0.06614734855631689,-0.0006609090248872341,-4.3469669592730735,0.902444166930995,3.084828352283896,0.8602054812158304,-0.3378076516934101,0.00017941955340594617,-0.7628144242430785,-3.9110130970978387,-3.94452868680033,-0.8590898337701901,-0.06559361624092323,-0.001042480066588154
0.15,-0.06254948813233686,1.5852176864508956,-1.5213440215384384,0.015618832935529948,-0.006133347683937565,-6.20099469956982e-05,-0.7500018941290234,0.1784013417600575,0.5723690911337475,0.17700547371743278,-0.06965920374469012,-0.0006902333694719404,-4.2323733062243285,0.8490971251133456,2.9625738699780024,0.8195656689953399,-0.322557547285669,0.0007939224844695225,-0.760047926964237,-4.0056924471224455,-3.9756624289461753,-0.8637413860706857,-0.06498521106444835,-0.0010187447185462288
0.16,-0.07046972787178701,1.5870875175419263,-1.5153272061986256,0.017470779167940553,-0.006863693339711732,-6.918060446617211e-05,-0.7920239739450153,0.18698310910306937,0.6016815339812712,0.18519462324106062,-0.07303456557741674,-0.0007170657470473908,-4.114811151428375,0.7933926481039444,2.83894659158381,0.7791374018200994,-0.307187063951158,0.0014067841577194429,-0.7564251966956999,-4.102601600646066,-4.0072436484598395,-0.8683428191863287,-0.0643033304981872,-0.0009938345149248802
0.17,-0.07879851690493246,1.589037560624889,-1.5090295297874516,0.019400714547258946,-0.0076264116300124125,-7.659453079570126e-05,-0.8328789033145443,0.19500430829627138,0.6297676411173957,0.19299353793183946,-0.07627182903006803,-0.0007413926329529143,-3.9943165932637203,0.7354458347609507,2.714132415186482,0.7388671373463982,-0.29174073461976846,0.0020138106220985996,-0.7518286324208718,-4.201331415379558,-4.039136427803531,-0.8728670663694217,-0.06354201275756409,-0.0009678082419554111
0.18,-0.08752389223046872,1.5910619862338713,-1.5024633719483889,0.02140474335452538,-0.008420108855227055,-8.422667097913341e-05,-0.8725375325536256,0.20244256089823132,0.6566157839062707,0.20040288072664358,-0.07936972252146424,-0.0007632140183432141,-3.870939059353844,0.6753839369764741,2.5883152969671106,0.698731808481023,-0.27626708621854235,0.0026112516606038305,-0.746147875965988,-4.301468253111486,-4.071204282606715,-0.8772874115439144,-0.06269603273913547,-0.0009407337473737298
0.19,-0.09663360420559247,1.5931547539956634,-1.4956412109848154,0.023478975912719052,-0.009243382194917289,-9.205209837491933e-05,-0.9109711975123745,0.2092767761792113,0.6822160963573477,0.2074232558193669,-0.08232733396902332,-0.0007825427395785917,-3.7447421691378406,0.6133456218302301,2.461679121269377,0.6587314138151008,-0.26081557204224737,0.0031958291735727506,-0.7392811769254602,-4.40259615265639,-4.103311148130836,-0.8815777456614513,-0.06176097358649544,-0.0009126880329958472
0.2,-0.10611512282601614,1.5953096266234652,-1.4885756060732953,0.025619529780749214,-0.010094823376143876,-0.00010004613449663084,-0.9481518620423661,0.21548726278017194,0.7065604911520129,0.2140553868030162,-0.08514411812265872,-0.0007994036121711513,-3.6158043082179723,0.5494801855389306,2.3344089198110183,0.6188833191927152,-0.2454346305257289,0.0037647439174213204,-0.7311366914429149,-4.504299104912287,-4.135322374294792,-0.8857128165161491,-0.06073328754910285,-0.0008837571570453032
0.21,-0.11595564548249468,1.5975201849529754,-1.4812791792348319,0.027822532293535242,-0.01097302229559819,-0.00010818445905225627,-0.984052265647854,0.22105583295102765,0.7296426838463327,0.22030025127860267,-0.08781989194543142,-0.0008138324555625427,-3.484218946302246,0.4839467104864949,2.2066915727416907,0.579217853701909,-0.2301704524371182,0.004315666782847671,-0.7216336912517286,-4.606163402941068,-4.167105717288166,-0.8896684687673874,-0.05961034525440648,-0.000854035949772102
0.22,-0.12614210622255081,1.5997798439398976,-1.4737645970244635,0.03008412411017487,-0.011876570518493505,-0.00011644320969695314,-1.018646074005613,0.22596589869221334,0.7514582210368419,0.22615918166396276,-0.0903548222895314,-0.0008258750644696868,-3.3500947196258406,0.4169131618346182,2.078716095925236,0.5397748851610409,-0.21506620244192476,0.004846718912145054,-0.7107036594647803,-4.707780037146345,-4.1985323150891904,-0.8934218709147062,-0.05839047266947183,-0.0008236275490523179
0.23,-0.13666118652409542,1.60208186953105,-1.4660445519335892,0.032400463505730184,-0.012804064604359667,-0.0001247990713346759,-1.0519080301544594,0.23020255911524234,0.7720045090874221,0.23163393955553144,-0.09274940858661615,-0.0008355861637722757,-3.2135552936228695,0.34855542440517845,1.9506735976248848,0.5006011374898645,-0.2001615395729246,0.005356443761886487,-0.6982912504898953,-4.808747103520152,-4.229477633836413,-0.896951726054926,-0.05707297521036121,-0.000792642765837824
0.24,-0.14749932756665468,1.6044193963147007,-1.4581317435268852,0.034767731197763815,-0.013754109227735857,-0.00013322935505673475,-1.0838141042559257,0.23375267836506722,0.7912808406704009,0.23672676920336339,-0.095004462337619,-0.0008430283722058875,-3.0747390198614055,0.27905628388036197,1.822756971880058,0.46174807107765314,-0.1854923403758395,0.005843773524836671,-0.6843550931277034,-4.9086721916233245,-4.259822371994075,-0.9002384634294615,-0.05565814866080934,-0.000761199292421501
0.25,-0.1586427439659714,1.6067854458497293,-1.4500388593577482,0.03718213554089542,-0.01472532007384797,-0.0001417120669818351,-1.1143416399316712,0.23660495350285507,0.8092884169137112,0.2414404343131602,-0.09712108461121136,-0.000848271192510033,-2.9337984013818685,0.20860435902806074,1.6951603839525906,0.4232701917770081,-0.17109056409841727,0.006307991821772108,-0.6688684183520307,-5.007174718483256,-4.289453309601375,-0.9032644080354698,-0.05414727678125141,-0.0007294207693887703
0.26,-0.17007743891898633,1.6091729455679942,-1.4417785557237701,0.039639917954703244,-0.015716326497841354,-0.00015022596738756267,-1.1434694953014946,0.2387499718264979,0.8260303633978108,0.24577824138078286,-0.09910064239933856,-0.0008513900405727572,-2.7908993816480496,0.13739299372576919,1.5680785942095248,0.38522368792362727,-0.15698422068560092,0.006748694272681988,-0.6518194964087892,-5.103888174953986,-4.318264090599165,-0.906013925921891,-0.05254261571856403,-0.0006974357297378818
0.27,-0.18178922068881287,1.6115747481400213,-1.4333634383374467,0.04213735847483355,-0.016725773942308765,-0.00015875062061188852,-1.171178176982655,0.240180257202716,0.8415117386323299,0.2497440520130303,-0.10094474444674095,-0.0008524653224325842,-2.6462204737726154,0.0656191191017929,1.4417061599439134,0.3476653202978568,-0.1431974152546278,0.007165748253669557,-0.6332118716027322,-5.198462252270419,-4.346155927262117,-0.9084735432105091,-0.05084736555954691,-0.0006653764408800053
0.28,-0.19376372034348777,1.6139836511909658,-1.4248060429976606,0.044670781336138894,-0.017752326112486234,-0.0001672664362648862,-1.1974499654674893,0.24089030509445042,0.8557395339786058,0.2533422861305349,-0.10265521701774687,-0.0008515815652997673,-2.499951748161949,-0.0065179028049957306,1.3162365492870758,0.31065150922804863,-0.12975045056416867,0.007559252961593321,-0.6130643873491084,-5.29056481850537,-4.373038217099592,-0.9106320373605581,-0.04906562960033028,-0.000633377667000972
0.29,-0.20598641064819298,1.6163924172518283,-1.4161188163548497,0.04723656051150883,-0.018794666912057365,-0.00017575470233087428,-1.2222690304705226,0.2408766060862572,0.8687226642810858,0.25657791753699366,-0.10423407995711302,-0.0008488266065988069,-2.352293698011546,-0.07881744180063603,1.191861197106158,0.27423757753759803,-0.1166599738319185,0.007929500686207236,-0.5914109986037875,-5.379883717340198,-4.398829064181267,-0.9124804997180798,-0.04720236212261484,-0.0006015753755195382
0.3,-0.21844262599844702,1.6187937938301764,-1.4073140968674946,0.049831125141880366,-0.019851502145297868,-0.00018419761076414524,-1.2456215350254047,0.24013765783482127,0.8804719487355102,0.2594564630371536,-0.10568352332405012,-0.0008442908433270969,-2.2034560030680437,-0.15107875635130566,1.0687685292689344,0.238477118898881,-0.10393915731241599,0.008276940016631817,-0.568300373495973,-5.466128364901777,-4.423455698643404,-0.9140123689416374,-0.045263305669715405,-0.0005701054120775004
0.31,-0.2311175832715709,1.6211805334851568,-1.3984040960498976,0.052450964802542174,-0.020921560993487204,-0.00019257827619029882,-1.2674957273123884,0.23867396549804337,0.8910000817597156,0.2619839660661811,-0.10700588481893375,-0.0008380665426153561,-2.053656212677738,-0.2231021321515179,0.9471429786547494,0.2034214692491081,-0.09159790407274748,0.008602141548408548,-0.5437952907058895,-5.549031124294931,-4.446854790079933,-0.9152234354564113,-0.043254918994795895,-0.0005391021686230745
0.32,-0.243996403465616,1.6235454137933694,-1.389400880111428,0.05509263455888299,-0.022003597275229797,-0.00020088074832237064,-1.2878820194045097,0.23648803082125985,0.9003215938469596,0.26416697563408187,-0.10820362817425914,-0.0008302472132071806,-1.9031183693446008,-0.294689990489151,0.8271640136177786,0.16911926490599427,-0.07964307181414476,0.00890576649760888,-0.5179718436925944,-5.628348441751011,-4.4689726525581195,-0.9161118176414116,-0.04118429700548108,-0.0005086972687039094
0.33,-0.2570641339889248,1.6258812570951713,-1.3803163520856911,0.057752759771628234,-0.02309639050164357,-0.00020909001868867397,-1.3067730523308834,0.23358433018018926,0.9084528025736798,0.26601252127452446,-0.10927932264137698,-0.0008209270366303331,-1.7520715938233067,-0.36564795506572934,0.7090051971520532,0.13561607539370657,-0.06807870865023169,0.009188538485386366,-0.49091846712829534,-5.70386173288878,-4.489765341056678,-0.91667791098219,-0.03905908414918463,-0.00047901829309072617
0.34,-0.2703057714595688,1.6281809499151179,-1.371162234544645,0.06042804061768214,-0.024198746738346818,-0.00021719202224950468,-1.3241637470643985,0.2299692819946494,0.9154117541046015,0.26752808460539035,-0.11023562367032504,-0.0008102003560830715,-1.6007486521955412,-0.4357858667721478,0.5928332926887216,0.10295410213266198,-0.05690629560685423,0.009451218654236926,-0.46273480469417716,-5.775378012308735,-4.509198641142832,-0.916924311908095,-0.03688738276913233,-0.0004501875673463785
0.35000000000000003,-0.2837062848720159,1.6304374619554458,-1.3619500529877588,0.06311525629817394,-0.02530949928685055,-0.0002251736344539609,-1.3400513412447095,0.22565120403278874,0.921218155688615,0.2687215680491803,-0.11107525485037331,-0.0007981612204456208,-1.449384524456413,-0.504918736949149,0.4788074302168209,0.07117193639258268,-0.04612499133543846,0.00969458415291169,-0.433530440618484,-5.842730264480611,-4.527247955624034,-0.9168557184646945,-0.034677658010528745,-0.0004223210309922028
0.36,-0.2972506389884379,1.632643864567653,-1.3526911199900686,0.06581126891035523,-0.02642750919838036,-0.0002330226642578765,-1.3544354116422015,0.22064026122072694,0.9258932997690199,0.26960126121812844,-0.11180099115298109,-0.0007849029803915627,-1.2982149929138698,-0.5728676308411039,0.36707834425464136,0.040304371423696056,-0.0357318751851361,0.009919409925152056,-0.40342351989561914,-5.905777558506501,-4.543898093676855,-0.9164788103369909,-0.03243864086920691,-0.00039552720557468586
0.37,-0.31092381781395284,1.6347933486142097,-1.3433965201856504,0.06851302696471435,-0.02755166563334341,-0.00024072784359078394,-1.3673178825514969,0.21494840465566464,0.929459980441828,0.2701758054359125,-0.11241564349630499,-0.0007705179332907439,-1.1474752672285597,-0.6394604742406179,0.2577876930760672,0.01038226472011572,-0.02572218536779225,0.010126453708971805,-0.37253928394932756,-5.964404913728484,-4.559142969523717,-0.9158021110287285,-0.03017923095221422,-0.0003699062762766327
0.38,-0.3247108480186675,1.6368792416401161,-1.3340770961547916,0.0712175685331297,-0.028680886079651854,-0.00024827881372437027,-1.3787030204714663,0.20858930259065148,0.9319424030858825,0.27045415684153434,-0.11292204463084443,-0.0007550970133586356,-0.9973986612449343,-0.7045327776842861,0.15106746654592718,-0.018567553004328774,-0.0160895495022908,0.010316444040209816,-0.34100854955805554,-6.018522927193356,-4.572985219061385,-0.9148358352118939,-0.02790840046304343,-0.0003455492988363758
0.39,-0.33859682217447307,1.638895024282272,-1.3247434352742014,0.07392202401811106,-0.029814116442942955,-0.0002556661089589366,-1.388597415580558,0.20157826421559383,0.9333660880590278,0.27044554849813546,-0.11332303632911002,-0.0007387295234566308,-0.8482153349412855,-0.7679282739587417,0.0470394879285565,-0.04652232517308175,-0.00682620532545819,0.0104900710557852,-0.3089661591414422,-6.068067177598148,-4.585435743916598,-0.9135917243859979,-0.025635100836544435,-0.00032253754052194563
0.4,-0.3525669216809735,1.6408343458532861,-1.315405857580143,0.07662361853719415,-0.030950331021423794,-0.0002628811380080532,-1.3970099506500417,0.1939321571014094,0.9337577694058374,0.27015945190830964,-0.11362145784808388,-0.0007215029049116629,-0.7001511129063482,-0.8294994660782938,-0.05418498686170703,-0.07346337591245855,0.002076790169759146,0.010647979824002896,-0.276549430037922,-6.112997423448329,-4.5965131931982715,-0.9120828740296485,-0.02336817333370049,-0.0003009419608450938
0.41000000000000003,-0.3666064392624982,1.6426910390453109,-1.3060744046845902,0.07931967392035776,-0.03208853237763997,-0.0002699161634262175,-1.4039517581524714,0.18566931920248583,0.9331452895552712,0.2696055383163606,-0.11382013562161748,-0.0007035025418164285,-0.5534263887846429,-0.8891080842691291,-0.1525055708966745,-0.09937607865077203,0.010629364486706816,0.010790765941990077,-0.24389662923546962,-6.153296615714688,-4.6062433937265705,-0.9103235553907965,-0.021116264768827303,-0.0002808228346768694
0.42,-0.3807008009266763,1.6444591337085817,-1.296758829774571,0.08200761032191863,-0.033227751118945215,-0.000276764279389931,-1.4094361664178117,0.1768094663270784,0.9315574910019317,0.2687936401560875,-0.11392187413052426,-0.0006848115963713508,-0.40825512316514223,-0.9466254518137425,-0.24783294875745643,-0.12424978960936972,0.018842247195685058,0.010918973120584818,-0.2111454982242221,-6.188969747246235,-4.614658739751665,-0.9083290349530475,-0.018887749386206108,-0.00026222951751844796
0.43,-0.3948355872843281,1.6461328696684472,-1.287468588714936,0.0846849474517137,-0.034367045597853696,-0.00028341938810983353,-1.4134786357651827,0.1673735959865521,0.9290241059635016,0.2677337129795079,-0.11392944789084793,-0.000665510871990256,-0.2648439404601957,-1.001932760848841,-0.3400889814774255,-0.14807774912980465,0.026726801904242148,0.011033092461359806,-0.17843185031273676,-6.22004256257378,-4.621797553142178,-0.9061153944417396,-0.016690657734778475,-0.00024520034996174854
0.44,-0.4089965541402726,1.6477067085536796,-1.2782128322650284,0.0873493054334851,-0.035505501542807905,-0.00028987617512092064,-1.4160966855944472,0.15738388852324137,0.9255756449907668,0.2664357981771393,-0.11384559449542092,-0.0006456787011087095,-0.12339132846878612,-1.0549212603495388,-0.42920671682555733,-0.17085695385751976,0.03429487290073907,0.011133563165758836,-0.1458882599936788,-6.246560152532509,-4.627703424746978,-0.9036993540049892,-0.014532613213448464,-0.00022976269589903265
0.45,-0.4231696522748685,1.6491753446176214,-1.2690003994102605,0.08999840530122755,-0.03664223162920978,-0.0002961300836692108,-1.4173098134595936,0.14686360639417137,0.9212432854767909,0.26490998677424504,-0.11367300864018764,-0.0006253908548290136,0.015913057429720517,-1.1054923595605404,-0.5151303090678327,-0.1925880029071192,0.041558646478777356,0.011220774413456105,-0.11364286087209652,-6.268585458366774,-4.632424547141076,-0.9010981009324822,-0.012420776780745088,-0.00021593310685825572
0.46,-0.43734104634652965,1.6505337145421723,-1.2598398118005611,0.09263006914682459,-0.03777637499985638,-0.0003021772883868899,-1.4171394071661108,0.1358369924550892,0.9160587609699313,0.2631663845597049,-0.1134143370646598,-0.0006047204717679087,0.15288898512460322,-1.153557651035074,-0.5978148533999079,-0.21327492119362557,0.0485305267148719,0.01129506816669111,-0.08181826539491525,-6.2861977096966,-4.636013048289352,-0.8983291259699265,-0.010361800145786908,-0.00020371760298654274
0.47000000000000003,-0.45149713285591525,1.6517770062226471,-1.2507392692791302,0.0952422199345782,-0.038907096743207914,-0.00030801466842395953,-1.4156086509385606,0.124329168047468,0.9100542521430952,0.26121507877536126,-0.1130721743351535,-0.0005837380037069625,0.28736613281055634,-1.199038858211671,-0.677226141124226,-0.23292496316052702,0.05522302528144141,0.011356742674664883,-0.05053061625623424,-6.299490819975219,-4.638524334835601,-0.8954100689613202,-0.008361787586910304,-0.00019311205969789566
0.48,-0.4656245571228533,1.652900666539064,-1.241706646477024,0.09783288100021861,-0.040033587337206904,-0.00031363978018278887,-1.4127424266938045,0.11236603164168857,0.9032622802106285,0.25906610656404166,-0.11264905939989905,-0.0005625111758829364,0.4191844746691857,-1.2418677130909272,-0.7533403423570628,-0.25154840013767554,0.06164866471185815,0.011406056485391801,-0.01988877600519747,-6.308571761909849,-4.640016452785322,-0.8923585752156313,-0.006426266383683317,-0.00018410268785320355
0.49,-0.4797102292371675,1.6539004081264024,-1.2327494904418619,0.1004001752536629,-0.04115506206567287,-0.0003190508297824917,-1.4085672114314225,0.09997415873384413,0.8957156035161924,0.25672942534442955,-0.11214747284659671,-0.0005411049599702866,0.5481945687961455,-1.2819857700722648,-0.8261436235896045,-0.269158294546056,0.06781989440578462,0.011443232790562932,0.010006341852865079,-6.313558943820785,-4.6405494723352,-0.8891921636595115,-0.004560165700421077,-0.00017666659455072389
0.5,-0.49374133895434197,1.6547722151627313,-1.2238750192624457,0.10294232410617082,-0.042270760413626096,-0.00032424664536270407,-1.4031109717174464,0.08718070363290033,0.887447117941611,0.25421488525079156,-0.11156983479532263,-0.0005195815580212373,0.6742577519477023,-1.3193441623728968,-0.895631707813555,-0.2857702640858335,0.07374901856160188,0.011468463940203455,0.03906230001294836,-6.314580606144531,-4.640184902544792,-0.8859281075124691,-0.0027678036271809293,-0.0001707724111573517
0.51,-0.5077053695162652,1.6555123481998375,-1.2150901216453507,0.10545764614362976,-0.04337994544725336,-0.00032922664932119627,-1.396403056192327,0.0740133037106284,0.878489761709503,0.2515322037458939,-0.11091850336272675,-0.0004980003958492219,0.7972462464835454,-1.3539033076891906,-0.9618093851494527,-0.30140223895609086,0.07944813514796989,0.011481916019216859,0.06719552531471658,-6.311773255315441,-4.638985140479093,-0.8825833279134565,-0.001052881969309524,-0.0001663809750892954
0.52,-0.5215901103860728,1.656117348066038,-1.2064013573946197,0.10794455556849371,-0.04448190318362398,-0.0003339908305661754,-1.3884740869807668,0.06049998662006119,0.8688764250730997,0.24869094248639467,-0.11019577363706169,-0.0004764181244979129,0.9170431855203527,-1.3856325698768142,-1.0246899820044937,-0.31607421502134425,0.08492908497230722,0.011483733357720516,0.09433156246944317,-6.30528015015321,-4.637012958402777,-0.8791743006445119,0.0005815117199510831,-0.0001634460520216186
0.53,-0.535383668894286,1.6565840388752422,-1.1978149587415559,0.11040156043341402,-0.04557594195470031,-0.0003385397168526298,-1.379355850821321,0.04666908092041265,0.8586398653063941,0.24570048649203086,-0.1094038771076329,-0.00045488862864544047,1.0335425627898853,-1.4145098834336371,-1.0842947967520487,-0.329808005675849,0.09020340988119635,0.01147404291307158,0.12040520067785646,-6.295249853704616,-4.634331031603153,-0.8757169758428841,0.0021328954470332295,-0.00016191508564109908
0.54,-0.549074480800977,1.6569095301800276,-1.189336832468277,0.11282726068984748,-0.046661391769666036,-0.00034287434726177664,-1.3690811906691012,0.03254913047853991,0.8478126273278843,0.24257002564334665,-0.10854498149657298,-0.00043346304091468747,1.1466491140274826,-1.4405213474768386,-1.1406525097697455,-0.34262699497814797,0.09528231910857965,0.01145295844269728,0.14536048198862545,-6.281834861294209,-4.631001508479,-0.8722267103712931,0.0035993780680168516,-0.00016172996271398006
0.55,-0.5626513197855466,1.6570912183095288,-1.1809725627661483,0.11522034607492461,-0.04773760367912013,-0.0003469962448740357,-1.357683898456967,0.0181688129501099,0.8364269702128726,0.2393085385077127,-0.10762119094540942,-0.00041218976122590456,1.256278136911829,-1.4636607957261687,-1.193798575426418,-0.3545558944171612,0.10017666280029491,0.011420584427533104,0.16915060160979645,-6.265190313381687,-4.6270856236728255,-0.8687182123286634,0.004979639244061994,-0.0001628277820845554
0.56,-0.5761033058818532,1.6571267869353141,-1.1727274147684135,0.11757959385962734,-0.04880394914425527,-0.00035090738967845093,-1.3451986096306545,0.0035568625785296574,0.8245147997734716,0.23592477847027263,-0.1066345465135137,-0.00039111448044152535,1.3623552566488883,-1.4839293487502865,-1.243774603267242,-0.36562050546984626,0.10489691175979132,0.011377019726623971,0.19173771137508247,-6.245472799747124,-4.622643354255546,-0.8652054970313888,0.00627290476901033,-0.00016514161720685203
0.5700000000000001,-0.589419912881879,1.6570142069101859,-1.1646063386952827,0.11990386648087938,-0.04985981941375695,-0.0003546101917548943,-1.3316607000025762,-0.011258002512835616,0.8121076073130727,0.23242726212520404,-0.10558702695016862,-0.00037028020764433436,1.46481614425501,-1.501334954413582,-1.290627735247178,-0.37584748986101424,0.10945314249514748,0.011322360914193724,0.21309263820039132,-6.222839259565024,-4.617733118302427,-0.8617018536773968,0.007478917983688862,-0.00016860126290655508
0.58,-0.6025909747358656,1.6567517354259962,-1.1566139745493462,0.1221921090795163,-0.0509046249108225,-0.00035810746476023543,-1.3171061853986696,-0.026247148418959216,0.7992364145936621,0.2288242598636928,-0.10448054970655493,-0.00034972730053411114,1.563606194460774,-1.5158919220911784,-1.3344100253980296,-0.3852641492221016,0.11385502668964076,0.011256705338550305,0.2331945296688882,-6.197445980112748,-4.612411514630595,-0.8582198218204766,0.008597907985025882,-0.0001731339582308159
0.59,-0.6156066909809016,1.6563379145371824,-1.1487546572994398,0.1244433469652969,-0.051937794632406276,-0.00036140239974464215,-1.301571624503598,-0.041382088881382104,0.7859317249906418,0.22512378857805884,-0.10331697215837718,-0.0003294934984406733,1.658680169941745,-1.5276204558093078,-1.3751778278108886,-0.3938982156076074,0.11811182427152911,0.011180153862646203,0.25203043888764987,-6.169447695209392,-4.606733102001165,-0.8547711767281914,0.009630555319192716,-0.00017866507843840906
0.6,-0.6284576312333283,1.6557715690968096,-1.1410324224919284,0.1266566830291642,-0.05295877556254687,-0.00036449853932055164,-1.2850940252426708,-0.056634544037292574,0.7722234807511399,0.2213336063867303,-0.10209809301405977,-0.00030961395759094705,1.7500018182992734,-1.5365461910276135,-1.4129911982869823,-0.401777654086235,0.12223237931450814,0.01109281333051676,0.2695948605025161,-6.138996783010463,-4.600750215719979,-0.851366922670255,0.010577955818473588,-0.00018511879037965654
0.61,-0.6411347387830754,1.655051804151535,-1.1334510122297443,0.1288312951218871,-0.05396703210142099,-0.00036739975220333903,-1.26771075497471,-0.07197649452745991,0.758141026218413,0.21746120927229096,-0.10082565388741191,-0.00029012128827874084,1.8375434678757545,-1.5426997393222939,-1.447913314452288,-0.4089304784155914,0.12622511806953085,0.010994798758108493,0.2858892292799116,-6.10624256150082,-4.594512819294867,-0.8480172931822824,0.011441583203344449,-0.0001924186666867467
0.62,-0.6536293333301686,1.6541780018410996,-1.126013881461373,0.13096643341703068,-0.05496204551159397,-0.0003701102081400172,-1.2494594547093174,-0.08738023104352721,0.7437130768371403,0.21351382951435938,-0.09950134101729811,-0.0002710455936678179,1.9212856081074452,-1.546116244757902,-1.4800099185756508,-0.41538458058183636,0.13009804849331097,0.010886235283598,0.3009213920058257,-6.071330678932829,-4.588068388616568,-0.8447317573686934,0.012223251026169927,-0.0002004882553180306
0.63,-0.6659331129052188,1.65314981784677,-1.1187242045242514,0.13306141777493813,-0.05594331338279575,-0.00037263435323985284,-1.230377957505021,-0.10281839943295483,0.728967693712166,0.2094984357907448,-0.09812678712017814,-0.00025241450998356554,2.001216459705258,-1.5468349552652876,-1.509348786769345,-0.42116757478310696,0.13385876071015268,0.010767259882129454,0.31470506265317444,-6.034402595547473,-4.581461826016945,-0.8415190313447005,0.012925074482809001,-0.0002092516020556344
0.64,-0.6780381550167379,1.6519671774316402,-1.1115848818896852,0.13511563512307775,-0.056910349116439184,-0.0003749768857190335,-1.2105042111519113,-0.11826404151298588,0.7139322634566113,0.20542173481396295,-0.09670357336434325,-0.00023425324791806726,2.0773315395188954,-1.5448988118753593,-1.5359992277012722,-0.42630665624077224,0.13751442791798496,0.01063802289757021,0.32725926986775616,-5.995595152184589,-4.574735401512178,-0.8383870939671366,0.013549432564916697,-0.00021863372452936674
0.65,-0.6899369170686764,1.6506302711139063,-1.1045985470593438,0.13712853686673482,-0.05786268143101164,-0.0003771427320696922,-1.1898762051938507,-0.1336906317734058,0.6986334830341392,0.2012901743657071,-0.0952332314572458,-0.00021658463506587182,2.149633224493027,-1.5403540582027562,-1.5600316134100232,-0.4308284750501228,0.14107180732066205,0.010498689385689153,0.3386078048558102,-5.955040220824766,-4.5679287185507595,-0.8353432060640416,0.014098930970381746,-0.0002285610372210103
0.66,-0.7016222360916892,1.649139550012189,-1.0977675735666,0.13909963634262554,-0.05879985388940676,-0.0003791370236625603,-1.1685319023012724,-0.14907211017171182,0.6830973492743877,0.19710994758907266,-0.09371724583951226,-0.000199429159286809,2.2181303186725723,-1.53324987213276,-1.581516944300883,-0.43475902511118747,0.14453724074095753,0.010349440327442033,0.34877867675498475,-5.912864431696757,-4.561078701646562,-0.8323939324401978,0.014576366133497309,-0.00023896172768511685
0.67,-0.7130873278313493,1.6474957208997516,-1.0910940820394004,0.14102850632659736,-0.059721424449216985,-0.00038096507379123184,-1.1465091739660127,-0.16438291124374646,0.6673491527199524,0.19288699839718135,-0.0921570559810224,-0.0001828050128671566,2.282837626764937,-1.523638021244721,-1.6005264499075924,-0.43812354803447917,0.147916654639495,0.01019047369036366,0.35780358156373887,-5.869188971316198,-4.554219603376632,-0.8295451660074318,0.014984690681312487,-0.0002497660849009727
0.68,-0.7243257852358949,1.6456997410020706,-1.0845799472849245,0.14291477660516883,-0.06062696503697538,-0.000382632355165687,-1.1238457404545559,-0.1795979897680892,0.6514134754475863,0.1886270278571453,-0.09055405877583936,-0.0001667281374455158,2.3437755373258216,-1.5115725431068416,-1.6171312265425524,-0.44094645178432845,0.15121555933326292,0.010022005406380874,0.3657173897159528,-5.824129445678151,-4.54738302835287,-0.8268021534619556,0.01532698056914591,-0.00026090678124630277
0.6900000000000001,-0.7353315763851488,1.643752812569733,-1.0782268053599726,0.14475813161926784,-0.061516061147313235,-0.0003841444778618798,-1.1005791149253916,-0.194692843233759,0.6353141924951873,0.18433550140990287,-0.08890961103378558,-0.00015121226961927752,2.400969618207138,-1.4971094512060235,-1.6314019125219996,-0.4432512437063725,0.15443904727268887,0.009844270249547454,0.3725576564377988,-5.777795802792063,-4.540597971928116,-0.8241695220041612,0.015606404097274231,-0.0002723191100571904
0.7000000000000001,-0.7460990419010467,1.6416563772560495,-1.0720360605947787,0.14655830818715998,-0.062388311467984264,-0.00038550716773410844,-1.0767465515897967,-0.2096435313683322,0.6190744765193966,0.18001765678921278,-0.08722503206710308,-0.00013626898722286643,2.4544502264934245,-1.4803064669293473,-1.6434084012524486,-0.445060477476269,0.1575917902992039,0.009657522628294973,0.37836415812843704,-5.730292308806766,-4.533890871563204,-0.8216513066673989,0.015826192962971945,-0.0002839411811159818
0.71,-0.7566228918787775,1.639412110326173,-1.06600889254172,0.14831509331222925,-0.06324332753169341,-0.00038672624529700796,-1.0523849977730788,-0.22442669298766527,0.6027168053058802,0.17567851250692643,-0.08550160637091428,-0.0001219077562899496,2.5042521347618405,-1.4612227776975715,-1.6532195920914916,-0.44639571342777895,0.16067803586090967,0.009462037328667516,0.3831784571768003,-5.681717572110176,-4.527285668955867,-0.8192509778899608,0.015989615457846447,-0.00029571407669411605
0.72,-0.766898202375927,1.6370219147218796,-1.0601462628241667,0.15002832207999237,-0.06408073339565497,-0.000387807605083937,-1.02753104971495,-0.2390195604293411,0.5862629717553327,0.17132287677631033,-0.08374058639615568,-0.00010813597869290243,2.5504141751298035,-1.4399188210607532,-1.6609031785570845,-0.44727749163827557,0.16370160222268026,0.009258110169939743,0.38704349687173656,-5.632164609988132,-4.520803881209196,-0.8169714690276321,0.01609995188009869,-0.00030758197097836875
0.73,-0.7769204114952575,1.6344879150035798,-1.0544489218644408,0.1516978756474989,-0.06490016534978772,-0.00038875719548937327,-1.0022209119330463,-0.2533999718299881,0.5697340959725874,0.16695535675065204,-0.08194319541327529,-9.495904054362762e-05,2.592978902208281,-1.4164560943040994,-1.6665254731538772,-0.4477253170860651,0.16666587275104305,0.00904605862076871,0.3900032273872619,-5.581720952676221,-4.514464679492664,-0.8148152035621483,0.016160472195134147,-0.0003194922158334745
0.74,-0.7866853150948815,1.6318124511885594,-1.0489174154735048,0.15332367932710383,-0.06570127165443118,-0.00038958099910327694,-0.9764903599624035,-0.2675463815020403,0.553150639093613,0.16258036796049286,-0.0801106304643456,-8.238036139036489e-05,2.631992275755996,-1.3908969888794591,-1.6701512678053463,-0.4477576561504737,0.1695737894032554,0.008826222341193762,0.3921022632306763,-5.530468779924506,-4.508284973818213,-0.8127841218130728,0.016174415945910986,-0.0003313953959109798
0.75,-0.7961890621576387,1.6289980725019735,-1.0435520912885514,0.15490570076549806,-0.06648371230843445,-0.00039028501354645083,-0.9503747062757222,-0.2814378686586035,0.5365324184953466,0.15820214383942227,-0.07824406540032673,-7.040144431738901e-05,2.6675033635323504,-1.363304648770119,-1.671843728635449,-0.44739194367957147,0.17242784559037183,0.008598963654300129,0.3933855720287307,-5.478485085506677,-4.502279502715173,-0.810879707006907,0.016144974386508696,-0.0003432453561117132
0.76,-0.8054281498494812,1.6260475310547122,-1.038353105048092,0.1564439482178524,-0.06724715884842511,-0.0003908752328170594,-0.9239087691842491,-0.29505414472611685,0.5198986240459336,0.15382474523543532,-0.07634465399906584,-5.9021927060859384e-05,2.6995640645749504,-1.3337428517151833,-1.6716643236236488,-0.4466445998238351,0.17523007861256978,0.008364667945288007,0.393898194093701,-5.425841865432332,-4.496460926738397,-0.8091030105974804,0.016075274788516582,-0.0003549992043560852
0.77,-0.8143994182946492,1.622963775459975,-1.0333204266974148,0.15793846891597466,-0.06799129418000828,-0.0003913576291597036,-0.8971268445168068,-0.3083755594737201,0.5032678350677434,0.149452069812224,-0.07441353315831768,-4.8239634264421444e-05,2.7282288528793903,-1.3022759120642553,-1.669672781465906,-0.4455310558120482,0.17798206190448518,0.00812374397268692,0.3936849918534101,-5.372606325955175,-4.490839924882804,-0.8074546767661508,0.015968366849784962,-0.00036661729252171265
0.78,-0.8231000450933961,1.619749944398216,-1.0284538463203925,0.1593893475284987,-0.06871581244157379,-0.0003917381354699221,-0.8700626798746813,-0.321383106175903,0.48665803770223476,0.14508786125240355,-0.0724518261565514,-3.805063102185048e-05,2.7535545412363085,-1.2689686038993941,-1.665927079806091,-0.44406578783650463,0.18068489734548088,0.007876624067306132,0.39279042794209074,-5.318841107803416,-4.485425293103241,-0.8059349660591305,0.015827211118626828,-0.0003780631782788949
0.79,-0.8315275396060209,1.6164093601381024,-1.0237529798965515,0.16079670471032306,-0.06942041890130092,-0.0003920226282487911,-0.842749451262481,-0.3340584260113524,0.47008664238411185,0.14073571818243555,-0.07046064597271343,-2.844927788689793e-05,2.77560006478072,-1.2338861029505053,-1.6604834608637786,-0.4422623581963627,0.1833392079159175,0.007623764227622856,0.39125837052676476,-5.264604523385772,-4.480224044251305,-0.80454377814292,0.015654669333427185,-0.00038930357039935554
0.8,-0.8396797370250155,1.612945522019241,-1.0192172748850319,0.16216069573779276,-0.07010482988784479,-0.0003922169111238528,-0.8152197418994668,-0.346383811886146,0.4535705011519644,0.1363991027469709,-0.06844109865438681,-1.942828750617199e-05,2.7944262836328924,-1.1970939457409244,-1.6533964723592216,-0.440133462865675,0.18594513098752508,0.007365644059600884,0.3891319242802904,-5.209950804041642,-4.475241508840065,-0.803280673677636,0.01545349656751938,-0.0004003082599397446
0.81,-0.8475547922552354,1.6093620999007032,-1.0148460156395962,0.16348150922547472,-0.07076877275506538,-0.0003923266989548129,-0.7875055230219917,-0.35834221185378873,0.43712592454356447,0.13208134876819477,-0.06639428672205931,-1.0978783096004753e-05,2.8100958038543884,-1.158658004328625,-1.6447190315416362,-0.4376909846422148,0.18850231255750316,0.007102766586832829,0.38645328530091405,-5.154930354704068,-4.470481436134213,-0.8021448953225649,0.015226335061817049,-0.0004110500395142637
0.8200000000000001,-0.8551511736201891,1.605662927577821,-1.0106383286611371,0.16475936591981197,-0.07141198588101923,-0.0003923576025440416,-0.75963813649537,-0.36991723228822415,0.4207686978459179,0.12778566943372524,-0.06432131259538441,-3.0903589228711293e-06,2.822672815810932,-1.118644474956557,-1.6345025100475377,-0.4349460510486258,0.19100990272753826,0.006835657870520068,0.3832636182124863,-5.099590013625289,-4.465946095137388,-0.8011353878989785,0.014975709622737768,-0.0004215046126769427
0.8300000000000001,-0.8624676564108139,1.6018519961683302,-1.0065931876962084,0.1659945175644568,-0.07203421870127519,-0.00039231511397420433,-0.731648279062482,-0.38109314094907654,0.40451409649287456,0.12351516446448374,-0.062223282025595815,4.248856983725873e-06,2.832222948919302,-1.0771198788904908,-1.6227968372543393,-0.4319090961733556,0.19346655274328306,0.006564866443216522,0.37960295365306107,-5.043973315075676,-4.461636375111303,-0.8002508177426815,0.014704024460117773,-0.00043165049523805017
0.84,-0.8695033162914794,1.5979334474677187,-1.0027094186919443,0.16718724583167385,-0.07263523177643992,-0.0003922045925972735,-0.7035659880665401,-0.39185487006115455,0.38837690042641176,0.11927282672170565,-0.06010130751647282,1.1052137693084702e-05,2.8388131416626172,-1.034151073703318,-1.609650619754024,-0.42858992565248943,0.1958704138940881,0.006290962546715517,0.37551010436622884,-4.988120753165684,-4.4575518853136,-0.7994895912833954,0.014413561338805614,-0.00044146891014538515
0.85,-0.8762575225764441,1.5939115672725903,-0.9989857046193301,0.16833786131387285,-0.07321479689358633,-0.0003920312517009295,-0.6754206284964738,-0.40218801951283134,0.3723714072614133,0.11506154821990021,-0.05795651171464015,1.7334089634401427e-05,2.842511525682142,-0.9898052732602828,-1.5951112745469875,-0.424997784013196,0.19821913857167672,0.006014537132533498,0.37102259814348565,-4.93207004515695,-4.4536910536841505,-0.7988498728903668,0.014106478918163644,-0.0004509436773731126
0.86,-0.8827299313885957,1.5897907786699856,-0.995420590178153,0.16944670256907338,-0.07377269720107077,-0.0003918001458803939,-0.6472408812151658,-0.41207886026045776,0.35651144411771424,0.1108841255200517,-0.05579003074844425,2.3110582053560305e-05,2.8433873226958006,-0.9441500746698724,-1.5792251735449012,-0.42114142362838436,0.20050988377042422,0.005736200631360475,0.3661766259218728,-4.875856392822486,-4.450051224244,-0.79832960202405,0.013784813155545207,-0.0004600611000819333
0.87,-0.8889204787110269,1.5855756352898995,-0.9920124863980807,0.17051413521391928,-0.0743087273760034,-0.00039151615914528865,-0.6190547322431152,-0.4215143380086133,0.3408103780072298,0.10674326448459134,-0.05360301749326333,2.839867351052364e-05,2.8415107529518564,-0.8972534904868738,-1.562037796981728,-0.41702917455054855,0.20273931729511752,0.005456581478149418,0.3610070034142091,-4.819512740587476,-4.44662875299815,-0.7979265097326734,0.01345047865272558,-0.00046880984814598936
0.88,-0.8948293733408552,1.5812708145177108,-0.9887596751512013,0.1715405510577467,-0.07482269382340237,-0.00039118399379246745,-0.5908894629828408,-0.4304820772188647,0.3252811246879331,0.10264158438274347,-0.05139664473989644,3.321653528211899e-05,2.8369529539003735,-0.8491839844903528,-1.5435938933504187,-0.41266901452702154,0.2049036269182256,0.005176324373068003,0.355547144735185,-4.763070029332502,-4.443419102154183,-0.7976381345303847,0.013105270828036693,-0.000477180839987001
0.89,-0.9004570897536784,1.5768811106628815,-0.9856603135919993,0.17252636727116297,-0.07531441490581915,-0.0003908081600770062,-0.5627716412823199,-0.43897038548293205,0.3099361559201953,0.09858162134162696,-0.049172108241678496,3.758337154612704e-05,2.8297859077533003,-0.8000105094049799,-1.5239376435222387,-0.4080686385247292,0.2069985327110775,0.004896088279650379,0.3498290465816163,-4.706557444870834,-4.440416932484244,-0.7974618376908078,0.012750868801416196,-0.0004851671235148916
0.9,-0.9058043608861669,1.572411428080083,-0.9827124385411558,0.1734720255826133,-0.07578372120197065,-0.00039039296671432847,-0.5347271132488416,-0.4469682582798496,0.2947875050843583,0.09456583114503211,-0.04693062961514965,4.151933626777543e-05,2.8200823766077154,-0.7498025449922805,-1.5031128267549292,-0.40323552712699495,0.2090193027318623,0.004616544159898289,0.3438832816259617,-4.650002660222492,-4.437616193669035,-0.797394817986485,0.012388838884565042,-0.0004927637568479161
0.91,-0.9108721708435437,1.5678667742388732,-0.9799139708297431,0.17437799149649355,-0.07623045579265678,-0.0003899425122468156,-0.5067809957376794,-0.4544653841209758,0.2798467711412656,0.09059659138802482,-0.04467345906861313,4.5045446751286396e-05,2.8079158438218927,-0.6986301350062465,-1.4811629863600917,-0.3981770132012281,0.2109607722329958,0.004338372439567348,0.33773899988610656,-4.593432070901526,-4.43501021247032,-0.7974341259010918,0.012020638573795352,-0.0004999676893742143
0.92,-0.9156617475380722,1.5632522527381567,-0.9772627196203462,0.17524475352650787,-0.07665447457198293,-0.0003894606773083067,-0.47895766945285306,-0.4614521500716541,0.2651251209396882,0.08667620300143157,-0.04240187793261512,4.818349385088972e-05,2.793360460363026,-0.6465639215845221,-1.458131592880715,-0.39290034626587556,0.21281736650523442,0.004062260222448044,0.3314239369389984,-4.536871022510904,-4.432591778583533,-0.7975766773377049,0.01164762094882042,-0.0005067776436206195
0.93,-0.9201745552641702,1.5585730562619164,-0.9747563867213863,0.17607282243816666,-0.07705564658164718,-0.00038895111781926103,-0.45128077260980354,-0.46791964762403726,0.2506332898959888,0.08280689116587875,-0.04011720096642466,5.0955948904570915e-05,2.7764909948850116,-0.5936751757334557,-1.4340622027186378,-0.3874127540321144,0.21458312744191232,0.003788898239810795,0.32496442794918784,-4.480344030003899,-4.430353228025404,-0.7978192668429033,0.011271039386610716,-0.0005131939983132638
0.9400000000000001,-0.9244122872153898,1.5538344594730946,-0.9723925709104675,0.17686273049456921,-0.07743385436579626,-0.000388417259144559,-0.42377319512195666,-0.4738596788821722,0.2363815810918792,0.07899080564025542,-0.03782077841490785,5.338586747020232e-05,2.7573827863460427,-0.5400358226592191,-1.408998610256595,-0.38172150063018506,0.21625174386103296,0.00351897758176771,0.3183854265841639,-4.423874988023093,-4.428286523913541,-0.7981585803632303,0.010892052505440295,-0.0005192186729470975
0.9500000000000001,-0.9283768579482375,1.5490418118430151,-0.9701687722819116,0.17761503069991258,-0.07778899434370468,-0.00038786229124405675,-0.39645707328477503,-0.4792647630079578,0.2223798628555898,0.07523002053433593,-0.035513997790841474,5.5496790050226526e-05,2.736111698036279,-0.4857184607998211,-1.3829849916371317,-0.3758339410714635,0.2178165855820442,0.0032531862028233292,0.3117105279854006,-4.367487371770697,-4.426383334496368,-0.7985912075476498,0.010511729260320266,-0.0005248550141272729
0.96,-0.9320703957976567,1.5442005304143638,-0.9680823966328109,0.17833029603551034,-0.07812097719729136,-0.00038728916484396375,-0.36935378494191207,-0.4841281428651346,0.2086375649100609,0.07152653355977676,-0.03319828535866827,5.731264000929904e-05,2.712754071956276,-0.4307963735212443,-1.3560660384872407,-0.3697575715433574,0.219270741204161,0.0029922052285037345,0.30496199505645005,-4.311204427897988,-4.424635108292996,-0.799113653607094,0.010131054117122318,-0.0005301076839030262
0.97,-0.9354952352489406,1.5393160924964828,-0.9661307599009231,0.17900911868348787,-0.07842972827026133,-0.00038670058865440524,-0.34248394512838887,-0.48844379178808683,0.1951636731887857,0.06788226479775213,-0.030875107296997845,5.885761895585081e-05,2.687386682565115,-0.37534353255627756,-1.3282870800165614,-0.36350007517965466,0.22060705948535286,0.002736705111348277,0.2981607874165805,-4.255049354929806,-4.4230331462041,-0.7997223507401188,0.009750932238801713,-0.0005349825502832181
0.98,-0.938653909270893,1.5343940282925528,-0.9643110926665674,0.17965210923373898,-0.07871518797544919,-0.00038609902765488055,-0.3158674021952379,-0.492206420393013,0.18196672343557022,0.06429905502511182,-0.028545970518785713,6.015609995246838e-05,2.6600866890028074,-0.31943459238447863,-1.299694192067094,-0.35706936299100045,0.22181819417337323,0.0024873416299300045,0.29132659245003106,-4.199045472763464,-4.421568670456946,-0.8004136691320134,0.009372194623216538,-0.000539486580100528
0.99,-0.9415491416151803,1.5294399134591428,-0.9626205447293813,0.18025989587018054,-0.07897731220674985,-0.00038548670246565356,-0.2895232344287291,-0.49541148334099244,0.16905479371861212,0.06077866364415741,-0.026212423130066605,6.123251892269785e-05,2.630931584983732,-0.2631448748760883,-1.270334291849596,-0.35047360969224206,0.2228966520882203,0.002244751816311445,0.28447785795668284,-4.143216380802137,-4.420232890250622,-0.8011839275334669,0.0089956031380883,-0.0005436277343771506
