tonegas/nnodely-applications/joint_friction_estimation/dataset/train/mpc_mujoco_episode_36.csv
time,q1,q2,q3,q4,q5,q6,dq1,dq2,dq3,dq4,dq5,dq6,ddq1,ddq2,ddq3,ddq4,ddq5,ddq6,tau1,tau2,tau3,tau4,tau5,tau6
0.0,0.0,1.57,-1.57,0.0,0.0,0.0,0.0,0.0,0.0,0.0,0.0,0.0,-7.155510546024671,-14.508713413512677,4.173332344197906,2.55541949237071,-1.1106299883084745,-1.0375231562775866e-06,-0.9979209032622318,-11.087737862960886,-6.4509518124142105,-1.3763704637747003,-0.09056388364713842,-0.0017814304689620808
0.01,-0.0007120463130473046,1.5685553712205826,-1.5695880428698181,0.00023439256182012508,-9.222230326553742e-05,-8.032435479039092e-07,-0.07120463130473045,-0.14446287794174503,0.041195713018189827,0.023439256182012508,-0.009222230326553742,-8.032435479039091e-05,-7.034915904789451,-14.351639747738874,4.069432251391429,2.3260462580686614,-0.9339243209736239,-0.008084935290677109,-0.9788609609036194,-11.033462205477022,-6.436517689568888,-1.3737771871015276,-0.08916486386975087,-0.0017646919537066276
0.02,-0.002123569725935707,1.5656818441798583,-1.568775558628974,0.0006845891867563833,-0.0002655863450941418,-2.4416910482117027e-06,-0.14115234128884024,-0.2873527040724265,0.08124842408440554,0.04501966249362582,-0.017336404182860435,-0.00016384475003077936,-6.897323874704779,-14.183700653817326,3.952220243954212,2.138291404825573,-0.826215069038966,-0.008566091565797684,-0.9475643361411468,-10.957895817407046,-6.412178277235015,-1.3689627456420608,-0.08699655539208834,-0.001740083566358448
0.03,-0.0042205346658646834,1.561396195798365,-1.567574992838657,0.0013351495648348726,-0.0005131877785977224,-4.8679546033611134e-06,-0.20969649399289764,-0.4285648381493154,0.12005657903169575,0.06505603780784892,-0.024760143350358064,-0.00024262635551494104,-6.743860620322577,-14.004707664950715,3.825458605755447,1.9823324065921213,-0.7621203334632867,-0.008365969254849226,-0.9047164406941783,-10.860912374030598,-6.378007779376363,-1.3619591904117838,-0.08407795353200768,-0.0017078335272206527
0.04,-0.006987464069569882,1.5557162770177606,-1.5659995044350152,0.002173040443806214,-0.0008307630798902111,-8.048287005623589e-06,-0.27669294037051984,-0.5679918780604486,0.15754884036419528,0.08378908789713414,-0.03175753012924886,-0.00031803324022624754,-6.57474413841373,-13.814390090143421,3.692204084176872,1.8507325796583949,-0.7262923291710024,-0.008422652010936282,-0.8511821192356672,-10.742365190359909,-6.3340832708428785,-1.3528004684425299,-0.0804306759093881,-0.001668146579461487
0.05,-0.010407409903055043,1.5486610465977468,-1.5640627168518022,0.003187076101011767,-0.0012157547481591816,-1.1968454868407342e-05,-0.34199458334851623,-0.7055230420013874,0.1936787583213084,0.10140356572055528,-0.03849916682689706,-0.0003920167862783752,-6.38965806438952,-13.612435420479876,3.554972606197513,1.737881511902149,-0.7094150267666066,-0.008807806316974975,-0.787998520269754,-10.602099688533283,-6.280489112434834,-1.341523545440505,-0.07607938719209127,-0.0016212186888620683
0.06,-0.01446189220648747,1.540250607550601,-1.5617785099906627,0.004367497552436077,-0.0016667391518895545,-1.6629569885335028e-05,-0.4054482303432427,-0.8410439047145797,0.2284206861139431,0.11804214514243094,-0.04509844037303729,-0.0004661115016927686,-6.1879759347635135,-13.398523669487414,3.415863182582349,1.6395625334472967,-0.7058237631853963,-0.009497901540751919,-0.7163671252558396,-10.439966512285572,-6.217321193970644,-1.3281694111904783,-0.07105238168012969,-0.0015672492481022668
0.07,-0.0191308205737716,1.5305062431557928,-1.5591608437688684,0.005705657566637573,-0.0021830738836991904,-2.2044469849556283e-05,-0.46689283672841303,-0.9744364394808211,0.26176662217942287,0.1338160014201496,-0.0516334731809636,-0.0005414899964221254,-5.968897663947641,-13.172357251556194,3.2766499428896942,1.5526204825815384,-0.7120701990863303,-0.010480844707434045,-0.6376436526222136,-10.25583537127335,-6.144691009499693,-1.312783975265273,-0.0653822452247173,-0.0015064518404964192
0.08,-0.024392406710593506,1.519450449850331,-1.5562236064319666,0.007193786210273311,-0.0027646779268853333,-2.8235473185830444e-05,-0.5261586136821905,-1.1055793305461723,0.2937237336901971,0.14881286436357374,-0.05816040431861427,-0.000619100333627416,-5.731534298046338,-12.933687357648868,3.138849529299712,1.4747067561572997,-0.7260490621359423,-0.011765090749767282,-0.5533247863284751,-10.049609591369352,-6.0627295363798535,-1.2954188503985087,-0.05910654052432735,-0.001439064096906945
0.09,-0.03022307361774335,1.5071069645713269,-1.5529804827194178,0.008824817523307112,-0.0034118917018827665,-3.5233139131345164e-05,-0.5830666907149843,-1.2343485279004076,0.32431237125488555,0.16310313130338,-0.0647213774997433,-0.0006997665945514721,-5.47496242283932,-12.682337259102697,3.0037695038120624,1.4040835891097068,-0.7464592143478477,-0.013376966415696856,-0.465030866533314,-9.821241224289128,-5.971590860036646,-1.2761320127774414,-0.05226847170862854,-0.001365356879119189
0.1,-0.036597365141011765,1.49350078438235,-1.5494448384376456,0.01059226241507319,-0.00412538421631495,-4.307567309928018e-05,-0.6374291523268416,-1.360618018897676,0.35356442817722944,0.17674448917660782,-0.0713492514432183,-0.0007842533967935019,-5.198261244925036,-12.418223242051376,2.872542165212117,1.3394736519397554,-0.7724614842425375,-0.01535814504659605,-0.3744838639379511,-9.570746794153893,-5.871455585637436,-1.2549883480583468,-0.044917489944341395,-0.0012856428446504538
0.11,-0.04348785861738192,1.478658176413011,-1.5456296191231491,0.012490116308202705,-0.004906086446163469,-5.180873000182742e-05,-0.6890493476370154,-1.48426079693391,0.38152193144963975,0.18978538931295158,-0.0780702229848519,-0.0008733056902547245,-4.900540885341419,-12.141372117600165,2.7461472764270347,1.2799443301658293,-0.8034484724469557,-0.017764208329842823,-0.28348017571214634,-9.298222910893664,-5.762533800176388,-1.232060035654736,-0.037109805421620325,-0.0012002843080173428
0.12,-0.050865082871597474,1.4626066764537973,-1.5415472613336243,0.014512792685673345,-0.005755136908736228,-6.148544753439168e-05,-0.7377224254215552,-1.6051499959213682,0.4082357789524743,0.20226763774706394,-0.08490504625727588,-0.0009676717532564251,-4.58096817364216,-11.8519365066973,2.6254264104036906,1.2248185298497134,-0.8388724054590746,-0.020663714344387962,-0.19385801742275421,-9.003862131923016,-5.645067787231778,-1.2074268146356564,-0.02890877214745978,-0.0011097002750301323
0.13,-0.0586974437521732,1.4453750747487166,-1.537209615750014,0.01665507570691489,-0.006673829032707242,-7.216658177532429e-05,-0.7832360880575724,-1.7231601705080601,0.43376455836104655,0.21422830212415436,-0.09186921239710141,-0.0010681134240932602,-4.238795756845365,-11.550206743049301,2.5110911493904418,1.17360582657113,-0.8780948360842871,-0.024136951042655674,-0.10745947272145717,-8.687968241848496,-5.519334291389091,-1.1811760937857048,-0.020385113672790764,-0.0010143724463742318
0.14,-0.06695115973500682,1.4269933878498797,-1.5326278817391858,0.018912086601248497,-0.007663551491478049,-8.392062696961087e-05,-0.825371598283362,-1.8381686898836993,0.4581734010828168,0.22570108943336084,-0.09897224587708067,-0.001175404519428658,-3.8734009663893985,-11.236619352728932,2.403726932064192,1.1259492487749903,-0.9202319511989394,-0.028273334488362334,-0.02608757226222319,-8.35097064653129,-5.38564634678597,-1.1534029153898875,-0.011616958543488813,-0.0009148499790657856
0.15,-0.07559021092806313,1.4074928157285724,-1.5278125533496933,0.021279259733503704,-0.008725712791769494,-9.682378485216712e-05,-0.8639051193056315,-1.9500572121307336,0.48153283894926113,0.23671731322552053,-0.10621613002914457,-0.001290315788255625,-3.4843425591556194,-10.911761345206791,2.3037940601239093,1.081584149704323,-0.96397507105927,-0.033166012146924384,0.04854088993779321,-7.993437159234884,-5.244354561167955,-1.1242097603513308,-0.002689654928663257,-0.0008117527689074347
0.16,-0.0845763062174062,1.3869056837480116,-1.522773376911531,0.023752325155417864,-0.009861640503488265,-0.0001109596072395867,-0.8986095289343068,-2.0587131980560778,0.5039176438162273,0.24730654219141582,-0.11359277117187709,-0.0014135822387419585,-3.0714458601133305,-10.576368505673548,2.211627178895643,1.0403065254329213,-1.0073707375412528,-0.03890162461286417,0.11484574370569406,-7.616083879573698,-5.095847569300676,-1.093706150481495,0.006304665927696976,-0.0007057729955113603
0.17,-0.09386887549366232,1.3652653696974786,-1.5175193204977893,0.02632729517516091,-0.011072443907467476,-0.0001264180674056456,-0.9292569276256123,-2.1640314050533074,0.5254056413741822,0.2574970019743048,-0.12108034039792104,-0.0015458460166058899,-2.634925811630424,-10.23137169102539,2.1274335532609925,1.0019483964646057,-1.0475522164588114,-0.04554242512655904,0.1714358827356453,-7.219808130582512,-4.940560845604399,-1.0620098883469846,0.015267832326968475,-0.00059767518378302
0.18,-0.10342509675064189,1.3426062113042712,-1.5120585556091584,0.02900045304586217,-0.012358826932610222,-0.00014329371926916936,-0.9556221256979565,-2.2659158393207433,0.5460764888630985,0.26731578707012593,-0.1286383025142745,-0.0016875651863523752,-2.1755760793578123,-9.877748322830431,2.0512945534266915,0.9663611171077342,-1.0804294454068604,-0.053097310698706046,0.2171610326489195,-6.805624716158432,-4.778952171896659,-1.0292416480462352,0.024096633078370844,-0.0004882919313459926
0.19,-0.11319997321266807,1.3189634090522402,-1.5063984509679604,0.031768342374704085,-0.013720836878060702,-0.00016168248345247325,-0.9774876462026185,-2.364280225203087,0.5660104641197856,0.2767889328841914,-0.13620099454504814,-0.0018388764183303893,-1.6950070998485962,-9.516671129085594,1.9831653137452374,0.9334005705093027,-1.1003747127898071,-0.06147838171883846,0.25116253189830384,-6.374746483231873,-4.61152874264296,-0.9955298992215875,0.03268425973130878,-0.00037852044386246905
0.2,-0.12314647928467627,1.2943729095223113,-1.50054557865077,0.0346277561716964,-0.015157534740993173,-0.00018167646809107114,-0.9946506072008198,-2.4590499529928813,0.5852872317190532,0.28594137969923156,-0.14366978629324706,-0.001999398463859788,-1.1959629543361885,-9.149377806482612,1.922879835882604,0.902920285192824,-1.0999932453684798,-0.0704418130051403,0.2729189086197968,-5.928525482098671,-4.438825755385856,-0.961006177313673,0.04092209990821495,-0.0002693125794528177
0.21,-0.1332158011969812,1.268871282278581,-1.494505732044018,0.037575724908408686,-0.016666577510682495,-0.0002033561371121558,-1.0069321912304945,-2.550162724373022,0.6039846606751857,0.2947968736712281,-0.15090427696893224,-0.002167966902108465,-0.6826862616079616,-8.776848350921771,1.8701620290086858,0.8747689902000921,-1.07014666656517,-0.0795180152430337,0.2822834475254058,-5.468300027403434,-4.2613546310223835,-0.9257946175587914,0.04870191514278144,-0.00016166001755140466
0.22,-0.14335770385277904,1.2424956224841026,-1.4882839543857123,0.04060950319368351,-0.01824371486900903,-0.00022677916465651372,-1.0141902655797848,-2.63756597944785,0.622177765830585,0.30337782852748235,-0.15771373583265355,-0.002342302754435793,-0.16118647142372913,-8.400353905156559,1.8246337433922797,0.8487845359238655,-1.0004821750645871,-0.08794850323373637,0.2795139835580821,-4.995658633629828,-4.079697847286445,-0.890030469390092,0.05591866540616945,-5.658388379721133e-05
0.23,-0.15352105003329192,1.2152834245770803,-1.4818845774639475,0.0437265549467166,-0.019882225982834588,-0.0002519655952874975,-1.0163346180512869,-2.721219790702234,0.6399376921764822,0.3117051753033092,-0.16385111138255595,-0.002518643063098379,0.3504432469036407,-7.867672146614314,1.7870649356444694,0.8256645772898299,-0.8808176858837032,-0.09466545385194713,0.26483871263290965,-4.439406666800388,-3.869624543368682,-0.8490460234696735,0.062444639767430685,4.614914606257837e-05
0.24,-0.16365548314688297,1.1872877499998573,-1.4753110551190065,0.0469245090082708,-0.021572418891081014,-0.0002788814285781463,-1.013443311359104,-2.7995674577223038,0.6573522344940927,0.3197954061554198,-0.16901929082464262,-0.0026915833290648786,0.8247752608023757,-6.933909912155179,1.7592592316663094,0.8053706946207217,-0.7038673983284549,-0.09833591810616635,0.23859749612410547,-3.6865397027873827,-3.5942682746995036,-0.7959101293865702,0.06812768994234333,0.00014680092509475546
0.25,-0.17371402186948595,1.1586016296924597,-1.468565649313647,0.05020099897497517,-0.02330131693903755,-0.0003074223511110395,-1.005853872260298,-2.8686120307397682,0.6745405805359583,0.32764899667043734,-0.17288980479565386,-0.0028540922532893204,1.2729685221949836,-5.991545095091726,1.7399517390473314,0.783087525199937,-0.4683925939499445,-0.09755535069798249,0.20314886102264068,-2.9266598055581707,-3.3219265281229795,-0.7441259736801888,0.07285744827443348,0.00023933490731984437
0.26,-0.18365195313001298,1.1293189610275174,-1.4616498097469424,0.0535535416785133,-0.025052441994099596,-0.0003373919102877614,-0.9937931260527021,-2.92826686649424,0.6915839566704705,0.3352542703538132,-0.17511250550620427,-0.0029969559176721864,1.6866592551381148,-5.05997116961021,1.7279937351466765,0.7593715618896946,-0.1807542169973928,-0.09135155010650808,0.1608067149605747,-2.171011606169196,-3.0568316085436567,-0.6945411517339738,0.07659886731919148,0.000322792415798822
0.27,-0.19342769316991448,1.099532574437023,-1.4545642926593862,0.05697958536009818,-0.026806111298926932,-0.0003684910215138662,-0.9775740039901512,-2.9786386590494267,0.7085517087556212,0.3426043681584885,-0.17536693048273352,-0.003109911122610478,2.0597742776499453,-4.162870003411427,1.7222872295772378,0.7347362085005065,0.14261139978801696,-0.07959437008607795,0.11408741462249583,-1.4325913768831056,-2.8035555225805355,-0.6480372885022094,0.07934105663341533,0.0003964159146390762
0.28,-0.20300350602918166,1.069331872346884,-1.447309277044507,0.06047655869847883,-0.028540337181740507,-0.00040032227914884536,-0.9575812859267174,-3.020070209013881,0.7255015614879136,0.34969733383806495,-0.17342258828135762,-0.003183125763497918,2.389320788075743,-3.3153823389188166,1.7217883329791213,0.7097151175921548,0.4772144977716506,-0.06317141692939865,0.06555356553424338,-0.7201021665805529,-2.5649250654268285,-0.6051307383133284,0.08110014973947505,0.0004598572762298567
0.29,-0.21234596729278396,1.0388013187342293,-1.4398844703634242,0.06404191708459872,-0.030232285206592862,-0.0004324118213112971,-0.9342461263602299,-3.0530553612654736,0.7424806681082888,0.3565358386119897,-0.16919480248523555,-0.0032089542162451697,2.6761315632921,-2.5394800006975515,1.7255132822758363,0.6847664278722592,0.7951630152480229,-0.04383713389968258,0.017676525544612767,-0.045062450532505904,-2.34448383748212,-0.5664457165912824,0.08191026622175786,0.0005129608163365318
0.3,-0.2214260396787063,1.0080182478788502,-1.4322892126205662,0.06767318910958986,-0.031860066737349035,-0.0004642464990361805,-0.9080072385922336,-3.078307085537914,0.7595257742857956,0.36312720249911357,-0.1627781530756176,-0.003183467772488343,2.924022146519872,-1.835976364979922,1.732493857805135,0.6603564786199214,1.0708293546055705,-0.023762781584536707,-0.027281951326467428,0.5910866658074742,-2.142130557399892,-0.5318935072596194,0.08183077389477536,0.0005561604999575942
0.31,-0.230218788071195,0.9770527813077317,-1.4245225670400006,0.07136800978828424,-0.03340451997807948,-0.000495319161090445,-0.8792748392488711,-3.096546657111855,0.776664558056559,0.36948206786943777,-0.1544453240730442,-0.0031072662054264536,3.1393063646168113,-1.2293181325507105,1.7418446652208468,0.6367755055516082,1.2854295173153067,-0.004987771676290276,-0.06734978437406511,1.176428153194408,-1.9611774688068162,-0.5020104401744026,0.0809182148585844,0.0005897350274234867
0.32,-0.2387027623723223,0.9459653902910652,-1.4165834170940748,0.07512415701338743,-0.03485063220925371,-0.0005251720100942672,-0.8483974301127299,-3.1087391016666515,0.7939149945925924,0.37561472251031847,-0.14461122311742297,-0.0029852849003822106,3.329178612948353,-0.7744972720875062,1.7526182076446069,0.6143753821255196,1.4293044113227547,0.010988887998059305,-0.10091238616686643,1.685874693746516,-1.808964434067173,-0.47803550477900547,0.07921960356368152,0.0006137027557870772
0.33,-0.24685922454819462,0.9148014150682198,-1.4084705859493407,0.07893961380440444,-0.036188373146026145,-0.000553429590552412,-0.8156462175872323,-3.1163975222845455,0.8112831144734152,0.3815456791017007,-0.13377409367724338,-0.002825758045814487,3.5006710611943115,-0.44023736753584836,1.7636222844362113,0.5937755486946186,1.5017935323853724,0.02337207402008845,-0.12669962803180737,2.133843895941005,-1.6791917676661654,-0.4586396058510214,0.07683394596592391,0.0006295863496535888
0.34,-0.2546713600771849,0.8835941797755147,-1.4001829302814193,0.08281258940968421,-0.037412872810072675,-0.0005798170701795969,-0.7812135528990264,-3.1207235292705064,0.828765566792141,0.38729756052797754,-0.12244996640465296,-0.0026387479627184847,3.659907594548788,-0.201311370858008,1.7739047239253796,0.575192264672963,1.509307648772423,0.0320134659737783,-0.14377510931119186,2.5319247426197737,-1.5668279624134676,-0.44276698785482904,0.07384528724152327,0.0006386478950971908
0.35000000000000003,-0.26212358227536187,0.8523675053293547,-1.391719416997168,0.08674151379126278,-0.03852404351499642,-0.0006041636845167593,-0.7452222198176994,-3.1226674446159977,0.8463513284251216,0.3928924381578579,-0.11111707049237426,-0.002434661433716236,3.8120491745136005,-0.08061961183454373,1.782680454707566,0.5585665755525424,1.4627177111739695,0.0372225096353227,-0.15149013564092814,2.8704100466374984,-1.4740694629546547,-0.430699545909578,0.07030191881501208,0.0006413377002219211
0.36,-0.2692009557693817,0.821133427484703,-1.3830792118241857,0.09072504517152646,-0.03952582678846502,-0.0006263945035437021,-0.7077373494019814,-3.1234077844651673,0.8640205172982398,0.39835313802636796,-0.10017832734686018,-0.002223081902694284,3.9608810030923016,-0.020564397432867094,1.7890500863310652,0.5439908571555909,1.374895995793668,0.03956150254399349,-0.1494184006811991,3.1752859973395977,-1.391254964683313,-0.42056787943259366,0.06629607931650441,0.0006392310996892552
0.37,-0.27588878490836694,0.7898979355906091,-1.3742617344258863,0.09476203139111458,-0.040425251028292225,-0.0006465152353270562,-0.6687829138985268,-3.1235491894093927,0.8817477398299413,0.4036986219588125,-0.08994242398272005,-0.0020120731783354025,4.108915734208743,0.00920144994127464,1.7924508275971542,0.5310936757280489,1.2587255109132822,0.0396750253377971,-0.1373030253936615,3.4600527954804976,-1.313433610614713,-0.41142492005139036,0.061890053832204486,0.0006332337199887985
0.38,-0.28217235309621636,0.758663996721182,-1.3652666989035662,0.09885145575040513,-0.041231466316472364,-0.0006645940269765937,-0.6283568187849434,-3.1233938869427056,0.8995035522320022,0.4089424359290544,-0.08062152881801404,-0.0018078791649537515,4.257578603407771,0.02399178685706405,1.7924720836084425,0.5193470937771956,1.1257990846801087,0.038181192263111896,-0.11503237551562873,3.731387906330215,-1.2382056752893495,-0.40281894329995444,0.05713061679707973,0.0006238881935000287
0.39,-0.2880367871061295,0.7274330821185202,-1.3560941487895521,0.10299238195903533,-0.041954866163122106,-0.000680743343747733,-0.5864434009913175,-3.1230914602661826,0.9172550114014109,0.4140926208630199,-0.0723399846649743,-0.0016149316771139268,4.407419839779323,0.03215118341312252,1.7887659492046082,0.5082135051814856,0.9857476424125595,0.03561474263407449,-0.08263282539919717,3.9928215419430932,-1.1643566840733308,-0.3945286536060089,0.052058041502405956,0.0006115646520359795
0.4,-0.2934670177145793,0.6962059992454611,-1.3467444898342333,0.10718390360051999,-0.04260635484190957,-0.0006951038034526539,-0.5430230608449759,-3.1227082873059078,0.934965895531876,0.41915216414846534,-0.06514886787874649,-0.0014360459704920866,4.558319203423711,0.04051253086073114,1.781013558679002,0.4972001459974926,0.8460298180577276,0.032406645021207936,-0.04026700959122348,4.247155429187034,-1.0909974959960747,-0.38640177540464216,0.04671156809713015,0.0005965758425804678
0.41000000000000003,-0.2984478105033356,0.6649835731510405,-1.3372185205536011,0.11142509835254022,-0.04319678020784951,-0.0007078308569585145,-0.4980792788756292,-3.122242609442059,0.952596928063216,0.42411947520202287,-0.05904253659399448,-0.0012727053505860622,4.7096776788859245,0.05344369669221361,1.768924914530971,0.4858613374166758,0.7120230117183737,0.028885236205001164,0.011765583954426673,4.496077416885972,-1.017665955811822,-0.37836946711236114,0.041129766469779123,0.0005791852442353558
0.42,-0.30296384403351206,0.6337670821459637,-1.3275174610246134,0.11571498786650668,-0.04373652650631099,-0.0007190845102343055,-0.45160335301764803,-3.1216491005076845,0.9701059528987777,0.4289889513966459,-0.0539746298461475,-0.001125365327579099,4.860600892988658,0.06733899288744455,1.7522356716395802,0.4738073068430566,0.5872842696855916,0.025288444146668088,0.07302452182375752,4.737908444556311,-0.9450045808025369,-0.37055659243829114,0.03534786996621866,0.0005595616139348208
0.43,-0.306999815165829,0.6025578989332002,-1.3176429830192393,0.12005250805226227,-0.044235247503707775,-0.0007290218574098192,-0.4035971132316987,-3.12091832127634,0.9874478005374011,0.4337520185755595,-0.0498720997396787,-0.0009937347175513686,5.010030805510187,0.07789802249531919,1.7306748346834817,0.4607528577714888,0.47388251303393014,0.02178031663970481,0.14292784979219708,4.970763966070607,-0.8736647552548922,-0.36308242426749476,0.02940307975325654,0.0005379006881203938
0.44,-0.3105405576016009,0.5713570623957025,-1.3075972404513636,0.12443648816563381,-0.04470171372156642,-0.0007377920275484937,-0.354074243577187,-3.1200836537497714,1.0045742567875768,0.4383980113371544,-0.04664662178586491,-0.0008770170138674436,5.156832867288873,0.08455480429396162,1.7039725474010212,0.4465018229078419,0.37274003556777524,0.018467089764742983,0.2207609404830473,5.194383347649768,-0.8037250898649109,-0.3559624868186392,0.02333679051967643,0.00051447794714016
0.45,-0.3135711648864138,0.5401652213629174,-1.2973828972020078,0.12886563426368933,-0.04514374687582878,-0.0007455330835367659,-0.30306072848129384,-3.1191841032785095,1.021434324935567,0.44291460980555203,-0.04420331542623608,-0.0007741055988272214,5.299859757648679,0.08839317837801457,1.671888248497953,0.43090244113018716,0.28394516867353126,0.015411477652591987,0.30568871427224026,5.409208800008572,-0.7350237662318391,-0.3491704382985738,0.01719232765992317,0.0004896092015979692
0.46,-0.3160771118650963,0.508982742706035,-1.287003150981414,0.13333851516968495,-0.0455682172600824,-0.0007523704060429356,-0.2505946978682524,-3.118247865688239,1.0379746220593915,0.4472880905995618,-0.0424470384253616,-0.0006837322506169744,5.437990815505156,0.09162716352905148,1.634222493891228,0.41382866603547175,0.20701674329096686,0.012644843908555359,0.3967677201527894,5.616137533350467,-0.6672553925486728,-0.34265697486997637,0.011014072509441693,0.0004636364998976012
0.47000000000000003,-0.31804437115444195,0.4778099320114813,-1.2764617524830146,0.1378535498978149,-0.04598108363797045,-0.0007584161522783338,-0.19672592893456495,-3.117281069455373,1.0541398498399377,0.4515034728129947,-0.04128663778880487,-0.0006045746235398156,5.57013611026632,0.10104527141366584,1.5908197178896566,0.39516963432383445,0.14111590458624246,0.010176882719583169,0.49295850877143127,5.8178581741636926,-0.599576502463127,-0.3362884651669563,0.004849351769139268,0.0004369572846458174
0.48,-0.31945952472813355,0.44664771000956555,-1.265763017915725,0.1424089931215829,-0.04638745922114469,-0.0007637694649980622,-0.14151535736916176,-3.1162222001915754,1.069873456728959,0.45554432237679904,-0.04063755831742388,-0.0005353312719728462,5.578081992978335,3.439997653117802,1.5159251328395174,0.3751277737723733,0.0841584467606129,0.008002805625080711,0.5807226438751028,7.318366370290675,-0.13803196304018306,-0.2677310071085211,0.001230556084980284,0.00043565122468689453
0.49,-0.3203214828500156,0.4158287094489397,-1.2549126822707661,0.1470003079572128,-0.04679152623707632,-0.0007685375958914237,-0.08619581218820838,-3.081900056062587,1.0850335644958993,0.4591314835629922,-0.040406701593162626,-0.0004768130893361569,5.540875370361099,6.997383370815069,1.4431806370220386,0.32727219139629504,0.03820168831929216,0.005921547616952516,0.6640902077177159,8.858189542666466,0.2998920347743238,-0.2074466979408143,-0.0018839955863502733,0.0004282346142098669
0.5,-0.32063366824579925,0.38570734215045555,-1.2439163506478872,0.15162059043690237,-0.04719658039598169,-0.0007728189720273575,-0.03121853957836375,-3.0121367298484145,1.0996331622878956,0.4620282479689579,-0.04050541589053676,-0.00042813761359337537,5.494228856169618,9.708016757766313,1.3796091494248568,0.25565409006945927,0.002372026646109582,0.004111742731272017,0.7430067871391552,10.021220500195785,0.5883801652600915,-0.17495639780183175,-0.005058185393443708,0.00040823877638071916
0.51,-0.32040047889296336,0.35655367441965136,-1.2327793136581862,0.15626172971029034,-0.047605175916315794,-0.0007766947530546889,0.02331893528359172,-2.9153667730804207,1.1137036989700944,0.464113927338798,-0.04085955203341085,-0.0003875781027331418,5.438301514036454,11.71255929006629,1.319373154354409,0.1718983108295653,-0.025210666536727544,0.002649987706358825,0.8144757437636369,10.871079078097097,0.7576142392521097,-0.16400567208089678,-0.008040938503565843,0.0003802056089267113
0.52,-0.3196272701902463,0.3285674313116867,-1.221506969702005,0.16091519034150986,-0.04801926306915426,-0.0007802300908149777,0.07732087027170642,-2.7986243107964657,1.1272343956181246,0.465346063121953,-0.0414087152838462,-0.00035353377602888227,5.373376218925354,13.131845235463016,1.2583407357466,0.08387359285995899,-0.046087931129505044,0.0015061395873670058,0.8763203892333993,11.462415679593093,0.8333505079586022,-0.16930236943267407,-0.010662894583110614,0.0003476643768695243
0.53,-0.31832032396934057,0.30189002891306277,-1.2101051154797424,0.1655725234321483,-0.04844030137101113,-0.0007834766218928653,0.13069462209057145,-2.667740239862394,1.140185422226237,0.4657333090638421,-0.04210383018568699,-0.00032465310778875014,5.299851014318507,14.069372396955593,1.1936798634391508,-0.003260421758451315,-0.06154313260908051,0.0006334189530181611,0.9271553973362129,11.842010075946348,0.8371495753403357,-0.18647658171265563,-0.01281951990717501,0.00031326595951864245
0.54,-0.3164868056834767,0.2766148818385954,-1.198580136244023,0.17022568444439226,-0.04886935380754141,-0.0007864748772439138,0.18335182858638552,-2.527514707446737,1.1524979235719475,0.46531610122439604,-0.04290524365302825,-0.00029982553510485315,5.218220187177106,14.613526977876235,1.1235452944005289,-0.0862782943966316,-0.07264266865873825,-1.5073785667230055e-05,0.9663066064919577,12.049759846907257,0.7867630876310843,-0.21199788690243682,-0.014456543566093064,0.00027892111850705086
0.55,-0.3141347119679831,0.2527962068980271,-1.1869391201585529,0.17486721506452796,-0.04930716495588656,-0.0007892564037378097,0.23520937154936195,-2.3818674940568294,1.1641016085470144,0.464153062013569,-0.043781114834514565,-0.00027815264938959276,5.129051798725095,14.839547524907383,1.0468368789376576,-0.1633180311785516,-0.08026316798946631,-0.00048239991783560754,0.9936996522319259,12.119559084336743,0.6965888324948879,-0.24307280342306903,-0.01555763396321799,0.0002459337339150595
0.56,-0.3112728109968228,0.23045651807559564,-1.1751899156162937,0.17949033109385423,-0.04975422500531018,-0.0007918455752210414,0.28619009711602733,-2.2339688822431474,1.1749204542259168,0.46231160293262713,-0.04470600494236212,-0.00025891714832316864,5.032965483159099,14.81125471311481,0.9630128573313037,-0.23346282902427618,-0.08511497278575852,-0.0008065932145422394,1.0097356834199782,12.08007741894719,0.5781397641035066,-0.2775368902045697,-0.016134177030709584,0.0002151233363202893
0.5700000000000001,-0.30791057794569654,0.2095929847751231,-1.163341146112791,0.18408894691616912,-0.05021082146295597,-0.0007942611091373077,0.336223305112624,-2.0863533300472548,1.1848769503502832,0.4598615822314889,-0.04565964576457857,-0.00024155339162662963,4.930612445731347,14.58257291281506,0.8719455522491302,-0.2964363972460191,-0.08776510062978726,-0.00102042991017548,1.0151682020465083,11.955449493548606,0.44049398787023364,-0.31375033199559016,-0.016216972495816908,0.00018693375847131177
0.58,-0.3040581275961597,0.19018280464196202,-1.1514021939783592,0.18865765859881264,-0.05067708030308152,-0.0007965173173614477,0.3852450349536872,-1.941018013316108,1.1938952134431822,0.4568711682643519,-0.046625884012555185,-0.00022562082241400688,4.822658446055668,14.198866952410789,0.7738098063025056,-0.35238261276519367,-0.08865988807354519,-0.0011516538015747813,1.0109904389243654,11.765884208320497,0.2907072490345157,-0.3505020374128753,-0.015849630971241306,0.00016152659729547808
0.59,-0.2997261457825262,0.17218772393844567,-1.1393831617213999,0.193191701400778,-0.05115299828231851,-0.0007986251248173144,0.43319818136334964,-1.799508070351635,1.2019032256959423,0.4534042801965349,-0.04759179792369901,-0.000210780745586667,4.709769902167426,13.698114984265075,0.6689967678572692,-0.4017076067281593,-0.08814656204338345,-0.001223423505089638,0.9983385531008452,11.52820217731135,0.1341791208320493,-0.3869247227681694,-0.01508343782530699,0.00013885949626521397
0.6,-0.294925821052229,0.155557822178101,-1.1272948177529678,0.19768689282935115,-0.051638468045582406,-0.0008005928902420779,0.48003247302972285,-1.6629901760344674,1.2088343968432038,0.44951914285731664,-0.048546976326389754,-0.00019677654247634153,4.5926029137276085,13.111936092655968,0.5580473481936146,-0.44496791578584194,-0.08649293266296265,-0.0012548465868080783,0.978412722404043,11.256308996110194,-0.025029676924249733,-0.42242179197450636,-0.013973449523564888,0.00011875012169955453
0.61,-0.2896687776092357,0.14023466329475312,-1.1151485317188392,0.20213956898646665,-0.05213329749090232,-0.0008024270616736745,0.525704344299328,-1.5323158883347878,1.214628603412852,0.4452676157115512,-0.04948294453199171,-0.00018341714315966013,4.471794853175399,12.466489262869064,0.4416009839029371,-0.4827924914571611,-0.08390466788237738,-0.0012615210540922739,0.9524159462646645,10.961611157212793,-0.1839275446396662,-0.45660578607214247,-0.012575601091419274,0.00010092721231825898
0.62,-0.28396701035028893,0.12615390283822134,-1.1029562034597622,0.2065465194625152,-0.052637224669264064,-0.0008041326959830029,0.5701767258946777,-1.408076045653178,1.2192328259076914,0.4406950476048555,-0.05039271783617422,-0.00017056343093283994,4.347958130205877,11.783258533364892,0.32035633719741163,-0.5158294791635196,-0.08053992449446401,-0.0012560409067667866,0.9215089984360354,10.653380764413285,-0.34036635235071944,-0.48924757176061995,-0.010944625123949574,8.507032199055989e-05
0.63,-0.27783282258692976,0.11324742937229743,-1.0907301886769338,0.21090492423291063,-0.05314992929123114,-0.0008057138678655701,0.613418776335914,-1.2906473465923918,1.2226014782828303,0.43584047703954326,-0.051270462196707826,-0.00015811718825672145,4.221675747386554,11.079737550920473,0.19504132857655598,-0.5447110111067062,-0.076521365037995,-0.0012484456754999762,0.8867792596160383,10.33907458498371,-0.49285524921395063,-0.5202351269950993,-0.00913260916456723,7.083993142942532e-05
0.64,-0.2712787668695603,0.1014451082455668,-1.0784832236396231,0.21521229471512182,-0.053671041713845395,-0.0008071739897026818,0.6554055717369435,-1.1802321126730624,1.224696503731066,0.4307370482211202,-0.05211124226142561,-0.00014601218371117415,4.093498303264529,10.370025317062005,0.06639047837201417,-0.5700309996075497,-0.07194575951630622,-0.0012466080422819381,0.8492209314393107,10.02461243051061,-0.6404089084394984,-0.5495406631315971,-0.0071880459076872575,5.789954047100311e-05
0.65,-0.2643175891882966,0.09067618707030463,-1.066228350690472,0.21946642021962362,-0.05420015010067057,-0.0008085160599374021,0.6961177681263702,-1.0768921175262167,1.2254872949151225,0.42541255045017873,-0.05291083868251757,-0.0001342070234720258,3.9639421470811294,9.665343634406096,-0.06487202031790851,-0.5923322179347945,-0.06689146291388148,-0.001256561704456427,0.8097242114961023,9.71461936665646,-0.7824252309491898,-0.577194826501012,-0.0051552571660331056,4.593121796832715e-05
0.66,-0.2569621767136594,0.08087041445281792,-1.0539788458469084,0.22366532037931017,-0.05473680629069206,-0.0008097428542631523,0.7355412474637222,-0.9805772617486699,1.224950484356364,0.4198900159686538,-0.05366561900214847,-0.00012267943257502774,3.8334884374546236,8.974485609692636,-0.19804473188503557,-0.6120999256149746,-0.061424093361831744,-0.0012827757466362666,0.7690712594669321,9.412635809203014,-0.9185878446920189,-0.6032667984549163,-0.0030740964287230346,3.464591676016895e-05
0.67,-0.2492255091530677,0.07195891665632836,-1.0417481494377159,0.22780720369534332,-0.0552805307798555,-0.0008108570710622934,0.7736667560591678,-0.891149779648956,1.2230696409192479,0.4141883316033165,-0.0543724489163444,-0.00011142167991410964,3.7025829014507496,8.304203543924688,-0.3324578815614583,-0.6297600183657242,-0.0556007311733957,-0.0013283834272115325,0.7279371113258076,9.12129916616805,-1.0487891896720503,-0.627849228083693,-0.000979855402095508,2.378968084808391e-05
0.68,-0.24112061373205912,0.06387487084319886,-1.0295498004314954,0.23189043203883267,-0.055830817111402045,-0.0008118614401599053,0.8104895421008583,-0.8084045813129511,1.2198349006220492,0.40832283434893346,-0.055028633154654165,-0.00010043690976118238,3.571636128553397,7.659543638014428,-0.46747949648185383,-0.6456802217889539,-0.04947293196036462,-0.0013953734912248716,0.68689403947857,8.842500331375389,-1.1730704880798928,-0.6510470635290058,0.0010966830094621162,1.3146696158763759e-05
0.6900000000000001,-0.23266052375827928,0.056554008247628004,-1.017397374892466,0.23591349075672544,-0.056387135885451065,-0.0008127588020376957,0.8460089973779853,-0.7320862595570852,1.2152425539029292,0.4023058717892765,-0.05563187740490174,-8.973618777904037e-05,3.4410242675879092,7.044134066686506,-0.6025193890797267,-0.6601732499510815,-0.04308880932299708,-0.0014847515444320614,0.6464181753894488,8.577517991541823,-1.291575419022545,-0.6729694825119711,0.003129089018597448,2.5399736346956776e-06
0.7000000000000001,-0.22385824068820084,0.04993497598600673,-1.0053044288262178,0.23987496391678978,-0.05694893853146348,-0.0008135521631290899,0.8802283070078429,-0.6619032261621274,1.2092946066248151,0.3961473160064355,-0.056180264601241904,-7.933610913941654e-05,3.3110900194661403,6.460432350437481,-0.7370314622752714,-0.6735011484817939,-0.03649440202883536,-0.0015966780339853326,0.606897488997621,8.327133447445265,-1.404514797703753,-0.6937242495395526,0.005095060555073524,-8.169691025064545e-06
0.71,-0.21472669958878757,0.043959582158166186,-0.9932844455437085,0.24377351416825374,-0.05751566093614291,-0.000814244731628277,0.913154109941327,-0.5975393827840543,1.2019983282509337,0.3898550251463972,-0.056672240467942434,-6.925684991871074e-05,3.1821438410112335,5.909937325948755,-0.8705147168717833,-0.6858802650645799,-0.02973450157679025,-0.0017305882927749483,0.5686404505379108,8.091728384863968,-1.5121400039997748,-0.7134139439367407,0.006976152823786479,-1.908596238287948e-05
0.72,-0.20527873786671397,0.038572945366252664,-0.9813507875681183,0.24760786667491183,-0.05808672698104548,-0.0008148399373337678,0.9447961722073586,-0.5386636791913523,1.193365797559024,0.3834352506658082,-0.057106604490257305,-5.952057054908007e-05,3.0544653186710113,5.393368002000172,-1.0025132654092204,-0.6974864613309124,-0.022853080730455666,-0.001885299005695229,0.5318848891897648,7.871367064148852,-1.6147234704751852,-0.7321336220061192,0.008757479404642877,-3.0280009316978302e-05
0.73,-0.19552706712199733,0.03372356647899515,-0.9695166530310846,0.2513767965855312,-0.0586615520162021,-0.0008153414383408748,0.9751670744716628,-0.4849378887257514,1.1834134537033791,0.37689299106193697,-0.05748250351566225,-5.015010071069915e-05,2.9283045364743647,4.910825579289059,-1.1326155914695617,-0.7084602540711129,-0.015893438030023077,-0.0020591042646538327,0.4968066942173362,7.665868480349255,-1.7125438574064147,-0.7499694692347844,0.010427406950689808,-4.1793998547694954e-05
0.74,-0.18548424798435953,0.029363338791106027,-0.95779503644102,0.2550791195257763,-0.05923954627556378,-0.0008157531169411625,1.0042819137637793,-0.4360227687889125,1.1721616590064579,0.37023229402450875,-0.05779942593616735,-4.116786002877211e-05,2.803883595234695,4.461923072506927,-1.2604532172358365,-0.7189118280925868,-0.008898134003975322,-0.0022498644941228996,0.46352813159148576,7.474864409101673,-1.8058761058809831,-0.7669982936954097,0.011977241259187709,-5.364483798608332e-05
0.75,-0.17516266777636483,0.025447509499761635,-0.9461986936635224,0.25871368463151834,-0.059820118226248935,-0.0008160790666456333,1.032158020799471,-0.3915829291344392,1.159634277749762,0.363456510574205,-0.058057195068516046,-3.259497044708239e-05,2.6813976192373055,4.045963492276823,-1.3856988928700473,-0.7289255760833568,-0.0019088043433823643,-0.0024550887556681333,0.43212557705017074,7.297867239642844,-1.8949802705334458,-0.7832871979879391,0.013400966502274358,-6.582785032328159e-05
0.76,-0.16457452089873809,0.02193461025389828,-0.9347401108885238,0.2622793696434267,-0.060402677830802165,-0.0008163235724000412,1.0588146877626747,-0.3512899245863353,1.14585827749986,0.35656850119083267,-0.05825596045532268,-2.4450575440788533e-05,2.561002239036546,3.663954307008861,-1.508061885949084,-0.7385613564367066,0.005033924460677852,-0.0026720174292669263,0.40263522693661635,7.134847726006163,-1.9799783290084048,-0.7988847844624459,0.014696329973255765,-7.831800041367938e-05
0.77,-0.15373179317325575,0.01878655737449775,-0.9234314763675062,0.2657750764330349,-0.060986639589466554,-0.0008164910980281338,1.0842727725482326,-0.314805287940053,1.1308634521017558,0.3495706789608173,-0.058396175866439234,-1.6752562809262975e-05,2.442340590752623,3.3829282598890855,-1.627182038751191,-0.7477461312366618,0.011883746536786699,-0.0028978551091148885,0.37501128980841836,7.004022931390055,-2.0569901349207336,-0.8135377244509908,0.015910746823052224,-9.100980431706072e-05
0.78,-0.1426462969878207,0.015975326190007317,-0.9122846200080893,0.26919968635487695,-0.06157142165934462,-0.0008165867120525682,1.1085496185435062,-0.2811231184490435,1.1146856359416957,0.3424609921842074,-0.05847820698780707,-9.561402443437352e-06,2.3253833916546625,3.198223717312731,-1.7425018188559853,-0.757006752418516,0.018656331240151314,-0.0031353284876053378,0.3490710655132929,6.902879761354448,-2.1268535057198927,-0.8273751592596532,0.01705667463062497,-0.00010387837918945163
0.79,-0.1313296741352455,0.013482486575217764,-0.9013109643028727,0.2725520240357875,-0.0621564448556778,-0.0008166160635621713,1.1316622852575198,-0.2492839614789553,1.0973655705216523,0.3352337680910524,-0.05850231963331753,-2.9351509603160867e-06,2.2107753496469105,3.011889795688253,-1.8537159997628099,-0.7669189029934711,0.025378309186339987,-0.003383211827619914,0.3246827534382465,6.803780702226003,-2.1956596652389706,-0.8408595943761268,0.018081623167196588,-0.00011693817929613324
0.8,-0.11979333193648446,0.011289450091526342,-0.8905215340628725,0.27583088793357124,-0.06274113696424465,-0.000816584663792364,1.1536342198761032,-0.21930364836914223,1.0789430240000222,0.32788638977837314,-0.058469210856684356,3.1399769807246997e-06,2.0987288079516655,2.807837741729552,-1.9608752170443107,-0.7770907094232786,0.03199337785703671,-0.0036319072081356096,0.30186114597259517,6.702483740343771,-2.2642233089397203,-0.8540388157670664,0.01897257240097891,-0.00013014130472344213
0.81,-0.10804842209206812,0.009375867808989635,-0.8799269649204493,0.2790350935201458,-0.06332493799861305,-0.0008164976949431342,1.1744909844416342,-0.19135822825367055,1.0594569142423198,0.32042055865745556,-0.05838010343684097,8.696884922980279e-06,1.9893377596473818,2.5914848139699096,-2.0640622086009435,-0.7870771198575124,0.03843861901327683,-0.0038765745697298404,0.28063229279102864,6.6006480826793945,-2.332091682674234,-0.8668752225742888,0.019729249837978323,-0.00014342787938829456
0.8200000000000001,-0.09610583125251089,0.007720169392451373,-0.8695375068352181,0.2821635040556544,-0.06390730457162615,-0.0008163600438180467,1.1942590839557234,-0.16556984165382618,1.0389458085231127,0.31284105355085395,-0.05823665730130908,1.3765112508750525e-05,1.8826568260047525,2.3791228633772454,-2.1633222183156215,-0.7965755454461902,0.044661814269799205,-0.004114511531098264,0.2610013316016263,6.502665699711114,-2.3982907093056736,-0.8793097777028838,0.02036077354096719,-0.00015673647009602606
0.8300000000000001,-0.0839761754952549,0.006301184870871465,-0.8593630209581842,0.2852150418085641,-0.06448771277219686,-0.0008161764252911297,1.2129655757255984,-0.14189845215799088,1.0174485877033903,0.30515377529097476,-0.05804082005707139,1.836185269169717e-05,1.7787857004439254,2.1536760681678127,-2.258656039575633,-0.8055034673543338,0.050629663362399935,-0.0043441969415921045,0.24292220902292663,6.404084983083658,-2.463638651482786,-0.8913827143967165,0.020857726588966535,-0.00016999656190297026
0.84,-0.07166979043713839,0.0050964445466090075,-0.8494129851210428,0.28818870740600033,-0.06506566170313115,-0.0008159512684851852,1.2306385058116511,-0.12047403242624571,0.9950035837141401,0.2973665597436203,-0.05779489309342826,2.2515680594445893e-05,1.6777356520550688,1.9334479980554762,-2.3501108651700604,-0.8136540454590344,0.05629764137717341,-0.004561229201855477,0.22638072449260488,6.30968878174384,-2.527114976782498,-0.9030414712768627,0.0212319953145778,-0.00018315234409191947
0.85,-0.05919673004580511,0.004084001000565312,-0.8396964908672453,0.2910835819171712,-0.06564067560949663,-0.0008156888202848437,1.2473060391333282,-0.10124435460436954,0.971649425379746,0.28948745111708674,-0.057501390636547696,2.6244820034149937e-05,1.5795441600197224,1.7143513908487094,-2.4376824228750067,-0.8210284738562974,0.061640459753366184,-0.004763856532782884,0.2113145424457047,6.218361165301548,-2.588877926804085,-0.9142935504396645,0.021484719130607524,-0.00019613429094366439
0.86,-0.046566762930203065,0.0032420221169154983,-0.8302222443660071,0.2938988295587535,-0.0662123059657326,-0.0008153931057169517,1.2629967115602043,-0.08419788836498136,0.9474246501238197,0.28152476415822875,-0.05716303562359688,2.957145678920094e-05,1.484207210402119,1.5029376658965419,-2.521380428943507,-0.8275970933864993,0.0666318844685585,-0.004948846815764324,0.19766546180846253,6.131681702904532,-2.6485719454056444,-0.9251257832677469,0.021623982974228403,-0.00020888503330494026
0.87,-0.03378937273553806,0.0025494431318011366,-0.8209985649319436,0.2966336947375787,-0.06678013293530759,-0.0008150679454155757,1.2777390194665004,-0.06925789851143616,0.9223679434063583,0.2734865178825188,-0.05678269695749818,3.2516030137596925e-05,1.3917241347287508,1.2986807657182047,-2.6012060868208047,-0.8334019613389518,0.07125448864075956,-0.005113869279465749,0.18535796372257776,6.049397472724695,-2.7061968843724453,-0.9355402283930929,0.021654912832703342,-0.00022134205019670099
0.88,-0.02087375823940473,0.001985914161120415,-0.8120333855095953,0.2992874987414432,-0.0673437666116656,-0.0008147169254251124,1.2915614496133325,-0.05635289706807219,0.8965179422348287,0.26538040038645183,-0.05636336763580138,3.510199904634081e-05,1.3020682519327222,1.1098579093837484,-2.6771662703541654,-0.8384759467576242,0.07549305705285603,-0.005256281706258498,0.17431833366485203,5.973404955158286,-2.761369708150596,-0.9455292761315719,0.02158880454434342,-0.00023346025622944164
0.89,-0.007828836017954638,0.0015326239702407789,-0.8033342507922311,0.301859630508209,-0.06790284751571926,-0.0008143434274324213,1.3044922221450093,-0.0453290190879636,0.869913471736414,0.25721317667657995,-0.055908090405365915,3.734979926910932e-05,1.215214364249678,0.9313641640880891,-2.749255052353556,-0.8429209187376232,0.07934254528503226,-0.0053745971783532576,0.16445129447226872,5.902275043444518,-2.8143149348684724,-0.9551026189390986,0.021430022830361627,-0.00024517822441299283
0.9,0.005336756986543024,0.0011717917201453957,-0.794908318860111,0.30434954199538355,-0.06845704717750398,-0.0008139505663487818,1.3165593004497662,-0.03608322500953832,0.8425931932120054,0.2489911487174532,-0.05541996617847119,3.9286108363951394e-05,1.131116747535615,0.7788915514520995,-2.8174902822886976,-0.8467828409514544,0.08279655568608346,-0.005466495730240828,0.15568188576897132,5.83960667954152,-2.864385843790057,-0.9642545114023098,0.02119585366532105,-0.0002564800081032167
0.91,0.018614658910882695,0.00088822865571434,-0.7867623581781316,0.3067567323430936,-0.0690060674784172,-0.0008135412783825727,1.3277901924339668,-0.028356306443105564,0.8145960681979509,0.24071903477100498,-0.05490203009132262,4.092879662091278e-05,1.0497295688488661,0.6361912870496561,-2.881851097142727,-0.850226347803666,0.08586510743842024,-0.005532156177936495,0.14789148755116008,5.781279121639016,-2.9122776410948337,-0.9730013876569306,0.020885820856462803,-0.0002672912269330205
0.92,0.031996778305048434,0.0006677207161173747,-0.7789027516438942,0.3090807465852398,-0.06954964080803162,-0.0008131181847111698,1.3382119394165737,-0.02205079395969653,0.7859606534237288,0.2324014242146232,-0.054357332961442864,4.230936714029822e-05,0.9709970840700155,0.5121229326981104,-2.9423822317900084,-0.8532667791794442,0.08854780547453323,-0.005569185456589326,0.14100750162825898,5.729233579131128,-2.9576471452786426,-0.9813456279842797,0.020512594013888864,-0.0002775991720627337
0.93,0.045475288553802014,0.0004979101046104021,-0.7713354983082217,0.3113211673485394,-0.07008752938722634,-0.0008126836286177075,1.3478510248753581,-0.01698106115069726,0.7567253335672487,0.22404207632995518,-0.05378885791947183,4.345560934623014e-05,0.8948568857788748,0.4083573947083323,-2.9991047697693958,-0.8559891514243736,0.09085493693482061,-0.005577657816505405,0.13494026807803755,5.683660087778331,-3.0004623592237265,-0.9892951864171625,0.020085921290545747,-0.00028738198108232
0.9400000000000001,0.0590426216092396,0.00036846138948795864,-0.7640662154399703,0.31347760642028527,-0.07061952425067503,-0.0008122396831325518,1.3567333055437587,-0.012944871512244343,0.726928286825131,0.21564390717459198,-0.05319948634486845,4.439454851557307e-05,0.8212416745262001,0.32174215239062515,-3.0520435304341738,-0.8584799870588498,0.09280126126657051,-0.005557811628135255,0.12959819981170131,5.643632890118227,-3.0408765089239225,-0.9968582633691876,0.019612604371489428,-0.00029661187624506144
0.9500000000000001,0.07269146122142076,0.00027074756900218164,-0.7571001424470398,0.3155496997654097,-0.07114544420952092,-0.0008117881204362042,1.3648839612181154,-0.009771382048577703,0.6966072992930537,0.2072093345124441,-0.05259199588458967,4.515626963475802e-05,0.7500794879677537,0.2505812866275144,-3.1012408906075697,-0.8607906884223109,0.09440174891464848,-0.005509714575755727,0.12490000883457827,5.608598243377163,-3.0789815184624074,-1.0040423926038384,0.019099554915890677,-0.00030527113393315897
0.96,0.08641473571041565,0.00019768110189646328,-0.7504421458697238,0.31753710422849407,-0.071665134707942,-0.000811330393435083,1.372327448899489,-0.007306646710571835,0.6657996577316023,0.19874044630844015,-0.051969049842108775,4.57727001121219e-05,0.6812942913754784,0.19338849262757363,-3.1467491981073263,-0.8629552870813075,0.09567260235083852,-0.00543380149626185,0.1207713414963842,5.578074467704299,-3.1148584801923844,-1.0108548415321528,0.018553252806616405,-0.00031334832844998
0.97,0.10020561033524399,0.00014356580729841872,-0.7440967251842584,0.3194394954486773,-0.0721784665782432,-0.0008108676256940197,1.3790874624828333,-0.005411529459804457,0.6345420685465364,0.19023912201832205,-0.051333187030120166,4.62767741063329e-05,0.6148067659517568,0.14756006478493186,-3.1886284687159905,-0.8649953838607001,0.09663115457629257,-0.005330814407981607,0.11714356897426581,5.5513502479414045,-3.148623196829699,-1.0173018072317055,0.017978898188082043,-0.00032083343659622626
0.98,0.11405747933505918,0.00010383758338165919,-0.7380680196100837,0.32125656757333626,-0.07268533479016638,-0.0008104005974101214,1.3851868999815191,-0.003972822391675954,0.602870557417468,0.18170721246589708,-0.05068682119231818,4.6702828389815715e-05,0.5505347887538014,0.11114721673315302,-3.2269479699749866,-0.8669140890005558,0.09729457638963457,-0.005201581547632211,0.11395650159667216,5.527888885673627,-3.180363474909101,-1.0233892981835138,0.017381317926016576,-0.000327722921981087
0.99,0.12796395769634555,7.487031447018991e-05,-0.7323598155178007,0.32298803395358633,-0.07318565717465238,-0.0008099297399524565,1.3906478361286365,-0.0028967268911469276,0.5708204092282959,0.1731466380250081,-0.05003223844859998,4.708574576648954e-05,0.48839393836771994,0.08357100856561676,-3.261782456992168,-0.86870432239688,0.0976801136119666,-0.005047137979839324,0.1111574034004684,5.507478672543096,-3.210119287233853,-1.0291242489120365,0.016765565768279422,-0.00033402209837089775
