tonegas/nnodely-applications/joint_friction_estimation/dataset/train/mpc_mujoco_episode_14 copy.csv
time,q1,q2,q3,q4,q5,q6,dq1,dq2,dq3,dq4,dq5,dq6,ddq1,ddq2,ddq3,ddq4,ddq5,ddq6,tau1,tau2,tau3,tau4,tau5,tau6
0.0,0.0,1.57,-1.57,0.0,0.0,0.0,0.0,0.0,0.0,0.0,0.0,0.0,10.701943203654851,-9.946599262851436,6.8403708600369715,3.3883874206756612,1.6269431703987323,-5.054328170217559e-06,1.4931182726989995,-8.276813964631025,-5.234521880693077,-1.1060773418126248,0.1347532754428563,0.0011386086058342575
0.01,0.0010648492623752518,1.569011018175481,-1.56932137376969,0.0003131674082306845,0.0001357286998122973,1.564041814858208e-06,0.10648492623752517,-0.09889818245189819,0.06786262303098989,0.03131674082306845,0.013572869981229729,0.0001564041814858208,10.587204465324033,-9.706484558987821,6.811162815776514,3.1390684125962585,1.3705351157980346,0.015676909228286462,1.477661368109587,-8.170010657943996,-5.195481294645656,-1.0977574288145486,0.13367261875652775,0.001129613612303629
0.02,0.0031822836481108477,1.5670571139902265,-1.5679683793352543,0.0009197823820043245,0.0003912931324321541,4.7647104787228e-06,0.2117434385735596,-0.19539041852544406,0.13529944344357658,0.060661497377363996,0.025556443261985678,0.0003200668663864592,10.457655475689345,-9.449512417165788,6.771143366039903,2.9415835790667924,1.2145213135648163,0.016500600487264094,1.451052747925429,-8.046220912631474,-5.149377571443953,-1.087744235323872,0.13190993261008147,0.0011129960542143292
0.03,0.006338897826768584,1.5641639840770252,-1.5659459756881522,0.0018040767547172075,0.000756884827307934,9.506964391382744e-06,0.31566141786577356,-0.28931299132013355,0.202240364710208,0.0884294372712883,0.03655916948757799,0.00047422539126599437,10.316078897505486,-9.176274141784496,6.724268509736449,2.7836610062987948,1.1210676977194112,0.015689229037475272,1.414040646704573,-7.905851161189973,-5.096550425257324,-1.076129461677103,0.1294988022009255,0.0010891110401169183
0.04,0.010520291143303266,1.5603589136736091,-1.5632595175723134,0.002953304777917514,0.001226498460318271,1.5710074253387395e-05,0.41813933165346834,-0.38050704034161337,0.26864581158388806,0.11492280232003067,0.04696136330103371,0.0006203109862004652,10.163951907849805,-8.887301068410604,6.673555021438506,2.655943063093857,1.0672748631947542,0.015050160183651684,1.3674921220052618,-7.749346368713155,-5.037374038130532,-1.063013168100067,0.12647610495949652,0.0010583153653457187
0.05,0.015711136335085307,1.5556707316004836,-1.559914523012258,0.004357034241998238,0.0017965443466155585,2.3321482091626743e-05,0.5190845191782041,-0.46881820731254853,0.3344994560055329,0.14037294640807244,0.05700458862972873,0.0007611407838239348,10.001992215518436,-8.583108471386748,6.621281714627335,2.551288377632117,1.0391923597408663,0.014712948009373505,1.3123772849147164,-7.577202284610344,-4.972259420508002,-1.0485043166039607,0.12288180679381183,0.0010209717653235097
0.06,0.02189520427089762,1.5501297649895647,-1.5559164984740756,0.006006605411080266,0.0024649999025407655,3.231005335668129e-05,0.6184067935812312,-0.5540966610918857,0.3998024538182277,0.16495711690820278,0.06684555559252069,0.0008988571265054546,9.830484890542486,-8.264229068064532,6.569141795655808,2.46424188895846,1.028266815681178,0.014601933585838722,1.2497530712025198,-7.389976078119813,-4.901655872986575,-1.032721031947154,0.11875883245745789,0.0009774529005477242
0.07,0.029055364651699316,1.5437677908556011,-1.5512708102082269,0.007894717515770937,0.0032308867656269074,4.2659433309403494e-05,0.7160160380801699,-0.6361974133963613,0.4645688265848688,0.18881121046906707,0.0765886863086142,0.0010349379952722204,9.649479137743299,-7.9312389604356435,6.5183584645031925,2.3906293208590332,1.02920455435833,0.014642250570915394,1.1807461032063298,-7.188295659162563,-4.826051664206804,-1.0157906173009246,0.11415294193200122,0.0009281446222444921
0.08,0.03717357473393837,1.5366179822497987,-1.545982593109313,0.010015111956029431,0.004093944703301673,5.436341550832364e-05,0.8118210082239052,-0.7149808605802392,0.5288217098913924,0.21203944402584946,0.08630579376747659,0.0011703982198920148,9.45890748928399,-7.584777737519549,6.469772573464048,2.3272466940910452,1.0386780348417801,0.01477821820461056,1.106534476752537,-6.972867758157594,-4.745973963962277,-0.9978493408654411,0.10911257166266722,0.0008734482972024577
0.09,0.046230863420707306,1.5287148472389427,-1.5400566905463238,0.012362328595870527,0.005054424205022665,6.742282475317554e-05,0.9057288686768936,-0.7903135010855982,0.5925902562989254,0.23472166398410954,0.0960479501720991,0.0013059409244851894,9.258658528065144,-7.225563823142466,6.423909100828441,2.271622832567701,1.0545395666414663,0.014967869277759505,1.0283285089307048,-6.744484699546358,-4.661988031580948,-0.9790419995869069,0.10368861590099701,0.0008137821069368513
0.1,0.0562073152298666,1.520094159368625,-1.5334976202164008,0.014931517088745062,0.0061129502556986895,8.184335129886178e-05,0.997645180915929,-0.8620687870317675,0.655907032992287,0.2569188492874535,0.10585260506760247,0.001442052654568624,9.048621694722252,-6.854405766349656,6.381027683702015,2.2218379667116164,1.0753407684760674,0.015176914414988474,0.9473506361081746,-6.504029722979811,-4.5746956435965505,-0.9595212620952045,0.09793413404741348,0.0007495813033886296
0.11,0.06708205693512559,1.510792878629347,-1.5263095622703076,0.017718289443315785,0.007270428263074159,9.763394898939642e-05,1.0874741705258997,-0.9301280739278058,0.7188057946093318,0.27867723545707246,0.1157478007375469,0.0015790597690534636,8.828715316791984,-6.472209932720616,6.341161290076864,2.176385450067049,1.1000365281126392,0.015374517817276612,0.8648147740557601,-6.25248066277606,-4.484732742623536,-0.9394467927674681,0.09190397741954531,0.0006812974385173029
0.12,0.07883324863954935,1.5008490622695299,-1.5184963668374714,0.020718603322239154,0.00852797427783418,0.00011480555020521247,1.1751191704423765,-0.9943816359817221,0.7813195432836194,0.3000313878923371,0.1257546014760022,0.0017171601215816045,8.598904607059671,-6.079984908763675,6.304146205583932,2.1340666213332256,1.1278004374756918,0.015530520269160242,0.781905549914818,-5.990911778056571,-4.392766295596501,-0.9189841609982601,0.08565433473636622,0.0006093966092230933
0.13,0.09143808041693817,1.4903017651018042,-1.5100615787119445,0.02392866809173466,0.009886858406084477,0.00013336994132925916,1.260483177738882,-1.0547297167725673,0.8434788125526796,0.3210064769495507,0.13588841282502964,0.0018564391124046686,8.35921376370269,-5.67884284558257,6.2696458045478325,2.0939111689426158,1.1579077742596127,0.015613625209741855,0.6997578898423131,-5.72049352602894,-4.2994903607437545,-0.8983035434069936,0.07924220053348165,0.0005343567811510228
0.14,0.10487277528800737,1.4791909292350003,-1.5010084774020898,0.02734486758450012,0.011348454424127713,0.00015333869927107007,1.3434694871069204,-1.1110835866803888,0.9053101309854763,0.3416199492765459,0.14615960180432352,0.001996875794181092,8.1097347312933,-5.269997921941609,6.237170022110252,2.0551171433194693,1.1896597372304498,0.01559023148920513,0.6194374948720001,-5.44249008571386,-4.205621376821599,-0.8775782312451434,0.07272477504321477,0.000456664278132526
0.15,0.11911259909077468,1.467557263437141,-1.4913401310388459,0.030963695039091004,0.012914191128944898,0.00017472212554629296,1.4239823802767304,-1.1633665797859278,0.9668346363243958,0.3618827454590883,0.1565736704817185,0.002138342627522289,7.85063421064745,-4.854762087749355,6.206092008691952,2.0170061329673707,1.2223333935793121,0.015423738359907624,0.5419227585125508,-5.158254467401821,-4.111892704056492,-0.8569829602817561,0.0661588078926455,0.0003768095484293042
0.16,0.1341318776993502,1.4554421125952237,-1.4810594628137999,0.03478169683948275,0.014585502542432849,0.00019752813808152284,1.5019278608575533,-1.2115150841917262,1.0280668225046095,0.38180018003917404,0.16713114134879498,0.0022806012535229888,7.582159874588509,-4.4345382483598,6.1756631021889925,1.9789901684673143,1.2551484040950776,0.015074243233828888,0.4680886710982006,-4.86922108363336,-4.019048463253839,-0.836692085670516,0.059599901282287884,0.00029528234339788175
0.17,0.14990402200350508,1.4428873179848425,-1.4701693287060058,0.03879542257873633,0.01636377513012756,0.00022176109767382197,1.5772144304154887,-1.2554794610381237,1.0890134107794087,0.40137257392535847,0.17782725876947084,0.0024232959592299136,7.30464629910183,-4.010811062311822,6.145026975587376,1.9405477164631773,1.2872456935530856,0.014498613098256286,0.3986932174029042,-4.576895710200264,-3.9278367372492307,-0.8168776295314464,0.053101791036839964,0.00021256646705741615
0.18,0.16640156105420467,1.4299350692948347,-1.4586726052774868,0.043001379670964665,0.018250290940350012,0.0002474205592052456,1.6497539050699597,-1.295224869000776,1.149672342851909,0.4205957092228331,0.1886515810222453,0.002565946153142367,7.018520764097253,-3.5851355463594534,6.113233591690687,1.901206730750939,1.3176757993981312,0.013650946327187441,0.3343667067306244,-4.2828428300840775,-3.8390022170334945,-0.7977072340458367,0.046715625981151164,0.00012913427473092132
0.19,0.1835961837835739,1.4166277495664688,-1.4465722862897505,0.04739599128191026,0.02024616616815046,0.0002744999493140225,1.7194622729369224,-1.3307319728365965,1.2100318987736252,0.43946116109455957,0.19958752278004468,0.0027079390108776884,6.724308765249384,-3.159123709241792,6.079253409842808,1.860533183958868,1.3453962230308996,0.01248345823488961,0.27560438143783317,-3.9886704284771803,-3.753278393239551,-0.7793420576104535,0.0404892673879142,4.544111385202266e-05
0.2,0.20145878969894906,1.4030077744000147,-1.433871586832694,0.05197555677483204,0.02235228519124716,0.0003029851834035328,1.7862605915375178,-1.3619975166454028,1.2700699457056763,0.4579565492921784,0.2106119023096701,0.0028485234089510284,6.422638790093963,-2.7344294676642176,6.04199213276373,1.818123845676494,1.3692780348479658,0.010947822873307977,0.22276253534084522,-3.6960123914583685,-3.6713794118895704,-0.7619346558578189,0.03446663070043257,-3.808009086501843e-05
0.21,0.21995954890788214,1.3891174269503033,-1.4205740535760194,0.05673621420083164,0.024569230663330076,0.0003328532461426265,1.850075920893306,-1.3890347449711316,1.3297533256674543,0.4760657425999606,0.22169454720829176,0.002986806273909373,6.114245653695526,-2.312732132518943,6.000306148476434,1.773602328453057,1.3881224029746626,0.008996985414393421,0.17605824390959135,-3.4065087519662227,-3.593991730818918,-0.7456268929245264,0.02868709131757268,-0.00012102390301392497
0.22,0.2390679717337196,1.3749986903733227,-1.4066836796630915,0.06167390462041251,0.026897210804891356,0.00036407077098486956,1.9108422825837468,-1.411873657698055,1.3890373912927918,0.4937690419580866,0.232798014156128,0.0031217524842243054,5.799971480925988,-1.8957187888584244,5.95301870818437,1.726617613500851,1.4006876942124613,0.006587423737617115,0.13557267032033427,-3.1217841212013853,-3.521765729376823,-0.7305479310353582,0.02318497487922047,-0.00020301689063590084
0.23,0.25875298801206986,1.3606930794942478,-1.392205022677939,0.0667843382402049,0.02933598560010318,0.00039659266528176173,1.9685016278350254,-1.430561087907494,1.447865698515243,0.5110433619792393,0.24387747952118247,0.0032521894296892164,5.480763304010753,-1.4850659271780924,5.898936783654969,1.6768444106180045,1.4057273617195207,0.003681785947987848,0.10125777346763287,-2.8434247370737618,-3.4553074378424338,-0.7168123480036424,0.017989150269663454,-0.000283721404323703
0.24,0.2789830359055488,1.3462414735399593,-1.3771433240365256,0.07206296249603646,0.031884794165949165,0.00043036083748325594,2.023004789347894,-1.445160595428852,1.5061698641413463,0.5278624255831555,0.25488085658459875,0.003376817220149421,5.157666251380219,-1.0824207137825346,5.836868465611733,1.6239848159022454,1.4020380156768972,0.0002517662767376194,0.07294611318073829,-2.5729546489869795,-3.395170563490537,-0.7045184323938873,0.013122740456570567,-0.00036283844798686623
0.25,0.2997261597348301,1.3316839518129515,-1.3615046280908585,0.07750493231894838,0.034542286064285076,0.00046530309061079467,2.074312382928131,-1.4557521727007825,1.5638695945667245,0.5441969822911924,0.265749189833591,0.0034942253127538707,4.831811477489451,-0.6893823110414457,5.765640697838949,1.567770817661204,1.3885159338363415,-0.0037189868444555962,0.05036333186358377,-2.3118116344903967,-3.3418489961509357,-0.6937467045965504,0.008602962435281108,-0.0004401094993569162
0.26,0.3209501159074801,1.3170596341762026,-1.3452958991950996,0.08310508289070298,0.03730645972223236,0.0005013322503944727,2.1223956172650067,-1.4624317636748922,1.6208728895758784,0.5600150571754596,0.2764173657947281,0.0036029159783678047,4.504398341616979,-0.3074836707364352,5.684117090267105,1.5079672744165986,1.3642189331131558,-0.008232198102610777,0.0331427969204392,-2.0613235025808336,-3.2957699763419424,-0.684558708744279,0.004441103073991495,-0.0005153171708583615
0.27,0.3426224855555293,1.3024065281688888,-1.3285251349712746,0.08885790523508266,0.04017461134757642,0.0005383455959503181,2.167236964804922,-1.4653106007313768,1.6770764223825003,0.5752822344379676,0.28681516253440636,0.0037013345555845403,4.176670872361444,0.06182577771633038,5.591215518371702,1.4443750553995134,1.328429188155141,-0.013272834759317842,0.02084181950337105,-1.8226854756069635,-3.2572881027898593,-0.6769961151668399,0.0006426326954938333,-0.0005882846424899377
0.28,0.364710792005017,1.287761384481014,-1.3112014740316613,0.0947575250055276,0.04314329771230412,0.000576224654658194,2.208830644948766,-1.4645143687874798,1.732366093961322,0.5899619770444933,0.2968686364727704,0.0037879058707875894,3.849889209766476,0.4171961407339931,5.48592519600225,1.3768340971702173,1.2807115047669484,-0.01880782721174956,0.012958826286380787,-1.596939352293087,-3.2266803427868513,-0.6710801659465175,-0.0027925469441917594,-0.0006588738459392377
0.29,0.38718262074419507,1.2731595623831151,-1.2933352964671487,0.1007976848227717,0.04620831588180576,0.0006148354105133231,2.2471828739178084,-1.4601822097898975,1.7866177564512493,0.60401598172441,0.30650181695016393,0.0038610755855129045,3.52529740869543,0.7573914090553271,5.367322903601706,1.3052261909266356,1.2209610129263666,-0.02478590348539944,0.008950853604159759,-1.3849551354849399,-3.2041421884349903,-0.6668114872766282,-0.00586972877547999,-0.0007269824328246363
0.3,0.4100057391860308,1.258634906539081,-1.2749383154958824,0.10697173049228494,0.04936470236848257,0.0006540289569169341,2.2823118441835724,-1.4524655844034255,1.8396980971266264,0.6174045669513234,0.3156386486676806,0.0039193546403611,3.2040896017891916,1.0813018296924748,5.234588062547985,1.2294773723539834,1.1494344709129098,-0.03113870313980671,0.008250757195748026,-1.1874157586066056,-3.1897850749279426,-0.6641702820590656,-0.008598913961477363,-0.0007925396179997782
0.31,0.43314821328797654,1.2442196364315075,-1.2560236587830522,0.1132726013944516,0.05260675330148708,0.0006936426017367498,2.3142474101945765,-1.4415270107573568,1.8914656712830156,0.6300870902166665,0.3242050933004513,0.003961364481981566,2.887376938593867,1.3879540609965968,5.087016367345775,1.1495598363012185,1.0667604891567937,-0.03778319570606792,0.010283583635478488,-1.0048054653540708,-3.1836351447513875,-0.6631169049526799,-0.010994230409983471,-0.0008555010486199306
0.32,0.45657851804040234,1.229944249407179,-1.2366059380881385,0.1196928252940622,0.055928066084918036,0.0007335014064142796,2.3430304752425797,-1.4275387024328376,1.941772069491366,0.6420223899610598,0.3321312783430961,0.003985880467752981,2.5761578438615427,1.6765189534025697,4.924031718466841,1.0654933384681051,0.9739259372245002,-0.044625265775909195,0.014481627043401002,-0.837402290740829,-3.185633405590914,-0.6635928104433897,-0.01307327710003163,-0.0009158429073619179
0.33,0.480265638989174,1.215837438113566,-1.2167013060667444,0.12622451776285873,0.05932160175926846,0.0007734201144454327,2.368712094877169,-1.4106811293613097,1.9904632021394084,0.6531692468796528,0.33935356743504264,0.003991870803115306,2.2712939282005595,1.9463168869020593,4.745196237494218,0.9773460725450924,0.8722383454501976,-0.05156416963921684,0.0202977908789313,-0.6852749630005202,-3.195637291628685,-0.665521853025834,-0.014856417258505658,-0.0009735555090803431
0.34,0.5041791623185299,1.201926022854435,-1.1963274992460262,0.1328593863518051,0.06277976600751052,0.0008132054005052131,2.3913523329355852,-1.3911415259130842,2.037380682071827,0.6634868588946377,0.34581642482420605,0.003978528605978048,1.9734933601277584,2.19682068327068,4.550218190560194,0.8852350228131396,0.7632668533096023,-0.05849744814404656,0.027216982313846005,-0.5482844012138359,-3.2134235996396807,-0.6688119078199072,-0.016366044356986596,-0.0010286366891808928
0.35000000000000003,0.528289351563403,1.1882348991522995,-1.175503866401007,0.13958873958991666,0.06629450559086135,0.0008526583524411441,2.4110189244873097,-1.3691123702135497,2.082363284501933,0.6729353238111553,0.3514739583350826,0.003945295193593104,1.6833027555444702,2.427656189567479,4.3389576937628025,0.789325790546128,0.6487667192573818,-0.06532582118208907,0.034765377982176715,-0.4260898299097211,-3.2386927345662446,-0.6733567703768721,-0.01762584457236254,-0.0010810853044398785
0.36,0.5525672096991847,1.1747870005750312,-1.1542513817788858,0.1464035008246034,0.06985741608308738,0.0008915770863414156,2.4277858135781765,-1.3447898577268267,2.1252484622121215,0.6814761234686754,0.35629104922260224,0.0038918733900271487,1.4011077863900436,2.638600693653011,4.11143012341347,0.6898318817158842,0.5305941650071184,-0.07195760284929653,0.042517507020604306,-0.31815937662294536,-3.2710741654657616,-0.6790382864377973,-0.018660077887663447,-0.0011308951695942772
0.37,0.5769845261097484,1.1616032766696331,-1.132592642845052,0.15329422685475652,0.07345985618977194,0.0009297593909833504,2.441731641056371,-1.318372390539798,2.165873893383376,0.6890726030153115,0.36024401066845674,0.0038182304641934768,1.127141892469433,2.8295793787380537,3.8678072030253015,0.5870134292315576,0.4106191029050732,-0.07831225786274176,0.05010119330724927,-0.22378486852817292,-3.310132962938673,-0.6857286562537621,-0.01949289763631487,-0.0011780497344451028
0.38,0.6015139086932126,1.1487026856522216,-1.1105518524532751,0.160251131242197,0.07709306374024243,0.0009670053022122657,2.4529382583464296,-1.2900591017411527,2.20407903917767,0.6956904387440493,0.36332075504704836,0.003724591122891533,0.8615018151392299,3.0006600511697186,3.6084157866523503,0.48117531130033875,0.29064301880934384,-0.08432285042889243,0.057200478329378135,-0.14210040616533925,-3.355377264044284,-0.6932928539138644,-0.020147725316992375,-0.0012225177673820362
0.39,0.6261288020645367,1.136102201332183,-1.0881547855691005,0.16726411211966283,0.08074826862534144,0.0010031195192101612,2.4614893371324,-1.2600484320038468,2.2397066884174555,0.7012980877465821,0.3655204885099013,0.0036114216997895415,0.6041682312568397,3.152046385271638,3.3337344036300176,0.3726646235292659,0.17232809434568513,-0.0899372887934281,0.0635567059355161,-0.07210417129242463,-3.4062664906966176,-0.7015911000120306,-0.020646694239417757,-0.001264250255094075
0.4,0.6508034934010652,1.1238168336010792,-1.0654287408957128,0.1743227842446649,0.08441679847837147,0.001037913591439065,2.4674691336528563,-1.228536773110396,2.2726044673387604,0.7058672125002086,0.3668529853030026,0.0034794072228903723,0.355029573141114,3.2840699246341565,3.0443876723953682,0.26186746895653457,0.05714184507809983,-0.09511841381359842,0.06896798946531851,-0.012682826342906628,-3.462220132802469,-0.710481325906037,-0.02101017226762871,-0.0013031786592540933
0.41000000000000003,0.6755131079148708,1.1118596616927041,-1.0424024779615517,0.1814165149792796,0.08809017367871827,0.0010712078251088593,2.470961451380556,-1.1957171908375102,2.302626293416113,0.709373073461469,0.3673375200346808,0.00332942336697943,0.11390715425950332,3.397181065518392,2.7411387305336765,0.1492050476827238,-0.053680513826274145,-0.09984309560771909,0.07328730166820427,0.03736221192277722,-3.5226268980660054,-0.7198215697218101,-0.02125637078986011,-0.0013392145945946398
0.42,0.7002335962065821,1.1002418793184747,-1.01910614042507,0.1885344638078441,0.09176018919771077,0.0011028328790834755,2.472048829171129,-1.1617782374229324,2.3296337536481744,0.7117948828564519,0.3670015518992494,0.0031625053974616213,-0.1194200696276459,3.4919392298102467,2.4248798641776568,0.035129054238714374,-0.15915574404210675,-0.10410057608373952,0.07641943132513143,0.0792873899053772,-3.5868540265298936,-0.7294722480360188,-0.02140104416379288,-0.0013722509148487818
0.43,0.7249417158601499,1.088972850700363,-0.9955711665307547,0.19566562493966477,0.09541898180088748,0.00113263104020833,2.4708119653567793,-1.1269028618111614,2.3534973894315336,0.7131161131820658,0.3658792603176705,0.002979816112485445,-0.3451924522419913,3.5690024162453375,2.0966215517750832,-0.07988357719005812,-0.25855571223812124,-0.10789032472975535,0.07831704143034077,0.1143793107064055,-3.6542565696564417,-0.7392982526991987,-0.02145728129860685,-0.0014021641191628753
0.44,0.74961500959267,1.0780601764601847,-0.971830187808663,0.20279887248461867,0.09905908207752993,0.0011604571855793066,2.4673293732520105,-1.0912674240178444,2.3740978722091732,0.7133247544953886,0.3640100276642458,0.00278261453709766,-0.5636492997630002,3.629116302090741,1.757480163998673,-0.1953365061329464,-0.3513965346669341,-0.11121966676131559,0.07897604629661628,0.1439274794459381,-3.724186441155723,-0.7491708293675283,-0.021435388735395505,-0.0014288179267117882
0.45,0.774231782104465,1.0675097682777488,-0.9479169172444691,0.20992300763836794,0.10267345161501173,0.0011861794532939131,2.461677251179492,-1.0550408182435986,2.3913270564193922,0.7124135153749254,0.3614369537481805,0.00257222677146065,-0.775011818018816,3.6731030543327483,1.4086645818263146,-0.31072029320874517,-0.43741694029338163,-0.11410140756725698,0.07843050288547607,0.16919823880199225,-3.796001059806865,-0.7589692027641403,-0.021342862545294515,-0.001452067815042836
0.46,0.7987710775140077,1.0573259311999919,-0.9238660282561427,0.21702680727305543,0.10625550632500728,0.0012096796532853717,2.4539295409542685,-1.0183837077757039,2.405088898832646,0.7103799634687492,0.3582054709995552,0.0023500199991458542,-0.9794696534113172,3.701849999670639,1.0514620073756418,-0.4255190513338274,-0.516549226889869,-0.11655162734965809,0.07674718829097235,0.1914105697008177,-3.8690714229088274,-0.768581923184055,-0.021184444538261783,-0.0014717662803174123
0.47000000000000003,0.823212658942628,1.0475114524678837,-0.899713025895401,0.22409907330064924,0.10979912743850469,0.0012308534559618313,2.444158142862034,-0.9814478732108071,2.4153002360741738,0.7072266027593804,0.35436211134974005,0.0021173802676459613,-1.1771710553782309,3.7162982953920736,0.6872232464779842,-0.5392172924083827,-0.5888859956846737,-0.11858776603039348,0.07402001307556502,0.21171434544077994,-3.942789472095021,-0.7779079188972325,-0.020962256621864794,-0.0014877685557815891
0.48,0.8475369914652517,1.0380676957269568,-0.8754941117463255,0.2311286821608394,0.11329866201581515,0.0012496103989152632,2.4324332522623746,-0.9443756740926806,2.421891414907551,0.7029608860190162,0.3499534577310466,0.001875694295343179,-1.368216493936841,3.7174317372015606,0.3173477387667334,-0.6513068111503106,-0.654645422338592,-0.12022706841125189,0.07036440063729082,0.23117152196258406,-4.01657464003069,-0.7868572494244994,-0.020676005636759674,-0.0014999385178988862
0.49,0.8717252292908133,1.028994699500178,-0.8512460440201324,0.2381046337842389,0.11674891498133674,0.0012658737515014306,2.418823782556161,-0.90729962267789,2.4248067726193163,0.6975951623399497,0.345025296552159,0.0016263352586167363,-1.5526554348135706,3.7062658338911634,-0.05673139860026177,-0.7612934458285217,-0.7141372708550078,-0.12148541784837098,0.0659117466790966,0.2507406275517827,-4.089879495689497,-0.795351564662049,-0.020323249613650483,-0.00150815451617826
0.5,0.8957592076988158,1.020291278827941,-0.8270059943448487,0.24501609939466557,0.12014513471586646,0.0012795802742943416,2.4033978408002517,-0.870342067223688,2.424004967528373,0.6911465610426668,0.3396219734529715,0.0013706522792911048,-1.7304858971945463,3.68383727117397,-0.43356206249999163,-0.86870356079826,-0.7677312766814488,-0.12237655525870009,0.060804060086810746,0.2712647875811238,-4.162194436084461,-0.8033242840374418,-0.019899715162414358,-0.0015123148808956874
0.51,0.9196214399503616,1.011955129018418,-0.8028114027229784,0.2518524675410011,0.12348299415172337,0.0012906799059604298,2.3862232251545774,-0.8336149809522989,2.4194591621870347,0.683636814633552,0.33378594358569086,0.0011099631666088195,-1.9016563837031777,3.6511938771985073,-0.81168735946724,-0.9730901066159818,-0.8158289826003999,-0.12291165845225657,0.05518887644081902,0.29346338979537845,-4.23305140217526,-0.8107205178925245,-0.019399654659858705,-0.0015123428904960903
0.52,0.9432951191212402,1.0039829305013461,-0.7786998320810767,0.258603387788599,0.1267585691483022,0.0012991354046021654,2.3673679170878636,-0.797219851707189,2.411157064190158,0.6750920247597877,0.32755749965788183,0.000845549864173553,-2.0660697676237563,3.609385189819784,-1.1896590987324285,-1.0740381285426293,-0.858839646191754,-0.12309924333475411,0.04921452695003417,0.3179273688542774,-4.302026624990397,-0.8174967598027917,-0.018816231106925173,-0.0015081910152783444
0.53,0.9667641245754406,0.9963704538382819,-0.7547088237649369,0.2652588115511613,0.1299683157058455,0.0013049219646204778,2.3469005454200422,-0.7612476663064182,2.3991008316139926,0.6655423762562359,0.3209746557543307,0.0005786560018312312,-2.2235887388524773,3.559453710640061,-1.566050405015981,-1.1711696120291397,-0.8971604684558487,-0.12294534123366518,0.043025837618967666,0.345117970751318,-4.368742433739203,-0.8236203833561483,-0.018141918042535017,-0.0014998442938329417
0.54,0.9900130326105734,0.9891126640108678,-0.7308757552457343,0.27180902960489417,0.13310904732682072,0.0013080268240734008,2.3248908035132785,-0.7257789827414047,2.3833068519202514,0.6550218053732868,0.3140731620975223,0.0003104859452922942,-2.3740424395217166,3.502426913542238,-1.9394673060294314,-1.2641475731136476,-0.9311611208375501,-0.12245390345827795,0.03676032481498376,0.3753687530208465,-4.432868179957118,-0.8290689799240725,-0.01736890178583323,-0.0014873227415135664
0.55,1.0130271306606533,0.98220382318399,-0.7072377011992785,0.2782447058958993,0.13617791357590425,0.0013084488717011926,2.3014098050079874,-0.690884082687779,2.3638054046455754,0.6435676291005091,0.30688662490835356,4.220476277918899e-05,-2.5172339564414217,3.439310056577905,-2.3085591845072555,-1.3526793216724124,-0.961172362823171,-0.12162738361317824,0.030544943195424043,0.40889048909950965,-4.494120349844475,-0.8338295751624337,-0.016489473570404214,-0.0014706827339628968
0.56,1.035792434333543,0.9756375912209598,-0.6838312990059932,0.2845569073274016,0.13917238063483606,0.001306198257495788,2.2765303672889723,-0.6566231963030229,2.340640219328536,0.6312201431502291,0.2994467058931802,-0.0002250614205404449,-2.652948375367389,3.3710798264853308,-2.6720280199669793,-1.436518845547126,-0.9874784290670808,-0.12046744879528343,0.024493429643850068,0.4457785774599484,-4.552261950479611,-0.8378977614707579,-0.015496399846338276,-0.0014500173515257044
0.5700000000000001,1.0582957064864162,0.9694071233110662,-0.6606926195969919,0.2907371292937529,0.14209021440656025,0.001301296006095237,2.2503272152873377,-0.623046790989366,2.31386794090013,0.6180221966351311,0.291783377172419,-0.000490225140055128,-2.780961138479883,3.298678825720554,-3.0286363798853517,-1.515468283367408,-1.0103128061248938,-0.11897577188928063,0.018704272284959397,0.48602250958328763,-4.6071012644061815,-0.8412767816144237,-0.014383260147744102,-0.001425455710609955
0.58,1.0805244774989702,0.9635051641540974,-0.6378570444451095,0.2967773168114046,0.14492946649983454,0.0012937736285073282,2.222877101255387,-0.5901959156968833,2.2835575151882384,0.6040187517651706,0.2839252093274293,-0.0007522377587908667,-2.901046480886967,3.2230108935779036,-3.377214152493745,-1.5893784732664624,-1.0298569972853118,-0.11715485851325244,0.013259316965246612,0.5295169256683269,-4.658490071407,-0.8439765954493268,-0.013144743423126862,-0.0013971613442042932
0.59,1.1024670658869156,0.9579241382299059,-0.6153591493722933,0.30266988118144056,0.1476884632240168,0.0012836727247927538,2.194258838794535,-0.5581025924191547,2.2497895072816143,0.5892564370035951,0.2758996724182244,-0.0010100903714574435,-3.012985746331928,3.1449372366245707,-3.7166640409809086,-1.658148583795839,-1.046241874953128,-0.11500886359765025,0.008223005701512617,0.5760737823115925,-4.706321436232774,-0.8460129574366316,-0.011776895506396387,-0.0013653297248600817
0.6,1.1241125984045275,0.9526562357621862,-0.5932325957191553,0.3084077122020602,0.15036579754549978,0.0012710445684146385,2.164553251761199,-0.5267902467719723,2.2126553653137973,0.573783102061963,0.2677334321482989,-0.0012628156378115328,-3.1165754082279884,3.06527332988053,-4.045965864575356,-1.7217248520319774,-1.05955123139164,-0.11254435457621845,0.0036422228447115235,0.6254351702472845,-4.750527157765356,-0.8474065278582906,-0.010277312444076899,-0.0013301850484067966
0.61,1.145451028811603,0.9476934940630001,-0.5715100293013418,0.31398418603087985,0.15296032380282015,0.0012559496620053348,2.133843040707554,-0.4962741699186122,2.172256641781353,0.5576473828819656,0.25945262573203787,-0.001509490640930379,-3.2116346381478094,2.984786539463099,-4.364179731083224,-1.78009847258814,-1.0698271522697889,-0.10977098087300094,-0.0004532933669281758,0.6772863501222836,-4.791074968719721,-0.8481820355408091,-0.008645276534008614,-0.0012919764151430937
0.62,1.1664731545249385,0.9430278740171767,-0.550222987462649,0.3193931688743652,0.15547115484703883,0.00123845725430111,2.102212571333544,-0.46656200458233626,2.1287041838692797,0.5408982843485318,0.2510831044218662,-0.0017492407704224895,-3.2980122782387125,2.904194410002187,-4.670448160448107,-1.8333026997951567,-1.077076847907569,-0.10670201338116828,-0.0040500328415492975,0.7312686169951532,-4.827965566662357,-0.8483675048568876,-0.006881834108606131,-0.0012509735569283334
0.63,1.1871706304354874,0.9386513315328207,-0.5294018144280471,0.32462901675342515,0.15789766116783852,0.001218644808906463,2.069747591054896,-0.43765424843560036,2.082117303460182,0.5235847879059965,0.24265063207996895,-0.0019812445394647,-3.375593085779201,2.824163556031423,-4.963997248814118,-1.8814092436877559,-1.081280582365065,-0.10335472308115148,-0.00714936235714355,0.7869916564411912,-4.8612295474842355,-0.8479935550311163,-0.004989816199652019,-0.001207462263589207
0.64,1.207535979248076,0.9345558838453839,-0.509075585062016,0.32968657165852466,0.1602394714843719,0.001196597417294816,2.03653488125886,-0.4095447687436763,2.032622936603117,0.5057554905099525,0.23418103165333945,-0.002204739161164689,-3.4443031293438775,2.7453090955453017,-5.244136967850879,-1.9245240582722154,-1.0824003409818417,-0.09975057509559629,-0.00976582487490376,0.8440451133916294,-4.890924302246524,-0.8470927755346324,-0.0029738051617760946,-0.0011617396607174076
0.65,1.2275625977894058,0.9307336706179994,-0.48927203704943034,0.33456115446300594,0.16249647422387228,0.0011724071509168327,2.0026618541329744,-0.382221322738449,1.9803548012585668,0.4874582804481302,0.22570027395003872,-0.0024190266377983353,-3.504114228573313,2.6681945655577226,-5.510260695248187,-1.9627826372988473,-1.0803888750645223,-0.09591522324025907,-0.011925180227862875,0.9020091558705188,-4.91713092813461,-0.8456991777552159,-0.0008400520292523011,-0.0011141094838777673
0.66,1.2472447588304205,0.9271770098301899,-0.4700175114378449,0.3392485550081639,0.16466881928108967,0.0011461723503205159,1.9682161041014719,-0.35566607878095136,1.925452561158542,0.468740054515799,0.21723450572173883,-0.002623480059631681,-3.5550473449394384,2.5933322632029747,-5.761844070018583,-1.9963449476367163,-1.075198761841798,-0.09187830016873699,-0.013662280647708823,0.9604638766692275,-4.939951194607322,-0.8438477202516539,0.0014036492266481983,-0.0010648774822827058
0.67,1.2665776080790356,0.9238784484909914,-0.4513369014112536,0.34374501980669697,0.16675691944818763,0.0011179968526045232,1.933284924861509,-0.3298561339198481,1.8680610026591342,0.4496464798533078,0.2088100167097964,-0.0028175497715992545,-3.597174850343969,2.521183960986629,-5.998443261415814,-2.0253901423658185,-1.0667911228487172,-0.08767300911039978,-0.015018873064474962,1.0189974341996142,-4.959504597076318,-0.8415739027643118,0.0037481233275969573,-0.0010143470690806614
0.68,1.2855571561164136,0.9208308082514346,-0.4332536091058288,0.3480472378314235,0.16876145092774145,0.0010879891621163066,1.8979548037377976,-0.304764023955682,1.808329230542484,0.4302218024726544,0.20045314795538202,-0.0030007690488216667,-3.6306216245173717,2.4521619504678216,-6.219692733800977,-2.050111203831868,-1.0551436586597385,-0.08333553416524461,-0.01604141466493785,1.07721288727749,-4.975925522822907,-0.8389134227277387,0.006183003318366704,-0.0009628153166066859
0.6900000000000001,1.304180265171656,0.9180272260257072,-0.4157895102271985,0.3521523248629479,0.17068335238999202,0.0010562615728433944,1.8623109055242364,-0.28035822257273857,1.746409887863027,0.41050870315244187,0.19219014622505626,-0.0031727589272912294,-3.655564960952399,2.386630374211423,-6.425302582583115,-2.0707096701341996,-1.0402576856199905,-0.0789042964341399,-0.016778979353528876,1.1347337259233488,-4.989360547457968,-0.8359018872465528,0.008696940007127785,-0.0009105693743414053
0.7000000000000001,1.3224446307527704,0.9154611897606646,-0.39896492618582624,0.3560578068630571,0.17252382210753847,0.00102292925420105,1.8264365581114397,-0.2566036265042558,1.6824584041372261,0.3905482000109212,0.18404697175464388,-0.0033332318642344456,-3.672233293751203,2.3249068106628266,-6.615055509251831,-2.0873905959967125,-1.0221639027755636,-0.07441909204151856,-0.01728132123631678,1.1912081404651018,-4.999965875049245,-0.8325745732559653,0.011277823077646748,-0.0008578833659847151
0.71,1.3403487582725269,0.9131265695200591,-0.38279860343135175,0.35976160282032243,0.17428431279300496,0.0009881093146796476,1.790412751975643,-0.23346202406055236,1.6166322754474483,0.37037959572653084,0.1760490685466497,-0.0034819939521402448,-3.6809037928742194,2.2672640801942276,-6.788803497176451,-2.1003578901874,-1.000926674641478,-0.06992015465799054,-0.01759714787180779,1.2463121038093283,-5.00790493098807,-0.8289662287806475,0.013913006108181036,-0.0008050158009648863
0.72,1.357891934922622,0.9110176440732017,-0.3673076996377158,0.3632620074815214,0.17596652387351722,0.0009519198598986156,1.7543176650095158,-0.21089254468573723,1.5490903793635922,0.35004046611989426,0.168221108051225,-0.003618945478103204,-3.6818989109115354,2.2139322426824393,-6.946464244710775,-2.1098101565211422,-0.9766466859254925,-0.06544718884659617,-0.017772641673576058,1.2997513666597997,-5.013346113594292,-0.8251109087129596,0.016589528379025376,-0.0007522075157417845
0.73,1.3750741971547449,0.9091291231978894,-0.352507776368006,0.3665576743384825,0.1775723910546699,0.000914479062885613,1.7182262232122896,-0.18885208753122815,1.479992326970983,0.32956668569611175,0.16058671811526842,-0.0037440797013002574,-3.6755819983995535,2.1651007575524766,-7.08801740843317,-2.115937144398,-0.9494619042323014,-0.0610384211708061,-0.017850253357016586,1.3512624830022424,-5.016460708180168,-0.8210418392411922,0.01929432721527618,-0.0006996801421414178
0.74,1.3918962942192699,0.9074561659243153,-0.338412797830822,0.3696475991867092,0.17910407314992796,0.00087590426478188,1.682209706452488,-0.16729572735741163,1.4094978537183995,0.3089924848226671,0.15316820952580645,-0.0038574798103733054,-3.662352134559712,2.1209207764343025,-7.213500707011063,-2.1189168887406318,-0.9195468710695414,-0.056729713451917685,-0.01786777746168247,1.400612993911768,-5.0174209656170285,-0.8167913058696373,0.022014435631199345,-0.000647635084215896
0.75,1.4083596482884913,0.9059943949602142,-0.32503513532827233,0.37253110451199706,0.18056393627262957,0.0008363111236535539,1.646335406922148,-0.14617709641012064,1.3377662502549674,0.28835053252878756,0.14598631227016134,-0.003959314112832606,-3.6426383440289474,2.0815075367869817,-7.323005934948836,-2.1189135894936904,-0.8871104243137578,-0.05255377717224596,-0.01785770739104417,1.4476009024349243,-5.016398346188101,-0.8123905608009719,0.024737161153888854,-0.0005962529721086299
0.76,1.4244663117493712,0.9047399075474751,-0.3123855769892679,0.37520782489686016,0.18195453560064012,0.0007958128277135732,1.6106663460879955,-0.1254487412739026,1.264955833900443,0.2676720384863101,0.1390599328010549,-0.004049829593998083,-3.6168933860144366,2.046942822543852,-7.416674934919875,-2.1160762492722824,-0.8523920306676547,-0.04853952028998096,-0.01784685657684853,1.4920535718297714,-5.013561928505795,-0.8078697462330685,0.027450242845304316,-0.0005456935512839177
0.77,1.4402189222893602,0.9036892830066571,-0.3004733423804139,0.37767769357270264,0.18327859502255506,0.0007545193871368676,1.575261053998896,-0.10506245408181039,1.1912234608854013,0.24698686758424718,0.13240594219149388,-0.004129344057670549,-3.5855873092976442,2.017277455582739,-7.494695576960173,-2.110538056258065,-0.8156569691218649,-0.04471154842831454,-0.017856223611110965,1.5338261747435658,-5.009076982394243,-0.80325783081253,0.03014198465755295,-0.0004960959582482673
0.78,1.4556206564176037,0.9028395872280708,-0.289306101590354,0.37994093017906544,0.18453898505451483,0.000712537015936208,1.5401734128243507,-0.08496957785863314,1.1167240790059867,0.22632366063628107,0.1260390031959772,-0.004198237120065963,-3.5492009643262765,1.9925337801881684,-7.557297791973908,-2.1024164699471655,-0.7771906517760374,-0.04108983234811592,-0.01790107264466693,1.5727998128928697,-5.003103703796798,-0.7985825570605324,0.032801364299002836,-0.0004475793293977704
0.79,1.4706751820633057,0.9021883743662436,-0.27888999839168727,0.3819980297304943,0.18573869947488938,0.0006699676122418673,1.505452564570196,-0.06512128618272028,1.0416103198666764,0.20570995514288573,0.11997144203745495,-0.0042569403694340795,-3.5082196527028082,1.9727081021226909,-7.604749705263405,-2.0918139416439026,-0.7372923939551235,-0.03768954364453375,-0.017991196025402435,1.6088794163617266,-4.995796108908959,-0.793870398034116,0.03541811772111069,-0.00040024368760720793
0.8,1.485386610874625,0.9017336859886613,-0.26922967709726126,0.38384975273682426,0.1868808311585764,0.0006269083419939531,1.4711428811319343,-0.04546883775822512,0.9660321294426011,0.18517230063299733,0.11421316836870074,-0.004305927024791413,-3.463127075807532,1.957773044817492,-7.637353912809545,-2.0788191810005294,-0.6962689506190773,-0.03452105149008222,-0.018131323912767686,1.6419915195479662,-4.9873010838381635,-0.7891465218126372,0.037982800131322506,-0.0003541710512909521
0.81,1.499759450807387,0.9014740479198696,-0.2603283127443453,0.3854971163757078,0.18796854760329126,0.0005834513277078823,1.437283993276209,-0.025963806879169056,0.8901364352915917,0.1647363638883566,0.10877164447148735,-0.0043457014286070825,-3.414399719707404,1.9476797877049354,-7.655443938581015,-2.0635088653917677,-0.6544281216661807,-0.031590065584721716,-0.018321645231331927,1.672081997764621,-4.977757585157364,-0.784434762619153,0.040486825080655514,-0.0003094267125271766
0.8200000000000001,1.5137985595457992,0.9014084650086434,-0.25218764426036655,0.3869413865782414,0.18900506662835162,0.0005396834407890719,1.403910873841211,-0.006558291122631631,0.8140668483978758,0.14442702025335882,0.10365190250603602,-0.004376788691881048,-3.362501784850807,1.9423601558540482,-7.6593809052536646,-2.045949680818236,-0.6120726975204791,-0.02889790463152675,-0.0185584055225154,1.6991138351330668,-4.967295985772941,-0.7797575975210962,0.042922483660464736,-0.0002660606340506948
0.8300000000000001,1.5275090992403046,0.9015364140294967,-0.24480801028690408,0.3881840708602282,0.18999363269468128,0.0004956861930015182,1.3710539694505484,0.012794902085332658,0.737963397346246,0.12426842819867939,0.09885660663296515,-0.0043997247787553725,-3.3078807384045863,1.9417285356594336,-7.649550443547303,-2.026200581223872,-0.5694949722003868,-0.02644186586588748,-0.018834549692838192,1.7230649811664818,-4.95603755960463,-0.7751361277277136,0.045282946175239064,-0.00022410891910541386
0.84,1.5408964929838465,0.90185783491094,-0.23818838736372822,0.3892269117130688,0.19093749424663548,0.0004515357202481055,1.338739374354191,0.032142088144329096,0.6619622923175862,0.10428408528405672,0.09438615519541962,-0.004415047275341268,-3.2509635364427725,1.9456835980698726,-7.626359857271486,-2.0043151569590876,-0.5269719983909094,-0.02421566936658137,-0.019140381004122648,1.7439263407104497,-4.944094097715162,-0.7705900635378173,0.04756224884807672,-0.00018359531296264315
0.85,1.553966383380213,0.9023731204623219,-0.23232643020102292,0.3900718803591315,0.19183988241592864,0.00040730284986981164,1.3069890396366717,0.05152855513818751,0.58619571627053,0.08449686460626984,0.09023881692931708,-0.004423287037829388,-3.1921535342942615,1.954109818306672,-7.590235552541033,-1.980344011659561,-0.48476170254061307,-0.022209950905446196,-0.01946421158621734,1.7616999299590284,-4.931567647768726,-0.7661377120129529,0.04975526817903201,-0.00014453270006179115
0.86,1.5667245934896366,0.9030831047496191,-0.22721851379469923,0.39072117067596207,0.19270399135980262,0.00036305324124839914,1.275821010942355,0.0709984287297201,0.5107916406323689,0.06492903168305786,0.08641089438739899,-0.004424960862141248,-3.131828077584827,1.9668787887574335,-7.541620730974756,-1.9543370588356979,-0.4430999220395703,-0.020412778651401897,-0.019792983987840986,1.7763972202926852,-4.918550368073352,-0.7617959664773599,0.05185768553341784,-0.00010692456597698083
0.87,1.5791770903698705,0.903989050248944,-0.22285977716606745,0.3911771931007969,0.1935329604338755,0.00031884758859887003,1.2452496880233994,0.09059454993249684,0.43587366286317886,0.045602242483483435,0.08289690740728774,-0.0044205652649529125,-3.0703367448328525,1.9838503292674394,-7.480973338496096,-1.926345663710073,-0.40219837478514026,-0.018810171712517587,-0.02011284757057492,1.7880376818112205,-4.905124486996592,-0.7575802969917949,0.05386594440853376,-7.076639857262748e-05
0.88,1.5913299513676027,0.9050926338855935,-0.21924416853232337,0.39144256834031693,0.19432985832874303,0.00027474187443129333,1.2152860997732138,0.11035836366494502,0.3615608633744083,0.02653752395200409,0.07968978948675405,-0.0044105714167576695,-3.0080001954106357,2.004873405961178,-7.4087642540564635,-1.8964245710712397,-0.3622435267030958,-0.017386601967093185,-0.020409677697446012,1.7966475297257998,-4.891362358251566,-0.7535047410235349,0.05577720263431805,-3.604700765081644e-05
0.89,1.6031893332567864,0.9063959320468401,-0.21636449173765424,0.39152012072911296,0.1950976692316667,0.00023078766219136504,1.1859381889183733,0.1303298161246582,0.2879676794669139,0.007755238879600543,0.07678109029236538,-0.004395421223992828,-2.945109564399717,2.02978687565582,-7.325475696536631,-1.8646335750492788,-0.32339628685705135,-0.01612546441749846,-0.020669529522482112,1.8022586692515754,-4.877326602435527,-0.7495818936449282,0.05758928152605261,-2.74974702424354e-06
0.9,1.6147614442683564,0.9079014046389442,-0.21421245379574466,0.3914128711026338,0.19583928101316486,0.00018703241698686746,1.157211101157003,0.150547259210405,0.21520379419095612,-0.010724962647915653,0.07416117814981837,-0.004375524520449757,-2.881926338150016,2.0584200776114363,-7.2315998234908845,-1.8310389009184576,-0.2857924334596699,-0.015009505186990846,-0.02087902164896988,1.8049078282961735,-4.863070325260847,-0.7458228967386134,0.05930061374340276,2.9146372782948792e-05
0.91,1.6260525190104247,0.9096118782434701,-0.2127787134126711,0.3911240290752487,0.1965574753848659,0.0001435198439971135,1.1291074742068186,0.17104736045259725,0.14337403830735665,-0.028884202738509453,0.07181943717010361,-0.0043512572989753955,-2.81868264074801,2.0905932976368087,-7.127637492398721,-1.7957142816824216,-0.24954365737739392,-0.014021199917911675,-0.021025647931044122,1.8046358620374479,-4.848637403135861,-0.7422374268661263,0.06091019133510457,5.9665689124636457e-05
0.92,1.6370687962396462,0.9115305284152231,-0.2120529303743755,0.3906569846403934,0.19725491993067995,0.00010029023506864436,1.1016277229221385,0.19186501717529353,0.07257830382955954,-0.04670444348553152,0.06974445458140459,-0.004322960892846914,-2.755581861493433,2.126118131379933,-7.014097153681932,-1.7587417229864108,-0.21473910184942685,-0.013143078596635327,-0.021098018219578712,1.8014872093807353,-4.834062827111304,-0.7388336816620861,0.06241751517510909,8.883501354846118e-05
0.93,1.6478164994128845,0.9136608611541167,-0.21202381569501874,0.3900152990366679,0.1979341618786346,5.7380815051101016e-05,1.074770317323844,0.21303327388936757,0.0029114679356759543,-0.0641685603725538,0.06792419479546487,-0.004290942001754334,-2.6927995561797027,2.1647977740104203,-6.891493844839316,-1.7202119587065603,-0.18144727694986124,-0.012357995595499882,-0.021086030900712628,1.7955094782265084,-4.8193730966838455,-0.7356183648403067,0.0638225467337523,0.0001166828811847036
0.9400000000000001,1.6583018199232282,0.9160066935760475,-0.21267918243158088,0.38920269485045283,0.19859762345545665,1.4826080558261034e-05,1.0485320510343625,0.2345832421930747,-0.06553667365621349,-0.08126041862150116,0.06634615768220493,-0.004255473449283998,-2.6304845597624094,2.206427262563997,-6.760348256463529,-1.6802246065103503,-0.14971823329792308,-0.011649345927832622,-0.020980981665998617,1.786753134405159,-4.804586655515623,-0.732596670131351,0.06512566288375696,0.00014323892184814243
0.9500000000000001,1.668530902905261,0.9185721338032489,-0.21400599707627313,0.3882230453515087,0.19924759864958633,-2.7341875003429028e-05,1.02290829820329,0.2565440227201387,-0.1326814644692258,-0.09796494989441266,0.0649975194129671,-0.004216795556169006,-2.568760254219254,2.250793695149144,-6.621185843401452,-1.638888037994377,-0.11958589009533918,-0.011001230390129568,-0.020775614123663057,1.7752712679851927,-4.78971436176108,-0.7297722647028968,0.06632761422047337,0.00016853334915346488
0.96,1.6785098354806278,0.9213615600924078,-0.21599043144192306,0.3870803630826427,0.19988625119987222,-6.909305515676944e-05,0.9978932575366716,0.27894262891588983,-0.19844343656499283,-0.11426822688660165,0.06386525502859035,-0.004175118015334041,-2.5077259424723937,2.2976764482329597,-6.47453595762811,-1.5963189820113257,-0.09107042618653052,-0.010398573435580871,-0.020464118656091042,1.7611194103714412,-4.774759986363691,-0.7271472728344581,0.06742948718165136,0.00019259656195783873
0.97,1.6882446373056093,0.9243795992187125,-0.21861791495683175,0.3857787877475125,0.20051561362560402,-0.00011039927675545553,0.9734801824981472,0.3018039126304683,-0.2627483514908695,-0.1301575335130188,0.06293624257317945,-0.004130622159868609,-2.4474582866856873,2.346847409583741,-6.3209309832434135,-1.5526418828522317,-0.06418065808414036,-0.009827198373871637,-0.02004208639885438,1.7443553761164554,-4.759720733370812,-0.724722260816748,0.06843267008549656,0.00021545885079421196
0.98,1.697741253276923,0.9276311041356009,-0.2218731872850662,0.3843225734616861,0.20113758711758564,-0.00015123391198134512,0.9496615971313634,0.32515049168884097,-0.3255272328234448,-0.14562142858264243,0.06219734919816087,-0.004083463522588959,-2.388012776702075,2.3980712404115865,-6.160905458090003,-1.5079880373924155,-0.03891634457624976,-0.009273864894396855,-0.01950642541146751,1.7250391046034717,-4.744587776993061,-0.7224962242146659,0.06933882306680687,0.0002371502006306083
0.99,1.7070055482495399,0.9311211309328723,-0.22574035118614588,0.38271607545095876,0.2017539421184165,-0.00019157165793118924,0.9264294972616958,0.3490026797271365,-0.3867163901079701,-0.16064980107272933,0.061635500083086166,-0.004033774594984413,-2.329425201602119,2.451105676076013,-5.994995170583182,-1.4624945374064637,-0.01527037265116099,-0.008726274075892604,-0.018855246077766254,1.7032324786525221,-4.729346810786251,-0.7204665787643496,0.07014985177863847,0.000257700180269102
