tonegas/nnodely-applications/joint_friction_estimation/dataset/train/mpc_mujoco_episode_38.csv
time,q1,q2,q3,q4,q5,q6,dq1,dq2,dq3,dq4,dq5,dq6,ddq1,ddq2,ddq3,ddq4,ddq5,ddq6,tau1,tau2,tau3,tau4,tau5,tau6
0.0,0.0,1.57,-1.57,0.0,0.0,0.0,0.0,0.0,0.0,0.0,0.0,0.0,5.3973043284264435,-8.812637900966774,4.511349608570322,2.355335701949535,0.8170512837382624,-3.8554732020301685e-06,0.7530901704643026,-8.152540900995657,-5.401061107011975,-1.161384647089021,0.06787682112970142,0.0002830720437490701
0.01,0.0005370244123041679,1.569123228697487,-1.5695530476932007,0.00021735010444091663,6.822774245820647e-05,8.21222819163947e-07,0.053702441230416786,-0.08767713025131502,0.04469523067992592,0.021735010444091662,0.006822774245820646,8.21222819163947e-05,5.325408356962524,-8.674612240439009,4.477815442179242,2.176368773569166,0.6859165296082139,0.008230903017403257,0.7436663665300036,-8.09458752715629,-5.380982798582932,-1.1571798960335886,0.06717080905436233,0.0002769168450706454
0.02,0.0016034942542913716,1.5673835290788076,-1.5686634413881044,0.0006378369675173294,0.0001965063458891365,2.50036196710941e-06,0.10664698419872037,-0.17396996186793556,0.08896063050962469,0.04204868630764127,0.012827860343093,0.00016791391479454632,5.24538949943922,-8.52866588804314,4.435585927037486,2.034031275903784,0.6054182908329295,0.00865303085219793,0.7289440288144466,-8.023196769915296,-5.356103817517676,-1.1519072566708206,0.06613700508780276,0.0002677791893707294
0.03,0.003191191296379821,1.5647955034271883,-1.567336081342059,0.0012500360848908747,0.00037972293221311126,4.98535978170489e-06,0.15876970420884495,-0.258802565161931,0.13273600460455917,0.061219911737354527,0.01832165863239748,0.000248499781459548,5.15874907160181,-8.375242454589765,4.387408493330888,1.91963909981496,0.556378002366106,0.008219393021661858,0.7092233241645519,-7.938638645648016,-5.326599323809303,-1.145612898922684,0.06478848498654516,0.00025580074152389885
0.04,0.005291340937884295,1.5613744763853217,-1.565576258813739,0.0020446540574895773,0.0006146728659973189,8.231436146095994e-06,0.21001496415044738,-0.34210270418666144,0.17598225283199478,0.07946179725987024,0.02349499337842076,0.00032460763643911043,5.066315306923846,-8.21471694423883,4.335388656010474,1.8265873431453148,0.5272153134764785,0.007888404893745982,0.6848515270159375,-7.841192095992226,-5.292652705183797,-1.1383451738477384,0.06313930515012817,0.00024111790793666119
0.05,0.007894654902635242,1.557136463141632,-1.5633894942132402,0.0030140282760827194,0.0008993586603122286,1.2208672932734844e-05,0.2603313964750947,-0.423801324368959,0.2186764600498686,0.0969374218593142,0.028468579431490965,0.00039772367866388496,4.968517285806526,-8.047417577487083,4.281138109789767,1.749852543590631,0.5109021613215887,0.007735344356486706,0.6562178451669958,-7.731147072806332,-5.2544558830548524,-1.1301547270349734,0.061204406440888905,0.00022386467082620475
0.06,0.010991350280510999,1.5520981409773162,-1.5607814131392985,0.0041517465014009065,0.0012325630140618189,1.6898679266361793e-05,0.30966953778757567,-0.5038322164315768,0.2608081073941639,0.11377182253181875,0.033320435374959025,0.0004690006333626951,4.865548360203414,-7.873642383523541,4.225887357430832,1.6856152110384706,0.5031571975728681,0.007727078848340785,0.623748462673519,-7.608806526135346,-5.212209493240531,-1.1210945536779044,0.058999573996125404,0.00020417484246285436
0.07,0.014571154793784763,1.54627682282883,-1.5577576517591238,0.005452357700526717,0.001613587539524655,2.229126814761706e-05,0.35798045132737644,-0.5821318148486206,0.3023761380174592,0.13006111991258107,0.03810245254628361,0.0005392588881255267,4.757464054307388,-7.693671986290595,4.170571543899264,1.6309718600609937,0.5013604221203884,0.007831145294897368,0.587901562196139,-7.47448835050169,-5.166122973781705,-1.1112200086496995,0.05654142475364487,0.00018218389185452094
0.08,0.018623304218154044,1.5396904318251567,-1.5543237850221485,0.006911152269136223,0.002042091728796824,2.8382178284275696e-05,0.405214942436928,-0.6586391003673244,0.34338667369753334,0.14587945686095063,0.04285041892721688,0.0006090910136658634,4.644240976291828,-7.5077795400338445,4.115895838490445,1.583715183709141,0.503897305408092,0.008025968445093401,0.549162191244738,-7.328527300916782,-5.116414572704182,-1.1005887789035997,0.053847405684108514,0.00015803043023745306
0.09,0.023136535537504006,1.5323574759873357,-1.5504852727552803,0.008523994945194544,0.0025179925437525796,3.517159840700836e-05,0.45132313193499624,-0.733295583782108,0.3838512266868176,0.1612842676058321,0.04759008149557555,0.0006789420122732659,4.525812498025418,-7.316238481364411,4.0623851914325595,1.542166312194154,0.5097609786093962,0.00829835526000755,0.5080368990814652,-7.171276864473238,-5.063311278005364,-1.0892608219746536,0.050935792177328985,0.00013185741348586228
0.1,0.028099078011601095,1.5242970224529524,-1.546247419875693,0.010287197677993437,0.0030414005793739725,4.26632093222957e-05,0.4962542474097088,-0.8060453534383402,0.4237852879587145,0.1763202732798892,0.05234080356213928,0.000749161091528734,4.402090608548142,-7.119328571839438,4.010422166670853,1.505046889664988,0.5183097941815014,0.008640584006908814,0.4650481120880264,-7.0031110593325625,-5.00704866702558,-1.0772982723854267,0.04782567976576681,0.00010381309833973644
0.11,0.03349864350477271,1.5155286707264417,-1.5416153478630943,0.012197422741799125,0.003612578133977903,5.086354688242473e-05,0.5399565493171617,-0.8768351726510787,0.46320720125988524,0.19102250638056884,0.057117755460393035,0.0008200337560129035,4.2729795927914855,-6.917340571523159,3.9602756929342746,1.4713815767370022,0.5291183912733324,0.009048373308746527,0.42072824536652537,-6.824426125553261,-4.947870670392091,-1.0647653167573652,0.0445369645975444,7.405177303340628e-05
0.12,0.03932241693517069,1.506072524567972,-1.5365939753223452,0.014251608694466275,0.004231910173895069,5.978155991686255e-05,0.5823773430397976,-0.9456146158469608,0.5021372540749118,0.2054185952667151,0.061933203991716555,0.0008918013034437817,4.138384966730825,-6.710579789945256,3.9121229147743257,1.440423790650109,0.5418848869185382,0.00951955070421695,0.3756135725799066,-6.6356420685960025,-4.8860292455235514,-1.051728038027631,0.04109030947547301,4.273427130451575e-05
0.13,0.04555704742491837,1.4959491622269054,-1.5311880059896696,0.01644691354606815,0.004899882579792642,6.942828277522869e-05,0.6234630489747675,-1.0123362341066549,0.5405969332675667,0.21953048516018758,0.0667972405897573,0.0009646722858366142,3.998219790232112,-6.499368693976793,3.8660658176977973,1.411599186745744,0.5563715486969585,0.01005315953098096,0.3302378971485812,-6.437204014822228,-4.821783955436448,-1.03825422913683,0.03750709323801581,1.0028271227647905e-05
0.14,0.05218864058278345,1.4851796048056398,-1.5254019229301814,0.0187806708497101,0.005617064096448932,7.98165700263149e-05,0.6631593157865081,-1.0769557421265663,0.5786083059488247,0.2333757303641951,0.07171815166562896,0.001038828725108621,3.852409711186342,-6.284048704321651,3.8221439116186,1.3844626822786443,0.5723651905174698,0.010648818285033279,0.28512608696073033,-6.229583337957008,-4.755401449819079,-1.0244131767398392,0.03380934198179818,-2.3891623997804334e-05
0.15,0.05920275228729571,1.473785282609754,-1.5192399879708365,0.021250355454945205,0.006384089614568023,9.096085755274466e-05,0.7014111704512261,-1.1394322195885864,0.6161934959344877,0.2469684605235105,0.07670255181190909,0.001114428752642976,3.7008976504618234,-6.064981278096752,3.7803439575209072,1.3586658172841521,0.589648907595377,0.011306210996010257,0.24078755193467016,-6.013278515853714,-4.687154846746996,-1.010275415805932,0.030019641225316657,-5.884402807019792e-05
0.16,0.06658438433333816,1.4617879994033942,-1.5127062456339762,0.02385355644915431,0.007201643117599545,0.00010287692403697048,0.7381632046042449,-1.1997283206359655,0.6533742336860257,0.2603200994209103,0.08175535030315217,0.0011916066484225826,3.5436487854713183,-5.8425483505288955,3.740607492493127,1.3339320076026748,0.6079800376245856,0.01202462887753919,0.1977097588624454,-5.788815677773082,-4.61732301483963,-0.9959124563539967,0.026161028647259887,-9.464114132824969e-05
0.17,0.0743179823447235,1.4492098945465912,-1.505804530999899,0.026587955411665785,0.008070439026870371,0.00011558163230587369,0.7733598011385351,-1.2578104856802919,0.6901714634077029,0.27343989625114756,0.08687959092708264,0.0012704708268903204,3.380656350144947,-5.617152191414311,3.7028367320172704,1.3100378263833745,0.6270712562803755,0.012802509405118734,0.15635189053831677,-5.556748803713453,-4.546189757006373,-0.9813964839733926,0.022256867527185715,-0.0001310893520567024
0.18,0.08238743643138743,1.4360734030449416,-1.4985384810458133,0.029451308563409148,0.008991200897231353,0.00012909263284560833,0.8069454086663927,-1.3136491501649599,0.7266049954085663,0.2863353151743363,0.09207618703609821,0.0013511000539734648,3.211948688929018,-5.389214719708407,3.6668992930990356,1.2867988942654018,0.6465730093759667,0.01363693560905066,0.11713876576382187,-5.317659539122999,-4.4740428981544484,-0.9668000361847245,0.018330701481783798,-0.00016799007133985267
0.19,0.09077608517836383,1.422401213592699,-1.4909115490933993,0.03244143174520615,0.00996463653095893,0.00014342801308296117,0.8388648746976402,-1.367218945224257,0.7626931952413977,0.2990123181797001,0.0973435633727578,0.0014335380237352853,3.037597945548485,-5.159176311028234,3.6326320779241463,1.264059297020882,0.6660563768166412,0.014523070440915387,0.08045514300459122,-5.072156590652674,-4.401173280315171,-0.9521956570818636,0.014406091529619535,-0.00020514080111480083
0.2,0.0994667236916439,1.4082162247383705,-1.4829270220559878,0.035556187426082846,0.010991408642671455,0.00015860587649051564,0.8690638513280076,-1.4184988854328635,0.7984527037411567,0.31147556808766996,0.10267721117125254,0.0015177863407554476,2.857730704247199,-4.927494126969125,3.5998445778471444,1.241683707313797,0.6849961625490764,0.015453512107460377,0.04664053294918291,-4.820874671565395,-4.327873669599978,-0.9376555330594485,0.010506436932350212,-0.00024233643248504951
0.21,0.10844161658965856,1.3935414993477808,-1.4745880402151346,0.03879347314878536,0.012072100262138244,0.00017464383578180543,0.8974892898014659,-1.4674725390589756,0.8338981840853176,0.3237285722702516,0.10806916194667879,0.0016037959291289794,2.6725408048210015,-4.694639991312575,3.568321795970001,1.2195515832247903,0.70275464505192,0.016417569031927925,0.015984643831583545,-4.5644729691270935,-4.254437580255403,-0.9232511127683839,0.006654781654462816,-0.0002793707686128636
0.22,0.11768251701226602,1.3784002175834644,-1.4658976192798658,0.04215121097785897,0.013207174139001984,0.0001915584049338415,0.9240900422607453,-1.5141281764316488,0.8690420935268747,0.3357737829073611,0.11350738768637406,0.0016914569152036046,2.482304395550934,-4.46109783609754,3.5378269389894115,1.1975529645549452,0.7185670904391515,0.017400470127223233,-0.011276421870063835,-4.303633110933464,-4.181158021900073,-0.9090527147609383,0.002873608665465266,-0.0003160382635965513
0.23,0.1271706929112181,1.3628156286612276,-1.4568586744937337,0.04562733763746453,0.0143969255464173,0.00020936427603662674,0.9488175898952089,-1.558458892223677,0.9038944786132047,0.34761266596055607,0.11897514074153162,0.0017805871102785258,2.287397042706461,-4.2273607400955155,3.508103991994743,1.1755854995472657,0.7315308689424942,0.018382549384606817,-0.034963109708838536,-4.039056612896781,-4.108326176871541,-0.8951291265975408,-0.0008153753055099022,-0.0003521359654857771
0.24,0.13688696207027248,1.3468110016847221,-1.4474740465579368,0.04921979512005756,0.01564142810341346,0.00022807346960465195,0.9716269159054369,-1.6004626976505432,0.938462793579703,0.35924574825930294,0.12445025569961611,0.001870919356802521,2.088312357611748,-3.9939275836935377,3.478880260830828,1.1535524177917942,0.7406008222097338,0.019338474776313896,-0.05495439729805485,-3.7714617988276125,-4.03623001557939,-0.8815471995031822,-0.00439146153797601,-0.0003874656476509492
0.25,0.14681173745443826,1.3304095758966004,-1.4377465291353915,0.052926521619522805,0.016940472583617534,0.0002476943516377745,0.992477538416578,-1.6401425788121715,0.972751742254521,0.3706726499465248,0.12990444802040738,0.0019620882033122592,1.8856811192504002,-3.7612993481154637,3.4498689434549954,1.1313612259457773,0.7445943380007085,0.0202366300419774,-0.07118873848949006,-3.5015801906160284,-3.9651528589733043,-0.8683714429997245,-0.00783516411123357,-0.0004218361075788
0.26,0.15692508457185048,1.3136345107197784,-1.4276788976926746,0.05674544269808384,0.018293499184703296,0.0002682305180622356,1.0113347117412217,-1.677506517682187,1.0067631442716913,0.3818921078561036,0.13530266010857603,0.002053616642446105,1.6802892720050426,-3.529975093931325,3.420771772703123,1.1089229465403672,0.742210252328996,0.021038801150266462,-0.08366390467947774,-3.2301523793820834,-3.895371898795843,-0.8556636243120536,-0.011128443647701915,-0.00045506560513438444
0.27,0.1672067925043947,1.2965088359936745,-1.4172739394257532,0.06067446263878727,0.01969952442541358,0.00028967955783336337,1.0281707932544242,-1.7125674726104043,1.040495826692139,0.3929019940703431,0.14060252407102825,0.00214490397711278,1.4730925134965411,-3.3004476648481025,3.3912817566977,1.0861517506606946,0.7320659700868459,0.02170036016201382,-0.09243568171141442,-2.9579234021813003,-3.827156688321684,-0.8434823777591485,-0.014254925241921169,-0.00048698440265456457
0.28,0.17763646007272213,1.2790554028367929,-1.4065344840028327,0.06471145596713963,0.0211570647257258,0.0003120317203466816,1.0429667568327428,-1.7453433156881701,1.0739455422920556,0.40369933283523574,0.14575403003122192,0.0022352162513318238,1.2652245611297308,-3.0731991789962088,3.361086028613734,1.0629648566656513,0.7127567330350493,0.022171165312971475,-0.09761540542446809,-2.685637666545462,-3.7607676189151773,-0.8318828297966748,-0.017200104976354817,-0.0005174373562541843
0.29,0.18819359819354098,1.2612968355869685,-1.3954634348448034,0.06885425914841264,0.02266405979196349,0.0003352685308536174,1.0557138120818839,-1.7758567249824309,1.1071049158029191,0.4142803181273006,0.15069950662376919,0.002323681050693579,1.057995766398451,-2.848696391188583,3.3298688036563058,1.039282583416643,0.6829393829985184,0.022397389388474576,-0.09936634702831798,-2.4140334862983788,-3.696454400882719,-0.8209162458285277,-0.01995153848186554,-0.000546286491101452
0.3,0.19885774881487872,1.2432554852817888,-1.3840638006520347,0.0731006624826397,0.02421780010954422,0.00035936141856175344,1.0664150621337745,-1.8041350305179684,1.1399634192768724,0.42464033342270624,0.15537403175807266,0.0024092887708136008,0.8528787543474523,-2.627386036151024,3.29731442710313,1.0150284621209327,0.6414399527956016,0.022324427910333955,-0.09789899181093226,-2.1438373167573315,-3.634454570726937,-0.810629705306962,-0.02249900402951003,-0.0005734134735470141
0.31,0.2096086198521059,1.2249533851415773,-1.3723387268770226,0.07744840222858762,0.02581486402112468,0.00038427044426076373,1.0750871037227192,-1.8302100140211552,1.1725073775012103,0.43477397459479206,0.15970639115804622,0.0024909025699010314,0.6514784308208608,-2.4096902930444917,3.2631104825903736,0.9901293303330281,0.5873799102742061,0.021900906611490134,-0.09346529181064062,-1.8757578047311991,-3.574992050769188,-0.8010658119044243,-0.024834631800113523,-0.0005987218713793153
0.32,0.22042623430560662,1.2064122085030033,-1.3602915268370974,0.08189515299217355,0.02745107085295083,0.0004099432346970949,1.0817614453500715,-1.8541176638573988,1.2047200039925285,0.4446750763585932,0.1636206831826146,0.0025672790436331167,0.45548517576758296,-2.1960025413158792,3.226950914330472,0.9645153584722808,0.5203103041605674,0.0210836007019527,-0.08635201512169338,-1.6104797962580106,-3.5182757905888615,-0.7922624455178289,-0.02695299051007462,-0.0006221390730797487
0.33,0.23129109028657507,1.1876532296202333,-1.3479257121614374,0.0864385204152384,0.029121457108303696,0.0004363142454184414,1.0864855980968442,-1.8758978882770068,1.2365814675659947,0.4543367423064856,0.16703862553528673,0.002637101072134652,0.26661229739851755,-1.9866836020745477,3.188539101317065,0.9381199946934107,0.4403374745667704,0.019842818736071743,-0.0768733604984885,-1.3486584698995703,-3.4644985222582547,-0.7842525624369889,-0.02885112278032739,-0.0006436177222888682
0.34,0.2421843271424686,1.1686972877006048,-1.33524502227332,0.09107603419887259,0.030820282611795872,0.0004633044776110914,1.0893236855893524,-1.8955941919628572,1.2680689888117231,0.463751378363418,0.1698825503492175,0.0026990232192649986,0.08652155845219704,-1.7820586697740086,3.1475908073902086,0.9108798554943727,0.3482200406542984,0.018167547368938164,-0.06536305324487449,-1.0909137811102865,-3.4138356620421195,-0.7770640490318204,-0.030528521836047283,-0.000663136520425416
0.35000000000000003,0.253087891452852,1.1495647544725107,-1.3222534526228245,0.09580514149343416,0.032541072432865935,0.0004908217629694547,1.0903564310383407,-1.913253322809397,1.2991569650495725,0.4729107294561573,0.17207898210700648,0.0027517285358363234,-0.08325677561460988,-1.5824151280150467,3.1038369210297034,0.8827346297931307,0.24541640286183583,0.01606948291738758,-0.05216618233355248,-0.8378254089627908,-3.3664443892977505,-0.7707196327169745,-0.031987044554837044,-0.000680700264286113
0.36,0.2639846955950866,1.1302755054959837,-1.3089552814075314,0.10062320068684548,0.034276698320111085,0.0005187617008319366,1.0896804142234608,-1.9289248976527105,1.329817121529315,0.48180591934113093,0.17356258872451502,0.002793993786248194,-0.24140110269702242,-1.3880014046312263,3.057025896312359,0.8536270926582201,0.13406632452801065,0.013585078381058435,-0.03763107272661265,-0.5899283861448519,-3.322462928219481,-0.7652368517682036,-0.033230759589550296,-0.0006963390206823355
0.37,0.27485876109109225,1.1108488953253144,-1.2953550945488317,0.10552747562521564,0.03601950030110862,0.0005470092836528657,1.0874065496005645,-1.9426610170669376,1.3600186858699663,0.49042749383701606,0.17428019809975354,0.0028247582820929086,-0.38686423602573405,-1.1990269535263742,3.006925814833832,0.8235033305636525,0.016899326683162297,0.010774962053998749,-0.022101503473055423,-0.3477095643984054,-3.2820100497938065,-0.7606280829589542,-0.034265734042251014,-0.0007101063974092568
0.38,0.28569533921713214,1.0913037365244014,-1.2814578087280317,0.11051513030606142,0.037761445332671624,0.0005754411843369448,1.0836578126039906,-1.9545158800913083,1.3897285820799987,0.49876546808457783,0.17419450315630022,0.002843190068407907,-0.518920447256755,-1.015663359692955,2.953326009163025,0.7923132568074367,-0.10292502393930669,0.0077205176139172604,-0.005909574684911517,-0.11160502139616502,-3.24518480052383,-0.7569006232621429,-0.03509976740149853,-0.0007220769447265348
0.39,0.2964810024526329,1.0716582824278276,-1.267268692327436,0.11558322409400963,0.039494315924957675,0.000603928610090369,1.078566323550079,-1.9645454096573798,1.4189116400595685,0.5068093787948217,0.17328705922860527,0.002848742575342416,-0.6371892607923969,-0.8380464624125049,2.8960382203405577,0.7600114460413634,-0.2220273851622312,0.004517956038031311,0.010630508748017978,0.1180015438856375,-3.2120664524699882,-0.7540568194128191,-0.0357420863657091,-0.0007323428043743791
0.4,0.3072037021816875,1.051930213443187,-1.2527933841641488,0.12072870752024858,0.041209918139905266,0.0006323405631026681,1.0722699729054581,-1.9728068984640532,1.447530816328741,0.514548342623895,0.1715602214947588,0.0028411953012299164,-0.741634915381769,-0.6662792975566645,2.8348973005246902,0.7265582523947467,-0.33704273246169536,0.0012707052706515136,0.027227530786499615,0.340779444088639,-3.182714657700022,-0.7520942373439548,-0.0362030178697266,-0.000741009800452837
0.41000000000000003,0.31785279042166986,1.032136626611517,-1.2380379099452863,0.12594841873756993,0.042900295899839416,0.0006605472998419959,1.0649088239982336,-1.9793586831669978,1.4755474218862563,0.5219711217321336,0.16903777599341496,0.002820673673932775,-0.8325436876550862,-0.5004355909271047,2.769761510174751,0.6919211137973349,-0.44484807519214487,-0.001918751341170706,0.0436171114903396,0.556450740873353,-3.157169781119957,-0.7510058626745525,-0.03649365937487909,-0.0007481932240657404
0.42,0.3284190059187893,1.012294028089201,-1.22300869640963,0.13123908070966556,0.04455793758948972,0.0006884237568665776,1.0566215497119449,-1.9842598522316148,1.5029213535656276,0.5290661972095638,0.1657641689650303,0.0027876457024581694,-0.9104836736337699,-0.3405635032557989,2.7005124897174033,0.6560759025312235,-0.5427564294086737,-0.004956421936517033,0.05956427578867726,0.7647892093398044,-3.135453380192955,-0.7507803236421149,-0.03662556491215145,-0.0007540135904227149
0.43,0.33889442737343906,0.992418328189399,-1.207712583150108,0.1365972992139147,0.04617596166431887,0.0007158527159260849,1.047542145464975,-1.9875699899801993,1.5296113259521857,0.5358218504249147,0.16180240748291527,0.0027428959059507337,-0.9762528367686835,-0.18668933764819462,2.6270550028477215,0.6190081689548617,-0.6286574695785396,-0.007762794424022057,0.07486479996092882,0.9656186796334855,-3.1175687987754723,-0.7514021290094209,-0.03661046260434696,-0.0007585926383111705
0.44,0.34927239853785713,0.9725248386231897,-1.1921568321326022,0.14201956172985805,0.047748270238148836,0.0007427275131473394,1.037797116441805,-1.9893489566209301,1.555575101750589,0.5422262515943348,0.1572308573829967,0.002687479722125451,-1.0308212343148186,-0.03882096645616909,2.5493165502555075,0.5807141425734947,-0.7010955044973315,-0.010276709081447594,0.08934546530615586,1.1588109131941482,-3.1035018448629152,-0.752851915241345,-0.03646001500048869,-0.0007620498001874033
0.45,0.35954743126634964,0.9526282716060394,-1.1763491349393407,0.14750223727107223,0.04926966299072305,0.0007689541496585198,1.0275032728492488,-1.989656701715032,1.5807697193261563,0.5482675541214167,0.15213927525742116,0.002622663651118041,-1.0752726468878282,0.1030491954231836,2.4672469400903427,0.5412013948095602,-0.7592854265273057,-0.01245698595543912,0.1028633988048841,1.3442831604448102,-3.0932215273940638,-0.7551066992565969,-0.036185628371423334,-0.0007644993056916694
0.46,0.36971509322227264,0.9327427405375338,-1.1602976177706021,0.15304157719783584,0.05073590763448132,0.0007944527244578433,1.0167661955923015,-1.98855310685056,1.6051517168738574,0.5539339926763626,0.14662446437582663,0.002549857479932351,-1.110749730687328,0.23894176496977154,2.380817879112049,0.5004891191079244,-0.8030751139150589,-0.014282037889637972,0.11530470498559396,1.5219955232961295,-3.0866808340235607,-0.7581401349421344,-0.035798312019291116,-0.0007660480048532359
0.47000000000000003,0.3797718869019918,0.9128817620141025,-1.1440108442384487,0.1586337170244137,0.05214376701917248,0.0008191581744735459,1.0056793679719198,-1.9860978523431327,1.6286773532153485,0.5592139826577858,0.14078593846911608,0.002470545001570266,-1.1384055869887528,0.3688885332922956,2.290022621648743,0.458608034336609,-0.8328675121106466,-0.015747931522873126,0.12658259355651616,1.6919482159629964,-3.0838175385775735,-0.7619227731000886,-0.035308584361640125,-0.0007667939224855308
0.48,0.3897151260549685,0.8930582589886773,-1.127497815982968,0.16427467921089373,0.05349098624787191,0.0008430203630027644,0.9943239152976701,-1.9823503025425278,1.6513028255480697,0.5640962186480035,0.13472192286994306,0.002386218852921857,-1.1593634858989357,0.4929311362754687,2.194875687309348,0.4155999577761209,-0.8495173083272998,-0.01686545030218148,0.13663518896833166,1.8541787871045576,-3.0845550327203477,-0.7664223254370964,-0.03472641949518517,-0.0007668254925009175
0.49,0.39954281463448355,0.8732845649420736,-1.1107679711372347,0.1699603769078973,0.05477624561868255,0.000866003600406546,0.982768857951507,-1.9773694046603716,1.6729844845733346,0.5685697697003593,0.12852593708106427,0.002298323740378164,-1.1746854848568098,0.6111201738670059,2.0954126366727195,0.37151711951809663,-0.8542163686475979,-0.017656691141695574,0.14542317785670633,2.0087593395649828,-3.088803180584946,-0.7716039335912805,-0.034061226250047524,-0.0007662213761428007
0.5,0.4092535322825138,0.8535724289743842,-1.0938311806637635,0.17568661860498258,0.055999086673897955,0.0008880857077082334,0.9710717648030248,-1.9712135967689342,1.693679047347114,0.5726241697085273,0.12228410552154065,0.002208210730168738,-1.1853498839864158,0.7235146774237006,1.9916898789572381,0.3264213002073335,-0.8483797876670822,-0.0181516316819752,0.15292741509057373,2.155793763499749,-3.096459197596622,-0.7774304441053804,-0.03332185128880546,-0.0007650507431460183
0.51,0.41884632918781545,0.8339330217587044,-1.0766977425839497,0.18144911362106345,0.057159819176964846,0.0009092567450703738,0.9592796905301619,-1.963940721567979,1.7133438079813825,0.5762495016080875,0.11607325030668879,0.002117103736214032,-1.1922368681018205,0.8301818203529826,1.8837844774271149,0.2803828710979488,-0.8335413330833998,-0.01838497971184838,0.15914657445713765,2.2954149851940677,-3.1074085556027518,-0.7838626898297654,-0.03251659830795166,-0.0007633738878262301
0.52,0.42832063207221127,0.8143769423235627,-1.0593783741236047,0.18724347836767025,0.058259416603454885,0.000929517525459167,0.9474302884395848,-1.9556079435141713,1.7319368460344973,0.57943647466068,0.10995974264900374,0.0020260780388793235,-1.1961212911253283,0.931196775298866,1.7717939162887941,0.23347980331672513,-0.8112639024047759,-0.018393491533995443,0.1640948995704315,2.4277822269208404,-3.121525916065437,-0.7908597776216781,-0.03165325652761615,-0.0007612430591529413
0.53,0.43767616212804467,0.7949142256452042,-1.041884201802403,0.1930652433127053,0.059299406937592496,0.0009488780225971858,0.9355530055833419,-1.9462716678358472,1.7494172321201633,0.5821764945035067,0.10399903341376124,0.0019360497138018857,-1.1976713438336413,1.0266426365846404,1.655835795657241,0.1857966963409643,-0.7830677778297406,-0.018213840703106055,0.16780008631197024,2.5530782715069034,-3.1386760918824805,-0.7983793815263691,-0.030739133091946893,-0.0007587034002474486
0.54,0.44691286498373434,0.7755543510377966,-1.0242267495026174,0.19890986057243834,0.06028176443103734,0.0009673557651841961,0.923670285568965,-1.93598746074076,1.7657452299785703,0.5844617259733044,0.09823574934448435,0.0018477742587010286,-1.197451781861047,1.1166103453759584,1.5360474271864628,0.13742385775670218,-0.7503771983638787,-0.017881040348973865,0.17030131044344599,2.6715067273553967,-3.1587150367650985,-0.8063780399802853,-0.029781085492945662,-0.0007557939139419917
0.55,0.45603085221925793,0.7563062513304758,-1.0064179245624298,0.20477271206166608,0.0612088067011106,0.0009849742895700192,0.9117987235523574,-1.9248099707320803,1.7808824940187444,0.5862851489227731,0.09270422700732586,0.0017618524385823095,-1.1959304432060098,1.201198573914338,1.4125853106202044,0.08845645012800585,-0.71448413825468,-0.01742737133573849,0.17164740241384352,2.783289294022997,-3.1814908593306854,-0.8148114550306031,-0.028785551499160497,-0.0007525483933392895
0.56,0.4650303535745613,0.7371783228167195,-0.9884700019506987,0.21064911813515078,0.06208310027449564,0.0010017617031341031,0.8999501355303362,-1.9127928513756307,1.7947922611731206,0.5876406073484693,0.08742935733850365,0.001678741356408386,-1.193486916588659,1.2805135421439535,1.2856244795660576,0.03899370789936363,-0.6765271544145559,-0.016881740678582585,0.17189516471072877,2.8886630338109187,-3.206844857393045,-0.823634791153241,-0.02775857521705744,-0.0007489962770980366
0.5700000000000001,0.4739116787656512,0.7181784359554548,-0.9703956065926208,0.21653434665679838,0.06290737652505511,0.0010177493923223153,0.8881325191089903,-1.8999886861264665,1.8074395358077908,0.5885228521647613,0.08242762505594718,0.001598768918821221,-1.1904223997254206,1.354668754033794,1.1553577123509178,-0.010861781702712126,-0.6374826485547294,-0.01626938435382247,0.17110782408707323,2.98787766023401,-3.2346125664934386,-0.8328029709833153,-0.026705828797762853,-0.000745163406869266
0.58,0.4826751877154157,0.6993139467959193,-0.9522076939286108,0.2224236224359603,0.06368445897209912,0.0010329708936440455,0.8763508949764478,-1.8864489159535542,1.8187912664009933,0.5889275779161923,0.07770824470440085,0.0015221501321730079,-1.1869699813334587,1.4237846515492405,1.0219946103238644,-0.06100474492440178,-0.5981657630872992,-0.015611830096717932,0.169353610400606,3.0811928590185786,-3.2646248155895754,-0.8422709651423185,-0.02563262992889286,-0.0007410726782325572
0.59,0.4913212679891653,0.6805917090906298,-0.9339195288013167,0.22831213697243483,0.06441720212354494,0.0010474609333843597,0.8646080273749643,-1.8722237705289428,1.8288165127294151,0.5888514536474521,0.07327431514458228,0.001449003974031421,-1.1833047710560458,1.4879881917061062,0.8857605512050621,-0.11132784794522754,-0.5592382737677435,-0.014927044349449636,0.16670445459906952,3.1688756610447024,-3.2967087820307754,-0.8519940733398214,-0.024543955650210916,-0.0007367445865839389
0.6,0.49985031827161625,0.6620180870536033,-0.9155446627775579,0.23419505845312144,0.06510844146599568,0.0010612546323482451,0.8529050282450914,-1.85736220370265,1.8374866023758791,0.5882921480686624,0.06912393424507286,0.00137936989638854,-1.179553473441614,1.5474123568831624,0.7468955289862165,-0.16172229604921728,-0.521221151071922,-0.01422969947735192,0.1632347997885673,3.251197889197983,-3.3306890374886056,-0.8619281940247564,-0.02344445324524089,-0.0007321976760772302
0.61,0.5082627368099875,0.6435989687146774,-0.8970969100227425,0.2400675419439269,0.06576095380290911,0.001074386865361623,0.8412418538371187,-1.8419118338925962,1.8447752754815392,0.5872483490805459,0.06525123369134414,0.0013132233013377894,-1.1758031479683224,1.6021956111228433,0.6056528945879289,-0.21207841589102383,-0.48450985209309816,-0.013531510293224636,0.15902052079728832,3.328433702386759,-3.366388576354993,-0.8720300800416608,-0.022338449033926268,-0.0007274489034991662
0.62,0.5165589138592059,0.6253397798156646,-0.8785903218547396,0.24592473972062304,0.06637742689556989,0.0010868917610899224,0.8296177049218457,-1.8259188899012757,1.8506588168002913,0.585719777669614,0.06164730926607701,0.001250489572829941,-1.1721090142348711,1.6524813160678338,0.4622980131332004,-0.2622862282555549,-0.44939081358758104,-0.012841601195426683,0.15413794887057777,3.4008572600751794,-3.403629818226624,-0.8822575779910389,-0.0212299558660139,-0.000722513930520339
0.63,0.5247392272865009,0.6072454981902328,-0.8600391601121045,0.25176181168215284,0.0669604372389647,0.001098802325526685,0.8180313427294941,-1.8094281625431792,1.8551161742635105,0.5837071961529812,0.058301034339481805,0.0011910564436762722,-1.1685012506595291,1.6984171199572529,0.31710685451232345,-0.3122360154778193,-0.41605800367788337,-0.012166876049276826,0.14866299894965984,3.468740529706657,-3.4422355764240145,-0.8925698492827326,-0.02012268002679154,-0.0007174073577368695
0.64,0.5328040406144071,0.5893206685668292,-0.841457869477885,0.25757393578961835,0.06751243477593351,0.0011101501717860633,0.8064813327906243,-1.792482962340356,1.8581290634219443,0.5812124107465528,0.0551997536968806,0.0011347846259378302,-1.1649907992699506,1.740154332147542,0.17036453408324426,-0.36181888462071804,-0.38462873070823433,-0.011512371898776547,0.14267039735826575,3.53235125750916,-3.482029985005119,-0.902927571191685,-0.01902002814443219,-0.0007121429128504614
0.65,0.5407537028970558,0.5715694177325781,-0.8228610489049576,0.263356318474089,0.06803573339116675,0.0011209653391848586,0.7949662282648702,-1.7751250834251164,1.859682057292744,0.5782382684470664,0.052329861523323855,0.0010815167398795396,-1.1615742323817408,1.7778472942442907,0.02236382003462234,-0.4109273248530066,-0.3551581918688944,-0.010881584746825823,0.13623300768843977,3.591951120561221,-3.522839377388903,-0.9132931165640272,-0.017925114552546632,-0.0007067336036726406
0.66,0.5485885499307622,0.5539954699957486,-0.8042634222919712,0.2691042049566298,0.06853250610897701,0.001131276185666654,0.7834847033706445,-1.7573947736829478,1.8597626612986344,0.5747886482540745,0.04967727178102587,0.0010310846481795314,-1.158237763370114,1.8116527573624566,-0.1265963767176237,-0.45945575538471034,-0.3276524695251193,-0.010276760996654866,0.12942125232090856,3.6477940748360447,-3.564493110469039,-0.9236307111673294,-0.016840769427266488,-0.0007011918447198522
0.67,0.5563089063943307,0.536602162884976,-0.7856798085605728,0.2748128894247073,0.06900478402706699,0.0011411093391189321,0.7720356463568494,-1.7393307110772558,1.8583613731398385,0.5708684468077468,0.04722779180899741,0.0009833153452278017,-1.154960497330454,1.841729273429022,-0.2762125151221757,-0.5073010588305842,-0.3020798534854885,-0.00969915209984984,0.12230262643578683,3.7001249104029528,-3.6068243289414075,-0.933906568023394,-0.015769547894685054,-0.0006955295642305905
0.68,0.5639150885965075,0.5193924630247655,-0.7671250912847213,0.28047772501048307,0.06945445813886414,0.0011504896948462441,0.7606182202176816,-1.720969986021043,1.8554717275851589,0.5664835585775772,0.04496741117971462,0.0009380355727311949,-1.1517170217019743,1.8682366069081282,-0.42617792514547614,-0.5543630939579016,-0.2783804896609583,-0.009149232653929362,0.11494130066540054,3.7491780212113905,-3.6496706654641295,-0.9440889983978236,-0.014713740197127512,-0.0006897582966410972
0.6900000000000001,0.5714074075778336,0.5023689821287796,-0.7486141880216722,0.286094133518496,0.06988328331935412,0.0011594404482309737,0.7492318981326065,-1.7023480895985963,1.8510903263049017,0.5616408508012931,0.04288251804899756,0.0008950753384729564,-1.1484794347981586,1.891335171923399,-0.5761842847052745,-0.6005451813791165,-0.2564744379228103,-0.008626883933597201,0.10739780780129493,3.795176393057304,-3.692874873191748,-0.9541484994418001,-0.013675382917899636,-0.0006838892639939613
0.7000000000000001,0.5787861723725466,0.48553399305486405,-0.7301620194917327,0.2916576148528813,0.07029288386688341,0.001167983153330121,0.7378764794713035,-1.6834989073915483,1.8452168529939534,0.5563481334385286,0.04096005475292965,0.0008542705099147264,-1.1452189039435543,1.911185498502925,-0.7259230608078503,-0.645754555784098,-0.23626827276643958,-0.008131545905594617,0.09972880826459747,3.8383308095619944,-3.736285388155158,-0.9640578187831632,-0.012656271194215864,-0.0006779334484674405
0.71,0.5860516932842401,0.46888944586859505,-0.711783478750257,0.2971637560975503,0.07068476010182714,0.0011761377997525646,0.7265520911693512,-1.6644547186269014,1.8378540741475593,0.5506141244669002,0.03918762349437337,0.0008154646422443595,-1.141906836301082,1.9279477305956947,-0.8750869045427423,-0.6899027786860934,-0.217660387249749,-0.007662341255235017,0.09198692843710629,3.8788392723894125,-3.779756819878044,-0.9737919966420244,-0.011657971795944948,-0.0006719016572096906
0.72,0.5932042850679289,0.4524369838652134,-0.6934934004907096,0.30260824020661486,0.07106029561997938,0.0011839229015981473,0.7152591783688822,-1.6452462003381623,1.8290078259547435,0.5444484109064578,0.03755355181522339,0.0007785101845582743,-1.138515735753657,1.94178115759712,-1.0233709908242954,-0.7329061063052995,-0.20054517018352258,-0.007218175120249443,0.08422066546623982,3.9168866285801394,-3.8231503695131415,-0.9833283862976746,-0.010681836911867497,-0.0006658045799268687
0.73,0.6002442699422484,0.4361779595030827,-0.6753065306120628,0.30798685426671546,0.07142076488307827,0.0011913555935003355,0.7039984874319546,-1.6259024362130703,1.81868698786468,0.5378614060100598,0.03604692630988968,0.0007432691902188334,-1.135019809259467,1.9528437803686345,-1.1704742949904556,-0.7746858080560628,-0.18481622410865062,-0.0067978141261054725,0.07647435182077353,3.952644394862383,-3.866334175634425,-0.9926466539561043,-0.009729018463155725,-0.0006596528391777065
0.74,0.6071719803799285,0.42011345020517255,-0.6572374961774661,0.3132954972977216,0.07176734090105892,0.0011984517298963475,0.6927710437680074,-1.6064509297910134,1.806903443459669,0.5308643031006127,0.034657601798064104,0.0007096136396011989,-1.1313953765113791,1.9612919121329326,-1.316100799570138,-0.8151684320729249,-0.17036878146288903,-0.006399948054925775,0.06878817269309895,3.986270766168743,-3.9091835886230473,-1.0017287592594457,-0.00880048275349124,-0.0006534570330341492
0.75,0.61398776164354,0.4042442739884859,-0.6393007758841178,0.3185301875634256,0.07210110282109644,0.0012052259845608153,0.6815781263611433,-1.586917621668665,1.7936720293348256,0.5234690265703978,0.033376192003751914,0.0006774254664467922,-1.1276211278501658,1.9672798141553456,-1.4599606256912372,-0.8542860152655232,-0.15710146174032458,-0.006023237177247093,0.06119822931397248,4.017910793381441,-3.951581375326283,-1.0105589178391432,-0.007897025264414999,-0.000647227769639695
0.76,0.6206919740478046,0.38857100488476226,-0.621510671156723,0.32368706936924774,0.0724230432882972,0.0012116919481948156,0.6704212404264611,-1.5673269103723633,1.7790104727394813,0.5156881805822147,0.03219404672007589,0.0006465963634000302,-1.1236782673972334,1.9709593657740956,-1.6017710847166349,-0.8919762364893069,-0.1449174957288052,-0.005666347882889833,0.053736641355914674,4.047696713572859,-3.9934178563426324,-1.0191235474434015,-0.007019285411106611,-0.0006409756931969358
0.77,0.6272849949403531,0.3730939881191713,-0.6038812779689327,0.3287624193295126,0.07273407548323556,0.0012178622224789223,0.6593020892548418,-1.5477016765590927,1.762939318779029,0.5075349960264878,0.03110321949383657,0.0006170274284106777,-1.1195505713589944,1.972479768111315,-1.741257646760531,-0.9281825125138861,-0.13372552570992674,-0.005327978898405944,0.04643168183481411,4.075748414712675,-4.034590978887136,-1.0274111992667858,-0.006167761085988429,-0.0006347115010093654
0.78,0.6337672204004553,0.3578133550170369,-0.5864264594888423,0.33375265209244076,0.0730350397736898,0.001223748509494567,0.6482225460102221,-1.528063310213442,1.7454818480090357,0.49902327629281523,0.03009642904542484,0.0005886287015644682,-1.115224385409176,1.971987280682745,-1.878154823738648,-0.9628540375546848,-0.12344007389777156,-0.005006880013081749,0.03930793825594201,4.102174015976193,-4.075006328715248,-1.035412476176732,-0.005342822833757498,-0.0006284459513595646
0.79,0.6401390666605649,0.342729037611892,-0.5691598196360774,0.33865432551652813,0.07332670994313936,0.00122936169581037,0.6371846260109569,-1.5084317405144914,1.7266639852764887,0.4901673424087373,0.02916701694495569,0.000561318631580301,-1.1106885799265822,1.9696249901445781,-2.0122069655445993,-0.99594576817295,-0.1139817560339812,-0.004701864929011312,0.03238649416918887,4.127070544399264,-4.114577085029602,-1.0431199395697086,-0.004544727520325378,-0.0006221898622003609
0.8,0.6464009712590344,0.3278407829313633,-0.5520946776293104,0.34346414529735925,0.07360979897799551,0.0012347119308355916,0.6261904598469501,-1.4888254680528652,1.7065142006766996,0.48098197808310966,0.02830890348561501,0.0005350235025221555,-1.1059344775755309,1.965532610628724,-2.143168968815262,-1.027418356326538,-0.10527730329807722,-0.004411819549418605,0.025685125777606198,4.150524688668327,-4.153223922661475,-1.0505280066009715,-0.0037736313785904875,-0.0006159541008460541
0.81,0.6525533939345101,0.3131481669405404,-0.5352440435943169,0.34817896904902773,0.07388496441018048,0.001239808699276631,0.6152422675475676,-1.4692615990822966,1.6850634034993486,0.4714823751668458,0.027516543218498217,0.0005096768441039245,-1.1009557641724175,1.9598463156696988,-2.2708068985539387,-1.0572380342569456,-0.0972594436679291,-0.004135706771664971,0.019218508763015063,4.172613611298985,-4.190874866110327,-1.0576328395194114,-0.003029602335111149,-0.0006097495650588433
0.8200000000000001,0.6585968172736495,0.2986506081256539,-0.5186205952939762,0.35279580984913295,0.07415281322244863,0.001244660887707731,0.6043423339139407,-1.4497558814886482,1.662344830034064,0.461684080010521,0.026784881226814602,0.00048521884310999825,-1.0957483908873993,1.9526986030142344,-2.394898523622537,-1.085376455707065,-0.08986668356744432,-0.0038725686406461124,0.01299843103409648,4.193405801363762,-4.227465100245383,-1.0644322288074446,-0.0023126315429820533,-0.0006035871561149992
0.8300000000000001,0.6645317471242124,0.28434738070420273,-0.5022366560330215,0.3573118392607045,0.07441390633153211,0.001249276845395037,0.5934929850562821,-1.43032274214512,1.6383939260954767,0.45160294115715044,0.026109310908348456,0.0004615957687306183,-1.090310473484917,1.944218196808669,-2.515233767814266,-1.1118104986769648,-0.08304302197096616,-0.003621526538587827,0.007034007649893828,4.212961951412438,-4.26293674263521,-1.0709254717844263,-0.0016226440673378102,-0.0005974777445858966
0.84,0.6703587127854785,0.2702376274514391,-0.4861041737819185,0.3617243898483054,0.07466876266944499,0.0012536644396035515,0.582696566126622,-1.4109753252763666,1.6132482251102966,0.4412550587600909,0.02548563379128726,0.0004387594208514493,-1.0846421923985399,1.934530000823356,-2.6316150789268677,-1.1365220355203896,-0.07673762194511274,-0.0033817799195216547,0.0013318947119020166,4.231335844851341,-4.297238582605052,-1.0771132483050625,-0.0009595086917829104,-0.0005914321296387974
0.85,0.6760782669875331,0.2563203721382663,-0.47023470155607233,0.36603095720891743,0.07491786288663313,0.0012578311056777444,0.5719554202054575,-1.3917255313172805,1.5869472225846186,0.4306567360612021,0.024910021718814904,0.000416666607419283,-1.0787456957722699,1.9237551487458364,-2.7438577191784255,-1.1594976767034346,-0.07090445872521736,-0.0031526040097488717,-0.004103500456973198,4.248575246382924,-4.3303257923359855,-1.082997495266588,-0.00032304684209270547,-0.0005854609924957338
0.86,0.6816909856703806,0.24259453158532868,-0.4546393790787075,0.37022920154094463,0.07516165270255594,0.0012617838922251022,0.5612718682847434,-1.3725840552937627,1.5595322477364815,0.4198244332027221,0.02437898159228075,0.0003952786547357912,-1.072625005475259,1.9120113517415094,-2.851789982578961,-1.1807284951141943,-0.06550195865106952,-0.0029333467461645224,-0.009269815005705374,4.2647228131213595,-4.362159616168112,-1.0885812823567655,0.00028695930884197374,-0.000579574843420316
0.87,0.6871974675733203,0.22905892736769745,-0.43932891574846356,0.3743169487766595,0.07540054593007839,0.0012655295017558875,0.5506481902939756,-1.353560421763123,1.5310463330243962,0.408774723571484,0.02388932275224499,0.0003745609530785369,-1.0662859181027375,1.8994148658208356,-2.955253357968944,-1.2002097394101678,-0.06049263927958183,-0.0027234251799098663,-0.01416653356861429,4.279817216492807,-4.392707050353235,-1.0938686973312144,0.000870759090316451,-0.0005737839518063578
0.88,0.6925983336453087,0.2157122973655631,-0.4243135749271764,0.3782921913039614,0.07563492719997769,0.0012690743271603815,0.5400866071988288,-1.334663000213434,1.501534082128714,0.3975242527301899,0.023438126989930662,0.0003544825404494038,-1.0597360042978046,1.8860672590245067,-3.054102443910271,-1.2179405407740411,-0.05584276330603189,-0.0025223214115268067,-0.018794804657121723,4.2938918486653685,-4.421940461247702,-1.0988646540111937,0.001428632283640409,-0.0005680984043680675
0.89,0.6978942262771559,0.20255330584635403,-0.40960315954038246,0.3821530883120648,0.07586515441180136,0.0012724244841994606,0.5295892631847313,-1.3158991519209067,1.4710415386793936,0.3860897008103402,0.023022721182367423,0.0003350157039079127,-1.052984244803045,1.8721053137316608,-3.148205553506123,-1.2339235855527875,-0.051521983682151475,-0.0023295795883566117,-0.023157247633631937,4.306983251013867,-4.44983742096462,-1.1035750348458695,0.001960864718575278,-0.0005625276196949642
0.9,0.7030858083921367,0.18958055703576537,-0.39520699904466106,0.3858979657668355,0.07609156093441527,0.0012755858410137568,0.5191582114980859,-1.297274881058866,1.4396160495721384,0.3744877454770726,0.022640652261391135,0.00031613568142961374,-1.0460074443934964,1.863560914431515,-3.237508483340402,-1.2481679852589362,-0.047501474917283695,-0.002144797887124461,-0.027256338024372988,4.3200018920669745,-4.476422110980597,-1.1080383469880088,0.002465771897256899,-0.0005570272642355865
0.91,0.7081737657120546,0.1767931941744063,-0.38113394364120845,0.38952531310646143,0.07631445736182006,0.0012785641238299854,0.5087957319917845,-1.2787362861359066,1.4073055403452583,0.3627347339625935,0.022289642740478826,0.0002978282816228544,-1.0318326237270745,3.1375597847218546,-3.3358574635894893,-1.2613454358622729,-0.043416145164310305,-0.0019673263085171477,-0.030793393578196368,4.519658790354309,-4.512323147206928,-1.1192579654772081,0.0025295565126002275,-0.0005398240361091611
0.92,0.7131594952530639,0.1643177291154565,-0.36739365536742813,0.39303317095278306,0.07653408646336624,0.001281382207813604,0.49857295410093305,-1.2475465058949804,1.3740288273780328,0.3507857846321642,0.02196291015461775,0.0002818083983618679,-1.0173316069729057,4.195474825717767,-3.4299367347976855,-1.2779675102502353,-0.04025604156497786,-0.00168840257728467,-0.03435221256423305,4.6797104005302135,-4.551227640681304,-1.1292257198176647,0.0027554233584725614,-0.0005243262551054034
0.93,0.7180444273128259,0.1522591934332623,-0.3539954295180086,0.3964194455967741,0.07675063508837845,0.001284060173199857,0.4884932059762057,-1.20585356821942,1.3398225849419514,0.3386274643991072,0.02165486250122146,0.00026779653862531383,-1.0030877760637547,4.970602115807535,-3.519308325362127,-1.2955214605916012,-0.03766069678871886,-0.0014927224103752357,-0.03781590349668674,4.792954493781875,-4.590797795117035,-1.1374322144005262,0.003130068258212924,-0.0005113061576766977
0.9400000000000001,0.7228299678498258,0.14069452120612747,-0.3409481361459658,0.39968213049679163,0.07696426432356425,0.0012866123234309375,0.47855405369998494,-1.1564672227134847,1.3047293372042779,0.3262684900017523,0.021362923518579543,0.00025521502310805013,-0.9891441273029323,5.51221867311307,-3.60436419587957,-1.3119186406371668,-0.035336927758633896,-0.0013932833540559464,-0.04106465420656433,4.86884943530528,-4.6297048235044365,-1.144039871494099,0.003603195327685878,-0.0005004387668718104
0.9500000000000001,0.7275174941401803,0.12967744919436122,-0.32826023930776677,0.40281944512861934,0.07717512832248057,0.0012890482790655015,0.46875262903545184,-1.1017072011766247,1.2687896838199049,0.31373146318276945,0.021086399891631878,0.0002435955634564008,-0.9755304888407649,5.862425368477327,-3.685272963725889,-1.325839249860005,-0.03311809140465019,-0.0013660788215750785,-0.04402296921788718,4.915194438311946,-4.6670073766878595,-1.149218325668658,0.004136016895705035,-0.0004914268617927786
0.96,0.7321083517180286,0.11924270299023534,-0.31593979982279674,0.4058299167079849,0.0773833842389634,0.0012913742960496775,0.4590857577848321,-1.0434746204125873,1.2320439484970045,0.30104715793655606,0.020825591648284323,0.00023260169841759874,-0.9622664439989942,6.057067469527535,-3.7620449451276827,-1.3365277590914442,-0.0309181274944835,-0.00138783596028208,-0.04664967835002604,4.938393585852407,-4.702079986564458,-1.1531387747337192,0.004699081498970642,-0.00048400127553177455
0.97,0.7366038523230204,0.10940956072383975,-0.3039944666824493,0.4087124205806439,0.07758919655420754,0.001293594313269629,0.4495500604991829,-0.9833142266395595,1.1945333140347434,0.2882503872658962,0.020581231524413674,0.00022200172199515227,-0.94936356769678,6.126556489159254,-3.834582623219466,-1.3436354902848748,-0.028701017615971255,-0.0014403260262286777,-0.048929413317676015,4.943682420158131,-4.734545822156884,-1.1559685811085596,0.005270447591601139,-0.00047792004580653923
0.98,0.7410052726411923,0.1001848761053055,-0.29243146107774565,0.41146619137672336,0.07779273799324633,0.001295710729573271,0.44014203181719336,-0.9224684618534242,1.1563005604703636,0.27537707960794633,0.020354143903879046,0.00021164163036421367,-0.9368271807210203,6.096594962878415,-3.902719511416204,-1.3470999939910975,-0.026460589402629686,-0.0015098585346075555,-0.05086550912773155,4.935320838868852,-4.764217179693262,-1.157866766881824,0.005834159683801633,-0.0004729670380589385
0.99,0.745313853670173,0.09156563293650091,-0.2812575560838346,0.41409081414328824,0.07799418848001993,0.001297724968091059,0.43085810289807164,-0.8619243168804601,1.1173904993910995,0.2624622766564861,0.020145048677359917,0.00020142385177879994,-0.9246577469218596,5.988813815552925,-3.9662498150943475,-1.3470531479709766,-0.024207329219514698,-0.0015863121740499198,-0.05247423349953052,4.916756769144618,-4.791045059958382,-1.1589806654019785,0.006378985066192071,-0.0004689503447241196
