tonegas/nnodely-applications/joint_friction_estimation/dataset/validation/mpc_mujoco_episode_6 copy.csv
time,q1,q2,q3,q4,q5,q6,dq1,dq2,dq3,dq4,dq5,dq6,ddq1,ddq2,ddq3,ddq4,ddq5,ddq6,tau1,tau2,tau3,tau4,tau5,tau6
0.0,0.0,1.57,-1.57,0.0,0.0,0.0,0.0,0.0,0.0,0.0,0.0,0.0,8.935226392756006,-25.405503608446665,-0.48496101835051775,1.262385236363258,1.4626833892025672,-3.1705553755756455e-06,1.2481002771952572,-17.47449517700859,-9.087099650562603,-1.952188282066311,0.11241742833768528,0.0004094841715835308
0.01,0.0008894249142197032,1.5674676479142113,-1.5700545543950695,0.00011117290883170199,0.00011962213094559573,1.2912494961925926e-06,0.08894249142197032,-0.2532352085788831,-0.005455439506940252,0.011117290883170199,0.011962213094559573,0.00012912494961925925,8.638548812408509,-25.277716775668242,-0.8650105975646483,0.982079220399342,1.2207679973179566,0.013040930393761307,1.196347410823458,-17.490596146756726,-9.116186746155275,-1.9607326980586925,0.10848870965817752,0.00036281302040520034
0.02,0.0026380270413809428,1.5624156201402366,-1.5702022126759427,0.0003092373098745384,0.00034328753894202714,3.9088195859589895e-06,0.17486021271612395,-0.5052027773974691,-0.014765828087319265,0.01980644010428364,0.02236654079964314,0.0002617570089766397,8.287355054867861,-25.126767279524916,-1.266282671843257,0.7305101243566554,1.0713685881388457,0.013818856988205397,1.1144824097591162,-17.478199727166007,-9.120811774906016,-1.9635578625255397,0.10255845847629945,0.00030419434970154564
0.03,0.0052104348308068624,1.5548588701534392,-1.5704833879476914,0.0005720014045157342,0.000660947593327008,7.755321610847775e-06,0.257240778942592,-0.755674998679736,-0.028117527174872876,0.026276409464119584,0.031766005438498085,0.0003846502024888787,7.879080309461043,-24.94789642561529,-1.6816888384469593,0.501543458846399,0.9813761769691354,0.01362978740777665,1.0048369643800863,-17.434854926723872,-9.099712169703448,-1.960385649324082,0.0946581438817597,0.00023355537954865345
0.04,0.008565791055629175,1.5448151108108403,-1.5709397056757979,0.0008789273279361212,0.001066056297887208,1.27556552003378e-05,0.3355356224822312,-1.0043759342598841,-0.04563177281066047,0.030692592342038697,0.04051087045602,0.0005000333589490025,7.4101451713836415,-24.736220636223702,-2.1043094451763267,0.29095353664051515,0.9306839059052407,0.0140999623319229,0.8706562365478732,-17.35788222323844,-9.051546761657288,-1.9509208366204542,0.08483705367294248,0.00015065313182119897
0.05,0.012657339764865851,1.532305307722986,-1.571613356499964,0.0012108423033577525,0.0015543143942970583,1.8869101499421293e-05,0.4091548709236676,-1.2509803087854277,-0.06736508241660019,0.03319149754216312,0.04882580964098501,0.0006113446299083491,6.876588897948426,-24.486889540295678,-2.5273521978214433,0.095968337577645,0.9070154530528889,0.015460376262139253,0.7161318238278451,-17.244438044426087,-8.974938177751234,-1.934861119720269,0.07317077023083227,5.51599288905188e-05
0.06,0.017432006992703346,1.5173541682706608,-1.5725464521005736,0.001549762062458419,0.0021228783341649573,2.6084106184731353e-05,0.4774667227837496,-1.495113945232513,-0.09330956006097793,0.03389197591006664,0.056856393986789905,0.0007215004685310061,6.274516090696682,-24.195233590170364,-2.944162748273733,-0.08508822107854996,0.9028481024265247,0.017812629851849504,0.546407669125548,-17.091582396742815,-8.868515827833617,-1.9119070302104815,0.0597708299437612,-5.324599104876014e-05
0.07,0.022830009962698662,1.4999906117842379,-1.5737803874928913,0.0018787987910323968,0.002769848114525555,3.441345516238494e-05,0.5398002969995317,-1.7363556486423015,-0.1233935392317595,0.03290367285739777,0.06469697803605975,0.0008329348977653584,5.600436213830883,-23.85691642405508,-3.3482763428858178,-0.25308422324870605,0.9135231981007266,0.021320691453115437,0.3675389512683529,-16.896359493541176,-8.73096245202386,-1.8817723191256956,0.0447950280500062,-0.00017477929008954875
0.08,0.028784523844360525,1.480248205861095,-1.575355216671418,0.002182130988230454,0.0034939182698942584,4.389150215618647e-05,0.5954513881661865,-1.9742405923142774,-0.15748291785267057,0.030333219719805703,0.07240701553687033,0.0009478046993801532,4.867281162574973,-23.291003940057063,-3.727162429181682,-0.40536208944131147,0.9361601210977,0.026245316465762336,0.18802894940852122,-16.564760767267384,-8.528563550071885,-1.837524543417963,0.028625331906500517,-0.00030345212097306057
0.09,0.03522298507749081,1.4581831991453955,-1.5773083087254431,0.0024451728529492124,0.004294189087206584,5.457438295960971e-05,0.6438461233130284,-2.2065006715699558,-0.19530920540250576,0.02630418647187583,0.08002708173123257,0.0010682880803423243,4.214809909267037,-20.95926566971521,-4.026371307529146,-0.5200521209967945,0.9702703749579591,0.03296400678777056,0.029025277844233588,-15.303976800343086,-7.980230551923526,-1.7216048865979103,0.012993996572363671,-0.0003862615054719452
0.1,0.042080907925912486,1.4340277989750654,-1.5796679773932303,0.00265563055029943,0.005170658043904949,6.65541701071284e-05,0.6857922848421676,-2.4155400170330186,-0.23596686677870848,0.02104576973502177,0.08764689566983644,0.0011979787147518687,3.5346927777314257,-18.41466195120879,-4.282504981424907,-0.6333668846842073,1.0177326288966793,0.04199272608349014,-0.1124339589231137,-13.906690253566552,-7.38225738682952,-1.595598131355286,-0.0027293805974059546,-0.00046952534595586523
0.11,0.04929124614288199,1.408035444635336,-1.58245821344042,0.0028014460957651055,0.006123835976072504,7.995363009386367e-05,0.7210338216969499,-2.5992354339729276,-0.2790236047189717,0.014581554546567552,0.0953177932167555,0.0013399459986735266,2.82044650788344,-15.758299814369384,-4.497878976484191,-0.745446699777986,1.0739033371132969,0.053734821841523006,-0.23130257321266845,-12.42407643291718,-6.758318935886276,-1.4646711518608895,-0.01822626800613819,-0.0005550784374860791
0.12,0.056783794638925564,1.3804707318918001,-1.58569896999588,0.0028708354848146237,0.007154369426237509,9.49236815605248e-05,0.7492548496043574,-2.756471274353591,-0.324075655546004,0.006938938904951832,0.10305334501650046,0.0014970051466661127,2.070127636972541,-13.026051572910912,-4.673909464611,-0.8552643596192695,1.1321048649591763,0.0685996386015453,-0.3236351740329998,-10.87408487174237,-6.119348613042277,-1.3313222388866286,-0.03313160512387406,-0.000642468448425333
0.13,0.06448503910576227,1.351605836921825,-1.5894063130960103,0.00285238192131559,0.008262566211887283,0.00011163918778750541,0.7701244466836706,-2.8864894969975174,-0.37073431001304136,-0.0018453563499033912,0.11081967856497744,0.0016715506226980617,1.2846468409396528,-10.208421091500563,-4.811844399873191,-0.9617629931035268,1.1823977188526245,0.08680294104680364,-0.38706312781005425,-9.251516925422777,-5.467403378971735,-1.19619187693888,-0.04706555950864186,-0.0007296883834485894
0.14,0.07231827364239557,1.321721460550185,-1.5935925274760838,0.0027351033733020247,0.009447761623663732,0.00013028986388982294,0.7833234536633296,-2.9884376371639827,-0.4186214380073391,-0.011727854801356508,0.11851954117764502,0.0018650676102317536,0.46560122290043254,-7.405755753113592,-4.913342171314339,-1.0645840280931722,1.2101088486606715,0.10804419555267653,-0.4211401761494568,-7.607611647873751,-4.824041844047782,-1.0638670082357762,-0.05965420202687918,-0.0008167479223149706
0.15,0.08020375164469457,1.2910968289492812,-1.5982663356376245,0.002508534796998924,0.010707449746088619,0.00015106162171620537,0.7885478002298992,-3.0624631600903816,-0.4673808161540758,-0.022656857630310077,0.12596881224248857,0.0020771757826382434,-0.38020266409132875,-4.695038458503799,-4.980340139974082,-1.1627638842742947,1.195053085634497,0.13106309364024615,-0.42738030192987453,-5.982420549916467,-4.2053721729507165,-0.9377279675709541,-0.0705502019165313,-0.0009027198881925313
0.16,0.08805928472634748,1.2600020219706924,-1.6034331265259016,0.002162840973965423,0.012036176494618083,0.00017410451240293571,0.7855533081652917,-3.1094806978588734,-0.5166790888277077,-0.034569382303350084,0.13287267485294646,0.0023042890686730353,-1.2408247169962763,-2.3002592439998253,-5.015219849135171,-1.2551950837474024,1.1128700840720422,0.1531604155721804,-0.4091525923767127,-4.492842586239261,-3.6532616376460396,-0.8263258578191548,-0.07943933295371042,-0.0009894903048502108
0.17,0.09580126069901222,1.228675655280442,-1.6090953212183323,0.0016890342900755394,0.013424275500637283,0.000199483624793491,0.7741975972664737,-3.1326366690250445,-0.5662194692430699,-0.04738066838898838,0.13880990060192,0.002537911239055529,-2.0987218028823187,-0.05945909219698398,-5.021650402614006,-1.3396516205945321,0.9401746396764503,0.1700756032037667,-0.3716031501720775,-3.0581062530061445,-3.1369373286737785,-0.7232207576775798,-0.08616808441453691,-0.0010714133022361174
0.18,0.10334614197719809,1.197341013455787,-1.6152526125467959,0.0010790186408425398,0.014856705832690753,0.00022711603239683795,0.754488127818587,-3.133464182465518,-0.6157291328463553,-0.061001564923299965,0.14324303320534698,0.002763240760334693,-2.9322647693464745,-0.0003215799863329526,-5.001963508393365,-1.4156256703501349,0.6635893888923299,0.1765154812051719,-0.3200262413052406,-2.7360450702005137,-3.0298181529407238,-0.7046597325994434,-0.09022721482644841,-0.0011871517743958582
0.19,0.1106123698668707,1.166004035076444,-1.621903496815538,0.0003269511867201052,0.01631247339218993,0.00025670053900097586,0.7266227889672607,-3.1336978379343012,-0.6650884268742161,-0.07520674541224345,0.14557675594991776,0.0029584506604137897,-3.725021873787951,-0.0005409169864669752,-4.971541417517768,-1.4695086787089018,0.2910724526090309,0.16878457926547652,-0.26231135315707,-2.438951590521172,-2.9248094997954075,-0.6861260926746495,-0.09237667418110429,-0.0012945653862853675
0.2,0.11752190675726773,1.134664738934138,-1.6290453257283384,-0.0005711911934236316,0.017765134774312682,0.00028768378995783727,0.6909536890397023,-3.13392961423061,-0.7141828912800491,-0.08981423801437367,0.14526613821227516,0.0030983250956861433,-4.460483965975324,-0.0007891058689158614,-4.9301448134687496,-1.5051859540975219,-0.14610848889867434,0.14533601897472792,-0.2032399961681331,-2.1368205442118073,-2.810688114336518,-0.6652634004302693,-0.09254050934200907,-0.0013903843352008611
0.21,0.12400196301607559,1.1033231374995989,-1.6366742701862513,-0.0016179516229111982,0.019184691306029993,0.00031925827170633375,0.648005625880786,-3.13416014345391,-0.7628944457912951,-0.10467604294875665,0.14195565317173123,0.0031574481748496467,-5.1307540149952215,-0.0010430156148264068,-4.877117539855059,-1.5259892848016374,-0.5947398303506439,0.10885031394289602,-0.14781204420775385,-1.8300760719339932,-2.687673631180692,-0.6420960278809908,-0.09065065872640646,-0.0014726327904128565
0.22,0.1299860211008924,1.0719792412024052,-1.6447852779549288,-0.0028146464264315694,0.02054092604614067,0.00035042598146639006,0.5984058084816816,-3.134389629719365,-0.8111007768677382,-0.11966948035203709,0.13562347401106745,0.003116770976005633,-5.7382854120716384,-0.0012861818314048598,-4.811779256384948,-1.5344427445334823,-0.9931940106518926,0.06601123102212281,-0.10118162750404328,-1.5189966397253254,-2.555980886570714,-0.6166526430355528,-0.08666803803656326,-0.0015396102023151367
0.23,0.1354138134742831,1.0406330610627654,-1.6533720235766733,-0.004161554192750695,0.021807518859814412,0.0003801281620394585,0.5427792373390687,-3.1346180139639808,-0.8586745621744492,-0.13469077663191253,0.1266592813673744,0.002970218057306845,-6.293757466691803,-0.0015108193379960578,-4.733465218752144,-1.5324692727867344,-1.2898404330934268,0.024960772429589717,-0.0685353648370621,-1.2036929233515286,-2.415808596115905,-0.5889644785469654,-0.08057247033154555,-0.0015899114303168551
0.24,0.1402303088255213,1.0092846099518482,-1.662426855865949,-0.005658058378931776,0.022965735206313127,0.0004074041827155914,0.48164953512381864,-3.1348451110917224,-0.9054832289275652,-0.14965041861810813,0.11582163464987136,0.00272760206761329,-6.8117946610660765,-0.0017204727204574142,-4.641602332008802,-1.5215400979357696,-1.4563738900003074,-0.00779104407373854,-0.05502142748777364,-0.8841102885395425,-2.2673360226357304,-0.5590645624315179,-0.07235184033282413,-0.0016223430917181102
0.25,0.1443841287151204,0.9779339026396177,-1.6719407515677418,-0.007302756561128219,0.024006577362302387,0.0004315253755808924,0.41538198895991263,-3.1350707312230504,-0.9513895701792829,-0.16446981821964426,0.1040842155989261,0.0024121192865300973,-7.306702244589295,-0.0019265270034877892,-4.535764697823315,-1.5027795444755228,-1.4909123942471165,-0.029090481592392692,-0.06571980276338427,-0.5600385342665798,-2.110719739552703,-0.5269862889878567,-0.061995812228167774,-0.0016357738619821286
0.26,0.14782594036033414,0.9465809552485005,-1.6819032814473962,-0.009093544874357037,0.024930955031975108,0.00045206498501303345,0.34418116452137326,-3.1352947391117154,-0.9962529879654497,-0.1790788313228817,0.09243776696727195,0.0020539609432141076,-7.789504431095354,-0.002142016940131487,-4.415676864485126,-1.4770367322424551,-1.4124928684653812,-0.039014328076045324,-0.105618532397938,-0.23111648390482742,-1.94608486283503,-0.4927603544461543,-0.04949662812218318,-0.0016289888604484036
0.27,0.1505072401478546,0.9152257848431692,-1.6923025896860628,-0.011027682641797296,0.02574818490054399,0.00046889805676658545,0.26812997875204586,-3.1355170405331316,-1.039930823866668,-0.19341377674402593,0.08172298685688817,0.001683307175355198,-8.266566158903899,-0.002376778386072356,-4.28116761866107,-1.4449337489425176,-1.2517659792265317,-0.03967456750769571,-0.17955934470236046,0.10317294483196249,-1.7735092393804957,-0.45640997655422855,-0.03485594330058859,-0.0016006064427608
0.28,0.15237970797809314,0.8838684096277795,-1.7031253823918022,-0.013101840028101549,0.02647354617881671,0.00048215077743937144,0.18724678302385198,-3.1357375215389767,-1.0822792705739468,-0.20741573863042517,0.07253612782727176,0.001325272067278596,-8.73951443779349,-0.0026355533079075854,-4.132097020969554,-1.4068984740972326,-1.0421201142480048,-0.03392139832055552,-0.29213278362798556,0.4435142986310838,-1.59300272505478,-0.41794499782470496,-0.018094787055667114,-0.0015490789431522431
0.29,0.1533951172729958,0.8525088498497072,-1.7143569182669816,-0.015312130473158084,0.02712563352183506,0.0004921268767166976,0.10154092949026611,-3.1359559778072263,-1.1231535875179275,-0.22102904450565353,0.06520873430183521,0.000997609927732615,-9.205970159939096,-0.0029184228941704603,-3.9682820517649833,-1.3631888074643452,-0.8134384886857688,-0.02445522226664476,-0.4475219270939077,0.7907709677913481,-1.4044856672285497,-0.3773557998592021,0.0007361745069975334,-0.0014727659944731007
0.3,0.15350568205210866,0.8211471292540273,-1.725980994261421,-0.017654129251617995,0.027724027596064262,0.0004992335997549671,0.011056477911286819,-3.1361720595679885,-1.1624075994439536,-0.23419987784599125,0.05983940742292022,0.0007106723038269517,-9.660625707733114,-0.003222222713947962,-3.7894361011029196,-1.3139124347819813,-0.5888928831734814,-0.013409843593486848,-0.6493062771716687,1.1459894049584791,-1.2077706764843144,-0.3346078899476198,0.02154788504464617,-0.001370054616773678
0.31,0.15266469581667433,0.7897832768585542,-1.7379799203768491,-0.02012287937802569,0.028287535502393883,0.0005039201343353391,-0.08409862354343377,-3.136385239547317,-1.199892611542805,-0.2468750126407697,0.05635079063296187,0.0004686534580372008,-10.096329032774355,-0.003542004043497495,-3.595133425091337,-1.2590457882383514,-0.38416626054404723,-0.002265870700258077,-0.9002417243976059,1.5103892437502378,-1.0025520423658478,-0.2896381281279812,0.04420646194261425,-0.0012394989777269553
0.32,0.15082733355438466,0.758417328856953,-1.7503344802449015,-0.022712886203135045,0.028833044664421187,0.0005066330089039604,-0.18373622622896613,-3.1365948001601205,-1.235455986805231,-0.2590006825109356,0.05455091620273047,0.0002712874568621286,-10.5050057907691,-0.003872023149372239,-3.3847960451893213,-1.1984527308769906,-0.20818879079309838,0.008066988683164134,-1.2020335861434526,1.885335824087183,-0.7884052111141153,-0.24235314605538966,0.06852925205794738,-0.0010799610947055858
0.33,0.1479515187899988,0.7270493305460335,-1.7630238763159984,-0.025418102149532256,0.029374911976598233,0.0005077877513952564,-0.2875814764385868,-3.1367998310919543,-1.2689396071096901,-0.27052159463972114,0.05418673121770445,0.00011547424912960831,-10.87835220264743,-0.004206122436608346,-3.1577101119508493,-1.131906446360352,-0.06457364138756105,0.017110824696971783,-1.5551171485028128,2.272290990938977,-0.5647998025593097,-0.19263088022847571,0.09428324133263119,-0.0008907391495351917
0.34,0.14399878886648199,0.6956793382553365,-1.776025661399001,-0.028231903444722227,0.029924760470086017,0.0005077536963805372,-0.3952729923516807,-3.1369992290697035,-1.3001785083002582,-0.28138012951899694,0.05498484934877828,-3.405501471924355e-06,-11.208335359203257,-0.004538165923791693,-2.913051069167667,-1.0591098999999318,0.04680832844076832,0.02468286906093109,-1.9584614240446963,2.6727453916577857,-0.33112479124432587,-0.1403249582715514,0.12118568183486163,-0.0006716791536869672
0.35000000000000003,0.13893511423232746,0.6643074212653373,-1.7893156591510748,-0.031147060630767,0.030491552309611848,0.0005068482572200918,-0.5063674634154525,-3.137191698999924,-1.3289997752073655,-0.29151571860447706,0.05667918395258315,-9.054391604455163e-05,-11.487514359919528,-0.004861620855417338,-2.649938496312687,-0.9797222577572349,0.1284281374695766,0.030784718415449497,-2.409406517263948,3.0881294443123988,-0.08672949088413706,-0.08527306558342063,0.14890668720726793,-0.0004232639918684729
0.36,0.13273164573580742,0.6329336637727778,-1.802867879025954,-0.0341557052729607,0.03108182665303827,0.0005053373543968687,-0.6203468496520039,-3.1373757492559484,-1.3552219874879279,-0.3008644642193701,0.0590274343426422,-0.00015109028232230553,-11.70926181259035,-0.005169901706827289,-2.36748642426435,-0.893381946839181,0.1839999518038411,0.03552181061935311,-2.9035495825213022,3.5197123682812297,0.16902499458877784,-0.02730809396119621,0.17707376000389033,-0.00014668122906594618
0.37,0.12536537288702088,0.601558166881865,-1.8166544307233423,-0.03724929499225377,0.031700018309916145,0.0005034394114789569,-0.7366272848786545,-3.137549689091284,-1.3786551697388238,-0.30935897192930684,0.061819165687787676,-0.00018979429179118395,-11.867892649898492,-0.005455729296360498,-2.0648771065853473,-0.7997355094460081,0.21769997206235558,0.039049292800002355,-3.434686952138578,3.9684888238256386,0.4367015779971991,0.03372708859705603,0.20527801167254345,0.0001561341673642718
0.38,0.11681968392234883,0.570181050673826,-1.8306454454694954,-0.04041857955135112,0.032348799671738517,0.00050133108158698,-0.8545688964672048,-3.1377116208039033,-1.3991014746153136,-0.3169284559097355,0.0648781361822374,-0.0002108329891976864,-11.958744486895608,-0.005710091223753398,-1.7414436682443126,-0.6984684954357352,0.23366074462727227,0.041538107949921965,-3.994822790117743,4.43506163219714,0.7167150743572555,0.097962297781905,0.2330819714275909,0.00048248150742274823
0.39,0.10708482209235988,0.5388024564282338,-1.844809012308171,-0.04365357094610019,0.03302941024264397,0.0004991535029499951,-0.9734861829988944,-3.1378594245592235,-1.416356683867568,-0.32349913947490677,0.0680610570905452,-0.000217757863698493,-11.978247912080114,-0.005923797857001839,-1.396715851199383,-0.5893239673450603,0.23567858500967276,0.04315533342760958,-4.574255790009014,4.919536369338288,1.0092622857590479,0.16548260560694178,0.2600290097329122,0.0008289014487966625
0.4,0.09615823263364269,0.5074225488187551,-1.85911113392044,-0.04694351925079636,0.03374195435012271,0.0004970183635367815,-1.0926589458717186,-3.137990760947861,-1.430212161226898,-0.3289948304696172,0.07125441074787464,-0.000213513941321359,-11.923946676141341,-0.006084309215534364,-1.0305011679852605,-0.47213169221264284,0.22707356697738135,0.04405397223649299,-5.161740263402702,5.421423398442522,1.314249396416264,0.23630933760080894,0.2856538212924768,0.0011912120009866605
0.41000000000000003,0.08404479918803243,0.4760415183437383,-1.8735157099508686,-0.05027689704108858,0.03448565874553411,0.0004950133949200746,-1.2113433445610258,-3.138103047501686,-1.440457603042851,-0.3333377790292222,0.07437043954113982,-0.00020049686167069333,-11.794503896492248,-0.006170730632558928,-0.6429642856326888,-0.3468367817677258,0.21064878949542987,0.0443686876180851,-5.7447257780342875,5.9395607146152924,1.6312266598253908,0.31038207703275195,0.30949381942966026,0.0015645714596044821
0.42,0.07075696939229559,0.44465958442234593,-1.8879845556145278,-0.053641395173438806,0.03525908878778052,0.0004932071355767563,-1.3287829795736839,-3.1381933921392355,-1.446884566365922,-0.3364498132350229,0.07734300422464152,-0.00018062593433182915,-11.50866145061786,2.430952789129626,-0.43179337059937595,-0.2773917535343706,0.19025918352152615,0.04421442638420059,-6.289121334769465,7.907133942479103,2.486165625046362,0.5007900306943267,0.32919643684453,0.0020065137455998142
0.43,0.05632283353700489,0.4135195354904964,-1.9024947528017864,-0.05703195035445596,0.036060212843805416,0.0004916569569032769,-1.4434135855290702,-3.1140048931849513,-1.4510197187258473,-0.33905551810171564,0.08011240560248922,-0.00015501786734792986,-11.142231455211528,6.3531795116583725,-0.24630544724930203,-0.2400730475474404,0.16436716346409241,0.0434803664943455,-6.773874164040038,10.81268958869691,3.673446202485798,0.7631806707768594,0.3440393675606426,0.002467437190239916
0.44,0.040778581837300265,0.38301200813288694,-1.9170247108045606,-0.06044722526041598,0.03688645174413012,0.0004903994903477426,-1.5544251699704625,-3.050752735760945,-1.4529958002774244,-0.34152749059600196,0.08262389003247045,-0.0001257466555534336,-10.719866478610902,9.359131183323711,-0.029735201533902966,-0.22613963701623163,0.13441315385598074,0.04203892101252757,-7.169341380521731,13.20739954122301,4.63634875314194,0.9759243071667751,0.35393319700376136,0.0028617889575011323
0.45,0.024166048007467522,0.35343642667996145,-1.9315507282528395,-0.06388683099473391,0.03773492922629302,0.0004894451297928743,-1.6612533829832743,-2.9575581452925506,-1.4526017448278934,-0.34396057343179376,0.08484774821628968,-9.543605548683896e-05,-10.244808977587041,11.599945858900895,0.20825005059817414,-0.22186847875074278,0.10307286274564831,0.040040750137938175,-7.464908228928072,15.161301431529697,5.4105834269550765,1.1471072671012008,0.3589455064433435,0.003190590086909233
0.46,0.006532376712564656,0.3250160443317535,-1.9460477332256274,-0.06735043333635919,0.038602663406411684,0.0004887856390055533,-1.7633671294902864,-2.842038234820791,-1.4497004972787833,-0.3463602341625283,0.08677341801186672,-6.594907873210607e-05,-9.720885434358904,13.205670105569087,0.4601576130690077,-0.2182655744690294,0.07203981594353337,0.03771100068772171,-7.655052095120601,16.73581442709902,6.027077589099781,1.283728210736375,0.3593057810786094,0.003456071529518997
0.47000000000000003,-0.012070366184200768,0.29791088732430915,-1.9604898568946565,-0.07083719674568284,0.03948668782356959,0.0004884013636979976,-1.8602742896765423,-2.710515700744437,-1.4442123669029174,-0.3486763409323653,0.08840244171579059,-3.842753075557323e-05,-9.152353382792947,14.28777872940276,0.7201519891206232,-0.20972780315599948,0.042290851461430634,0.03522491454825882,-7.738797923475403,17.984703277060333,6.512184089458813,1.3917265561886882,0.35535827473363246,0.003661385392680994
0.48,-0.031585625241602244,0.2722288519658839,-1.9748508806162097,-0.07434546749148206,0.04038412142994435,0.0004882664925345782,-1.9515259057401477,-2.56820353584252,-1.4361023721553139,-0.3508270745799223,0.08974336063747651,-1.3487116341940969e-05,-8.54377419777875,14.94154328470586,0.9836591760056237,-0.1930552005579358,0.014306579907490402,0.03270350485392104,-7.718961491912735,18.955016944559333,6.888106175641141,1.476071890609111,0.34752111926552565,0.003810348264954858
0.49,-0.05195281631935927,0.24803518960682538,-1.9891045869018475,-0.07787262355855577,0.04129220351784962,0.0004883526125870479,-2.0367191077757023,-2.4193662359058536,-1.4253706285637748,-0.3527156067073715,0.09080820879052631,8.612005246971726e-06,-7.899907972425471,15.24812723739539,1.2470660197468035,-0.1667261473143924,-0.011755822561632101,0.03022558931347641,-7.601306369184501,19.68791392944801,7.173400640636488,1.5408786694952674,0.3362524586447399,0.0039072154351637405
0.5,-0.07310780637246318,0.22536058761238964,-2.0032250373595972,-0.08141503857500633,0.04220830599827148,0.0004886309947976688,-2.1154990053103915,-2.2674601994435735,-1.4120450457749842,-0.35424150164505624,0.09161024804218634,2.783822106208969e-05,-7.225626379760163,15.276432881782794,1.5074927407385417,-0.1303681896753801,-0.035934258277187325,0.027839671599129368,-7.393712693110233,20.21938053086817,7.383493294583587,1.5895280157580545,0.32202369202372194,0.0039564891200618455
0.51,-0.094983403620653,0.20420802985589434,-2.0171867950362063,-0.08496812151103482,0.04312993216425295,0.0004890739839209061,-2.187559724818981,-2.1152557756495303,-1.3961757676609041,-0.3553082936028496,0.09216261659814631,4.4298912323737974e-05,-6.525839880483743,15.084727151119486,1.7626216495351272,-0.08437387172949684,-0.05837109979957944,0.02557331091859405,-7.105423841270497,20.580853491619663,7.531168052492399,1.6247855832294795,0.30529938324947736,0.0039627618654621225
0.52,-0.11750985096926383,0.18455859835714586,-2.03096510423342,-0.08852640461556185,0.04405470832577778,0.0004896557785879815,-2.252644734861084,-1.9649431498748475,-1.3778309197213294,-0.3558283104527032,0.09247761615248312,5.8179466707538514e-05,-5.8054363839214,14.722071073237837,2.010568923684936,-0.029623696943687605,-0.07925253577934654,0.02344004178267145,-6.746407873279347,20.799759451056985,7.627008874588643,1.6489092637449954,0.2865230580550751,0.003930594031887198
0.53,-0.14061531667752014,0.1663763582306103,-2.044536037525189,-0.09208365993776595,0.044980372549618265,0.000490352809233452,-2.3105465708256303,-1.8182240126535543,-1.3570933291769414,-0.3557255322204086,0.09256642238404855,6.970306454704415e-05,-5.069229208203479,14.229574991642615,2.249789293925353,0.032712012416595826,-0.09877044162157134,0.021444311650450132,-6.326847407060837,20.899983291599327,7.679785641741892,1.6637437575420218,0.2661079419846613,0.003864422454898807
0.54,-0.16422637717505253,0.14961245082542796,-2.057876617142819,-0.09563303055625352,0.045904763135061456,0.0004911438603197918,-2.36110604975324,-1.6763907405182348,-1.3340579617629842,-0.3549370618487571,0.09243905854431887,7.910510863399437e-05,-4.321912804511341,13.641499267894144,2.479005780386398,0.10131332718938779,-0.11710041563822671,0.01958491399286233,-5.856755186926679,20.902276438205682,7.6967825717723795,1.670801137747098,0.24443165434765263,0.0037684962024577464
0.55,-0.18826848768190158,0.13420850460181594,-2.07096491594735,-0.0991671668556952,0.046825808316713693,0.000492010037358353,-2.404211050684903,-1.540394622361201,-1.3088298804531284,-0.3534136299441667,0.09210451816522351,8.661770385612215e-05,-3.568025181273325,12.98621804343161,2.697158383754818,0.17480852783450018,-0.13439090386547647,0.017857318329704164,-5.345702465968774,20.824614796697666,7.6840722642241035,1.6713278443891277,0.22183392593430584,0.0036468348200388275
0.56,-0.21266643693940313,0.12009945968742734,-2.0837801417384805,-0.10267836125750296,0.047741517910445105,0.0004929346458838803,-2.439794925750154,-1.4109044914388589,-1.2815225791130527,-0.35111944018077595,0.09157095937314148,9.246085255272589e-05,-2.811916298121096,12.287061743077937,2.9033669972367306,0.2518410070273518,-0.15075956230778687,0.01625521094323501,-4.802642244986259,20.682514525640592,7.646740854256002,1.6663592839618824,0.19861651495904709,0.0035032044345858593
0.5700000000000001,-0.23734478294227246,0.10721589000750893,-2.096302707552598,-0.1061586770309178,0.048649977117086574,0.000493903025942547,-2.4678346002869347,-1.2883569679918412,-1.2522565814117272,-0.3480315773414838,0.09084592066414665,9.683800586666395e-05,-2.0577219080276468,11.563052316810243,3.09690485929584,0.3311137294466704,-0.16629405385262785,0.014771481997064129,-4.235807982296597,20.48931238444154,7.5890707639276425,1.656763567837796,0.17504462798825632,0.003341107424110189
0.58,-0.26222826709616515,0.09548589621894976,-2.1085142897975118,-0.10960006840857882,0.04954934239451742,0.0004949023693288599,-2.48834841538927,-1.1729993788559163,-1.221158224491399,-0.3441391377661021,0.08993652774308486,9.993433863128336e-05,-1.3093424787341765,10.829543710015457,3.2771796882404765,0.41141748882643014,-0.1810553159858026,0.01339883185073898,-3.652669348294417,20.25641608221224,7.514687669564415,1.6432760294135873,0.15134929069879627,0.0031637819070784424
0.59,-0.2872422047245877,0.08483663325245565,-2.120397875494067,-0.11299449037242647,0.050437839142196884,0.0004959215357715315,-2.5013937628422585,-1.0649262966494109,-1.1883585696555314,-0.3394421963847653,0.08884967476794618,0.00010191664426715534,-0.5704268468190856,10.098778704558088,3.4437202840526453,0.4916475518318393,-0.19508197442785336,0.012130120845822656,-3.0599288505665343,19.993528919639267,7.426677917263822,1.6265261114818736,0.12773024207381675,0.0029742079405364473
0.6,-0.3123128503159017,0.07519552794632739,-2.1319377994940933,-0.11633399728419336,0.051313760867631085,0.0004969508770013507,-2.5070645591314014,-0.9641105306128256,-1.1539924000026376,-0.33395069117668963,0.0875921725434201,0.00010293412298191633,0.1556396911446031,9.380372074092694,3.5961668904323076,0.5708120582785625,-0.20839504929757124,0.01095855086288644,-2.4635460078592084,19.708852090548245,7.327681962360943,1.6070580792825455,0.10435904001278881,0.0027751179611914282
0.61,-0.3373677363399296,0.06649123492134909,-2.1431197722795807,-0.119610830100019,0.05217546948860388,0.0004979820730040089,-2.5054886024027865,-0.8704293024978292,-1.118197278548726,-0.3276832815825643,0.08617086209727964,0.00010311960026581627,0.8657431269735906,8.681728881979204,3.7342640170610757,0.6480346470556171,-0.22100243661591357,0.00987774043624956,-1.8687786593084983,19.40926725293008,7.219968633018679,1.5853468338627938,0.08138216179280695,0.002569009600750596
0.62,-0.36233598487584795,0.05865437238888367,-2.1539308987866534,-0.12281749229713908,0.05302139644476811,0.0004990079819409356,-2.496824853591831,-0.7836862532465421,-1.0811126507072863,-0.3206662197120088,0.08459269561642287,0.00010259089369266498,1.5570447017847913,8.008405819865798,3.8578547422247027,0.7225531111384171,-0.23290287962194256,0.00888173596303976,-1.2802335998267207,19.100501444388655,7.105494252526615,1.5618099107497527,0.05892395702165661,0.0023581595189752563
0.63,-0.387148591668749,0.05161807391140335,-2.1643596886137533,-0.12594681490099743,0.05385004433119336,0.0005000225036193375,-2.481260679290106,-0.7036298477480322,-1.0428789827099774,-0.31293226038583494,0.08286478864252471,0.00010145216784018494,2.226981373408475,7.364422582171061,3.96687577733406,0.7937153941759689,-0.24408930294341147,0.007964987948251734,-0.7019210434010861,18.787275981887998,6.985949920799227,1.5368165603844557,0.03708937051911555,0.0021446373318698797
0.64,-0.4117386825791389,0.045318387156943384,-2.174396057944906,-0.12899201116921388,0.05465998881384852,0.0005010204555879654,-2.4590090910389963,-0.6299686754459966,-1.003636933115275,-0.30451962682164446,0.0809944482655168,9.979519686279643e-05,2.8732631678528073,6.752528517091199,4.061352879024444,0.8609739110998618,-0.2545514826621229,0.007122311115724866,-0.13730919488410764,18.47344004994506,6.8627993644727905,1.5106945801788356,0.015966394272727905,0.0019303190146989792
0.65,-0.4360417426992301,0.03969454623225098,-2.1840313235206708,-0.13194672158686696,0.055449880635880015,0.0005019974606340501,-2.4303060120091127,-0.5623840924692401,-0.9635265575764662,-0.29547104176530675,0.07898918220314899,9.770050460847792e-05,3.4938678007410244,6.174434666865235,4.141395837219012,0.9238787406443549,-0.26427808556089616,0.006348840516615217,0.41062338484290195,18.16209314903385,6.737310623427804,1.483735737275061,-0.004371765102000574,0.0017168995966071923
0.66,-0.4599958186812459,0.03468914072793085,-2.1932581890517304,-0.1348050498956704,0.05621844756933385,0.0005029498444452678,-2.395407598201584,-0.5005405504320132,-0.922686553105962,-0.28583283088034517,0.07685669334538363,9.523838112176003e-05,4.087032903591236,5.631006116511867,4.2071937376594715,0.9820704368983826,-0.27325815382490504,0.005639990438196629,0.939338931090147,17.855690845566464,6.61058068068969,1.4561996554847472,-0.0238647909354764,0.0015059046595868144
0.67,-0.48354169506106537,0.03024820065324406,-2.2020707244697597,-0.13756159088030967,0.05696449620803903,0.000503874542360431,-2.354587637981945,-0.4440940074686788,-0.8812535418029479,-0.27565409846392636,0.0746048638705179,9.246979151631631e-05,4.651246325631642,5.122430868061884,4.259009338039316,1.0352725255589874,-0.28148211112505805,0.004991420171147398,1.4466957271229375,17.556142578077726,6.483557326625597,1.42831719309862,-0.04246361828993969,0.0012987010351646678
0.68,-0.5066230455518452,0.026321214094563658,-2.2104643385026552,-0.14021145065113047,0.05768691353175314,0.0005047690143561724,-2.3081350490779893,-0.3926986558680399,-0.8393614032895363,-0.26498597708208077,0.07224173237141122,8.944719957414295e-05,5.185234836989175,4.648359536396883,4.297173413200625,1.0832841378656255,-0.2889423895737053,0.004399007769756658,1.9309076108801195,17.26489610938687,6.35705678963675,1.4002930148222035,-0.06012902376980469,0.0010965064121533702
0.6900000000000001,-0.5291865604411257,0.022861091522011226,-2.218435745078288,-0.14275026013221784,0.058384668199781234,0.0005056311676520273,-2.2563514889280483,-0.3460122572552433,-0.7971406575632453,-0.25388094810873624,0.06977546680280958,8.621532958550106e-05,5.687951193115417,4.208069411903197,4.322074187297501,1.1259713161649358,-0.2956337504585207,0.0038588319510934888,2.390507265675442,16.983042938484434,6.231790786331366,1.3723104856943609,-0.07683043071828784,0.0009003996662770543
0.7000000000000001,-0.551182051388014,0.019824093078259646,-2.2259829244852454,-0.14517418262391832,0.05905681155093876,0.0005064592863464331,-2.199549094688834,-0.303699844375158,-0.7547179406957566,-0.2423922491700468,0.06721433511575291,8.281186944058319e-05,6.158560104741691,3.800701608073584,4.334144326114547,1.1632573018987742,-0.301553420303847,0.003367157407758281,2.824313404721123,16.711478776935763,6.108416663966935,1.3445420612826973,-0.0925449456390955,0.0007113335136638491
0.71,-0.5725625350259312,0.017169742437819616,-2.233105080338723,-0.14747991646594316,0.05970247829298411,0.0005072519672954693,-2.138048363791717,-0.2654350640440031,-0.7122155853477585,-0.23057338420248394,0.06456667420453541,7.926809490362165e-05,6.59453545477618,3.688506879137844,4.315268506461361,1.1887608457017116,-0.306672468810973,0.0029203598297042888,3.2300605929436275,16.629870564253117,6.0570355807934515,1.3330439180850748,-0.10735133922883597,0.0005393388564064056
0.72,-0.5932844859798545,0.014886875731045045,-2.2398040523636182,-0.1496655274193747,0.060320867186170773,0.000508007210853558,-2.0721950953923223,-0.22828667067745706,-0.6698972024895209,-0.2185610953431526,0.06183888931866611,7.55243558088691e-05,6.995708366499108,3.73089321908919,4.274673009932629,1.2020950270780624,-0.31122138406191624,0.002496479011814934,3.609033668559402,16.644918472191737,6.041357080987202,1.3295352975396832,-0.12125781046229846,0.00037869336989507544
0.73,-0.6133078533125988,0.012979673874305308,-2.246083619144795,-0.15173030049230787,0.06091123763159615,0.0005087215146690578,-2.0023367332744324,-0.1907201856739737,-0.6279566781176684,-0.20647730729331845,0.059037044542537546,7.143038154997274e-05,7.362765707220922,3.7486261032136907,4.224359603259501,1.2064432613684275,-0.3152423524636916,0.002080191397141107,3.9618803585745055,16.635677546808733,6.014521496016064,1.3233014913902645,-0.1342112049352617,0.00022324893562317432
0.74,-0.6325959916482524,0.011449858168326579,-2.2519485726881108,-0.15367426489989663,0.061472921822965244,0.0005093899721625605,-1.9288138335653588,-0.15298157059787298,-0.5864953543315584,-0.19439644075887674,0.05616841913690947,6.6845749350276e-05,7.695566708142496,3.74972558747264,4.1637865232581,1.203208659000932,-0.31860611637016945,0.0016733929672021475,4.287457484711402,16.608118481013282,5.979247696499904,1.3149843993906476,-0.14617876062294738,7.451067930489095e-05
0.75,-0.6511156755374083,0.01029748567338798,-2.257404748808461,-0.15549809673543513,0.06200533245635145,0.0005100067458852282,-1.8519683889155936,-0.11523724949385995,-0.5456176120350575,-0.1823831835538488,0.05324106333862054,6.167737226676398e-05,7.994184260344196,3.7322225632841914,4.093228392446541,1.193562604656897,-0.3212439035609833,0.0012814109095522497,4.585000387160844,16.561386484965674,5.935556578859804,1.3046061435032577,-0.15713588796360084,-6.658141249182609e-05
0.76,-0.66883709238031,0.009520752939432492,-2.2624589952227065,-0.15720302544491524,0.06250796718439715,0.0005105654776550438,-1.7721416842901612,-0.07767327339554878,-0.5054246414245286,-0.17049287094801105,0.050263472804569234,5.587317698156005e-05,8.258824882558557,3.6964388450991343,4.012960781177803,1.1784261648393048,-0.32311719933873917,0.0009089080203272815,4.853982060689704,16.49617745674795,5.884044469925419,1.2923199029364545,-0.16706695266809174,-0.00019915089944103092
0.77,-0.6857338219627447,0.009116027680692619,-2.2671191383475473,-0.1587907613266944,0.06298041077849251,0.0005110596103981976,-1.6896729582434764,-0.040472525873987246,-0.4660143124840811,-0.15877358817791493,0.047244359409536175,4.941327431537737e-05,8.489826120563194,3.6430781435983897,3.923353782778623,1.1585384468332478,-0.32420932424541604,0.0005595249647383227,5.094113589500967,16.41343949236028,5.825373794969754,1.2782929427926424,-0.17596446981720876,-0.000322465136685155
0.78,-0.7017828028706904,0.009077918703025895,-2.2713939419907594,-0.16026343659088665,0.06342233572364349,0.0005114826335912947,-1.604898090794574,-0.003810897766672365,-0.4274803643211893,-0.1472675264192271,0.04419249451509869,4.2302319309707096e-05,8.687646290817813,3.572947142199418,3.8248651645283864,1.1345057212189111,-0.32451821218209886,0.0002359710743657928,5.305324511653508,16.314183754694607,5.760198925130723,1.262689531645162,-0.18382831492858218,-0.00043594284498674587
0.79,-0.7169642868165337,0.009399356312469727,-2.2752930586098192,-0.1616235560315801,0.06383350175326387,0.0005118282693017191,-1.5181483945843282,0.03214376094438311,-0.3899116619059684,-0.13601194406934367,0.04111660296203758,3.4563571042440704e-05,8.85285348078762,3.4869175594124044,3.7180230697773577,1.1068373458119396,-0.32405148218731483,-5.981616008643442e-05,5.487741087660279,16.199460389187298,5.689157288714865,1.245668890257181,-0.19066497877174146,-0.0005391496639552876
0.8,-0.7312617819818112,0.010071679382105354,-2.2788269745685703,-0.1628739546504267,0.0642137546590753,0.0005120906128718215,-1.4297495165277585,0.06723230696356286,-0.3533915958751189,-0.12503986188465988,0.03802529058114351,2.623435701023405e-05,8.986115297771777,3.385876170702635,3.603413166274674,1.0759729023607925,-0.32282324096391335,-0.0003265343854321756,5.641665760036934,16.070326055439892,5.612857712922165,1.2273825318486873,-0.19648685992666684,-0.0006317926966248688
0.81,-0.7446619864046359,0.011084724070219985,-2.2820069504802,-0.16401776020367237,0.06456302459800986,0.0005122642388532007,-1.3400204422824662,0.1013044688114631,-0.31799759116296944,-0.11438055532456616,0.03492699389345566,1.7362598137916544e-05,9.088188299542356,3.2707913683236876,3.4816619074261794,1.0423004479705007,-0.3208519942157011,-0.0005634086433055074,5.767557385407597,15.92789192734328,5.531900618235592,1.2079789612089955,-0.20131164611789512,-0.0007137095630072956
0.8200000000000001,-0.7571547124706807,0.012426920764550825,-2.284844957990562,-0.16505835945089323,0.06488132403470441,0.0005123442797743003,-1.2492726066044755,0.13421966943308394,-0.28380075103620983,-0.10405992472208542,0.031829943669455345,8.004092109961028e-06,9.159908946375063,3.1426464169204906,3.353429915189202,1.0061710651760905,-0.3181593896832595,-0.0007701124385732783,5.8660142802803295,15.773279077123798,5.446862236307842,1.1876001015701214,-0.2051617238785634,-0.0007848619819721256
0.8300000000000001,-0.7687328034133569,0.014085392596437627,-2.2873536136104393,-0.1659993669859344,0.06516874541474654,0.0005123264833605002,-1.1578090942676202,0.1658471831886802,-0.2508655619877436,-0.09410075350411819,0.028742138004213855,-1.7796413800087207e-06,9.202184503854454,3.002459457906002,3.2194020494925564,0.9679086727319728,-0.3147693607833162,-0.0009467041385020636,5.9377583438358865,15.607633235214415,5.358302270436331,1.1663831313159159,-0.20806366526811151,-0.0008453253339855123
0.84,-0.7793920427334137,0.016046057488275048,-2.2895461104302783,-0.16684459598940918,0.06542545862967566,0.0005122072523775008,-1.065923932005676,0.19606648918374223,-0.21924968198388792,-0.08452290034747871,0.025671321492912454,-1.1923098299935296e-05,9.215984612024469,2.851277908924541,3.0802803507587315,0.9278169937804961,-0.31070759954440064,-0.0010935764218142907,5.983621126094847,15.4321211232558,5.266764454925822,1.1444606872674499,-0.21004776508586048,-0.0008952789306913756
0.85,-0.7891310573811489,0.018293733159168886,-2.2914361483351167,-0.16759803041853732,0.06565170831510209,0.000511983670186634,-0.9739014647735227,0.2247675670893836,-0.18900379048382798,-0.07534344291281567,0.022624968542642405,-2.2358219086688978e-05,9.202333321499655,2.6901740353842998,2.9367779437863035,0.8861843413330099,-0.30600120577504697,-0.0012114148113182566,6.004531404461922,15.247926801769658,5.1727771842072245,1.1219610831421174,-0.21114762591083677,-0.0009349960067731892
0.86,-0.7979512154975392,0.02081224463322804,-2.2930378632606,-0.16826379831149355,0.06584781101136938,0.0005116535143612332,-0.8820158116390404,0.2518511474059155,-0.16017149254831228,-0.06657678929562227,0.01961026962673023,-3.301558254007917e-05,9.162301568292563,2.5202406159249,2.789613713076312,0.8432867878445336,-0.30067843899585966,-0.001301162226465813,6.001504036482213,15.05624729231841,5.0768538774852034,1.0990084634623092,-0.21139978259573658,-0.0009648335818723527
0.87,-0.8058565194666246,0.023584533806713028,-2.2943657559698303,-0.16884614600174222,0.0660141522091606,0.0005112152601925776,-0.7905303969085371,0.27722891734849864,-0.1327892709230612,-0.05823476902486789,0.016634119779120823,-4.382541686556283e-05,9.09700005760634,2.3425864474614144,2.639507567230054,0.7993901445468019,-0.29476852619150407,-0.0013639876213327184,5.9756298164627575,14.858287353884645,4.979492998314939,1.075722872713471,-0.21084335723724387,-0.0009852222836065016
0.88,-0.8128534949905442,0.02659277061627007,-2.29543462078441,-0.1693494131245315,0.06615118329851488,0.0005106680755471358,-0.6996975523919577,0.30082368095570455,-0.10688648145795507,-0.050326712278929375,0.01370310893542863,-5.4718464544183476e-05,9.00757253077031,2.1583316082787394,2.487176146481908,0.7547510700265896,-0.28830149702561414,-0.0014012574229473884,5.928066055039099,14.655253454753925,4.881177720500345,1.0522202370307494,-0.2095197356802673,-0.000996656200958512
0.89,-0.8189510768603071,0.029818465327992854,-2.296259474668406,-0.1697780083608545,0.0662594184376387,0.0005100118082782361,-0.6097581869762946,0.32256947117227824,-0.08248538839962305,-0.0428595236323006,0.010823513912381615,-6.562672688996028e-05,8.895189395151116,1.9686024550347403,2.3333288627117197,0.7096175482601375,-0.2813080306796394,-0.0014145088344479362,5.860027614497313,14.448347052926243,4.782375266606718,1.028612264421988,-0.20747225722960977,-0.0009996828266241374
0.9,-0.8241604920591058,0.03324258144186534,-2.2968554870382216,-0.17013638590964805,0.06633943135683558,0.0005092469672135826,-0.5209415198798658,0.3424116113872488,-0.05960123698157903,-0.03583775487935682,0.008001291919687986,-7.648410646535107e-05,8.761041703063983,1.7745263576578938,2.1786641917281555,0.6642289173378426,-0.27381930672633814,-0.0014054244050143438,5.772778163743934,14.238757339375072,4.683535966590634,1.0050062749098703,-0.20474591032878292,-0.0009948931425311234
0.91,-0.8284951408001208,0.03684564868111708,-2.2972379106519103,-0.170429022711129,0.06639185211229874,0.0005083746976113511,-0.43346487410149814,0.36030672392517377,-0.038242361368873004,-0.029263680148096202,0.005242075546316286,-8.722696022315577e-05,8.606335471700675,1.577226195884243,2.0238661630468497,0.6188155863007037,-0.2658668577280281,-0.001375807493242398,5.667621460767081,14.02765362408485,4.585092097563321,0.9815049753948691,-0.20138702840168715,-0.0009829119025672227
0.92,-0.8319704760667149,0.040607875513186925,-2.297422013916229,-0.17066039646616474,0.06641736380406427,0.0005073967518850891,-0.3475335266594137,0.37622268320698427,-0.018410326431869403,-0.023137375503573275,0.002551169176551994,-9.779457262619649e-05,8.432286341360143,1.377814657427855,1.8696010133374323,0.5735985448190526,-0.2574824244449019,-0.0013275583320027096,5.5458925228816325,13.81617755876373,4.487456573365161,0.9582061959514874,-0.19744298171619448,-0.0009643881690839076
0.93,-0.834603882189137,0.044509260630002,-2.297423014936847,-0.1708349645108155,0.06641669927190251,0.0005063154563305011,-0.26334061224220245,0.3901385116815075,-0.0001001020618063321,-0.017456804465078142,-6.645321617520508e-05,-0.00010812955545880697,8.240114573444632,1.1773883914508867,1.7165139866772599,0.528788746003265,-0.2486978162907434,-0.0012626505867183724,5.408948601795793,13.605435394040445,4.3910215553560095,0.9352026049126282,-0.1929618629004414,-0.0009399861636630085
0.9400000000000001,-0.836414552957934,0.04852970280152868,-2.297256017625166,-0.1709571436134377,0.0663906377822204,0.0005051336745358347,-0.1810670768797042,0.40204421715266836,0.01669973116808135,-0.01221791026221837,-0.002606148968210832,-0.00011817817946663599,8.031040392536148,0.9770220821053679,1.5652262782034714,0.48458642423253373,-0.23954478040046467,-0.0011831083381501628,5.25815993767934,13.39649046399552,4.296157054385082,0.9125814196778321,-0.18799216551272702,-0.0009103764967594568
0.9500000000000001,-0.8374233697399166,0.05264910850917189,-2.2969359501629842,-0.1710312907653263,0.06634000171811376,0.0005038547681166893,-0.10088167819826671,0.41194057076432156,0.03200674621820951,-0.007414715188859804,-0.005063606410664875,-0.00012789064191454102,7.80627967828292,0.7777625153183294,1.416332128101594,0.4411803958397513,-0.23005488271745378,-0.0010909834744392555,5.094900320496483,13.190356078278402,4.203209589065858,0.890424128909256,-0.18258245673647058,-0.0008762278441444521
0.96,-0.8376527800275877,0.05684749676544301,-2.296477506112847,-0.1710616850358154,0.06626565328355048,0.0005024825553815563,-0.02294102876711382,0.4198388256271121,0.04584440501372804,-0.0030394270489103392,-0.007434843456327458,-0.00013722127351328727,7.567040011080742,0.5806227306089605,1.2703960798930982,0.3987473794334404,-0.22025940403980115,-0.0009883335343410238,4.920537533859438,12.98798899231586,4.112500961622732,0.8688062406955072,-0.1767810467303387,-0.0008381991390179637
0.97,-0.8371266768176084,0.06110510053524943,-2.2958950884467657,-0.1710525105598598,0.06616849123131911,0.0005010212685032042,0.05261032099792634,0.4257603769806421,0.05824176660814118,0.000917447595560927,-0.00971620522313694,-0.00014612868783520983,7.314517086279561,0.3865762590420781,1.1279504259893536,0.3574513658313405,-0.210189253505078,-0.0008772000918417788,4.7364238044778935,12.790283536829904,4.024327177579403,0.8477970629683094,-0.1706356586166551,-0.0007969323533060106
0.98,-0.8358702791770586,0.06540246418318511,-2.295202756748338,-0.17100784072077585,0.06604944762287496,0.0004994755097412223,0.1256397640549899,0.42973636479356847,0.06923316984278764,0.004466983908393016,-0.011904360844414954,-0.00015457587619818646,7.049891472821258,0.19655173710150356,0.9894928545011362,0.3174430562094397,-0.1998749002821114,-0.0007595877783010963,4.543886386612259,12.598066663341415,3.938957604686058,0.8274595382481325,-0.16419310341461651,-0.0007530459225969142
0.99,-0.8339100143218287,0.06972053640899852,-2.2944141778237293,-0.1709316235841993,0.06590948462669052,0.000497850207231097,0.19602648552299748,0.43180722258134013,0.07885789246085492,0.0076217136576547,-0.013996299618442992,-0.00016253025101253048,6.774325749272843,0.01142768866469808,0.8554843330819947,0.27885938845468283,-0.18934632474083912,-0.0006374440838410322,4.344218470000363,12.412093786025654,3.856634319469468,0.8078501206316797,-0.15749896589478496,-0.0007071288904164684
