tonegas/nnodely-applications/joint_friction_estimation/dataset/validation/mpc_mujoco_episode_2 copy.csv
time,q1,q2,q3,q4,q5,q6,dq1,dq2,dq3,dq4,dq5,dq6,ddq1,ddq2,ddq3,ddq4,ddq5,ddq6,tau1,tau2,tau3,tau4,tau5,tau6
0.0,0.0,1.57,-1.57,0.0,0.0,0.0,0.0,0.0,0.0,0.0,0.0,0.0,10.214281818412061,-25.88442658829432,-2.3416120729021657,0.5139961772903803,1.6774398636754455,-3.222693260696019e-06,1.4267135413241763,-18.07270007161697,-9.461925464672806,-2.045228621231983,0.1285830329945637,0.0005572811400969481
0.01,0.0010167608732477235,1.5674192689109359,-1.570239607398969,4.1500225540124804e-05,0.0001370863291275498,1.4300487962691124e-06,0.10167608732477235,-0.25807310890641816,-0.02396073989690926,0.004150022554012481,0.01370863291275498,0.00014300487962691123,9.85036665776241,-25.637158292222683,-2.6804415610785597,0.2885248595143821,1.3966626479543862,0.014455134265356051,1.3635468030090112,-18.022953368706986,-9.464211030359987,-2.048076970498313,0.1237553222906295,0.00050449241434251
0.02,0.003013237373427498,1.5622823780774886,-1.5707529551976043,0.00010466638532360549,0.00039311073234924126,4.325605615668371e-06,0.19964765001797743,-0.5136890833447334,-0.05133477986351828,0.006316615978348069,0.025602440322169143,0.0002895556819399259,9.423561955920755,-25.35251075851666,-3.025977025018136,0.0853311670775696,1.2224164265614306,0.01532877372410546,1.265334729422917,-17.94062510411414,-9.43778716069818,-2.044171406725189,0.11659515605884034,0.00043889951694389977
0.03,0.005946472502136168,1.5546176053708962,-1.5715746658716103,0.00017133258356590491,0.0007562933495047425,8.57737757894599e-06,0.293323512870867,-0.7664772706592408,-0.0821710674005972,0.006666619824229941,0.036318261715550124,0.00042517719632776177,8.931737296681503,-25.02582765959136,-3.3707074564975272,-0.09896592588327735,1.1166211930488146,0.015194552330093813,1.135236464350968,-17.822825451534676,-9.381496935091237,-2.033264761961396,0.10716516682352362,0.00036039495113875304
0.04,0.009767263222811535,1.5444574056143554,-1.5727391412817315,0.00022478265850228927,0.00121889141087754,1.4103014800931304e-05,0.3820790720675366,-1.0160199756540742,-0.1164475410121279,0.0053450074936384345,0.04625980613727976,0.0005525637221985314,8.371775287869122,-24.652712853971995,-3.70735679958657,-0.2664789160326677,1.056139302636808,0.015866195171687636,0.9774650873296843,-17.66651839908028,-9.294222589563404,-2.0151227701909584,0.09554954851591506,0.0002686292200266084
0.05,0.014419785103304442,1.5318388541024084,-1.5742798673549376,0.0002496283125846631,0.0017757555756627561,2.0860239905489477e-05,0.4652521880492908,-1.261855151194713,-0.15407260732061118,0.0024845654082373872,0.055686416478521614,0.0006757225104558174,7.740283870859587,-24.22923426573403,-4.0289574966527795,-0.4184005154665016,1.0268397691029634,0.017608316566080084,0.7972971272123028,-17.468617768508835,-9.174940387488316,-1.9895367540590074,0.08186382617751616,0.00016312634514269988
0.06,0.019841225970592527,1.5168040430997072,-1.576228743054327,0.00023175713443820175,0.002423421762575143,2.884086122643872e-05,0.5421440867288083,-1.5034811002701176,-0.19488756993893575,-0.001787117814646137,0.06476661869123868,0.0007980621320949244,7.03407683120113,-23.752105730691827,-4.328959456328768,-0.5552821765354139,1.0200648144222342,0.02054616711681234,0.601044951616514,-17.226086568478973,-9.022772024732038,-1.9563351181288187,0.06626554774562157,4.340355048276941e-05
0.07,0.02596146517139929,1.499400413323028,-1.5786154460975803,0.00015832836904605333,0.0031595249756940225,3.806533289604554e-05,0.6120239200806763,-1.7403629776678988,-0.23867030432534536,-0.007342876539214841,0.07361032131188794,0.0009224471669606816,6.250512800638694,-23.218853610570616,-4.601359803411292,-0.6772615682413203,1.0304588762867866,0.0248797103265348,0.39596993618548326,-16.93604652850329,-8.837033973959432,-1.9153938359806515,0.04896514999349982,-9.089872222381359e-05
0.08,0.03270282666001,1.4796810038814687,-1.5814668495675475,1.7798064554898504e-05,0.003982402306191314,4.857967858913793e-05,0.6741361488610713,-1.9719409441559432,-0.28514034699670426,-0.014053030449115482,0.08228773304972915,0.0010514345693092393,5.388260841427591,-22.622888996868955,-4.840728058158888,-0.7841878962452995,1.0545673765158163,0.030922438783442363,0.19016957374334464,-16.593289028810023,-8.616358379891777,-1.8664558761900616,0.030241664226224207,-0.00023969358074063882
0.09,0.03997997965245711,1.4577051117199822,-1.584806489618726,-0.00020003942913019584,0.004890800534446636,6.0454277863029346e-05,0.7277152992447108,-2.1975892161486517,-0.33396400511783725,-0.021783749368509433,0.0908398228255322,0.001187459927389142,4.585923453526446,-20.619582085370666,-5.01908273637585,-0.8620395348194023,1.0909743755943424,0.039118700151156593,0.005647518084279657,-15.50409958416652,-8.115494946876789,-1.7592776528107548,0.011854985852223922,-0.00035422398241677605
0.1,0.047713648455817104,1.4336722682796517,-1.5886509259609503,-0.0005036464122565305,0.005884289765264183,7.37970215750961e-05,0.7733668803359992,-2.403284344033042,-0.3844436342224355,-0.030360698312633473,0.09934892308175466,0.0013342743712066755,3.775490873596492,-18.152939813766096,-5.14836661699168,-0.9324951602595206,1.1413394979909537,0.05008869739819899,-0.1559533340451253,-14.14669939114658,-7.51572419735788,-1.6316914645465568,-0.006382954873548077,-0.00046211569775575853
0.11,0.05582395724072023,1.407828190846347,-1.5930116167215835,-0.0009009016429069403,0.006963024449858113,8.875251956541674e-05,0.8110308784903123,-2.584407743330461,-0.4360690760633333,-0.039725523065040985,0.10787346845939307,0.001495549799032063,2.9284901342019896,-15.56494046396733,-5.233250287543353,-1.0005520685845255,1.2017073054469076,0.06438921763406041,-0.2906471440841307,-12.693925518220478,-6.885433275802724,-1.498116297997543,-0.024280387293407736,-0.0005729941026285624
0.12,0.06422767868343558,1.3804307101456952,-1.5978956124672694,-0.001399299884527702,0.008127303195654393,0.0001054987286117281,0.8403721442715347,-2.739748070065194,-0.4883995745685851,-0.04983982416207616,0.116427874579628,0.0016746209046311364,2.0408358887861833,-12.94108064019897,-5.275970901203902,-1.0656173346568139,1.2644757184077786,0.08253895886854254,-0.39410414927117265,-11.188262789000976,-6.244301436908949,-1.362838290326939,-0.041419800358376634,-0.0006873692677308531
0.13,0.07283788511443813,1.3517412500118182,-1.6033058204249053,-0.00200586495017029,0.009377016691084756,0.0001242417489270439,0.861020643100255,-2.8689460133876983,-0.5410207957636001,-0.0606565065642588,0.12497134954303633,0.0018743020315315781,1.113172807876872,-10.312803677427901,-5.278901589404697,-1.126631576678804,1.318134402111924,0.10483520542330405,-0.4637645639738811,-9.645071152647784,-5.601295746335774,-1.227881430634158,-0.05735853344501557,-0.0008036906446009319
0.14,0.0815640515882484,1.3220216922761339,-1.6092412456599994,-0.0027270616908765853,0.010710910578595806,0.00014520489557669314,0.8726166473810278,-2.9719557735684248,-0.5935425235093957,-0.0721196740706295,0.13338938875110498,0.002096314664964924,0.14941411484275546,-7.702169412576287,-5.244687525945384,-1.182805418966197,1.3455757383773974,0.13095685600131146,-0.499212180118046,-8.075424016033866,-4.963056766774916,-1.0947418662657653,-0.07166256360937001,-0.0009196634927783885
0.15,0.0903124394448533,1.2915321767692491,-1.615697254885428,-0.0035687366188844353,0.012125585915586379,0.0001686068288417757,0.8748387856604891,-3.048951550688472,-0.6456009225428764,-0.08416749280078498,0.14146753369905726,0.0023401933265082557,-0.842123142099936,-5.143402433726535,-5.176203567782698,-1.2336453962032046,1.322883197624444,0.15935489355836818,-0.5022721857830609,-6.4973378484815445,-4.3379242878485735,-0.9652163411643959,-0.08392634322618431,-0.0010328560058042368
0.16,0.09898683383657617,1.260527689730133,-1.6226658727689873,-0.004536075260420205,0.013614199022704162,0.0001946223729224537,0.8674394391722866,-3.100448703911618,-0.6968617883559345,-0.09673386415357696,0.14886131071177838,0.002601554408067799,-1.8468575655237653,-2.7050805513589515,-5.076543617557845,-1.2787610212872522,1.2205072866081474,0.18655204405483206,-0.4769290025580425,-4.94762603049793,-3.7400375632800174,-0.8422412813901581,-0.09379180222542705,-0.0011413065870295675
0.17,0.1074897852891551,1.2292512300615523,-1.6301361232460483,-0.005633546984855588,0.015164943458234924,0.00022332061678880362,0.8502951452578934,-3.127645966858056,-0.7470250477061037,-0.10974717244353832,0.1550744435530762,0.0028698243866349922,-2.8431933114064627,-0.6367959502869188,-4.949118033385416,-1.3175576564903917,1.0094499586659005,0.2068302316473294,-0.4290317965445663,-3.5596218178385035,-3.2166912240471266,-0.7355173842087608,-0.1009498803526344,-0.0012468273411678165
0.18,0.11572444146866229,1.1979089420114952,-1.6380945200203594,-0.006864718051146,0.016759633134614052,0.00025458131028088706,0.823465617950719,-3.1342288050057214,-0.7958396774311167,-0.12311710662904121,0.15946896763791296,0.0031260693492083428,-3.80411245361954,-0.0011724811524773068,-4.798711086051738,-1.3480273465215902,0.6738558982637715,0.21321873401642488,-0.3656306346034672,-2.9004013346671256,-2.966964600953344,-0.6859335261475937,-0.10505741423435945,-0.0013687579603270453
0.19,0.12359691494325732,1.166564248769827,-1.646526221880452,-0.008231429129136264,0.018373031229571242,0.0002880063815090061,0.787247347459504,-3.134469324166843,-0.8431701860092636,-0.13667110779902633,0.1613398094957191,0.003342507122811901,-4.706647736216286,-0.0013917252746295412,-4.636335004011505,-1.3617142168697,0.22538494559651667,0.20049669827114158,-0.2952553757488302,-2.5650226097335995,-2.8325723037288233,-0.6601016982094143,-0.10649146513522767,-0.001490155173551775
0.2,0.1310184355208818,1.1352172275751913,-1.6554155392342795,-0.009733727801085388,0.01997362958275282,0.00032286940447578337,0.7421520577624471,-3.1347021194635523,-0.8889317353827555,-0.15022986719491246,0.16005983531815782,0.003486302296677728,-5.533012276744602,-0.0017283403688640674,-4.466622659086462,-1.3576764691096113,-0.29192435307891174,0.1675102828668038,-0.22490942975570866,-2.2227970123683645,-2.6891642699325007,-0.6319676945365624,-0.1054529751431785,-0.001596008527888517
0.21,0.13790724692864567,1.1038679409917946,-1.6647459618602196,-0.011370241560719918,0.021526315525369544,0.00035812832458530957,0.6888811407763874,-3.1349286583396627,-0.9330422625940108,-0.163651375963453,0.15526859426167233,0.0035258920109526182,-6.276267157178361,-0.0020488729171166654,-4.289531881570884,-1.3395469999862577,-0.8075199618867295,0.11906856738459926,-0.16094846277452896,-1.8743886173948636,-2.5372127482851297,-0.6016174004619552,-0.101883248514156,-0.0016838424429677806
0.22,0.14418960025604877,1.0725164516167691,-1.6745001779415363,-0.013138457517855941,0.022996833340457323,0.00039252917158208976,0.6282353327403092,-3.1351489375025463,-0.9754216081316722,-0.17682159571360223,0.14705178150877812,0.0034400846996780164,-6.943062016902943,-0.00233033662772104,-4.104912542252492,-1.3101246567696947,-1.244449595002008,0.06507147961123216,-0.10985513137847383,-1.520321142520733,-2.377184195879133,-0.5691428910324062,-0.0957629082257854,-0.001751643506515597
0.23,0.1497993368622264,1.041162824686798,-1.6846600769128623,-0.015034935208414134,0.02435696721419196,0.0004247942169195916,0.5609736606177651,-3.1353626929971083,-1.0159898971326045,-0.18964776905581926,0.13601338737346355,0.0032265045337501806,-7.549747936025112,-0.002564813342953571,-3.912606505988481,-1.2715969161411653,-1.544055095850167,0.01637622776664749,-0.07807354703865083,-1.1609085981111549,-2.209506130148941,-0.5346357048522776,-0.08709648233495697,-0.0017978549505083012
0.24,0.15467626809443422,1.0098071287610315,-1.6952067474942407,-0.01705547256330831,0.02558875455582239,0.00045383234194886765,0.4876931232207802,-3.1355695925766596,-1.0546670581378443,-0.20205373548941744,0.12317873416304316,0.0029038125029276027,-8.116131183410532,-0.002760857598462609,-3.712570344796292,-1.2256926947663072,-1.6809645416147099,-0.019446211073254283,-0.07191876186822477,-0.7962679783188265,-2.0345630335929124,-0.49818519174308473,-0.07589755651001298,-0.0018212233952408815
0.25,0.1587640186991145,0.9784494348821017,-1.7061204841809472,-0.019195238849488573,0.026686402921350924,0.0004788943295665699,0.4087750604680288,-3.135769387892979,-1.091373668670646,-0.21397662861802658,0.10976483655285357,0.002506198761770224,-8.659967587991156,-0.0029360516411406634,-3.504942228390333,-1.1737813340056586,-1.6632970084185192,-0.03982033354445402,-0.0975370756616249,-0.4263348173390048,-1.8526894841090635,-0.4598754273585044,-0.06218184901391797,-0.0018205732622287956
0.26,0.16200805962517587,0.9470898152482083,-1.7173808095797691,-0.02144888237639234,0.02765564499587207,0.0004996301206070208,0.3244040926061378,-3.1359619633893296,-1.1260325398821847,-0.22536435269037663,0.09692420745211444,0.002073579104045098,-9.193673875904215,-0.0031075224886706115,-3.290018901230412,-1.1169336072245972,-1.5225070562613774,-0.046256954524171334,-0.16086276831085466,-0.05086485096741766,-1.6641530485760232,-0.4197794648442436,-0.04597037496454209,-0.0017946202584172614
0.27,0.16435438781322917,0.9157283424057483,-1.7289665108273058,-0.023810616558486982,0.02851122568834522,0.0005160550192269984,0.23463281880532938,-3.1361472842460105,-1.158570124753664,-0.2361734182094642,0.08555806924731509,0.00164248986199776,-9.723261246043924,-0.0032859595215045286,-3.0681711291597775,-1.055961019348457,-1.3002340119713893,-0.04235571793163739,-0.26752448430842335,0.3305786436367003,-1.469128259365813,-0.3779515924287461,-0.02729976525010494,-0.0017418933014051838
0.28,0.16574897610919725,0.8843650894583974,-1.7408556820502383,-0.026274286070300436,0.02927358473073688,0.0005284616538332079,0.13945882959680983,-3.1363252947350873,-1.1889171222932458,-0.24636695118134536,0.07623590423916599,0.0012406634606209476,-10.248877008360676,-0.0034748607623511073,-2.8397241551076107,-0.9914402676305629,-1.037436635089259,-0.032071508104706936,-0.4226855538888691,0.7186466043907023,-1.2676646356434846,-0.3344182863780869,-0.006235151184298805,-0.0016607777808156992
0.29,0.1661378872014625,0.853000131195128,-1.7530257612543463,-0.02883341394633241,0.029965641514296284,0.0005373167944350151,0.03889110922652486,-3.1364958263269496,-1.2170079204107986,-0.2559127876031976,0.06920567835594058,0.0008855140601807187,-10.76613675997296,-0.0036719011247794853,-2.6048574880163184,-0.9237357363693013,-0.7678418344007092,-0.01873670691719198,-0.6308257389939013,1.114220417013744,-1.0596580721150195,-0.28917002360967003,0.017118099998486753,-0.0015496416230618053
0.3,0.1654678581281812,0.8216335458307114,-1.7654535518872212,-0.03148123078350975,0.030610212813358437,0.0005431693239864163,-0.06700290732812761,-3.136658536441659,-1.2427790632874929,-0.26478168371773375,0.06445712990621551,0.0005852529551401142,-11.267654378662346,-0.003871272786378957,-2.3635310670481466,-0.8530205598026512,-0.5154330339180753,-0.0047365243682486735,-0.8954868462528424,1.5184141810998448,-0.8448300178185695,-0.24215481569655564,0.042605596878854415,-0.001407003888648341
0.31,0.16368716353639062,0.7902654170181922,-1.7781152219244474,-0.034210687370723684,0.031228241876887552,0.0005465809831687504,-0.17806945917905942,-3.1368128812519105,-1.2661670037226107,-0.2729456587213938,0.0618029063529115,0.0003411659182334037,-11.744412144015199,-0.004066173260172459,-2.115434901312249,-0.7792950663874061,-0.29471667765027654,0.00843947417226154,-1.2190072933668625,1.932557291368496,-0.6227178769385022,-0.19327418221755582,0.0700186584910858,-0.0012317105215658682
0.32,0.16074660575446897,0.758895835856639,-1.7909862756649317,-0.037014451997286854,0.03183778744607991,0.0005480812155796062,-0.29405577819216544,-3.1369581161553173,-1.2871053740484304,-0.2803764626563173,0.06095455691923536,0.00015002324108558395,-12.186785366568321,-0.0042499809309322345,-1.8599908071884796,-0.7024125121889888,-0.11243261967645779,0.019997578050568343,-1.602264595089538,2.358147109602114,-0.39268425488088826,-0.14238352573967245,0.09909230725368398,-0.0010230902898812197
0.33,0.15660052981686512,0.7275249027913105,-1.8040414985711148,-0.03988489454136731,0.03245361312734852,0.0005481422502923363,-0.41460759376038425,-3.1370933065328446,-1.3055222906183164,-0.28704425440804576,0.06158256812686147,6.103471273009013e-06,-12.585256778810198,-0.0044128180903532654,-1.5963828598396064,-0.6221070304950596,0.030285617293667855,0.02962180713882301,-2.044445434417211,2.7967763397227885,-0.15394325162340067,-0.0892965576203514,0.12950607013139734,-0.0007810848098635489
0.34,0.1512077995756221,0.6961527297871004,-1.8172548783169928,-0.042814059751525885,0.03308719341983645,0.0005471689575641967,-0.5392730241243011,-3.1372173004210104,-1.3213379745878024,-0.2929165210158573,0.06335802924879284,-9.732927281395966e-05,-12.930896727111378,-0.004539770485220293,-1.3235916357118627,-0.5380176234018785,0.13588700308250878,0.03729222968542256,-2.5428610449316045,3.250037948529102,0.0943975382784048,-0.033793546826260255,0.16088730887032154,-0.000506349844774566
0.35000000000000003,0.14453269586265682,0.6647794430022949,-1.8305995055667206,-0.04579363181791051,0.033746973486306106,0.0005454983335437576,-0.6675103712965293,-3.137328678480561,-1.33446272497278,-0.2979572066384625,0.06597800664696521,-0.0001670624020439071,-13.215680584731182,-0.00465475310816342,-1.0404135786744004,-0.44970346430925634,0.20877865136004203,0.04315281324061271,-3.092823280472372,3.719389719037585,0.3532728487102237,0.02436510883061689,0.19281689663401658,-0.00020032693057562634
0.36,0.1365457126928912,0.6334051816489825,-1.844047456553603,-0.048814891507842795,0.034438757588747544,0.0005434045461590383,-0.7986983169765631,-3.1374261353312365,-1.3447950986882369,-0.30212596899322797,0.06917841024414403,-0.00020937873847192592,-13.432552043701033,-0.004691800962431547,-0.7456566986335297,-0.3567129923788581,0.25416104501435655,0.04742373787877696,-3.6875709014944613,4.206067825633643,0.623593989746873,0.08542293568429297,0.22483594073378094,0.00013472829521526757
0.37,0.12722425074673227,0.6020301057962024,-1.8575696767364636,-0.05186867260300933,0.035166139955701205,0.0005411066742860382,-0.9321461946158945,-3.137507585278013,-1.3522220182860545,-0.30537810951665345,0.07273823669536629,-0.00022978718730000682,-13.575618095280845,-0.004636524148401176,-0.43812070675630727,-0.25858382402310665,0.2772672161237537,0.05034764465733854,-4.318295570102718,4.710885674729804,0.9061463746116873,0.14960405178523623,0.25645516418944053,0.0004957242807185241
0.38,0.11655319243239523,0.5706543990739557,-1.8711358637565887,-0.05494531739141835,0.03593092448224435,0.0005387772697531676,-1.0671058314337032,-3.1375706722246823,-1.3566187020125064,-0.30766447884090187,0.07647845265431442,-0.0002329404532870605,-13.640129061572337,-0.004367274582493308,-0.11679731065821873,-0.15491103039098683,0.2829258251120592,0.05215930098183552,-4.974229025931689,5.234163514377556,1.201515766566689,0.21709361534624655,0.28716472656414227,0.0008787598276029753
0.39,0.10452536266093128,0.5392782819918097,-1.8847143693259742,-0.05803463795440521,0.036733504118497164,0.0005365506533760215,-1.2027829771463954,-3.1376117082145973,-1.3578505569385628,-0.30893205629868614,0.08025796362528091,-0.00022266163771460291,-13.622288427955832,-0.0032101736038310374,0.21858242595990823,-0.045531050637362736,0.27535238571289256,0.05307060577640854,-5.642773777881282,5.775761241386815,1.5100267652888704,0.28801783430643424,0.31644323191102386,0.0012791799564886041
0.4,0.09114189538449903,0.50790207983136,-1.8982721735554353,-0.06112590151053648,0.037573187275128914,0.0005345303843194981,-1.3383467276432248,-3.1376202160449664,-1.3557804229460977,-0.3091263556131268,0.0839683156631751,-0.00020202690565234384,-13.518405214497076,0.004646823306619904,0.5654650160308675,0.0687839392746028,0.2580958915838636,0.05326477304177768,-6.309531422297287,6.337286935479047,1.832404335206161,0.36257148332631634,0.343757961800271,0.00169174482859374
0.41000000000000003,0.07641259075782308,0.47652680032961636,-1.9117751326649726,-0.06420791097687817,0.03844846834455271,0.0005327956789224662,-1.4729304626675948,-3.1375279501743703,-1.3502959109537158,-0.30820094663416947,0.08752810694237965,-0.00017347053970319216,-13.32276314271129,0.15451952488100473,0.9128576665128512,0.1844181693832363,0.23408029344045644,0.05289509184171548,-6.95799386418097,6.997331191572129,2.1977516516354805,0.4471075823609301,0.3684912720633916,0.0021139937935439335
0.42,0.0603564750865183,0.4451675993414597,-1.925188942096113,-0.06726945471838622,0.039357238214032475,0.0005314068527348673,-1.605611567130478,-3.135920098815664,-1.3413809431140502,-0.3061543741508052,0.09087698694797602,-0.00013888261875988461,-12.970519015129293,3.3601293157477548,1.1010477435119475,0.2472632387298681,0.20657680658319322,0.05207232697847686,-7.5537976824780575,9.521824942469365,3.262952963868169,0.6848810636819938,0.38799443661020516,0.0026169779813181434
0.43,0.043008244780898056,0.4141437571835524,-1.9384922279429937,-0.07030665069842706,0.040296790270509704,0.0005304126038115002,-1.7348230305620245,-3.10238421579073,-1.330328584688064,-0.30371959800408493,0.09395520564772256,-9.942489233671304e-05,-12.518754909364475,7.070034036859672,1.2394794388355432,0.26240798258666587,0.17446098442697888,0.05058344782235158,-8.056434151583169,12.385365351802479,4.428779632497482,0.9440024576135874,0.40148729883807355,0.003095339679858016
0.44,0.024412589760158417,0.38382472259342154,-1.9516681862535783,-0.07332001314386878,0.04126395582021839,0.0005298362005200939,-1.8595655020739639,-3.031903459013084,-1.3175958310584681,-0.30133624454417174,0.0967165549708684,-5.764032914062745e-05,-12.004722967662925,9.897009479114939,1.4049561906459047,0.2572058125281771,0.1392650680285854,0.0483728467840287,-8.444710756079342,14.735358364074253,5.372467104760249,1.1537077635018784,0.40912324590417604,0.003494573739285214
0.45,0.0046204791543125075,0.3544920586748508,-1.9646982813438945,-0.07631082345301744,0.0422553435095128,0.0005296748573042522,-1.979211060584591,-2.9332663918570727,-1.3030095090316185,-0.2990810309148658,0.09913876892944118,-1.6134321584178745e-05,-11.432440303548342,11.987988657175956,1.5885354840452592,0.24433622266855792,0.1035929528316899,0.04565444723667511,-8.709555058952452,16.641902313552855,6.129351061668185,1.3220471508858074,0.4111193096160083,0.0038166896667978355
0.46,-0.016311249399474204,0.3263540645976488,-1.977562918704075,-0.0792803102117011,0.04326752425536455,0.0005299083463378074,-2.093172855378671,-2.813799407720199,-1.2864637360180518,-0.2969486758683646,0.10121807458517489,2.3348903355527718e-05,-10.8065411484576,13.469184838329147,1.783351088679197,0.23203650720804347,0.06899941748690708,0.04266849354609592,-8.847842482861324,18.166519430090332,6.729843248753424,1.4559337668990069,0.40785579325156407,0.004065133037384228
0.47000000000000003,-0.03832036068875602,0.29955833717554037,-1.9902419596029952,-0.08222914525837936,0.04429714155311854,0.0005305063865151407,-2.200911128928182,-2.6795727422108424,-1.2679040898920122,-0.294883504667827,0.10296172977539919,5.980401773332241e-05,-10.132110154163552,14.44867004524749,1.9841133729142655,0.2253699045829336,0.03630312658522428,0.0395918618746669,-8.861547163690641,19.36316793046664,7.199759426294442,1.561205157792101,0.3998217720308559,0.004244412045696673
0.48,-0.061339736494424604,0.27420252807896367,-2.0027151159075327,-0.08515716265593819,0.04534096979177533,0.0005314338411627416,-2.301937580566858,-2.5355809096576722,-1.2473156304537558,-0.2928017397558824,0.10438282386567843,9.274546476009046e-05,-9.414543824697837,15.018700235861518,2.1867289104921426,0.22715865897625065,0.005834289266644532,0.036542132129142146,-8.756710674520537,20.279164101058285,7.560803340749171,1.6427305294715797,0.3875691061980039,0.004359763886726858
0.49,-0.0852979201242153,0.2503435274946475,-2.0149622543905865,-0.0880632324313061,0.04639593836623213,0.0005326541282525708,-2.3958183629790706,-2.3859000584316186,-1.2247138483054028,-0.29060697753679093,0.10549685744568081,0.00012202870898292348,-8.6594352641469,15.257770338411579,2.388012447673354,0.23866715328921373,-0.022379306833009593,0.0335926947931835,-8.542373029169529,20.95598906963233,7.8311026251336795,1.7045360533310552,0.37167546176141475,0.004416866040649126
0.5,-0.11011967959638859,0.22800527835491802,-2.026963632652287,-0.09094523950444332,0.0474591348309464,0.0005341313403662303,-2.482175947217329,-2.2338249139729474,-1.2001378261700475,-0.2882007073137224,0.10631964647142703,0.00014772121136594804,-7.872477471836996,15.232425381354796,2.585469687878984,0.26009952775272893,-0.04847941106810083,0.03078608541539829,-8.229570373168723,21.4299879771676,8.025738631165945,1.7499320828030214,0.3527160522678401,0.004421596131657241
0.51,-0.13572657999944257,0.20718540112936618,-2.038700083287148,-0.09380013195231726,0.04852779647004045,0.0005358314767716659,-2.5606900403053974,-2.0819877225551826,-1.1736450634861102,-0.28548924478739435,0.10686616390940501,0.00017001364054356524,-7.059381291765075,14.998854365732592,2.7771341908965113,0.29096009420850066,-0.07268711395695959,0.028144072446617763,-7.830463558746882,21.732973942900543,8.157237403653049,1.7816328126103471,0.3312432736897279,0.004379840539728376
0.52,-0.1620375569901344,0.18786078765328046,-2.0501531587266046,-0.09662401286321408,0.04959929658790715,0.000537723084916287,-2.631097699069183,-1.932461347608571,-1.1453075439456897,-0.2823880910896814,0.10715001178666984,0.00018916081446210972,-6.2258057468804235,14.604291089207427,2.9614454833192596,0.3303125930658979,-0.09524507210202415,0.025674900630306752,-7.357628030472948,21.89275022557957,8.236005586900237,1.8018633852409982,0.30777310690551274,0.004297348890572794
0.53,-0.18896948459917468,0.16999230332842327,-2.061305245982431,-0.0994122574583949,0.050671129516471305,0.0005397775222360108,-2.693192760904027,-1.7868484324857183,-1.1152087255826224,-0.2788244595180823,0.10718329285641548,0.00020544373197237272,-5.37730086704801,14.088243591522945,3.1371584226154425,0.3769650824676063,-0.11638322695864645,0.023378336482955397,-6.823510828724923,21.933563517969457,8.270705785773607,1.8124524081162021,0.28277707415552156,0.004179629519569595
0.54,-0.21643773173460848,0.15352872002722454,-2.072139658087564,-0.1021596425885147,0.051740896680271764,0.0005419689835722386,-2.7468247135433805,-1.646358330119874,-1.0834412105133178,-0.2747385130119802,0.10697671638004556,0.00021914613362278442,-4.519261632113776,13.483571585892062,3.303276181583268,0.42960032426803707,-0.1363007694608065,0.02124909637015282,-6.240042882976297,21.87650008004794,8.2685725263932,1.8149097246305623,0.25667852643668687,0.0040318798483151355
0.55,-0.2443567028607129,0.13840998693768425,-2.0826407071980313,-0.10486047967067917,0.052806294926069204,0.0005442743916982613,-2.791897112610443,-1.511873308954029,-1.0501049110467366,-0.27008370821644717,0.10653982457974397,0.00023054081260226163,-3.6568894341121014,12.817429177372853,3.4590009970062106,0.4868663577318415,-0.15515878410577244,0.01927911907691726,-5.618383920128796,21.73983475203375,8.235673680425982,1.8104903882014798,0.22985209906887727,0.003858945069924521
0.56,-0.2726403590640474,0.1245699332022246,-2.092793762945872,-0.10750874500550009,0.05386510758156534,0.0005466732146947077,-2.82836562033345,-1.3840053735459645,-1.0153055747840964,-0.2648265334820914,0.10588126554961352,0.00023988229964463744,-2.795114117579296,12.112088370569627,3.6036983168182957,0.5474381497477623,-0.17307897940952444,0.017459031098048694,-4.968749852063373,21.539341113001598,8.177123970077446,1.800246356609815,0.20262451676959647,0.0036652956126223372
0.5700000000000001,-0.3012027117732029,0.11193848435362974,-2.102585298599809,-0.11009820348482532,0.05491519823379013,0.000549147251816598,-2.8562352709155507,-1.2631448848594857,-0.9791535653936577,-0.2589458479325242,0.10500906522247933,0.00024740371218902866,-1.938592091966811,11.385656984753757,3.7368701109592806,0.610058010748368,-0.19014774568338133,0.015779068105026717,-4.300357009370433,21.28856842200466,8.097257060239112,1.7850675028543286,0.17527802630976058,0.0034550240645865402
0.58,-0.3299582889769842,0.10044346404974464,-2.1120029269073677,-0.11262252321479599,0.055954506938910006,0.000551680411217477,-2.87555772037813,-1.1495020303885113,-0.9417628307558803,-0.2524319729970658,0.10393087051198718,0.00025331594008789414,-1.0916689490637428,10.652703494504518,3.858135448573073,0.673560937150377,-0.20642110289914495,0.014229602139930186,-3.6214052416248053,20.999091671443537,7.999764038231717,1.7657139058066305,0.1480539234302877,0.0032318516017344865
0.59,-0.35882257023907904,0.09001204334849647,-2.121035426943828,-0.11507537963746468,0.05698104846791749,0.0005542584937617213,-2.8864281262094837,-1.0431420701248173,-0.9032500036460198,-0.24528564226686891,0.10265415290074827,0.0002578082544244302,-0.2583777671297534,9.924799644553262,3.967215978972966,0.7368890578604237,-0.22193090563245266,0.012801436734161342,-2.939117622943993,20.680737864210172,7.887804060700743,1.7428409356408732,0.12115698740638495,0.0029991439637425486
0.6,-0.387712390362173,0.08057189158107195,-2.129672762939022,-0.11745054849230062,0.05799291214735838,0.0005568689896527933,-2.8889820123093948,-0.9440151767424513,-0.8637335995194092,-0.23751688548359307,0.10118636794408968,0.000261049589107205,0.5575388639235695,9.210991085772969,4.063925015492856,0.7990984366849503,-0.23669091102717754,0.011485939191912653,-2.2598172327697377,20.34179214992874,7.764093115479058,1.717018699307581,0.09476034141200235,0.0027599342963883387
0.61,-0.41654631391806735,0.07205207571494317,-2.137906095796193,-0.11974198748067807,0.05898826288949957,0.0005595008902077729,-2.883392355589435,-0.8519815866128779,-0.823333285717098,-0.22914389883774605,0.09953507421411865,0.0002631900554979687,1.3527229462878954,8.518203729847443,4.148158869179589,0.8593604491614713,-0.2507004608918457,0.010275076215605194,-1.5889493871468967,19.989185309846096,7.6309753054362375,1.6887470322372793,0.06900781911065083,0.0025169380977947105
0.62,-0.4452449712715652,0.06438374869622411,-2.1457277878709777,-0.12194390686081105,0.059965343032373664,0.0005621445178471451,-2.8698657353497863,-0.7668327018719051,-0.7821692074784868,-0.22019193801329806,0.0977080142874092,0.00026436276393721966,2.124116167565224,7.8515944504186255,4.21988982392196,0.9169595292231421,-0.2639508190153421,0.00916142270119491,-0.9312073894122371,19.62866343082595,7.490479484963479,1.6584668423288638,0.04401933301077353,0.00227258281691381
0.63,-0.4737313645822774,0.05750066171753171,-2.153131401475353,-0.12405082943456956,0.06092247464037316,0.0005647913712268888,-2.848639331071218,-0.6883086978692403,-0.7403613604375485,-0.21069225737585137,0.09571316079994983,0.00026468533797436395,2.869007355060337,7.214855814057777,4.279159646994252,0.9712883248153261,-0.27642766257296714,0.008138098456636378,-0.290582053811524,19.264944875074647,7.344366725088603,1.6265692091577997,0.01989328947162075,0.002029026326249785
0.64,-0.5019311390626112,0.051339530775516645,-2.160111691557944,-0.12605764055619778,0.06185806202086734,0.0005674339855351555,-2.8199774480333857,-0.6161130942015063,-0.6980290082591027,-0.20068111216282164,0.0935587380494176,0.0002642614308266762,3.585013605844598,6.610481526024923,4.3260734765578714,1.02184121463646,-0.28811437144897667,0.00719872855325282,0.3295570257448226,18.901864372562365,7.19416977366212,1.5934026014911562,-0.003290210688276049,0.0017881793639995707
0.65,-0.5297728213852038,0.04584028396622276,-2.166664593004494,-0.12795962889239743,0.06277059423671545,0.0005700658061551431,-2.7841682322592525,-0.5499246809293886,-0.6552901446549981,-0.19019883361996465,0.09125322158481163,0.00026318206199875453,4.270069938091992,6.040259101513235,4.360773937865272,1.0682000322696936,-0.29899414641548105,0.006337386704628578,0.9263918505690125,18.542679145289476,7.041293739987591,1.559293994993809,-0.02546693416956529,0.0015517341948128973
0.66,-0.5571880262828854,0.04094623853526162,-2.1727872046356724,-0.12975251958715517,0.06365864743887964,0.0005726810734973159,-2.74152048976817,-0.4894045430961131,-0.6122611631178447,-0.1792890694757732,0.0888053202164191,0.00026152673421727356,4.919908624715489,5.891334581045357,4.354769759016859,1.1002730539155152,-0.30899306563596696,0.00554843823752682,1.495841299851232,18.446941542777576,6.986006601200737,1.546993836030558,-0.046764372348209474,0.0013339884404680096
0.67,-0.5841118840321028,0.036642571776313075,-2.178480094735918,-0.1314337578656275,0.06452085643869811,0.000575273650075957,-2.692385774921732,-0.4303666758948549,-0.56928901002459,-0.1681238278472343,0.08622089998184625,0.0002592576578641142,5.533482791128924,5.903240484937843,4.325272558530861,1.1188768045081687,-0.3184693463754158,0.004796425667470627,2.0401462065077345,18.444242082928092,6.96212432786843,1.5414864255922403,-0.06717997008008425,0.001124342794085576
0.68,-0.610483144232578,0.03293043495970858,-2.183745964790874,-0.1330021211601597,0.06535591500667914,0.0005778356535965316,-2.637126020047518,-0.3712136816604499,-0.5265870054955579,-0.156836329453219,0.0835058567981034,0.00025620035205745675,6.110397975996441,5.890101094081591,4.284793881445957,1.127586399327079,-0.32741854044260776,0.004059162630503987,2.5589728802462357,18.412163754817005,6.922580826562919,1.5320988375830824,-0.08662106792858727,0.0009170304378256237
0.6900000000000001,-0.6362442150287871,0.029808481006203924,-2.1885886595466553,-0.1344572094317833,0.06616259361898696,0.0005803574550287206,-2.5761070796209182,-0.3121953953504652,-0.4842694755781517,-0.14550882716236127,0.08066786123078185,0.00025218014321891016,6.649694897674165,5.853133110667897,4.232969365937922,1.1280080035405575,-0.33565643298211967,0.0033380464022396694,3.049821542561453,18.35243133047338,6.868594024268324,1.5191334231319908,-0.10500801065584671,0.0007140652683868644
0.7000000000000001,-0.6613412593678679,0.027272983794555047,-2.1930131886266118,-0.13579932535748734,0.06693975209552673,0.0005828282617568979,-2.5097044339080825,-0.2535497211648877,-0.4424529079956278,-0.13421159257040496,0.07771584765397624,0.0002470806728177293,7.150686034182266,5.7929165439473636,4.169704003664643,1.1213831453540024,-0.3430704485710834,0.0026402706960739764,3.5106579725653293,18.266306902818712,6.801190194566267,1.5028500820822839,-0.12227621901540621,0.0005172328567002707
0.71,-0.6857242640103522,0.02531789476863385,-2.197025725911554,-0.13702938008681764,0.06768634735128866,0.0005852366468490989,-2.438300464248436,-0.19550890259211948,-0.40125372849423707,-0.12300547293302852,0.07465952557619236,0.0002408385092200948,7.612935251391678,5.7101323259653025,4.095078718268661,1.1086819770862917,-0.34959456215201357,0.00197236553793001,3.939873509178032,18.155076556219903,6.721385962090283,1.48350701686056,-0.1383750964342345,0.0003281148395375173
0.72,-0.709347083360641,0.023934910016497758,-2.2006335940215447,-0.1381488186410401,0.06840143786307142,0.0005875709651784754,-2.36228193502887,-0.13829847521360927,-0.3607868109990708,-0.11194385542224583,0.0715090511782751,0.00023343183293765495,8.036237757353003,5.605817797417929,4.009300009182814,1.090670524433179,-0.35519354594259767,0.001339564269872362,4.3362502707538235,18.02022286921715,6.630249242670075,1.461374086034545,-0.1532669904350712,0.00014809483226490075
0.73,-0.7321674601395038,0.02311357311366205,-2.2038452378950666,-0.13915956034632618,0.06908418588300358,0.0005898196735331303,-2.2820376778862834,-0.08213369028357084,-0.3211643873522093,-0.10107417052860941,0.06827480199321673,0.00022487083546549706,8.420605239605951,5.480919181668749,3.9127017104698165,1.0679710764945796,-0.3598529546035536,0.0007459339215691863,4.698930759825935,17.86312742950039,6.528779303542139,1.4367050441330373,-0.16692592911129828,-2.1658392850326625e-05
0.74,-0.7541470243949552,0.02284136919149799,-2.206670187439948,-0.14006394929282176,0.06973385811600337,0.0005919715766212517,-2.197956425545137,-0.027220392216405938,-0.282494954488122,-0.09043889464955891,0.06496722329997953,0.0002151903088121398,8.766246794775233,5.336458614066425,3.8057123670636113,1.0411011133134025,-0.3635721360203519,0.00019458162330376894,5.0273807437540805,17.6851885407834,6.417949409772793,1.4097469262971845,-0.1793364966224951,-0.00018018003500860143
0.75,-0.7752512727659479,0.02310382676959477,-2.2091190118733386,-0.1408647121950413,0.07034982532127768,0.0005940160166267389,-2.11042483709927,0.026245757809678097,-0.24488244333907688,-0.08007629022195384,0.06159672052743015,0.00020444400054872464,9.073551278345501,5.173512793221397,3.6888390360398304,1.0105029587993641,-0.3663598777208108,-0.00031218265404309165,5.3213560987790025,17.487813920418162,6.298701937999493,1.380738678440225,-0.1904927654370188,-0.0003267039799739467
0.76,-0.7954495297678886,0.02388462518633879,-2.2112032671060557,-0.1415649214765581,0.07093156114126863,0.0005959430189443436,-2.019825700194081,0.07807984167440213,-0.20842552327172828,-0.0700209281516822,0.05817358199909445,0.00019270023176047197,9.343069977950533,4.993204387380806,3.562653560211336,0.9765654713096339,-0.3682315821052242,-0.0007727274724205202,5.5808718666992005,17.272422538050545,6.171948003421751,1.3499108858972526,-0.20039731939751884,-0.0004606551000892558
0.77,-0.8147148928348037,0.025165706738470562,-2.2129354373298535,-0.14216796200704,0.07147864035923024,0.0005977434032539222,-1.9265363066915107,0.12810815521317703,-0.1732170223797653,-0.060304053048187804,0.05470792179616086,0.0001800384309578584,9.575499778632889,4.796696820712352,3.4277812151136526,0.9396398002849651,-0.36920744044803655,-0.0011860113176540565,5.806174243236388,17.040448592700105,6.038568719838775,1.3174859322684414,-0.2090603800388241,-0.0005816399966470541
0.78,-0.8330241628025614,0.026927392983254545,-2.2143288717768552,-0.14267750036182178,0.07199073672026429,0.0005994088666343339,-1.830926996775768,0.17616862447839823,-0.13934344470014634,-0.05095383547817777,0.05120963610340591,0.00016654633804117575,9.771666911049689,4.585190165161075,3.2848913035254768,0.9000507243234495,-0.3693112428540246,-0.0015515148106581833,5.997715780094888,16.793345504136994,5.899417124016444,1.2836783566062269,-0.21649903912278873,-0.0006894366392916652
0.79,-0.8503577614584662,0.029148504772159047,-2.2153977174642017,-0.1430974558008995,0.07246762040840735,0.000600932043680405,-1.7333598655904747,0.22211117889045018,-0.10688456873465363,-0.041995543907771896,0.04768836881430604,0.00015231770460710442,9.93251133390072,4.359917553066414,3.1346892747970134,0.8581046990372379,-0.3685695817490995,-0.0018691872399934084,6.1561337857503196,16.532589065592564,5.75532030458585,1.2486952943732292,-0.22273659302234705,-0.0007839832055783922
0.8,-0.8666996377186111,0.03180648564084134,-2.21615684861413,-0.14343197240661035,0.07290915524610248,0.0006023065473637198,-1.6341876260144987,0.2657980868682295,-0.07591311499281801,-0.03345166057108619,0.04415348376951345,0.00013745036833148644,10.059071778647956,4.12214185677351,2.9779100142631005,0.8140954548146269,-0.36701128980033104,-0.0021394027734391585,6.282231688190122,16.259679265207,5.6070814319381475,1.2127369247037558,-0.22780196887158416,-0.0008653663411529891
0.81,-0.8820371639278443,0.03487752820995441,-2.216621793345265,-0.1436853919993089,0.07331529566656507,0.0006035269935202004,-1.533752620923317,0.3071042569113075,-0.046494473113533,-0.025341959269855344,0.04061404204625961,0.00012204461564805475,10.152471470550717,3.8731524606056467,2.815312014841272,0.7683077701850962,-0.3646670100412166,-0.002362923243723003,6.376962960836174,15.976140468978853,5.45548147434455,1.175996868303063,-0.23172922826095677,-0.0009338090004455139
0.8200000000000001,-0.8963610237094098,0.03833670326292436,-2.2168086581599034,-0.1438622275841603,0.07368608350039442,0.0006045890112442132,-1.432385978156562,0.34591750529699494,-0.018686481463822673,-0.017683558485139292,0.0370787833829345,0.00010620177240127866,10.213904532643767,3.6142619797592306,2.647672200087321,0.7210198874088896,-0.3615688346943102,-0.002540865321307706,6.441417106754869,15.6835197993265,5.301280456550156,1.1386624980335909,-0.2345571316477824,-0.0009896579818274528
0.8300000000000001,-0.9096650927229698,0.04215809116346549,-2.2167340507000493,-0.14396713718160867,0.07402164461273476,0.0006054892410444953,-1.3304069013559956,0.38213879005411316,0.0074607459853941495,-0.010490959744835156,0.03355611123403487,9.002298002821148e-05,10.244623076913063,3.3468028024495817,2.4757812160036687,0.6725049191916703,-0.3577499754859872,-0.002674670675342661,6.476807142186364,15.383383665795446,5.145218179191766,1.1009151397786918,-0.23632874547392646,-0.0010333712384495253
0.84,-0.9219463136209956,0.04631491525950005,-2.216415001208195,-0.14400489796787827,0.07432218542461698,0.0006062253223154369,-1.2281220898025715,0.415682409603456,0.03190494918543996,-0.0037760786269604024,0.030054081188221553,7.360812709415572e-05,10.245924988186504,3.0721233543827915,2.300439049436763,0.6230315084478413,-0.35324444596089677,-0.0027660781496381404,6.48445801319376,15.077312511124285,4.988014371195144,1.062930154612887,-0.23709107409023028,-0.0010655050255959067
0.85,-0.933204566424306,0.0507796768936949,-2.2158688831039375,-0.14398038070644978,0.07458798935064988,0.000606795871460463,-1.1258252803310496,0.44647616341948454,0.054611810425755865,0.0024517261428487376,0.0265803926032905,5.705491450261109e-05,10.219142409879428,2.7915840092640654,2.1224508653036507,0.5728639388739722,-0.34808674807526074,-0.0028170972976964137,6.4657954122996,14.766893925849711,4.830368292130495,1.0248769044449284,-0.23689469979895286,-0.00108670093605191
0.86,-0.9434425354674337,0.05552429160654698,-2.2151133330716966,-0.14389852449153367,0.07481941318420812,0.0006072004518454566,-1.02379690431277,0.47446147128520816,0.07555500322408036,0.008185621491611509,0.02314238335582511,4.0458038499359094e-05,10.165630945554716,2.506552594750738,1.9426229841521696,0.5222618466956241,-0.34231156296374365,-0.0028299828335365262,6.422334527812496,14.453714356609005,4.672957836805683,0.9869186119970336,-0.23579341643428448,-0.001097672874873634
0.87,-0.9526655739930349,0.06052022607845956,-2.2141661710454685,-0.1437643118535975,0.07501688346018462,0.0006074395366405387,-0.9223038525601173,0.49959344719125814,0.09471620262279785,0.013421263793618417,0.01974702759764933,2.3908479508216684e-05,10.086759595261173,2.2183994689010373,1.761758946320814,0.4714796488526609,-0.33595345038025926,-0.0028072096219808884,6.355668349040457,14.139349686576256,4.516438220049776,0.949212132224073,-0.23384384468571678,-0.001099194031908224
0.88,-0.960881567401218,0.06573863531514894,-2.2130453204716,-0.143582744297536,0.0751808928239442,0.0006075144655162542,-0.8215993408183135,0.5218409236689381,0.11208505738682457,0.018156755606150907,0.01640093637595792,7.492887571541829e-06,9.983901449933182,1.9284921666942325,1.5806556296796614,0.42076577679450544,-0.3290465638438178,-0.0027514479511507872,6.267455257424218,13.825355001073294,4.361440336032899,0.911907656165676,-0.231105020604678,-0.001092083922110376
0.89,-0.9681007960840031,0.0711504995384821,-2.2117687292281434,-0.14335881835798334,0.0753119964331732,0.0006074273960860585,-0.7219228682785084,0.5411864223333153,0.12765912434565477,0.02239259395526691,0.013110360922899836,-8.706943019567471e-06,9.858425170090515,1.6381896387428005,1.4000994049884725,0.3703617853761063,-0.32162438949713135,-0.0026655387576237644,6.15940574865789,13.513253868102467,4.208568894331744,0.8751483699731907,-0.22763795220213037,-0.0010771955778009308
0.9,-0.9743357986968474,0.07672676020473876,-2.210354291577919,-0.1430975022649661,0.07541080841681151,0.0006071812509271322,-0.6235002612844238,0.5576260666256658,0.14144376502244596,0.02613160930172329,0.00988119836383165,-2.461451589263035e-05,9.711687276162158,1.3488361242423925,1.220862326567275,0.32050139143562717,-0.3137195165914477,-0.002552468578513434,6.033268246446358,13.204527463786887,4.058400435350496,0.8390700917547951,-0.22350514253864265,-0.0010554029913428617
0.91,-0.979601236638166,0.08243845453631923,-2.2088197715307505,-0.14280371331765093,0.07547799841219685,0.0006067796609611655,-0.526543794131862,0.571169433158048,0.15345200471685294,0.029378894731515,0.006718999538533288,-4.015899659667537e-05,9.545025276655348,1.061754717088879,1.0436983666011694,0.2714094850229909,-0.3053634466471493,-0.0024153439423759693,5.89081407783538,12.900603858464596,3.9114813219435267,0.8038009072856425,-0.2187700810451319,-0.0010275889193653977
0.92,-0.9839137604241472,0.08825684792277581,-2.2071827279874645,-0.14248229606518437,0.07551428819801297,0.0006062269059348721,-0.43125237859812326,0.5818393386456577,0.16370435432861352,0.032141725246657704,0.0036289785816118526,-5.527550262933838e-05,9.359751656953433,0.7782406977245118,0.8693397092664192,0.22330114713386706,-0.2965864469819053,-0.0022573649537083185,5.733821777248045,12.602847752869287,3.7683257935910284,0.7694608229159723,-0.2134967078355203,-0.000994633169113272
0.93,-0.9872918785602491,0.09415356352409737,-2.205460442033459,-0.14213800139221255,0.07552044843671687,0.0006055278527048485,-0.33781181361018753,0.5896715601321562,0.17222859540052132,0.034429467297182346,0.0006160238703908248,-6.990532300236056e-05,9.157148745775428,0.49955471361364967,0.6984931263595298,0.17638070044614906,-0.2874174525846058,-0.002081797862163448,5.564060966927879,12.312550918124264,3.6294141557319715,0.7361614505659037,-0.2077488583570423,-0.0009574014926177463
0.9400000000000001,-0.9897558294231447,0.10010070839445982,-2.2036698467424545,-0.14177546660314358,0.07549729553594918,0.000604687892001953,-0.24639508628955126,0.5947144870362452,0.17905952910045594,0.03625347890689857,-0.0023152900767688836,-8.399607028955263e-05,8.938464468425407,0.22691589839891008,0.5318364595673286,0.13084081355624466,-0.2778840184776783,-0.0018919464303648326,5.383276122248498,12.030923550974087,3.495191161294775,0.7040057358909472,-0.20158969777880142,-0.0009167352145070757
0.9500000000000001,-0.9913274565783389,0.10607099543888418,-2.201827459841119,-0.1413991965940179,0.07544568863414239,0.0006037128743261664,-0.15716271551942218,0.5970287044424363,0.18423869013350946,0.03762700091256791,-0.0051606901806785805,-9.750176757866052e-05,8.704908986190482,-0.03850497603558767,0.37001523631171573,0.08686167427442149,-0.2680123227849549,-0.0016911220212030287,5.193170569545092,11.759086709557359,3.366064625406318,0.6730877368717312,-0.1950811559881716,-0.0008734417141517869
0.96,-0.9920300878701911,0.1120378605188386,-2.199949319572506,-0.14101354619435885,0.07536652671127327,0.00060260904560241,-0.07026312918522676,0.5966865079954422,0.18781402686131368,0.038565039965903665,-0.007916192286912087,-0.00011038287237563842,8.457652209993318,-0.2955922188865996,0.2136394466124122,0.044610243406772776,-0.25782721887441085,-0.0014826123861482188,4.9953910813748115,11.49806594769127,3.2424042988433146,0.6434924565071736,-0.188283374925176,-0.0008282858726313648
0.97,-0.9918884185337601,0.11797557403592843,-2.198050924080564,-0.14062270375390074,0.07526074582159399,0.0006013829832103517,0.014166933643096319,0.5937713517089829,0.18983954919420526,0.039084244045810575,-0.010578088967927123,-0.00012260623920582917,8.197822164129326,-0.5432917163136213,0.06328050794849727,0.004239597091998615,-0.24735233321536043,-0.0012696492860948538,4.791513430315151,11.248786219431084,3.1245410119346704,0.6152957301926886,-0.18125418024576184,-0.0007819825802058663
0.98,-0.990928398492975,0.12385934634535299,-2.196147174619527,-0.14023067604090136,0.07512931644134957,0.0006000415329848303,0.09600200407851045,0.5883772309424569,0.190374946103668,0.03920277129993802,-0.013142938024442167,-0.00013414502255214904,7.92650416312113,-0.7806171119617256,-0.08053155602552109,-0.03411163700351949,-0.23661020403263677,-0.0010553751394413169,4.583029239547744,11.012068082545467,3.012766088992342,0.5885641658951756,-0.17404858900188458,-0.0007351903813383998
0.99,-0.9891771239283976,0.12966542638247994,-2.1942523228708146,-0.13984127451005893,0.07497324092106183,0.0005985917477675106,0.1751274564577307,0.5806080037126942,0.1894851748712371,0.038940153084243714,-0.015607552028773718,-0.0001449785217319655,7.644740750390507,-1.006655583496023,-0.21731069851387996,-0.07031974654152329,-0.2256224545001757,-0.000842809099083297,4.371334428513667,10.7886251919808,2.9073310247142277,0.5633551335614503,-0.166718364188753,-0.000688506312587779
