tonegas/nnodely-applications/joint_friction_estimation/dataset/validation/mpc_mujoco_episode_7.csv
time,q1,q2,q3,q4,q5,q6,dq1,dq2,dq3,dq4,dq5,dq6,ddq1,ddq2,ddq3,ddq4,ddq5,ddq6,tau1,tau2,tau3,tau4,tau5,tau6
0.0,0.0,1.57,-1.57,0.0,0.0,0.0,0.0,0.0,0.0,0.0,0.0,0.0,4.69737972990689,-11.771599486007506,2.916249435601273,1.870147635703585,0.7205868918763194,-3.404936083750698e-06,0.6556051791355512,-9.950043372982872,-6.168649372476764,-1.3312164029045612,0.05901348127179393,8.264376246881853e-05
0.01,0.00046741677659540404,1.56882774637806,-1.569712590708616,0.00017137784543886275,5.994724590227989e-05,7.122164184029001e-07,0.046741677659540404,-0.11722536219401596,0.028740929138405456,0.017137784543886276,0.005994724590227989,7.122164184029001e-05,4.619161088850163,-11.617293794720766,2.8620934998927297,1.707637034567007,0.6039300065009776,0.007149173667289954,0.6441036126326889,-9.886638166387225,-6.148230451620507,-1.327160773219708,0.058150356469684424,7.512668294402784e-05
0.02,0.001394093675284009,1.5664986819215814,-1.5691439572678119,0.0005010592457211334,0.00017252562931971004,2.1662311816887158e-06,0.09266768986886048,-0.23290644564787139,0.05686334408041738,0.032968140028227066,0.011257838341743015,0.00014540147632858158,4.531638525624149,-11.453272929086621,2.8002050605595343,1.5763106615819886,0.5323309022585363,0.0075300963425353196,0.6261022424102307,-9.805500257767667,-6.120397763611869,-1.3214947313758314,0.05688083062818989,6.494311935414975e-05
0.03,0.0027710966400799047,1.5630291922666757,-1.56830082874215,0.000978341306957262,0.00033314558380770636,4.315586941374355e-06,0.1377002964795896,-0.3469489654905696,0.08431285256618193,0.047728206123612865,0.016061995448799635,0.00021493557596856394,4.435926032241,-11.279700132849316,2.733184148357658,1.4688775619839127,0.4889852713737035,0.007210232832985941,0.6019844527853279,-9.70676757062476,-6.085294963892475,-1.3142588907192172,0.05521874263503721,5.221317789833014e-05
0.04,0.0045887671021337395,1.5584365959029525,-1.5671902724590299,0.0015943420406262783,0.0005389300691233134,7.121549350677548e-06,0.18176704620538348,-0.45925963637231815,0.1110556283120209,0.061600073366901605,0.020578448531560697,0.00028059624093031924,4.332543493989831,-11.096682567758709,2.6630979772351004,1.3798139004913104,0.46374530400413505,0.007030671768784469,0.5722075296039166,-9.590576149513813,-6.043069498215716,-1.3054952501942167,0.05317896284230336,3.704031901006935e-05
0.05,0.006836739399445619,1.5527391383166327,-1.5658195288151433,0.0023415837106140714,0.0007880985968911255,1.0559750870147384e-05,0.22479722973118788,-0.5697457586319811,0.13707436438864556,0.07472416699877929,0.024916852776781212,0.0003438201519469836,4.221658597550969,-10.904293676126942,2.5916050138303,1.3049398642803816,0.4504538592669931,0.00706303749393955,0.5372971388113864,-9.457064757338594,-5.993874112004006,-1.29524759132513,0.05077743877173373,1.9518139029117807e-05
0.06,0.009503937341744748,1.545955988391963,-1.564195877207965,0.0032136781345785213,0.0010795913700549482,1.4617321560171022e-05,0.2667197942299129,-0.6783149924669813,0.1623651607178418,0.08720944239644496,0.029149277316382283,0.0004057570690023638,4.103230682229361,-10.702591319491994,2.5200484761404702,1.2410988152351514,0.44536532661132,0.007285757516774183,0.49784192915806136,-9.306379716034604,-5.937868290515063,-1.2835618216177607,0.048031320884633744,-2.6451311732785237e-07
0.07,0.012578558648930316,1.538107235523823,-1.5623265260545371,0.004205089593951045,0.0014128386955198486,1.9290050094241153e-05,0.3074621307185569,-0.7848752868139978,0.1869351153427788,0.09914114593725237,0.03332473254649003,0.00046727285340701316,3.9770967962773076,-10.491632736152141,2.449526724116037,1.1859123698799152,0.4461960719859519,0.0076797512900728115,0.4544878023771584,-9.138679966626365,-5.875219629199097,-1.2704862705828717,0.044959130174150784,-2.2219345147839534e-05
0.08,0.016048052516523775,1.5292138861479805,-1.5602185216210878,0.005310956742430295,0.001787618372393236,2.4580482880716324e-05,0.34694938675934606,-0.8893349375842418,0.21080044334494652,0.11058671484792498,0.03747796768733873,0.0005290432786475169,3.8430235542262348,-10.271487123356058,2.380945989369792,1.1375932244028242,0.45154940003162025,0.008237771106149427,0.4079315210134662,-8.954142366497392,-5.806105146710791,-1.256071945361744,0.04158094277265148,-4.6254973829420554e-05
0.09,0.01989909350611286,1.5192978585845724,-1.5578786717362467,0.006526959284833688,0.0022039662709963156,3.049675183035063e-05,0.3851040989589084,-0.9916027563408077,0.2339849884841045,0.1216002542403393,0.04163478986030797,0.0005916268949634302,3.700738748267654,-10.042246265983831,2.315059602110523,1.0948020842338835,0.4605647451163719,0.00896258112768411,0.35891340712399533,-8.752967144865426,-5.730712518738056,-1.2403727445535946,0.03791857409034116,-7.227362296249819e-05
0.1,0.02411755374508151,1.5083819752490029,-1.5553134814922476,0.00784921854693125,0.002662118836614925,3.705188210386391e-05,0.42184602389686526,-1.091588333556961,0.2565190243999096,0.13222592620975623,0.04581525656186094,0.0006555130273513284,3.549951074788438,-9.804033556339006,2.252496909130116,1.0565382925589333,0.4727009296119302,0.009864754490787941,0.308208951928119,-8.535383465754013,-5.649241223465507,-1.2234456306132306,0.03399574919829533,-0.00010016807904034196
0.11,0.028688474713290005,1.496489951417375,-1.552529098825592,0.009274223615149792,0.0031624743505659046,4.426340590960152e-05,0.4570920968208495,-1.1892023831627705,0.27843826666556604,0.14250050682185425,0.05003555139509795,0.0007211523805737603,3.3903631025951655,-9.55701161067495,2.19378434814484,1.0220562016244763,0.4875988714910573,0.01096120933128697,0.25661921693045825,-8.301655022446191,-5.561903583899255,-1.2053507595644761,0.029838248485653855,-0.00012981888148212289
0.12,0.03359603950190599,1.4836463798525887,-1.549531268466574,0.010798776678874987,0.0037055645940534737,5.2153168086189925e-05,0.4907564788615984,-1.2843571564786411,0.29978303590179123,0.1524553063725195,0.05430902434875693,0.0007889762176588406,3.2216807855975955,-9.30138861314341,2.1393605845523744,0.9908012069253971,0.5049902840118037,0.012274292066390746,0.2049599688035083,-8.052085579449361,-5.468925693690851,-1.1861515668792153,0.02547401902202876,-0.00016109176349411502
0.13,0.038823546244125436,1.4698767107082504,-1.54632529319833,0.012419952700281508,0.004292031365170387,6.0747246028059775e-05,0.5227506742219444,-1.3769669144338392,0.32059752682440856,0.16211760214065202,0.05864667711169136,0.000859407794186985,3.0436218597320637,-9.037423462327377,2.0895871885711834,0.9623608034203492,0.5246314926872593,0.01383110775117391,0.15404955574160234,-7.787024368341772,-5.37054821424004,-1.165914808637369,0.020933242980353033,-0.0001938353829172892
0.14,0.044353383384687355,1.4552072262349387,-1.5429160017032126,0.014135069676671653,0.0049226038606872795,7.007592649998681e-05,0.5529837140561916,-1.466948447331164,0.34092914951174097,0.17151169763901447,0.06305724955168925,0.0009328680471927033,2.8559250487562204,-8.765429756282956,2.044756003067288,0.9364271262217265,0.5462489365909136,0.015662813697519207,0.10469560247338919,-7.50687123378669,-5.267027031852824,-1.144710557480689,0.016248355168968158,-0.0002278793959514274
0.15,0.05016700755465484,1.439665009920148,-1.5393077225221692,0.015941666632081544,0.005598073708825549,8.017369009800305e-05,0.5813624169967488,-1.5542216314790795,0.36082791810433806,0.18065969554098915,0.06754698481382698,0.0010097763598016253,2.658361956637642,-8.485778624031486,2.0050941018618236,0.9127682837090951,0.5694873078856517,0.017803581449142847,0.057680673573570984,-7.212081415115604,-5.158633764131346,-1.1226121532641111,0.01145400229279515,-0.0002630329341411255
0.16,0.05624492505319235,1.423277909801547,-1.5355042638303953,0.017837487142642904,0.006319264701308834,9.107915354516198e-05,0.6077917498537505,-1.638710011860109,0.38034586917740043,0.18958205105613612,0.07211909924832845,0.001090546344715892,2.4507537357222495,-8.198900390784994,1.9707670472167997,0.8912064389206673,0.5938539367611426,0.020288877947063133,0.013747128245284235,-6.903169836944338,-5.045656104193183,-1.099696108576554,0.00658693703511757,-0.0002990835489874952
0.17,0.06256667832933939,1.4060744958045936,-1.531508898854308,0.019820466713022795,0.007086994192770652,0.00010283491216648931,0.6321753276147044,-1.7203413996953334,0.39953649760873766,0.19829795703798916,0.07677294914618185,0.0011755758621327342,2.232995001929963,-7.9052850476088325,1.9418810100584771,0.8716010919210788,0.6186548748224165,0.0231526235598305,-0.02641853789257187,-6.580714769071937,-4.928397989424987,-1.076041969350444,0.0016858403944462266,-0.0003357966909874011
0.18,0.06911083943626047,1.3880840110713202,-1.527324356831769,0.021888722716838747,0.007902022832007785,0.00011548721040046184,0.654416110692108,-1.7990484733273417,0.4184542022539094,0.206825600381595,0.08150286392371342,0.0012652298233972524,2.0050879092164924,-7.605481481032355,1.9184842072957498,0.8538363971134171,0.6429199492196673,0.026422665883842456,-0.06220149941120148,-6.245360701221892,-4.807179577986158,-1.0517321305284462,-0.003208934128566522,-0.0003729157926427746
0.19,0.07585501323555024,1.369336317368493,-1.5229528194576478,0.024040545921092647,0.008764988871550805,0.00012908534742285722,0.6744173799289773,-1.8747693702827282,0.43715373741210173,0.21518232042538996,0.08629660395430203,0.0013598137022395392,1.7671896049817626,-7.300095402243222,1.9005680297453775,0.8378116422172628,0.6653166674337134,0.030113895674146907,-0.09307412723729194,-5.897820261955277,-4.682337011004029,-1.0268516061593407,-0.008055700962937881,-0.00041016302993302563
0.2,0.08277585419101532,1.349861834791711,-1.5183959227662294,0.02627439285549842,0.009676322907085593,0.0001436806986512685,0.6920840955465081,-1.947448257678189,0.4556896691418349,0.22338469344057738,0.0911334035534789,0.0014595351228411262,1.5196761283156661,-6.989785897959507,1.8880681759780504,0.8234342392456178,0.6840572077583387,0.034218293540351774,-0.11861074665800486,-5.5388749936958,-4.554221931345074,-1.0014877523559111,-0.012811874248024383,-0.0004472408458455217
0.21,0.08984910191408084,1.3296914761188665,-1.5136547643848046,0.028588878479041523,0.01063613873395884,0.00015932520425908576,0.7073247723065517,-2.0170358672844593,0.4741158381424852,0.23144856235431038,0.09598158268732458,0.0015644505607817277,1.26322462792225,-6.6752605058426315,1.8808660669715334,0.8106147452372134,0.6968099149285685,0.038691362644758254,-0.13850108509445314,-5.169374778217867,-4.423200721221517,-0.9757299403228822,-0.01743449796683972,-0.0004838343344095876
0.22,0.09704964214878996,1.308856576313378,-1.508729916051857,0.03098276875110057,0.01164409639661637,0.00017606914795198256,0.7200540234709121,-2.083489980548857,0.4924848332947599,0.23938902720590483,0.10079576626575298,0.0016743943692896792,0.9989127627128692,-6.357268705408606,1.8787907888877982,0.7992635480035606,0.7006376341138489,0.04343498498241305,-0.15256181578918487,-4.790235694917714,-4.28965341253233,-0.9496691755346918,-0.0218808812457521,-0.0005196146047871714
0.23,0.10435160144030604,1.2873888178355075,-1.5036214412304028,0.033454972842534784,0.012699234923784223,0.00019395803314371194,0.730195929151609,-2.1467758477870467,0.5108474821454305,0.24722040914342114,0.10551385271678529,0.0017888885191729392,0.7283283755031038,-6.036593715830842,1.8816217901523196,0.7892889203023383,0.6919997456191829,0.04827801811276594,-0.16074555225512993,-4.4024360922994195,-4.1539722170322815,-0.9233976583717629,-0.0261093440410916,-0.000554243269738379
0.24,0.11172848495921214,1.265320152588185,-1.4983289175637988,0.036004534829828926,0.013799775321015556,0.00021302837639177553,0.7376883518906103,-2.206866524732245,0.5292523666604001,0.2549561987294142,0.1100540397231333,0.0019070343248063586,0.45367339525907885,-5.714042505252568,1.8890925346011667,0.780596161655172,0.6668701977962568,0.05295817364985492,-0.16314659800471448,-4.007010665231004,-4.0165596191160695,-0.8970082812734085,-0.030080073875747394,-0.0005873782227516813
0.25,0.11915336724413779,1.2426827214999256,-1.492851463819914,0.038630624806182325,0.014942899841920185,0.00023330230490168936,0.7424882284925649,-2.2637431088259317,0.5477453743884876,0.26260899763533974,0.1143124520904629,0.002027392850991382,0.17783411301557636,-5.390434052716611,1.900895270894135,0.7730875104682458,0.6210327503972572,0.05711182669654135,-0.16000271496145824,-3.605042415098029,-3.877825991695263,-0.8705940614428839,-0.03375608458683067,-0.0006186808680965799
0.26,0.1265991440934202,1.2195087729170888,-1.4871877708542847,0.04133252941764766,0.01612452191365352,0.00025478099748163085,0.7445776849282432,-2.317394858283683,0.5663692965629303,0.2701904611465331,0.11816220717333344,0.002147869257994146,-0.09562112158407654,-5.066586040090587,1.9166869989872435,0.7666624369653903,0.5506036594329016,0.06028154832488643,-0.15169216470204705,-3.1976524739734926,-3.7381867161576356,-0.8442475122874866,-0.03710425076131144,-0.000647824915584812
0.27,0.13403884943967237,1.1958305811267638,-1.4813361360021262,0.04410964188722037,0.01733907221438307,0.00027743727417266526,0.7439705346252162,-2.3678191790325114,0.585163485215846,0.2777112469572709,0.12145503007295508,0.002265627669103442,-0.3625591017721417,-4.743300499406855,1.9360965763556877,0.7612178655772963,0.45278482684541765,0.0619522315098987,-0.13872534429802463,-2.7859880069891654,-3.59805884851691,-0.8180599680672846,-0.04009636517808006,-0.0006745067112846593
0.28,0.14144603293080346,1.1716803664259048,-1.4752945001971345,0.046961451620170305,0.018579338767368406,0.0003012080217724081,0.7407183491131089,-2.415021470085903,0.6041635804991695,0.2851809732949937,0.12402665529853359,0.0023770747599742843,-0.6185426004702378,-4.421349365433882,1.9587326946049881,0.7566479055820148,0.3267589297878942,0.06162255817700357,-0.1217305500701616,-2.3712087094208734,-3.4578574552753287,-0.7921208899825315,-0.04271013270206897,-0.000698456804530338
0.29,0.14879518210600173,1.14709021815223,-1.4690604870329893,0.04988753348541615,0.019836408963155038,0.00032598758798617377,0.7349149175198267,-2.4590148273674712,0.6234013164145266,0.29260818652458415,0.12570701957866326,0.0024779566213765673,-0.859227501088763,-4.101461375824588,1.9841921841261492,0.7528428722746017,0.17452087690749263,0.058906880041890486,-0.10143383075660657,-1.9544727839985478,-3.3179918462731406,-0.7665171979477209,-0.04492997998333876,-0.0007194520390594847
0.3,0.15606215909050036,1.122092021953178,-1.4626314429573108,0.052887536840788354,0.021099763602819656,0.0003516236519525108,0.7266976984498641,-2.4998196199051934,0.6429044075678438,0.3000003355372206,0.1263354639664617,0.0025636063966337063,-1.0808371586572305,-3.7843120826401404,2.0120678315854628,0.7496877642361324,0.0013542316951666855,0.05364521785964549,-0.07863357073034738,-1.5369235968647819,-3.17886202106447,-0.7413326832458216,-0.046747540402433195,-0.0007373269545341453
0.31,0.16322460924002374,1.0967173922633995,-1.4560044778420163,0.05596117432433329,0.02235756144867536,0.00037791717768698705,0.7162450149523387,-2.537462968977861,0.6626965115294502,0.3073637483544939,0.1257797845855704,0.002629352573447621,-1.2806105832914942,-3.470518683154567,2.04195473917703,0.7470607834631777,-0.18431670819838342,0.045984500043146914,-0.05417130648278938,-1.1196783433870605,-3.0408556850316573,-0.7166475571858335,-0.04816168650082123,-0.0007519828477664995
0.32,0.17026229308958699,1.0709976104959202,-1.449176505320844,0.05910821038921815,0.023597124436492443,0.000404627678744165,0.7037683849563232,-2.571978176747916,0.6827972521172184,0.3147036064884858,0.12395629878170861,0.0026710501057177942,-1.4571160380894255,-3.160734666335801,2.0734555329748567,0.7448328342928935,-0.37180100960273377,0.03639431385586278,-0.028901204343864798,-0.7038629957499201,-2.904360456050555,-0.6925408610803969,-0.04917803076537485,-0.0007633946287994138
0.33,0.17715729721527673,1.0449635595287188,-1.4421442824499098,0.0623284496232998,0.02480559238809911,0.0004314841053714393,0.6895004125689743,-2.6034050967201563,0.7032222870934258,0.32202392340816505,0.12084679516066675,0.0026856426627274305,-1.6103370811776385,-2.855306390002764,2.10617695330452,0.7428684923949382,-0.5495858440470682,0.025601166816370702,-0.0036605082545317635,-0.29044659656383387,-2.769708432751803,-0.6690800976819359,-0.04980800191502325,-0.0007716031577694258
0.34,0.1838940974048796,1.0186456887340558,-1.4349044488312195,0.06562172457740051,0.025970673388039447,0.00045820040890379057,0.6736800189602874,-2.6317870794662865,0.7239833618690289,0.32932749541007056,0.11650809999403368,0.0026716303532351242,-1.741567372563183,-2.5547016789839976,2.139734310818093,0.741026662905993,-0.7069811200357687,0.014458053916832414,0.02075532469560363,0.11956614318930381,-2.637242533301435,-0.646333961200221,-0.050067426508117324,-0.000776716929232888
0.35000000000000003,0.19045946909758982,0.992073966892629,-1.4274535650151152,0.0689878833350889,0.02708138711934729,0.000484493648707147,0.6565371692710207,-2.6571721841426843,0.7450883816104293,0.33661587576883967,0.11107137313078433,0.0026293239803356393,-1.853126470984635,-2.259473174305753,2.173747343096867,0.7391653309033208,-0.8355398545047583,0.0037920671785347526,0.043611905693820924,0.5251578645587701,-2.5073072024129535,-0.6243704264336175,-0.04997510670261087,-0.0007788993463306803
0.36,0.19684226628750098,0.9652778266846187,-1.4197881505431449,0.07242677701107005,0.028128695229542682,0.0005101018667809979,0.6382797189911155,-2.6796140208010213,0.7665414471970441,0.343889367598114,0.10473081101953921,0.002560821807385092,-1.9479833378674576,-1.9699911388772176,2.207832082808716,0.737145082149377,-0.9299449373315509,-0.005723083624997294,0.0642491039934169,0.9254228056373229,-2.380206331155694,-0.6032488443673213,-0.04955155995662728,-0.0007783482484343358
0.37,0.2030331091869453,0.9382861274100432,-1.4119047222600565,0.07593824712900571,0.029105936541478514,0.0005347990904113697,0.6190842899444324,-2.699169927457541,0.7883428283088404,0.3511470117935659,0.09772413119358306,0.0024697223630371808,-2.029394920344946,-1.6868062683010698,2.2416031305480084,0.7348309384607146,-0.988257998319388,-0.013639751785334164,0.08208797893871017,1.319404175440252,-2.256257764331081,-0.5830300487006572,-0.04881788725887918,-0.0007752868899126398
0.38,0.20902402636130202,0.9111270998102166,-1.4037998328698835,0.07952211325943159,0.030009026360949723,0.0005584056251974266,0.5990917174356706,-2.715902759982666,0.8104889390173,0.358386613042589,0.09030898194712106,0.00236065347860569,-2.10056011358834,-1.410056132921613,2.274661847479041,0.7320940926998536,-1.0116128431849702,-0.019749350335977578,0.09663435658328956,1.7063607606814926,-2.1357044083304135,-0.563759893768714,-0.04779531752073688,-0.0007699386434793508
0.39,0.21480809729219427,0.8838283321313222,-1.3954701105471023,0.08317816058641482,0.03083642397871165,0.0005807929385393839,0.5784070930892251,-2.7298767678894404,0.8329722322781219,0.3656047326983223,0.08273976177619284,0.002238731334195732,-2.16439929852622,-1.14025284173301,2.3066093293406427,0.7288109355291983,-1.0035408368335519,-0.024049866404894038,0.10747859338449353,2.0854148872464853,-2.0188322778552195,-0.5454909976282101,-0.04650468036529281,-0.0007625309131075233
0.4,0.220379126712025,0.8564167189508815,-1.386912298777521,0.08690612800543117,0.03158890789486793,0.0006018834756967137,0.557102941983073,-2.7411613180440733,0.855781176958132,0.3727967419016354,0.07524839161562756,0.0021090537157329816,-2.223380082921221,-0.8777782756340701,2.3370389216712915,0.7248652057772622,-0.9691394008492296,-0.02668980001765142,0.11429550984053125,2.4557801222686035,-1.9058927314260576,-0.5282681846071118,-0.04496663533550334,-0.0007532792957723053
0.41000000000000003,0.22573137330861762,0.8289184230423672,-1.3781232968580188,0.09070569657722694,0.032269218053827486,0.0006216464782125377,0.5352246596592622,-2.7498295908514274,0.8789001919502164,0.3799568571795771,0.06803101589595555,0.0019763002515824084,-2.279445286544434,-0.6229981395908946,2.365541242613771,0.7201464742463894,-0.9142568707868195,-0.027907785027948995,0.11684358124638305,2.8167114087504475,-1.7971196205197961,-0.5121316410978454,-0.043201833619668915,-0.0007423869439144769
0.42,0.23085934140992181,0.8013588388994372,-1.3691002006310276,0.09457647837849174,0.03288162835785911,0.0006400911768484107,0.5127968101304196,-2.755958414293007,0.9023096226991311,0.38707818012648026,0.06124103040316291,0.0018444698635873005,-2.3340050398370864,-0.3762558473154501,2.391707871491689,0.7145495127378503,-0.8448079765158127,-0.027980517130822946,0.1149643753436626,3.1675095753775495,-1.6927277376370622,-0.4971165969037265,-0.04123119783354274,-0.00073004482119422
0.43,0.23575763523511387,0.7737625585121126,-1.3598403430883368,0.09851800575579632,0.03343150512848439,0.0006572586986301537,0.4898293825192062,-2.7596280387324517,0.925985754269087,0.3941527377304583,0.05498767706252766,0.0017167521781743017,-2.3879772862587045,-0.1378666169643343,2.415135490659888,0.7079738474232098,-0.7662729403435563,-0.027184378932301634,0.1085820293963994,3.507525984716337,-1.5929112786312394,-0.48325303743826487,-0.03907618033739317,-0.0007164339447242808
0.44,0.24042086922462144,0.7461533399679889,-1.3503413344357238,0.10252972099465694,0.033924893408872,0.0006732137855780668,0.4663233989507575,-2.7609218544123713,0.9499008652613075,0.4011715238860622,0.049338828038761176,0.00159550869479131,-2.4418540334982004,0.09198933438847616,2.435428178979782,0.7003232537188806,-0.6833857152389031,-0.02577114027580385,0.09770256942808885,3.836209815296366,-1.4978289369889204,-0.4705631356103529,-0.03675898668831974,-0.0007017268901423202
0.45,0.2448436251851014,0.7185540895076727,-1.3406011013394608,0.10661096631706732,0.03436815773356077,0.0006880370991834974,0.4422755960479952,-2.759925046031624,0.9740233096263013,0.4081245322410372,0.044326432468876464,0.0014823313605430632,-2.4957975456523456,0.31284110688966194,2.4522096457908713,0.691506625577416,-0.5999870417807207,-0.023955399128206656,0.08241170314000353,4.152929854862514,-1.407660977022756,-0.4590712215942856,-0.034302462841537144,-0.0006860981218045319
0.46,0.2490204444130799,0.6909868146163225,-1.3306179243828646,0.11076097466395966,0.034767690334900146,0.0007018185646309577,0.41768192279785105,-2.75672748913502,0.9983176956596117,0.4150008346892344,0.03995326013393733,0.0013781465447460202,-2.5497029033203855,0.5246110140972381,2.4651135371182455,0.6814389358158062,-0.5190034017761097,-0.021910595457370063,0.06287320666384966,4.457266963375004,-1.3225142445449616,-0.4487871559419291,-0.03173038308394883,-0.0006697155704057366
0.47000000000000003,0.25294584688010524,0.6634726162814971,-1.3203904743107935,0.1149788607909653,0.03512968920678656,0.0007146519576431154,0.3925402467025303,-2.751419833482538,1.0227450072071131,0.4217886127005633,0.03619988718864142,0.0012833393012157712,-2.603288010300729,0.7271367049379264,2.4737962975857224,0.6700401996688843,-0.4425114844426581,-0.019770394325255625,0.0393241485635418,4.748811663749921,-1.2424892676325658,-0.43971829411958074,-0.02906708318697966,-0.0006527503608559093
0.48,0.25661436748427396,0.6360316728080642,-1.309917846071535,0.11926361301582675,0.03546000133779763,0.0007266307429697625,0.3668520604168708,-2.744094347343292,1.0472628239258501,0.42847522248614456,0.03303121310110684,0.0011978785326647108,-2.65615524675306,0.920297299225137,2.477937202678967,0.6572371334870102,-0.37185154225553635,-0.017633172109082218,0.01206961321392766,5.027219087429889,-1.1676619787981748,-0.43186630349479016,-0.026337323149633378,-0.0006353756887391884
0.49,0.26002060266927784,0.6086832277572911,-1.2991995905785665,0.12361408565427882,0.03576402236736027,0.0007378450605468352,0.3406235185003865,-2.7348445050773056,1.0718255492968656,0.43504726384520714,0.030402102956263576,0.0011214317577072756,-2.7078439948481106,1.1040133694444365,2.477240575360228,0.6429639353141692,-0.3077616205584681,-0.015567745091195961,-0.018524214971893466,5.2922094506153625,-1.0980837862315722,-0.4252272726511601,-0.02356602766747439,-0.0006177667841083378
0.5,0.2631592619781805,0.5814455820110113,-1.2882357439740897,0.12802899221469427,0.03604664221787611,0.0007483796940497458,0.3138659308902684,-2.7237645746279795,1.0963846604476735,0.4414906560415437,0.02826198505158412,0.0010534633502910608,-2.757870979627804,1.278246253119911,2.4714375685055585,0.6271630204959138,-0.2505128133549904,-0.013619276813029546,-0.05203826054393573,5.543567753253885,-1.0337819368467556,-0.41979188130960043,-0.02077799341237721,-0.0006001000565785009
0.51,0.26602522054467015,0.5543360898956903,-1.2770268542186731,0.13250689941560748,0.036312226185602106,0.0007583128357553579,0.2865958566489612,-2.7109492115321023,1.12088897554165,0.44779072009132115,0.026558396772599857,0.0009933141705612037,-2.8057597701469574,1.4429967944936226,2.460287558699674,0.6097856697460671,-0.20003326338604843,-0.011814730312602717,-0.08800982853776118,5.781142766266164,-0.9747601478791849,-0.41554562482617186,-0.01799758267778053,-0.0005825516030835964
0.52,0.2686135697252628,0.5273711592444145,-1.2655740048693933,0.13704622208140252,0.03656462189220789,0.0007677154666245784,0.2588349180592656,-2.69649306512758,1.145284934927971,0.45393226657950514,0.025239570660578435,0.0009402630869220566,-2.8510612119794283,1.5983036414952223,2.44357919715368,0.5907925653471153,-0.15601451362502838,-0.010167565759614638,-0.12594265069970112,6.004845400552812,-0.9209994732968559,-0.4124690856825933,-0.015248419770834468,-0.0005652952747238664
0.53,0.2709196640305816,0.5005662552301986,-1.253878835942538,0.1416452189612026,0.036807183916350426,0.0007766511899680742,0.23060943053188032,-2.680490401421588,1.1695168926855333,0.45989968798001013,0.02425620241425375,0.000893572334349585,-2.89336662570124,1.74424123826272,2.421131159643468,0.5701542050122654,-0.11799800637827551,-0.008681594618073829,-0.1653173893362178,6.2146465658901375,-0.8724593655428233,-0.4105382436504683,-0.012553103121937973,-0.0005485004909943672
0.54,0.27293916324229833,0.47393590777314387,-1.241943561786554,0.146301989505236,0.03704280949944097,0.0007851763829077166,0.2019499211716752,-2.663034745705475,1.1935274155984026,0.4656770544033409,0.02356255830905471,0.000852519293964233,-2.9323154616784928,1.880917692927998,2.3927926310915115,0.5478511921615841,-0.08544222350011665,-0.0073540228399722185,-0.20560227605375758,6.41057464524534,-0.8290788872144482,-0.4097248156016219,-0.00993294284315001,-0.0005323299675005417
0.55,0.27466806913839076,0.44749372231093687,-1.229770985917084,0.15101447162222809,0.03727398023858922,0.0007933405568771733,0.1728905896092422,-2.6442185462207,1.2172575869470053,0.47124821169920705,0.02311707391482505,0.0008164173969456691,-2.9675988544061416,2.008472962291152,2.3584435496699006,0.5238744056688578,-0.05777249091628178,-0.006177776655588385,-0.2462635753711093,6.592712805166981,-0.7907779998531701,-0.40999661209716703,-0.007407730703278456,-0.0005169374918766124
0.56,0.27610275663071887,0.42125239375313395,-1.2173645127895343,0.15578044043068578,0.037502806025830816,0.0008011868435783781,0.14346874923280856,-2.624132855780293,1.240647312754983,0.47659688084577007,0.022882578724159237,0.0007846286701204778,-2.9989601807436603,2.1270809690544388,2.317994572884602,0.49822504098981035,-0.034416164600751475,-0.005143227554956664,-0.28677558343177856,6.761197533023929,-0.7574585231669594,-0.411317849051682,-0.004995548728496252,-0.0005024658155588082
0.5700000000000001,0.2772399993873434,0.39522372383088256,-1.2047281565103003,0.16059750800262446,0.03773106861662476,0.0008087525446411561,0.11372427566244996,-2.602866992225138,1.2636356279234093,0.4817067571938662,0.02282625907939443,0.0007565701062778001,-3.0261937158615955,2.236948805485088,2.271386941296358,0.4709145298918145,-0.014826065373457542,-0.004239433733073339,-0.3266299322056843,6.916215776876583,-0.7290055632699731,-0.41364953982005165,-0.00271261498899468,-0.0004890448336906288
0.58,0.2780769901731642,0.36941864176300115,-1.1918665464997478,0.1654631240905602,0.03796026310583188,0.0008160697011516433,0.08369907858207751,-2.580508206788142,1.2861610010552489,0.48656160879357235,0.02291944892071179,0.0007317156510487107,-3.0187881247931325,3.814316655975926,2.1928787974822157,0.43697058170083203,0.0017991049186072416,-0.003455304562174244,-0.3620565640928267,7.597359641222601,-0.5519465535569464,-0.3947822037438321,-0.001374719801337158,-0.0004600954791162312
0.59,0.2786143659764469,0.3439942659912922,-1.1787867728737083,0.1703729220312558,0.03819158205203411,0.0008231743816286019,0.05373758032827253,-2.542437577170898,1.3079773626039557,0.49097979406956366,0.023131894620222592,0.0007104680476958574,-2.9765950644057186,6.537384725481837,2.088655296020111,0.384915125336315,0.015149699375899495,-0.002690851022724927,-0.3918380209459863,8.661879836459534,-0.2824489385647977,-0.3649829207945629,-0.0008556984403935257,-0.0004213266393990867
0.6,0.27885622638863233,0.3192218503977661,-1.1654980188206647,0.17532007963161128,0.03842590263761426,0.0008301046934592884,0.024186041218541676,-2.477241559352604,1.3288754053043508,0.4947157600355479,0.023432058558014807,0.0006930311830686572,-2.9300991357680957,8.595631480560998,1.98916343232127,0.31343026686485054,0.024842881212184587,-0.00196187512918361,-0.4179280465150868,9.442448942773423,-0.11833812932777255,-0.3534428977421589,-0.00024742844604131245,-0.0003939879371704883
0.61,0.2788071126447855,0.29530642666010865,-1.1520094473569897,0.18029675215832558,0.038663846924806435,0.0008368889870513541,-0.004911374384678268,-2.391542373765749,1.3488571463675,0.4976672526714292,0.02379442871921765,0.0006784293592065751,-2.8795399692504753,10.100530392789432,1.8902050291377357,0.23180322160627753,0.03176617436250018,-0.0013833387756577165,-0.43946893999218223,9.988380479715685,-0.037942844013990173,-0.35586386737738834,0.0003422649489104503,-0.00037618890872202966
0.62,0.2784719826927832,0.2723979029223462,-1.1383304975486626,0.1852947022744309,0.03890584406042545,0.0008435467194898048,-0.033512995200227366,-2.290852373776241,1.3678949808327148,0.4997950116105311,0.02419971356190189,0.0006657732438450717,-2.825192327152905,11.147747052232239,1.7888875938018511,0.1463608775685472,0.03656608707084397,-0.0009406178183533342,-0.45596868932855594,10.341950732452387,-0.022913670307481482,-0.3686540220842037,0.0008409472956824914,-0.0003662077486779136
0.63,0.27785618265784956,0.25060059015334074,-1.124471080083648,0.19030571563550303,0.039152175555309476,0.0008500906191680278,-0.06158000349336571,-2.179731276900546,1.3859417465014725,0.5011013361072122,0.02463314948840235,0.0006543899678222982,-2.7673613762069604,11.819136655363009,1.6833084969711578,0.061289639971843,0.03972271967922403,-0.0006049177910297104,-0.467248829248237,10.539262328292006,-0.05797896722703255,-0.3888799515105911,0.0012037448481547943,-0.00036251434933028365
0.64,0.2769654152569528,0.229981354455919,-1.1104416967781163,0.1953218632355117,0.03940300881843486,0.0008565285499553782,-0.08907674008967727,-2.0619235697421736,1.4029383305531662,0.5016147600008691,0.025083326312538488,0.0006437930787350349,-2.706375504749343,12.184526214565599,1.5723113535347846,-0.02075669136764624,0.04159671134346743,-0.0003501832346717998,-0.4733859244868831,10.611021170052616,-0.13061892974742428,-0.41419606991680624,0.001406824445658988,-0.00036377410547336076
0.65,0.2758057059364904,0.2105765723331276,-1.0962535030120184,0.2003356555792839,0.03965842225632673,0.0008628649480953835,-0.11597093204624012,-1.9404782122791397,1.418819376609799,0.5013792343772182,0.025541343789187133,0.0006336398140005335,-2.642578554106857,12.303285565828237,1.4552982893969588,-0.09820820816957898,0.04246050480938779,-0.00015489119654167605,-0.4746522825652344,10.583227594278274,-0.2307110683935898,-0.4427652690122096,0.001442042723377856,-0.00036884045889101357
0.66,0.27438336754178794,0.1923980450209148,-1.0819183277556406,0.2053401217672397,0.03991842415742805,0.0008691019031281254,-0.1422338394702459,-1.8178527312212807,1.4335175256377921,0.5004466187955797,0.02600019011013189,0.0006236955032741862,-2.5763223967891378,12.225710017859502,1.3320852759802246,-0.17024933628476546,0.04252029407655389,-1.624622997686842e-06,-0.47146020799495364,10.477789961206815,-0.35017900704916016,-0.47317925116691184,0.0013126170789388237,-0.0003767412141927211
0.67,0.2727049642754904,0.17543800933933304,-1.0674486625004844,0.2103288376231724,0.04018296692547838,0.0008752399629230798,-0.16784032662975393,-1.696003568158175,1.446966525515613,0.4988715855932703,0.02645427680503322,0.0006138059794954356,-2.507960338889454,11.994235808694153,1.202790685805482,-0.23657824144983408,0.04193215542416828,0.00012359039344787826,-0.46431261737393553,10.313068468860916,-0.4826633623429417,-0.5043835744217756,0.0010296751556464869,-0.00038666185471147516
0.68,0.2707772756085038,0.15967336593871007,-1.0528576278180453,0.21529592032965505,0.04045195781324372,0.0008812787280595337,-0.19276886669866417,-1.5764643400622975,1.4591034682439064,0.4967082706482668,0.02689908877653364,0.0006038765136453864,-2.4378415402972733,11.64450728615755,1.0677495121328313,-0.29723246677373893,0.04081431361164345,0.0002318867707406247,-0.4537614711395259,10.104356271280064,-0.6232246372499697,-0.535610118996638,0.0006095470023984202,-0.00039792789304316976
0.6900000000000001,0.26860726069864704,0.1450692311056491,-1.0381589242636977,0.22023600209002567,0.040725267031508035,0.0008872172862321513,-0.21700149098567273,-1.4604134833060964,1.4698703554347659,0.49400817603706,0.027330921826431324,0.0005938558172617624,-2.3663064788981454,11.206312660702453,0.9274474488965474,-0.35246372708673235,0.03925666026081043,0.00033206242251820894,-0.4403744041079922,9.864304294306537,-0.7680822431406713,-0.5663181451829151,7.167462326619634e-05,-0.00040998749832426223
0.7000000000000001,0.26620202376404883,0.1315819052452243,-1.0233667727857163,0.2251441916806106,0.04100273391038504,0.0008930545256936608,-0.24052369345982216,-1.3487325860424786,1.4792151477981486,0.49081895905849166,0.02774668788770004,0.0005837239461509465,-2.293683393940477,10.704403339857345,0.7824703671611886,-0.40264906016809476,0.03732819858768188,0.0004309953995866589,-0.42470918996558804,9.603295521185482,-0.9143900627603627,-0.5961441264623977,-0.0005629733616527195,-0.00042239511849377344
0.71,0.26356878075866724,0.11916133959091746,-1.0084958485887585,0.23001603006712412,0.04128417164012,0.0008987893576515293,-0.2633243005381577,-1.2420565654306845,1.4870924196957889,0.48718383865135206,0.028143772973496305,0.0005734831957868421,-2.2202856005693996,10.159210221294641,0.6334657479520676,-0.448228757143891,0.03508285563157898,0.0005339800772171388,-0.4072952223972018,9.329773966651356,-1.060046734001268,-0.6248599426003486,-0.0012730798687922828,-0.00043479647254503244
0.72,0.2607148276097172,0.10775317245297072,-0.993561211458307,0.23484744429048812,0.04156937100046872,0.0009044208704612759,-0.2853953148950026,-1.1408167137946739,1.4934637130451514,0.4831414223364011,0.028519936034872486,0.0005631512809746672,-2.1464095527921105,9.587468870949317,0.4811134136219035,-0.48966391811712384,0.03256397841664471,0.000644996970174172,-0.3886209758243494,9.050533066132843,-1.2035376032465854,-0.6523386838628784,-0.0020378336566869645,-0.0004469150664955247
0.73,0.25764751020221727,0.09730039725656763,-0.9785782348174223,0.23963470239589826,0.04185810339272927,0.0009099484329602962,-0.30673174074999326,-1.0452775196403095,1.4982976640884615,0.47872581054101365,0.02887323922605474,0.0005527562499020316,-2.0723335334338406,9.002764215392057,0.3261034986584672,-0.5274082992717615,0.02980775952195125,0.0007669281647313952,-0.3691263547636727,8.77096776635937,-1.3438047331642688,-0.6785271618250658,-0.002837529201206942,-0.0004585402481654517
0.74,0.2543741962338475,0.08774471661599943,-0.9635625352134789,0.24437437114697302,0.04215012341149817,0.0009153717600245572,-0.32733139683697865,-0.955568064056819,1.5015699603943393,0.47396687510747665,0.029202001876889618,0.0005423327064260979,-1.9983168589898272,8.416004225557668,0.16912005986901057,-0.5618904828674078,0.0268457923884291,0.0009017292233359786,-0.3491988930520385,8.495294210350412,-1.480141215275578,-0.7034241818836535,-0.003653968907625999,-0.00046951673304982067
0.75,0.25090224901268066,0.07902762962618022,-0.9485299034848288,0.2490632775309824,0.042445171130927266,0.0009206909501452534,-0.3471947221166832,-0.8717086989819207,1.5032631728650145,0.46889063840093714,0.029504771942910252,0.000531919012069626,-1.9245995003427752,7.835831028474469,0.01082907897184704,-0.5935034244817925,0.02370692381693451,0.001050567075662534,-0.32917287577059534,8.226740551189371,-1.6121061682000897,-0.7270636637348248,-0.004470713368674941,-0.00047973548838582285
0.76,0.2472390032296666,0.07109129332581324,-0.9334962385081296,0.2536984745441796,0.04274297423022399,0.00092590650230862,-0.36632457830140597,-0.7936336300366982,1.5033664976699213,0.46351970131971987,0.029780309929672007,0.0005215552163366648,-1.851402034300291,7.268976950923265,-0.14813011702097878,-0.6225991976970697,0.02041854448033331,0.0012139320039539214,-0.3093305940040466,7.967712102604088,-1.7394570836934236,-0.7495017682215712,-0.005273216018424567,-0.0004891258421240575
0.77,0.24339174270553207,0.06387919380496054,-0.9184774841551543,0.25827721139038273,0.04304325004336903,0.0009310193175565913,-0.384726052413453,-0.7212099520852688,1.5018754352975245,0.4578736846203138,0.0300275813145042,0.0005112815247971316,-1.7789258533328167,6.720572216279281,-0.30715078213136504,-0.6494873293556386,0.017007435451768194,0.001391730424332327,-0.28990508340438637,7.719933750507525,-1.8620965350095169,-0.770807281319788,-0.0060488708429972315,-0.0004976486786224188
0.78,0.23936768008672035,0.057336657616279194,-0.9034895698768196,0.26279690798798755,0.04334570758681051,0.000936030689178127,-0.4024062618811727,-0.6542536188681348,1.4987914278334629,0.4519696597604806,0.030245754344147502,0.0005011371621535657,-1.7073535755178626,6.1944101354685,-0.4656626232413279,-0.6744355471452765,0.013500268798149584,0.0015833638836016406,-0.2710838294794857,7.4845722378151365,-1.9800306505652432,-0.7910546062540189,-0.006786995512744462,-0.0005052905890099809
0.79,0.23517393844565343,0.051411229916464025,-0.8885483551689171,0.2672551335284446,0.04365004959475345,0.0009409422844246989,-0.4193741641066929,-0.5925427699815169,1.494121470790256,0.44582255404570303,0.030434200794294746,0.0004911595246571936,-1.6368496037629043,5.693175171773196,-0.6231340913614938,-0.6976720803817583,0.00992384319830264,0.0017877984820622306,-0.2530130378773589,7.262340741403003,-2.093337116399238,-0.8103188116988874,-0.007478767460484089,-0.0005120588531560365
0.8,0.23081753472624256,0.04605294206682428,-0.8736695780487257,0.2716495887388265,0.04395597457332681,0.0009457561198752788,-0.43564037194108807,-0.5358287849639745,1.4878777120191324,0.43944552103819035,0.030592497857336035,0.00048138354505799114,-1.567560795812117,5.218638470349123,-0.7790734634035257,-0.7193888943858604,0.006305120766629813,0.002003627906041805,-0.23580216600420723,7.053587872722347,-2.202140831823703,-0.8286722764526184,-0.008117126459906645,-0.000517977144565568
0.81,0.22630536496496273,0.04121448818106642,-0.8588688075761967,0.2759780914547146,0.04426317887130361,0.0009504745320268546,-0.45121697612798284,-0.48384538857578585,1.4800770472529008,0.43285027158881023,0.030720429797680273,0.0004718412151575745,-1.4996172137319728,4.77182496194431,-0.9330290076904553,-0.7397454157972232,0.00267111905987516,0.002229132328672334,-0.21952849222938464,6.858373035512151,-2.306595652805914,-0.8461825527509721,-0.008696654265640136,-0.0005230818626227148
0.8200000000000001,0.22164419121023388,0.036851327276474034,-0.844161400381519,0.2802385650940547,0.044571358755285534,0.0009551001443019381,-0.46611737547288457,-0.43631609045923864,1.4707407194677615,0.42604736393401005,0.03081798839819232,0.0004625612275083491,-1.4331329499980423,4.353155041934297,-1.0845884515554887,-0.7588724398255566,-0.0009512982524679803,0.0024623346660730405,-0.20424156599404852,6.676529717380571,-2.4068709622419293,-0.8629111432673725,-0.009213439184727435,-0.0005274190139433575
0.8300000000000001,0.21684063005550058,0.032921725151531654,-0.8295624611066131,0.28442902962851135,0.04488021247062228,0.0009596358313952315,-0.48035611547333057,-0.39296021249423824,1.4598939274905807,0.41904645344566477,0.030885371533674447,0.0004535687093293442,-1.3682068676721701,3.9625679363623765,-1.2333780206570113,-0.776875988110239,-0.004535693338023616,0.00270105496568529,-0.1899674087724752,6.507719260271278,-2.5031418356549593,-0.8789129411854522,-0.009664934149168282,-0.0005310415443349108
0.84,0.21190114271013188,0.02938674828785922,-0.8150868066357049,0.28854759466674773,0.045189442265192004,0.0009640846817395458,-0.4939487345368712,-0.35349768636724327,1.4475654470908255,0.41185650382363553,0.030922979456972366,0.000444885034431432,-1.304923601012689,3.5996213377393764,-1.3790609637333147,-0.793841036003391,-0.00805636922993802,0.0029429637048440926,-0.17671244579810597,6.351474378989545,-2.5955823397188076,-0.8942361547787036,-0.010049808586676805,-0.0005340071211603378
0.85,0.206832026506558,0.0262102197100415,-0.8007489339499537,0.29259245429307207,0.04549875635095093,0.0009684499587012608,-0.5069116203573898,-0.3176528577817719,1.4337872685751158,0.40448596263243625,0.030931408575892737,0.0004365276961714928,-1.2433543003308687,3.263578073737763,-1.5213359997140168,-0.8098349254092216,-0.011488690170248894,0.0031856330020372248,-0.16446705467854228,6.207235805040622,-2.6843608930382663,-0.9089225536771652,-0.010367803088219853,-0.0005363762480514951
0.86,0.2016394077675795,0.023358645444100996,-0.7865629914384935,0.2965618833386931,0.04580787077797783,0.0009727350610849557,-0.5192618738978513,-0.2851574265940505,1.4185942511460186,0.39694290456210124,0.03091144270268968,0.0004285102383694926,-1.1835576285051828,2.953504322976049,-1.6599354648523534,-0.8249105087993351,-0.014809403071015748,0.003426586414170263,-0.15320879904692833,6.074388349837509,-2.76963627175203,-0.9230079082651964,-0.010619597433858862,-0.0005382105616396672
0.87,0.19632923593283508,0.02080112136265898,-0.7725427534659507,0.3004542347761769,0.04611651119522938,0.0009769434836470873,-0.5310171834744428,-0.25575240814420147,1.4020237972542784,0.38923514374838014,0.03086404172515536,0.0004208422562131486,-1.125580060958148,2.6681938874129534,-1.7946235874941994,-0.8391090035580593,-0.017996934451461888,0.0036633486536535864,-0.1429051041546049,5.9522528553516105,-2.85156136712037,-0.9365226602338774,-0.010806621095651597,-0.0005395722779848189
0.88,0.19090727891297216,0.018509212890474448,-0.7587015980635635,0.30426793807713887,0.04642441448062047,0.0009810787771491504,-0.5421957019862912,-0.2291908472184535,1.384115540238718,0.38137033009619975,0.030790328539108833,0.0004135293502063107,-1.0694579080245918,2.4065054312556606,-1.9251944169316308,-0.8524618552507084,-0.021031633054138243,0.0038934780144803116,-0.1335161093574942,5.84017402216368,-2.9302708259621477,-0.9494923987913826,-0.010931031782179274,-0.0005405216033724275
0.89,0.1853791194682537,0.016456841144156256,-0.7450524874445544,0.3080014981509253,0.046731330211182455,0.0009851445104124789,-0.5528159444718467,-0.20523717463181915,1.3649110619009033,0.3733560073786443,0.030691573056198136,0.00040657332633283524,-1.0152168351160487,2.1670988787609784,-2.0514698683855888,-0.8649939763108208,-0.02389604609990892,0.004114630948995279,-0.12499634905358056,5.7374631232154005,-3.0058932091672417,-0.9619386921609454,-0.010995486036432394,-0.0005411175287156547
0.9,0.1797501526580714,0.014620149278445316,-0.7316079512507432,0.31165349480980736,0.04703702196447501,0.0009891442327359628,-0.5628966810182309,-0.18366918657109396,1.3444536193811283,0.3651996658882045,0.030569175329255807,0.0003999722323483923,-0.9628733524007329,1.9486300090191266,-2.1732979732521978,-0.876724614896184,-0.026575053640964463,0.00432457536673192,-0.11729682917605772,5.6434485191258155,-3.078544765662415,-0.9738796490021798,-0.011003083408914194,-0.0005414163186982798
0.91,0.1740255842113537,0.012977368412476695,-0.7183800723038621,0.31522258256066016,0.04734126843542695,0.0009930814380676837,-0.5724568446717717,-0.16427808659686216,1.322787894688103,0.3569087750852812,0.030424647095194077,0.00039372053317208566,-0.9124355326887458,1.7497608214122318,-2.290550956499323,-0.8876691577847788,-0.02905601151773496,0.004521233154692772,-0.11036650407703665,5.55748040740792,-3.1483308975470754,-0.9853305619752386,-0.010957261038845848,-0.0005414711112638191
0.92,0.1682104297449489,0.01150868417256679,-0.7053804746810298,0.318707490582911,0.04764386435911359,0.0009969595312764518,-0.5815154466404789,-0.14686842399099037,1.2999597622832262,0.3484908022250808,0.03025959236866392,0.00038780932087681,-0.863903278943194,1.5690858783821815,-2.403123529469419,-0.8978403315367434,-0.031328822035385784,0.0047027073827148325,-0.10415341008275397,5.4789167430516015,-3.2153498556459423,-0.9963043659685491,-0.010861667742360068,-0.0005413320531868456
0.93,0.16230951480198916,0.010196096527112009,-0.6926203139749518,0.32210702285871745,0.0479446212385607,0.001000781796117883,-0.5900914942959754,-0.13125876454547822,1.2760160706078043,0.33995322758064883,0.03007568794471144,0.00038222648414312175,-0.81727001777159,1.4053528764743448,-2.5109311676034007,-0.9072489391179985,-0.033385948334523796,0.004867294304196301,-0.09860595220702939,5.407172697619503,-3.279687409285568,-1.0068123617744336,-0.010720154753713162,-0.0005410450219497757
0.9400000000000001,0.156327475540173,0.009023294864338926,-0.6801102695138785,0.3254200582503221,0.04824336786939564,0.0010045513666460328,-0.5982039261816139,-0.11728016627730824,1.2510044461073337,0.3313035391604675,0.029874663083494117,0.00037695705281497096,-0.7725224032899235,1.2572589220582846,-2.6139083777297687,-0.9159052775730778,-0.035222421590653585,0.005013517880212981,-0.09367339469414353,5.341676247761613,-3.341424416203029,-1.0168644064305665,-0.010536631518424038,-0.000540652587624798
0.9500000000000001,0.15026876009836107,0.00797552804523028,-0.6678605384370949,0.3286455505641639,0.04853995067010671,0.001008271200755789,-0.6058715441811943,-0.10477668191086453,1.224973107678361,0.3225492313841767,0.02965828007110677,0.0003719834109756245,-0.7296414898475755,1.1235758826398379,-2.7120073088234005,-0.9238191609710995,-0.03683574022694569,0.005140122691368987,-0.08930666353146023,5.281895566676437,-3.40063419888084,-1.0264694283697637,-0.010315040820321749,-0.0005401933745138781
0.96,0.14413763052348055,0.007039481905969829,-0.6558808314572309,0.3317825285202263,0.04883423382184148,0.0010119440567654787,-0.6131129574880525,-0.0936046139260451,1.1979706979864022,0.31369779560624206,0.02942831517347714,0.0003672856009689609,-0.6886032641267713,1.0031341393333795,-2.8051962547280587,-0.9310005308237459,-0.038225767354536644,0.005246087733429161,-0.08545876953056679,5.227334756941219,-3.4573841638402993,-1.0356357187575131,-0.010059298720313574,-0.0005397021904412275
0.97,0.13793816520373292,0.006203162594798389,-0.6441803701723754,0.33483009559768884,0.04912609922724094,0.0010155724730598627,-0.6199465319747637,-0.08363193111714391,1.170046128485551,0.30475670774624924,0.029186540539945936,0.00036284162943841136,-0.6493792469437631,0.8948296880624014,-2.8934582911415143,-0.9374597572058461,-0.03939458377495675,0.005330626443129427,-0.08208513862639008,5.177534387555573,-3.511736595438579,-1.0443712014275532,-0.009773250658597629,-0.0005392100817310708
0.98,0.1316742617472404,0.005455786450713693,-0.6327678857962493,0.3377874297358973,0.04941544630011027,0.0010191587508600324,-0.6263903456492519,-0.0747376144084697,1.141248437612612,0.2957334138208476,0.028934707286933436,0.0003586277800169682,-0.6119370536109514,0.79763238733298,-2.9767899929466117,-0.9432078340177847,-0.040346312408383156,0.005393183473096808,-0.07914382867103228,5.132071957929547,-3.563749340699002,-1.0526836620200684,-0.009460636399808016,-0.0005387444140372262
0.99,0.12534964024949544,0.004787677244937542,-0.621651619181906,0.34065378287716,0.04970219159970419,0.0010227049401792627,-0.6324621497744949,-0.06681092057761506,1.1116266614343338,0.28663531412627175,0.028674529959391497,0.00035461893192303306,-0.5762408970825336,0.7105996800089509,-3.055200224108091,-0.9482564985333575,-0.041086921712309876,0.005433428286728881,-0.07659564995878865,5.090563160361068,-3.6134763343192935,-1.060580955637783,-0.009125064744562397,-0.0005383289447484543
