tonegas/nnodely-applications/joint_friction_estimation/dataset/validation/mpc_mujoco_episode_5 copy.csv
time,q1,q2,q3,q4,q5,q6,dq1,dq2,dq3,dq4,dq5,dq6,ddq1,ddq2,ddq3,ddq4,ddq5,ddq6,tau1,tau2,tau3,tau4,tau5,tau6
0.0,0.0,1.57,-1.57,0.0,0.0,0.0,0.0,0.0,0.0,0.0,0.0,0.0,-2.665059376408134,-10.208437849233217,7.9432281375939,3.8619367827391944,-0.40556658569702186,-2.514549048537873e-06,-0.37130257861462485,-8.196693531063639,-5.107944065524911,-1.070119377301498,-0.033789507852580766,-0.0009166106616638402
0.01,-0.00026516886741508646,1.5689853048329447,-1.5692116082784353,0.0003571739697284492,-3.389051243208652e-05,-1.4218838100645837e-07,-0.026516886741508646,-0.10146951670553377,0.07883917215647113,0.03571739697284492,-0.0033890512432086517,-1.4218838100645836e-05,-2.6381525760471405,-10.120130818712651,7.889390700187786,3.582222533602553,-0.34289960972266975,-0.001432461413213293,-0.3676798687201309,-8.169922987453495,-5.098727983833518,-1.0680100979417249,-0.03354091373784413,-0.0009123257185343431
0.02,-0.0007926207079875799,1.566964852877398,-1.5676417556249405,0.0010493791895801,-9.779121327050096e-05,-4.287751815076402e-07,-0.05274518405724934,-0.20204519555466066,0.1569852653494742,0.06922052198516507,-0.006390070083841444,-2.865868005011818e-05,-2.6073589345825505,-10.028263385024704,7.819143851868722,3.3600835599767453,-0.3049605077136235,-0.0014815297040065012,-0.3611741644407772,-8.128925492406426,-5.084360166993918,-1.0646906276304013,-0.03311583951095117,-0.0009051286748140819
0.03,-0.0015791649460720398,1.563947886394547,-1.5652985850660777,0.0020588443655126126,-0.00018932103260584833,-8.513623845052332e-07,-0.07865442380844598,-0.3016966482851023,0.23431705588627227,0.10094651759325127,-0.009152981933534737,-4.22587202997593e-05,-2.573270770005311,-9.933232287855365,7.73672170946239,3.181642162856759,-0.2824821742616468,-0.0014356584231203229,-0.35189584815065605,-8.073836234578309,-5.06495956886792,-1.060198063509633,-0.032517556632807046,-0.0008951099394742638
0.04,-0.0026213329919505877,1.5599439237546142,-1.5621911299224918,0.00337111646792712,-0.00030703825761916443,-1.4063355586785232e-06,-0.10421680458785479,-0.4003962639932923,0.3107455143585937,0.13122721024145073,-0.01177172250133161,-5.5497317417328994e-05,-2.5361431235923355,-9.835301553653336,7.645328580862824,3.0363058848158384,-0.26985941168678806,-0.0014460218054455076,-0.3399840895293084,-8.004794325844799,-5.040647450970212,-1.0545703496249217,-0.03174975616139353,-0.0008823608027479679
0.05,-0.003915384376945694,1.5549627421389949,-1.5583290710460624,0.0049742569869528075,-0.0004501006845138932,-2.0945977806241746e-06,-0.12940513849951069,-0.49811816156192873,0.3862058876429286,0.1603140519025687,-0.014306242689472875,-6.882622219456514e-05,-2.4960275351249654,-9.734631527246838,7.5473736278892645,2.9159942258800857,-0.2636924602520949,-0.0015083773747393003,-0.3256057408546646,-7.921942456879746,-5.011547686370588,-1.0478465582181715,-0.03081656085630783,-0.0008669745586812603
0.06,-0.005457300464904812,1.5490143684822628,-1.5537225553068175,0.006858228709565423,-0.0006180586491254382,-2.920025664034831e-06,-0.15419160879591173,-0.594837365673198,0.46065157392450806,0.18839717226126157,-0.016795796461154495,-8.254278834106566e-05,-2.4528520680059103,-9.631301341020494,7.444651368112389,2.814544731798106,-0.26191474373940693,-0.001606250173293855,-0.3089543188848989,-7.825427551192323,-4.977787421787828,-1.0400672032096445,-0.02972256828028114,-0.0008490479751737225
0.07,-0.007242770609479916,1.5421090769129313,-1.548382061544924,0.009014427856203627,-0.0008107284138804451,-3.888391894640703e-06,-0.17854701445751042,-0.6905291569331478,0.5340493761893514,0.21561991466382052,-0.019266976475500693,-9.683662306058717e-05,-2.4064695104259233,-9.525326534920147,7.338480464369059,2.72725780933914,-0.26326681480886904,-0.001728075623478098,-0.29024891445767553,-7.715402187926988,-4.939498013083931,-1.031274579433888,-0.0284729114248128,-0.0008286828600189875
0.08,-0.009267173709257332,1.534257391315047,-1.5423183033873658,0.011435326992447311,-0.0010281141597784664,-5.006739480626726e-06,-0.20244030997774154,-0.7851685597884311,0.6063758157558211,0.24208991362436844,-0.021738574589802117,-0.00011183475859860238,-2.3566867188727865,-9.416673078832996,7.229810477921216,2.65054832738962,-0.26697778780013515,-0.0018668957220722149,-0.2697329136996461,-7.592026617842173,-4.896816162594996,-1.021513119644669,-0.027073328568176368,-0.0008059876046326876
0.09,-0.011525556979349486,1.525470091900584,-1.5355421607708901,0.014114202262592116,-0.0012703593272051325,-6.2830380071301374e-06,-0.22583832700921547,-0.8787299414463212,0.6776142616475562,0.2678875270144805,-0.024224516742666624,-0.0001276298526503411,-2.3032828197578623,-9.305268714912101,7.119304056727444,2.5816792564179316,-0.272571468145955,-0.0020185758973549905,-0.24767243911575618,-7.4554712330653405,-4.849885196485736,-1.0108297603285685,-0.02553023686977927,-0.0007810786499190047
0.1,-0.014012613092324214,1.5157582248810753,-1.5280646338828263,0.017044924734118897,-0.0015377155710615262,-7.72599752960646e-06,-0.2487056112974729,-0.9711867019508766,0.7477526888063767,0.2930722471526782,-0.026735624385639374,-0.00014429595224763224,-2.246020897262926,-9.191012294752818,7.007400314848709,2.518558254786661,-0.27974735363540226,-0.0021805093630340444,-0.22435443431036323,-7.3059193757313405,-4.798856427550088,-0.9992743067558807,-0.023850805674591514,-0.0007540818446140633
0.11,-0.0167226564572369,1.505133114474683,-1.5198968146612726,0.02022180042891344,-0.0018305221174608596,-9.344963381890825e-06,-0.2710043364912687,-1.0625110406392348,0.8167819221553716,0.3176875694794543,-0.029280654639933335,-0.0001618965852284365,-2.184655981909819,-9.073781607879258,6.8943638309189765,2.459582504786336,-0.28830637418873195,-0.0023508143710921914,-0.20008432807651594,-7.14357038710976,-4.743890554229846,-0.9868997873187234,-0.022043026238732874,-0.000725133674598504
0.12,-0.019649599193915845,1.493606376595677,-1.5110498720878154,0.023639447284632464,-0.0021491910156522494,-1.1149846071274643e-05,-0.2926942736678946,-1.1526737879005755,0.8846942573457234,0.3417646855719025,-0.03186688981913897,-0.00018048826893838187,-2.118941097477737,-8.953440065271677,6.78032266735749,2.403520501154862,-0.2981030426327447,-0.0025278482287312,-0.17518322511146395,-6.96864280973746,-4.68515905059323,-0.9737627869941187,-0.020115774923609213,-0.0006943823418462676
0.13,-0.022786927257275217,1.4811899336572856,-1.5015350483380132,0.027292700097391744,-0.0024941953820449736,-1.3151058542682725e-05,-0.3137328063359371,-1.241644293839149,0.951482374980217,0.3653252812759279,-0.03450043663927243,-0.00020012124714080813,-2.0486325210756173,-8.829842501979329,6.665298019979783,2.349422118899243,-0.30901277181224174,-0.0027099060696407218,-0.1499845833603694,-6.781377662056019,-4.6228455050195905,-0.9599237496973588,-0.018078867025560004,-0.0006619886686295964
0.14,-0.026127677137698896,1.4678960299837276,-1.491363663487993,0.03117653664507327,-0.002866058661725503,-1.5359443130422852e-05,-0.33407498804236774,-1.3293903673557956,1.0171384850020144,0.38838365476815284,-0.03718632796805291,-0.00022083845877401252,-1.973495084652615,-8.70284028737176,6.5492274970991655,2.296550308729783,-0.32090736211095106,-0.0028950221306520696,-0.12483035285832925,-6.582041709290864,-4.557146867716861,-0.9454472393546185,-0.01594309841281577,-0.0006281267985705687
0.15,-0.029664413589816026,1.4537372473787797,-1.4805471269563757,0.03528601983301813,-0.003265343444807998,-1.7786175643745115e-05,-0.35367364521171296,-1.4158782604947782,1.0816536531617404,0.4109483187944859,-0.039928478308249506,-0.00024267325133222632,-1.893308190552756,-8.572285873991119,6.431983557032421,2.2443293232457173,-0.3336342182557992,-0.0030808248167915053,-0.10006656836870506,-6.370930656662932,-4.48827456923735,-0.9304021497327789,-0.013720272087417267,-0.0005929846621148258
0.16,-0.03338920891523884,1.4387265204408684,-1.4690969542253207,0.03961625195904307,-0.0036926386265483885,-2.0442636193564943e-05,-0.37247953254228106,-1.501072693791132,1.1450172731054926,0.43302321260249416,-0.04272951817403904,-0.0002656460549819828,-1.8078731641244168,-8.438036871730016,6.313388271248179,2.1923055711946895,-0.3469964149474185,-0.0032644180095731112,-0.07603840824952876,-6.1483721921444,-4.416455474088324,-0.9148618534349355,-0.011423206706577753,-0.0005567641704061726
0.17,-0.03729362444369994,1.4228771512518716,-1.4570247876603992,0.044162338153420015,-0.004148543787574743,-2.3340236745329565e-05,-0.39044155284611043,-1.5849369188996763,1.207216656492149,0.4546086194376943,-0.04559051610263542,-0.00028976005517646205,-1.7170225786956073,-8.299959699819562,6.19322530247074,2.14011811318614,-0.3607317427686265,-0.003442274917517807,-0.05308475478037136,-5.914728806355414,-4.34193263554742,-0.8989042810206853,-0.009065724002204888,-0.0005196810985019227
0.18,-0.04136869502413082,1.4062028231012094,-1.4443424204574853,0.048919356781309965,-0.004633649656339903,-2.6490194731548133e-05,-0.40750705804308757,-1.667432815066229,1.268236720291389,0.47570186278899523,-0.04851058687651602,-0.00031499579862185684,-1.620632224654652,-8.157932842348583,6.071249773747187,2.0874765140555307,-0.3744896343413666,-0.003610140751009183,-0.03153231649305285,-5.67040031723071,-4.264965820039182,-0.8826119219588557,-0.006662611940369451,-0.0004819646164528655
0.19,-0.045604917556802495,1.3887176129404988,-1.431061822902198,0.05388233515344419,-0.0051485134462477804,-2.9903240922626973e-05,-0.4236222532671677,-1.748521016071048,1.3280597555287286,0.49629783721342224,-0.05148637899078782,-0.00034130461910788416,-1.5186364120846536,-8.0118497117571,5.947196540959011,2.034144304229138,-0.3878056322633281,-0.0037629489017128037,-0.01168940064614149,-5.415826027041588,-4.185831772016366,-0.8660717400808101,-0.004229560378537046,-0.00044385642509745665
0.2,-0.04999224487281944,1.3704360022987445,-1.4171951702460819,0.059046229316358924,-0.005693627777553047,-3.358924862968078e-05,-0.43873273160169457,-1.8281610641754371,1.3866652656116283,0.5163894162914733,-0.05451143313052663,-0.00036860077070538066,-1.411047237143585,-7.861621107191898,5.820787256092311,1.9799267130680165,-0.40007402380346946,-0.0038947634533046394,0.006160546393392974,-5.151486439377308,-4.104824193266093,-0.8493749973800417,-0.0017830659331119873,-0.0004056094527836243
0.21,-0.054520086596227965,1.351372886425121,-1.4027548715932294,0.06440590701735537,-0.00626938184853726,-3.755677075983929e-05,-0.45278417234085283,-1.9063115873623409,1.4440298652852415,0.5359677700996441,-0.05757540709842131,-0.00039675221301585127,-1.2979782239465225,-7.707177238727986,5.6917365129628505,1.9246616507158532,-0.41052062797257616,-0.003998769290082471,0.02176548173227169,-4.877904463634977,-4.022253413868149,-0.8326169813850388,0.0006596971877380134,-0.00036748607025156513
0.22,-0.05917731899462604,1.3315435814672127,-1.3877535992586862,0.06995613318534191,-0.0068760135767274395,-4.18124719931113e-05,-0.46572323983980723,-1.9829304957908298,1.5001272334543083,0.5550226167986546,-0.06066317281901801,-0.0004255701233272008,-1.1796722667829074,-7.548469270679321,5.559757294281018,1.8682131540600047,-0.41817963870082586,-0.00406733939800874,0.034911209614218924,-4.595646033599891,-3.9384457353646396,-0.8158966328602382,0.003081043413767491,-0.00032975578469813063
0.23,-0.06395230620643656,1.3109638295386115,-1.3722043181112433,0.07569155745494974,-0.0075135516768586276,-4.636044637092206e-05,-0.477498721181052,-2.057975192860119,1.5549281147442937,0.5735424269607818,-0.06375381001311878,-0.0004547974377810762,-1.0565329162071921,-7.3854703091815495,5.42456588396013,1.8104666943117558,-0.4218809549396929,-0.004092215505926533,0.04542751070873466,-4.305320062043025,-3.853742429115617,-0.7993160720966571,0.005462981598257997,-0.00029269238237007787
0.24,-0.0688329355697411,1.289649801583635,-1.3561203144522689,0.08160670340161634,-0.00818174719118352,-5.120141711196096e-05,-0.4880629363304531,-2.131402795497648,1.6084003658974444,0.5915145946666598,-0.06681955143248919,-0.0004840970741038899,-0.92915667211336,-7.218175697416398,5.285886368122746,1.7513258818610544,-0.42025736267430425,-0.004064839756989791,0.053193708256586814,-4.007577636211561,-3.768498371508087,-0.7829800230538339,0.007787461789413249,-0.00025657050438786775
0.25,-0.07380666997486209,1.2676180980145197,-1.339515224012056,0.08769595926025278,-0.008879994971856252,-5.633182690735634e-05,-0.4973734405120985,-2.203170356911527,1.6605090440212862,0.6089255858636435,-0.0698247780672732,-0.0005130409795395382,-0.7983620642788763,-7.046602306887472,5.143454821821599,1.6907102093225048,-0.4117836068873224,-0.003976866829363435,0.05814339133431158,-3.703110298999964,-3.6830802830531946,-0.7669951334709355,0.010036662541523845,-0.00022166166565766162
0.26,-0.07886062008442356,1.2448857471949892,-1.3224030586676125,0.09395356997773575,-0.009607247162148249,-6.174284459911937e-05,-0.5053950109561475,-2.2732350819530427,1.711216534444347,0.6257610717482978,-0.07272521902919972,-0.0005411017691763024,-0.6652091409708213,-6.870786113892535,4.997023268220109,1.628553554852489,-0.3948604543084362,-0.0038208628217146767,0.060267990769797705,-3.392647119831039,-3.5978644999563842,-0.7514691842541695,0.0121933153105665,-0.00018822976490731686
0.27,-0.08398163873704508,1.221470202013168,-1.3047982315013058,0.10037363050604436,-0.010361922906841757,-6.741933866456106e-05,-0.5121018652621514,-2.341554518182124,1.760482716630666,0.6420060528308618,-0.07546757446935078,-0.0005676494065441698,-0.5309997153376371,-6.690849554547292,4.8463615058453735,1.5648023935305386,-0.3679542358453627,-0.0035911564715462863,0.059618965566344634,-3.0769801755795374,-3.5132438041405925,-0.7365118700210771,0.014241057824369246,-0.00015652700739179405
0.28,-0.08915643855074522,1.1973893278316168,-1.2867155800631356,0.10695008025622998,-0.011141821274595303,-7.33388983924217e-05,-0.5174799813700137,-2.40808741815512,1.8082651438170134,0.657644975018562,-0.07798983677535455,-0.0005919559727860636,-0.3972560639286745,-6.506791956747822,4.691265397519773,1.499417898232259,-0.329793791335544,-0.003284760052163216,0.056307994513365364,-2.7568737654862163,-3.429596463904644,-0.7222288697649939,0.016164813308815945,-0.0001267863546697036
0.29,-0.09437173229962775,1.1726614026928042,-1.268170386907462,0.11367669878708271,-0.01194404743497238,-7.94710168571559e-05,-0.5215293748882536,-2.472792513881259,1.8545193155673565,0.6726618530852724,-0.08022261603770772,-0.0006132118464734202,-0.2656579325489392,-6.318745859804096,4.5315549464235785,1.432371666910901,-0.2796111062383031,-0.0029022000143448107,0.05050545243682596,-2.433168772538175,-3.3473191454091236,-0.708727272362317,0.017951133793577087,-9.921978877123263e-05
0.3,-0.09961439210671855,1.147305104235033,-1.2491783977431357,0.12054710256686095,-0.012764964793955001,-8.577657804424181e-05,-0.5242659807090795,-2.5356298457771014,1.8991989164326486,0.6870403779778244,-0.08209173589826205,-0.0006305561187085911,-0.13795174968890603,-6.12682483686848,4.367079910356243,1.363647918301139,-0.21739058059442007,-0.002448123161781491,0.04243652146231681,-2.1067144371371214,-3.266802888518545,-0.6961108413570968,0.019588550247341713,-7.401185180019064e-05
0.31,-0.10487162090125327,1.1213394984737746,-1.2297558365590726,0.12755474292035185,-0.013600187218344993,-9.22078045671756e-05,-0.5257228794534718,-2.5965605761258552,1.9422561184063103,0.7007640353490893,-0.08352224243899921,-0.0006431226522933786,-0.015829430728696282,-5.931146187330285,4.197722373655313,1.2932426792664407,-0.14407252824887729,-0.00193151413535423,0.03237515688996034,-1.7783739371686622,-3.188433685646236,-0.684479707929236,0.02106783667578193,-5.1316356516341515e-05
0.32,-0.110131126023961,1.094784028180094,-1.2099194174932262,0.13469290514348867,-0.014444624485174997,-9.870880961706611e-05,-0.5259505122707725,-2.655547029368051,1.983641906584636,0.7138162223136805,-0.08444372668300042,-0.0006501005049890516,0.09920242291214203,-5.73176602157747,4.023401105219212,1.2211642470126307,-0.06164791447226281,-0.0013654724199665125,0.020636013976811994,-1.4489953675400293,-3.112582224177845,-0.6739282629304636,0.022382187419637652,-3.12534482656357e-05
0.33,-0.11538128251596089,1.0676585073185523,-1.1896863529927366,0.14195470881793942,-0.015292589849028279,-0.00010521684854532696,-0.5250156491999894,-2.712552086154178,2.02330645004895,0.7261803674450765,-0.08479653638532822,-0.0006508038928260844,0.20591976033462944,-5.527451315983291,3.8441092244065307,1.1474467589707444,0.02690541934827073,-0.0007665825973936224,0.007563972064156169,-1.1189532434264464,-3.0394655962956234,-0.6645229395820709,0.023527386038003667,-1.3898189159924129e-05
0.34,-0.12061127494346305,1.0399832438864989,-1.1690743539598332,0.14933310974847822,-0.016137971096386,-0.00011166428190558603,-0.5229992427502163,-2.7675263432053434,2.0611999032903388,0.7378400930538784,-0.08453812473577234,-0.0006447433360259074,0.30356509507383256,-5.321037566021681,3.6597775069603085,1.072081824532117,0.11785891828502582,-0.00015388289062162608,-0.006473065745684216,-0.7901518012955164,-2.969756832556108,-0.656399240391841,0.024501010484223467,6.682693195462391e-07
0.35000000000000003,-0.12581119632265253,1.0117787573675077,-1.148101638084181,0.1568209011762305,-0.016974456112956036,-0.00011798114608093846,-0.5199921379189487,-2.820448651899113,2.097271587565201,0.7487791427752285,-0.08364850165700337,-0.0006316864175352435,0.39139100235836893,-5.092222235166523,3.4710031723436225,0.9953567365383069,0.2071118225660526,0.00045187928160339563,-0.021111485335482676,-0.45613507523901564,-2.901640380393375,-0.649305876629096,0.025306098138503735,1.259046739438935e-05
0.36,-0.13097214407127006,0.9830678013355246,-1.1267868610839846,0.1644107255872381,-0.017795795867703645,-0.00012409815032516129,-0.5160947748617526,-2.871095603198301,2.1314777000196408,0.7589824411007609,-0.08213397547476088,-0.000611700424422281,0.4646252377434794,-4.580327850805882,3.285366870087122,0.9202126126847441,0.29059343595181697,0.0010314138976985077,-0.036138450492076486,-0.027197787827530462,-2.80963421657502,-0.6395388716660183,0.025980996313292204,2.3797919018827147e-05
0.37,-0.13608670219110056,0.9539013329730389,-1.1051482466940705,0.1720951616971965,-0.01859609225392224,-0.0001299500152030029,-0.5114558119830493,-2.9166468362485656,2.1638614389914195,0.7684436109958387,-0.08002963862185945,-0.0005851864877841624,0.5271275317248375,-4.009487517120708,3.099275810175208,0.8425030433172953,0.36450222579160396,0.0015889271459638699,-0.051058181538227776,0.4110469169808806,-2.7212228176273077,-0.631523048371915,0.02646671319438744,3.1888570121372804e-05
0.38,-0.14114857519185534,0.9243361840516783,-1.0832040630968178,0.17986653621447757,-0.019370055512226404,-0.00013547801395542963,-0.5061873000754772,-2.956514892136065,2.194418359725263,0.7771374517281067,-0.07739632583041657,-0.0005527998752426737,0.580708785825581,-3.4446933168169713,2.911372682281427,0.7617121935412108,0.4260130031304299,0.0021128495407585768,-0.06541780363140488,0.8341059990688764,-2.643947871651349,-0.6263870323598522,0.02675436949946766,3.634822453835935e-05
0.39,-0.14615241119744735,0.894428585583892,-1.0609727868593584,0.1877169221075646,-0.020113216167397713,-0.0001406322678807307,-0.5003836005592,-2.990759846778622,2.2231276237459374,0.7850385893087028,-0.07431606551713078,-0.0005154253925301049,0.626577888163143,-2.9017697839989083,2.721216563066058,0.6783052644087091,0.4733974946097612,0.0025842417159756548,-0.07882618813348788,1.2359759690178642,-2.579373315011348,-0.6242896732280894,0.026851025992998878,3.7220560787703735e-05
0.4,-0.15109367547398406,0.8642325906100716,-1.0384731496825412,0.1956381847089343,-0.020822070288347073,-0.00014537347943963162,-0.4941264276536709,-3.0195994973820453,2.249963717681711,0.79212626013697,-0.07088541209493597,-0.00047412115589009346,0.6659404856429816,-2.392239542072782,2.5284881384466154,0.5928000213831792,0.5060457519266268,0.0029847918004052842,-0.090950160388021,1.6127230643266581,-2.5282289380177314,-0.625231423908893,0.026766636183072554,3.464604751524805e-05
0.41000000000000003,-0.15596851906722678,0.8337989257705917,-1.0157241708596094,0.20362202989106234,-0.021494147782910332,-0.00014967387224505203,-0.48748435932427264,-3.043366483947995,2.2748978822931796,0.7983845182128052,-0.06720774945632578,-0.00043003928054204143,0.6999267806297379,-1.92158407082449,2.3329795736800176,0.5057244033554218,0.5243579265527513,0.003300392352642345,-0.10152048587240019,1.9628385250529026,-2.4904027059959706,-0.6290722883970072,0.026513998927680256,2.884929741562168e-05
0.42,-0.16077365280969608,0.8031744448676359,-0.9927451761101816,0.21166004952195464,-0.022128006039483682,-0.00015351731441278152,-0.4805133742469298,-3.062448090295583,2.29789947494278,0.8038019630892282,-0.063385825657335,-0.0003843442167729504,0.7295739789014907,-1.4914453640168244,2.134536159806266,0.4175463228211509,0.5295325773336981,0.0035230778173755417,-0.11033169700659266,2.2862998932864538,-2.465292574184964,-0.6355965887790186,0.02610759422775755,2.0098967693294402e-05
0.43,-0.16550623108222526,0.7724019650585541,-0.9695558099426337,0.21974375980816493,-0.022723160806982366,-0.00015689871959470952,-0.4732578272529177,-3.0772479809081847,2.318936616754796,0.8083710286210305,-0.05951547674986833,-0.0003381405181927986,0.7558542330805015,-1.131180101186866,1.9329427874011702,0.3286109542205926,0.5233112796577155,0.0036514846432033066,-0.11724364968295438,2.575116083349163,-2.454124987753027,-0.6447725471701552,0.02555458447153895,8.541651271014886e-06
0.44,-0.17016374428481473,0.7415173431602422,-0.9461760651966459,0.2278646500486994,-0.023279972190384926,-0.00015982285675206188,-0.46575132025894633,-3.088462189831183,2.337974474598784,0.8120890240534472,-0.05568113834025599,-0.0002924137157352365,0.7794174596335232,-0.8119803828016982,1.728198004004144,0.2395281713219255,0.5077335018090611,0.0036884380849736,-0.1221821795309216,2.839156594273336,-2.453519334472008,-0.6560349786721285,0.02488064930100383,-5.337790105958788e-06
0.45,-0.17474394602371682,0.7105523448104929,-0.9226262675673904,0.23601421107360918,-0.023799502401087396,-0.00016230289216298202,-0.4580201738902097,-3.0964998349749315,2.354979762925551,0.814956102490976,-0.05195302107024705,-0.0002480035410920136,0.8008795890792282,-0.5629934931351355,1.5202695823230008,0.150503931022556,0.4849127564907221,0.003642708278636664,-0.1251255476948337,3.07116332380987,-2.4643546225368103,-0.6692925690936155,0.024092350973469765,-2.137213579533352e-05
0.46,-0.1792447867628406,0.6795317423692903,-0.8989270874542131,0.24418397383320747,-0.024283364673083514,-0.000164358672162919,-0.45008407391237837,-3.1020602441202647,2.3699180113177247,0.8169762759598294,-0.048386227199611775,-0.0002055779999936979,0.8206461174150974,-0.37518759503678684,1.3091552850093415,0.061970195642893966,0.45687314817184466,0.0035249151851983185,-0.12610736733225544,3.275380660255029,-2.4845654914892505,-0.6841345295829793,0.023209488713842565,-3.918392636161212e-05
0.47000000000000003,-0.18366437085612647,0.6484742150256916,-0.8750995330540892,0.2523655381987822,-0.024733574848783052,-0.00016601506228149988,-0.441958409328585,-3.1057527343598683,2.382755440012398,0.8181564365574737,-0.04502101756995371,-0.0001656390118580879,0.8389687424255785,-0.23250732425012596,1.0949802423313002,-0.025765337674612532,0.4254396021556336,0.0033472354102544455,-0.12520080550706927,3.457640832179201,-2.511914721852918,-0.7001802036256737,0.022252203077300657,-5.8419619724346755e-05
0.48,-0.18800093078530516,0.6173939482305206,-0.8511649294885556,0.2605505872996958,-0.025152415490048742,-0.0001673004067529912,-0.4336559929178697,-3.108026679517092,2.3934603565533563,0.8185049100913638,-0.04188406412656909,-0.00012853444714913404,0.8559912285101874,-0.12558057267857703,0.8779679688891242,-0.11255847778391503,0.3921713753840399,0.0031228214898550433,-0.12250857610055049,3.6215217374330715,-2.5448847826843783,-0.7171585034308298,0.021236542922924123,-7.880303796393149e-05
0.49,-0.19225281347554746,0.5863015675901542,-0.8271448919279802,0.2687308940899742,-0.02554231863869218,-0.0001682451545257037,-0.4251882690242299,-3.1092380640366435,2.402003756057532,0.8180306790278387,-0.03899031486434396,-9.447477727124883e-05,0.87176974495048,-0.04747539632787546,0.6584038983869129,-0.1983439093900501,0.3583381790485075,0.00286449239248579,-0.1181575545442143,3.769681093966154,-2.5822959425091443,-0.7348577596299134,0.020176420914175534,-0.00010009990104665205
0.5,-0.1964184761436245,0.5552048297316843,-0.8030612941332869,0.2768983235813486,-0.0259057695715013,-0.00016888070006639008,-0.4165662668077059,-3.1096737858469887,2.408359779469332,0.816742949137439,-0.036345093280911865,-6.355455406863685e-05,0.886288441546746,0.01070945397092724,0.4366284571892401,-0.28309774518811015,0.324927336870406,0.002583786969216406,-0.11229326043852479,3.9050224929944486,-2.623048583343558,-0.7531030235191434,0.019085074362234264,-0.00012210104113559542
0.51,-0.20049648971728434,0.5241095090819572,-0.778936231382168,0.28504483049229423,-0.0262452313444538,-0.0001692384589528977,-0.40780135736598394,-3.1095320649727123,2.4125062751118858,0.8146506910945641,-0.03394617729525008,-3.5775888650762814e-05,0.8994812091218235,0.05583841763765234,0.21303175047126519,-0.36684628466484076,0.29266944350143465,0.002290596562697561,-0.10507458529879092,4.029666948977227,-2.66633064533624,-0.7717661931783779,0.01797383019046491,-0.00014463031953309804
0.52,-0.2044855473786304,0.4930200817176443,-0.7547919796760456,0.29316245448937,-0.026563088552416916,-0.0001693491599713423,-0.39890576613460543,-3.1089427364312923,2.4144251706122484,0.8117623997075749,-0.031785720796311534,-1.1070101844461135e-05,0.9112508730314598,0.09119394930855396,-0.011967384103590356,-0.44964495625136874,0.2620731342752843,0.0019930184715299254,-0.09667059846747347,4.144683629825815,-2.711615497928829,-0.7907529084812014,0.016851990302949815,-0.00016753633014826103
0.53,-0.20838447614112265,0.4619400525419808,-0.7306509535372114,0.30124331568457086,-0.026861607874856922,-0.00016924232726015995,-0.3898928762492256,-3.1080029175663473,2.414102613883414,0.8080861195200847,-0.029851932244000543,1.068327111823674e-05,0.9124788063970393,1.3708981234418804,-0.21591048785217748,-0.5217998790635022,0.2334096474142418,0.0016972828088795897,-0.08774318382544528,4.529944532182952,-2.7144762307083914,-0.8096759281796909,0.016034168912605926,-0.00019030274043440004
0.54,-0.21219313926103556,0.43099675233187495,-0.7065331010259659,0.3092796277824815,-0.02714288829242487,-0.0001689482808587151,-0.3808663119912901,-3.094330021010584,2.411785251124557,0.8036312097910648,-0.028128041756794862,2.9404640144484535e-05,0.8888033561909122,5.406287765274174,-0.3547893993669242,-0.5750638104791792,0.2068783309977934,0.001433451908173405,-0.07897654753086353,5.4814936363086275,-2.6467838900167955,-0.8320340404106119,0.015776269625407825,-0.0002151413858799468
0.55,-0.2159138581284784,0.400591680998577,-0.6824511798719075,0.3172635553056385,-0.0274088075981939,-0.00016850048148168867,-0.3720718867442854,-3.0405071333297955,2.4081921154058437,0.7983927523156958,-0.026591930576903285,4.477993770264111e-05,0.8650913158901723,8.516429247327846,-0.47906462583765475,-0.6536025521472832,0.18287241408868538,0.0012723461168584124,-0.06830347950000859,6.158671763966275,-2.6593528199790692,-0.8611282605867762,0.014989327631445238,-0.0002449281942805668
0.56,-0.21954895859009438,0.3710342208888496,-0.6584169676868308,0.3251859720341458,-0.027661072349411755,-0.0001679272898750828,-0.36351004616159666,-2.955746010972742,2.4034212185076735,0.79224167285073,-0.025226475121785517,5.731916066058652e-05,0.8416036737545035,10.852847993005211,-0.5938562420923255,-0.7446692774214201,0.16099537193444458,0.0012392244171054168,-0.05649680311638332,6.616605526852243,-2.729510574423905,-0.8934895313770517,0.013834320911704612,-0.00027708884948436424
0.5700000000000001,-0.22310074605179075,0.3425567245757215,-0.6344416354499298,0.33303735299611936,-0.027901244358367796,-0.00016725206794359753,-0.35517874616963846,-2.8477496313128086,2.397533223690092,0.7851380961973573,-0.024017200895604128,6.752219314852697e-05,0.8185360547025416,12.54596001013606,-0.7028616802833092,-0.8393443415676405,0.14108061822614704,0.0012951336281226966,-0.044232577571834186,6.901227182446646,-2.8387280726766706,-0.9264406042605342,0.012439360678329011,-0.00030965529881001925
0.58,-0.22657148659111495,0.3153275019967481,-0.6105360122696885,0.3408083822883152,-0.02813075121786584,-0.00016649410026282286,-0.3470740539324194,-2.7229222578973444,2.390562318024135,0.7771029292195867,-0.02295068594980438,7.579676807746818e-05,0.7960453959678314,13.707656390478096,-0.8086994943692813,-0.9315366988596931,0.12304407902844305,0.0014065355711273264,-0.03206670488090838,7.050592676603887,-2.9723173954490263,-0.9580295792795378,0.010904912962062124,-0.00034119255310876076
0.59,-0.22996339161476156,0.28946196367197113,-0.5867107680437034,0.34849035250701044,-0.028350891247197512,-0.0001656693566411156,-0.3391905023646623,-2.586553832477697,2.382524422598511,0.768197021869519,-0.022014002933167215,8.247436217072568e-05,0.774265655289992,14.433655985560346,-0.913172770787547,-1.0172332751901143,0.10681482942971599,0.0015507173504404337,-0.020427118717868384,7.09604795586332,-3.1189762050286203,-0.9869288679821052,0.009308374360420002,-0.00037071550027783075
0.6,-0.23327860460834848,0.2650321538418197,-0.5629765343869982,0.35607541255545416,-0.0285628377288136,-0.00016479105982573713,-0.3315212993586926,-2.442980983015144,2.37342336567051,0.7585060048443727,-0.021194648161608973,8.782968153784871e-05,0.7533163739406438,14.805588262856643,-1.0174708985647172,-1.093936703357353,0.09230826174249795,0.0017129415647506585,-0.009618233450239919,7.063245341607055,-3.270276975432453,-1.0123226567398147,0.007708071032657491,-0.0003976054317700037
0.61,-0.2365191891954913,0.24207488064197283,-0.5393439794191089,0.36355670619913083,-0.02876764428877652,-0.0001638701217698144,-0.32405845871428235,-2.2957273199846884,2.3632554967889288,0.7481293643676683,-0.02048065599629166,9.2093805592271e-05,0.7333067661968614,14.892830775979492,-1.1223240032290924,-1.1602454314444515,0.0794206130943087,0.0018835858846829034,0.00016634074852692193,6.97302568084335,-3.420159954139254,-1.033796817926324,0.0061467360111999774,-0.00042153215972654646
0.62,-0.2396871181457625,0.22059862610241027,-0.5158238483268699,0.3709284328752787,-0.02896625176351453,-0.00016291549761223857,-0.3167928950271193,-2.147625453956257,2.352013109223904,0.7371726676147858,-0.019860747473801184,9.546241575758357e-05,0.7143371692950369,14.754127675065702,-1.2281210223111616,-1.2155412197906426,0.06803281450180276,0.002056170836738258,0.008826522229691193,6.8421816113222285,-3.5644636361626403,-1.0512390491845056,0.004654506487103723,-0.00044238491271747743
0.63,-0.24278426321993699,0.20058939702941378,-0.49242697879591063,0.378185854079893,-0.029159496242845064,-0.00016193448649237874,-0.3097145074174486,-2.000922907299649,2.3396869530959252,0.7257421204614328,-0.019324447933053317,9.810111198598227e-05,0.6964990630549237,14.439013505333246,-1.3349998459517973,-1.2597575001265469,0.05801725907732047,0.002226120169904311,0.01633688358603385,6.684115893691209,-3.7005098234209917,-1.0647529321081302,0.00325147926620781,-0.00046021334759549287
0.64,-0.24581238587377058,0.1820156584928404,-0.46916429823265043,0.38532526250414273,-0.02934811778175903,-0.00016093299503421903,-0.30281226538336026,-1.8573738536573376,2.3262680563260174,0.7139408424249715,-0.018862153891396463,0.00010014914581597169,0.6798744244698385,13.989064043416265,-1.4429159937226363,-1.2932085198298182,0.04924440742917313,0.0023900178816477213,0.022728278630044223,6.5094073398959305,-3.8267495225642394,-1.0745869877305483,0.00194986375582287,-0.0004751788027288406
0.65,-0.24877312890072215,0.16483247445363494,-0.44604680802979524,0.3923439264779506,-0.029532769293528254,-0.00015991577176728984,-0.2960743026951577,-1.718318403920547,2.3117490202855167,0.7018663973807858,-0.01846515117692255,0.00010172232669291899,0.6645348792555587,13.438993600624746,-1.551694811463756,-1.316464091771369,0.04158799892730114,0.0025451807411697724,0.02807127854761378,6.326295550375862,-3.9424692272823543,-1.0810782229682017,0.0007557739392019583,-0.0004875151763266292
0.66,-0.25166800910889475,0.14898496480166307,-0.42308555884753246,0.399240018825934,-0.029714025242261525,-0.00015888661679435895,-0.28948802081726244,-1.5847509651971863,2.2961249182262784,0.6896092347983444,-0.01812559487332708,0.00010291549729308731,0.6505409118789025,12.817616140796488,-1.6610710483281927,-1.330258478281566,0.03492859617261501,0.002689423045487749,0.03246208805709334,6.141094484205373,-4.047553252133483,-1.0846087841154108,-0.0003292980247698254,-0.0004974984074549216
0.67,-0.25449841111759935,0.13441117452762003,-0.4002916199034582,0.40601253666577053,-0.02989238987604973,-0.00015784856912193899,-0.28304020087046006,-1.4573790274043041,2.2793938944074252,0.6772517839836485,-0.01783646337882063,0.00010380476724199584,0.6379412673055251,12.148685704775152,-1.7707188607717936,-1.3354247393952061,0.02915563260548204,0.002820933612900922,0.036011149936361585,5.958543819851231,-4.142295810701374,-1.085573925609361,-0.0013072843121784915,-0.0005054233616467025
0.68,-0.2572655823368581,0.12104443874275117,-0.37767604452510806,0.41266121676652584,-0.030068304851213305,-0.00015680407327428695,-0.2767171219258758,-1.336673578486886,2.2615575378350115,0.6648680100755306,-0.01759149751635732,0.00010444958476520531,0.6267725987042141,11.45162997831741,-1.8802748923775197,-1.3328479899956935,0.024168293465706314,0.00293821469890565,0.03883434271304127,5.7821061081623775,-4.227255822261892,-1.0843594014372449,-0.0021825796971753552,-0.0005115869005186725
0.6900000000000001,-0.25997062916653085,0.10881531662348687,-0.35524983369460034,0.4191864496716589,-0.03024215618293526,-0.0001557551265553002,-0.27050468296727426,-1.2229122119264306,2.242621083050772,0.6525232905133083,-0.01738513317219552,0.00010489467189867425,0.6170593706604519,10.742189355852235,-1.989358627750683,-1.3234326055212815,0.01987557754775876,0.003040052085909406,0.0410465006411709,5.614216878292039,-4.303147732855235,-1.0813265240036012,-0.002961278537298024,-0.0005162760086502208
0.7000000000000001,-0.262614514424844,0.09765315794844995,-0.33302389916838,0.4255891947486019,-0.03041428051701105,-0.00015470340831405763,-0.2643885258313158,-1.116215867503692,2.2225934526220343,0.6402745076943017,-0.017212433407578904,0.0001051718241242563,0.608814361620545,10.032971425218134,-2.097932546426254,-1.3080780560866216,0.01619586239892673,0.003125498066805399,0.042756909322319105,5.456497817496258,-4.370807083821929,-1.0768138717698785,-0.0036506283071518113,-0.0005197645087324708
0.71,-0.2651980559565148,0.08748735746743408,-0.31100906127876204,0.4318708964477299,-0.030584970776485237,-0.00015365039527854652,-0.25835415316707827,-1.016580048101587,2.201483788961792,0.6281701699128025,-0.017069025947418794,0.00010530130355111143,0.6035572704278124,9.328136680949559,-3.9757465033535055,-1.2792015783299693,0.01317856038036333,0.003193768567627542,0.04406540842311919,5.332304678897965,-4.665707828740526,-1.1261444063077672,-0.004528988103407472,-0.0005459241327345264
0.72,-0.2677217804092384,0.07824777883842347,-0.28939016711173643,0.43802766470568627,-0.030754594096730956,-0.00015261104848436434,-0.25237244527236086,-0.9239578629010609,2.1618894167025626,0.615676825795634,-0.01696233202457182,0.00010393467941821647,0.5994994647250138,8.639873858066098,-6.131084169721329,-1.3074755253050299,0.009444442427574737,0.0030790119569200636,0.04491255767560912,5.233077668049717,-4.993150472018113,-1.1843944690125596,-0.005349201793663255,-0.0005758471420434033
0.73,-0.2701860962061473,0.06986605528102072,-0.2683795764322318,0.44404986446721995,-0.030923584158927923,-0.00015160551908419086,-0.2464315796908915,-0.8381723557402754,2.1010590679504597,0.6022199761533683,-0.016899006219696856,0.00010055294001734808,0.5957901235588035,7.977740194909125,-7.732373510484199,-1.395884675436875,0.0050628133525336405,0.002859439699146038,0.04538135735214948,5.147096460581054,-5.2436701460941135,-1.226323439818914,-0.0059890731170365585,-0.0005988476592906385
0.74,-0.27259137560034097,0.06227650935765407,-0.24813532710018632,0.4499248265635251,-0.03109237725460487,-0.00015065154544044622,-0.24052793941936437,-0.7589545923366652,2.024424933204548,0.5874962096305175,-0.0168793095676946,9.539736437446442e-05,0.5923329805858072,7.346429474685257,-8.88089343510124,-1.5146914044901187,0.0007020453070135102,0.0026197747097398416,0.045584153291252406,5.071453839614595,-5.43019690374983,-1.2549593032544053,-0.006484323457233512,-0.000616211919087226
0.75,-0.2749379645650991,0.05541657637681867,-0.22877098098457704,0.455638919882804,-0.03126137306402558,-0.0001497635913766931,-0.23465889647581306,-0.6859932980835397,1.9364346115609283,0.5714093319278887,-0.01689958094207097,8.879540637531e-05,0.589049203880723,6.7487440101438,-9.660772178020068,-1.6436409635627598,-0.0032599966181897644,0.0023762963565898687,0.04560632221348144,5.003644338595283,-5.563770632577671,-1.2728049575463367,-0.006865245688938319,-0.0006289969454837902
0.76,-0.27722619088016875,0.04922705207322989,-0.210363825265026,0.4611789178431867,-0.031430914713849796,-0.00014895307462268234,-0.22882263150696172,-0.6189524303588784,1.8407155719551038,0.5539997960382659,-0.01695416498242144,8.10516754010763e-05,0.5858749327394268,6.1860751045617395,-10.142019735301803,-1.7693324447831174,-0.006635357582828627,0.0021337719458838222,0.04551130087585807,4.9416636223751125,-5.653800609181994,-1.2819375146053937,-0.007156967205328241,-0.0006380714979166151
0.77,-0.27945637067881224,0.043652209746457726,-0.19296171456050637,0.46653285946105894,-0.03160128116577967,-0.00014822876279865546,-0.22301797986434557,-0.557484232677216,1.7402110704519638,0.5353941617872204,-0.01703664519298768,7.243118240268612e-05,0.5827590506301255,5.658782487317317,-10.3829668254338,-1.8832682803664156,-0.009356969505957102,0.0018948480200573492,0.04534519718470825,4.884003591221033,-5.708288039926596,-1.2840854463807851,-0.007379945443302032,-0.0006441499371654906
0.78,-0.28162881369012643,0.038639822386452895,-0.17658878440613268,0.4716905529654799,-0.03177268721901387,-0.00014759716966523544,-0.2172443011314211,-0.5012387360004831,1.6372930154373697,0.5157693504420945,-0.017140605323420027,6.315931334200228e-05,0.5796612059684823,5.166491792022376,-10.432231256447924,-1.9804211700280376,-0.011431819325998904,0.001661721744701028,0.04514075606125352,4.8295943703549895,-5.734017794384071,-1.280689208554751,-0.00755056536811215,-0.0006478200320552288
0.79,-0.2837438273822065,0.034141117529566486,-0.16125022276211382,0.47664383015139994,-0.031945287955125426,-0.0001470629154276917,-0.21150136920800452,-0.4498704856886412,1.5338561644018869,0.49532771859200525,-0.017260073611155613,5.342542375437251e-05,0.5765500814161824,4.708322074751999,-10.330314771592185,-2.0581904462662806,-0.012909520253920004,0.0014364299664901825,0.04492062608184261,4.777724714476411,-5.73672464205601,-1.2729495407218139,-0.0076817575036066486,-0.0006495657014071444
0.8,-0.2858017201841606,0.030110685959709838,-0.1469362518798846,0.48138662984000125,-0.03211918552108598,-0.00014662904317713774,-0.20578928019541123,-0.4030431569856647,1.4313970882229214,0.4742799688601287,-0.01738975659605527,4.338722505539664e-05,0.5734018971382235,4.283057076893186,-10.110910529519915,-2.115647939602784,-0.013861531050061937,0.001220843172673458,0.04469996662272583,4.72795967127337,-5.721237982380843,-1.2618664723858952,-0.00778358727042914,-0.000649785573717726
0.81,-0.2878028039398777,0.026506360063674232,-0.13362544585058306,0.4859149667191247,-0.032294436880959884,-0.00014629729210436832,-0.20010837557171113,-0.3604325896035605,1.3310806029301545,0.4528336879123472,-0.017525135987390077,3.317510727694076e-05,0.5701991249848383,3.889284957720113,-9.801982668123843,-2.152996574342552,-0.014367712328199111,0.0010165942825679508,0.04448847943660915,4.680067074312439,-5.691608417843961,-1.2482712748206994,-0.007863788195314976,-0.0006488081850115529
0.8200000000000001,-0.28974739572432606,0.023289074760618367,-0.1212874878005,0.4902268256613454,-0.03247106167075524,-0.0001460683313317686,-0.19445917844483268,-0.32172853030558657,1.2337958050083053,0.4311858942220708,-0.017662478979535195,2.289607725997298e-05,0.5669293981027176,3.525418837484175,-9.426664883157613,-2.171183695103135,-0.014507912546396384,0.0008250095876836117,0.04429195758688119,4.63394615332463,-5.651216264974145,-1.2328525105479697,-0.007928230410115356,-0.0006469039331422866
0.8300000000000001,-0.29163581913310443,0.020422712317646297,-0.10988545362599707,0.4943220098839385,-0.032649049636222185,-0.00014594195900894302,-0.1888423408778395,-0.286636244297207,1.1402034174502929,0.40951842225930757,-0.01779879654669486,1.263723228255751e-05,0.5635845642630707,3.189907974545716,-9.004013426838018,-2.1716260422812894,-0.014356991652620832,0.0006470658633618287,0.04411345590485292,4.589594065243536,-5.602871101319793,-1.2161787058622722,-0.007981310102670197,-0.0006442959179281636
0.84,-0.2934684051411305,0.017873951429669153,-0.09937769540086756,0.49820196292336383,-0.03282836736278258,-0.00014591727187118097,-0.18325860080260514,-0.2548760887977145,1.0507758225129502,0.38799530394253434,-0.017931772656039343,2.46871377620509e-06,0.5601599034382476,2.8811270202812653,-8.549642361177343,-2.1560145272680025,-0.013982120261854303,0.0004833753020883069,0.043954151441459414,4.547049956949331,-5.548891793558017,-1.198716141756281,-0.008026284149074967,-0.0006411673189686754
0.85,-0.29524549260998206,0.015612109184429901,-0.08971938629981804,0.5018695783611518,-0.03300896416480645,-0.00014599280923833182,-0.17770874688515567,-0.22618422452392528,0.9658309101049521,0.36676154377879255,-0.01805968020238714,-7.553736715085379e-06,0.5566534485653438,2.59748642239904,-8.076261320063645,-2.1261764617571863,-0.013441632318392793,0.0003342019432795995,0.0438139753553926,4.506376725691196,-5.491181082512704,-1.180844895845438,-0.008065533248082669,-0.0006376685646159869
0.86,-0.2969674285128277,0.013608986569539825,-0.08086377957403555,0.5053290069754565,-0.03319077709990887,-0.00014616667537477494,-0.17219359028456596,-0.20031226148900752,0.885560672578249,0.3459428614304672,-0.018181293510242183,-1.738661364431201e-05,0.5530654158048679,2.337434344909663,-7.594132649818833,-2.0839785723332227,-0.012784835351583812,0.00019949414344244687,0.04369206751947852,4.467640186267841,-5.431288201671474,-1.1628720740645626,-0.008100776323057265,-0.0006339227633445266
0.87,-0.29863456793493576,0.011838717523242788,-0.07276322631923635,0.5085854679462402,-0.03337373513710583,-0.00014643664331474846,-0.16671394221080466,-0.1770269046297036,0.8100553254799204,0.3256460970783724,-0.018295803719696038,-2.699679399735135e-05,0.5493977177076648,2.1002127988901926,-7.1114595442092705,-2.031257530383094,-0.012052415461432986,7.893108417311723e-05,0.043587123644663175,4.4309793807441835,-5.370482743880685,-1.1450458187253263,-0.008133231807064715,-0.0006300342362628149
0.88,-0.3002472738989455,0.010277696313150031,-0.06536999028222057,0.5116450689789186,-0.03355776253235786,-0.0001468002445793251,-0.16127059640097777,-0.15610212100927567,0.7393236037015782,0.3059601032678491,-0.018402739525203164,-3.636012645766564e-05,0.5456535938039291,1.8817916311116283,-6.634725052722387,-1.9697805801759927,-0.011277119967920024,-2.8032157157742432e-05,0.043497507279153635,4.3961492900542,-5.309695705659515,-1.127550301612192,-0.00816379102363873,-0.000626070333155001
0.89,-0.30180591705516,0.00890418043450105,-0.058636891936634614,0.5145146362778729,-0.03374278155401966,-0.00014725483694743056,-0.15586431562145153,-0.13735158786489798,0.6733098345585956,0.2869567298954281,-0.018501902166180254,-4.545923681054697e-05,0.5418371829883181,1.683666211379673,-6.168955851045156,-1.901208123096307,-0.010485124848136296,-0.00012206481287657667,0.04342159587680941,4.363488705498484,-5.249788048447585,-1.110546221472843,-0.008193013896670261,-0.0006221123464695108
0.9,-0.3033108752749898,0.007698440443104905,-0.05251781006530443,0.5172015596706875,-0.03392871454445578,-0.00014779767331489057,-0.15049582198297684,-0.12057399913961458,0.611908187133019,0.2686923392814651,-0.018593299043611743,-5.428363674600233e-05,0.537953340210209,1.503424673267109,-5.717987898988926,-1.8270722585726684,-0.009696121202162677,-0.00020403732529283847,0.0433577324399934,4.332878591846354,-5.1913412116140405,-1.0941428808277291,-0.008221331107603855,-0.0006182064162588727
0.91,-0.3047625331725069,0.006642522399466412,-0.04696806447557815,0.5197136507914779,-0.03411548549516095,-0.00014842595134988216,-0.14516578975171157,-0.1055918043638493,0.5549745589726278,0.2512091120790474,-0.018677095070516986,-6.282780349915922e-05,0.5340073551964796,1.3397868786011093,-5.284655466776314,-1.7487723179724473,-0.00892499316913925,-0.00027482360436714703,0.043304335154206966,4.304298297719338,-5.134816639437341,-1.0784232234303095,-0.008249023773855304,-0.0006143935482169821
0.92,-0.3061612815796174,0.00572012207043025,-0.041944699820091656,0.5220590158248637,-0.034303021192965785,-0.00014913685575446899,-0.1398748407110495,-0.09224003290361618,0.5023364655486491,0.2345365033385759,-0.01875356978048345,-7.109044045868184e-05,0.5300047694958537,1.1914737948488756,-4.870969561540497,-1.6675679131076926,-0.008182458662775505,-0.0003353518597711824,0.043259931460497794,4.277703010271204,-5.080551920131171,-1.0634447513472352,-0.00827628294816126,-0.0006107051460975737
0.93,-0.30750751699439005,0.00491645893767026,-0.03740668779612477,0.5242459425103864,-0.03449125201663459,-0.00014992759273370302,-0.13462354147726444,-0.08036631327599898,0.45380120239668853,0.21869266855226313,-0.01882308236688069,-7.907369792340306e-05,0.5259512335225834,1.0574610544354648,-4.478265172574888,-1.5845786785966922,-0.007475858811554326,-0.00038655996842440477,0.04322318238802282,4.253053856563522,-5.028789118893514,-1.0492447502675424,-0.008303240090150583,-0.0006071659394469601
0.9400000000000001,-0.30880164101713126,0.004218175165642182,-0.03331506231977707,0.5262828011174376,-0.03468011244917663,-0.0001507954181035938,-0.12941240227412135,-0.06982837720280786,0.4091625476347701,0.2036858607051316,-0.018886043254204593,-8.67825369890785e-05,0.5218523712274862,0.9365273875408574,-4.107327441860435,-1.5007879014057117,-0.006809816727058993,-0.00042937378054896946,0.04319288157109511,4.230271503924964,-4.979680857936154,-1.0358426293877587,-0.008329987138153649,-0.0006037927885715658
0.9500000000000001,-0.3100440597883493,0.003613214853758281,-0.02963299999208848,0.5281779585273761,-0.034869541369814024,-0.0001517376588849422,-0.12424187712180568,-0.060496031188390045,0.3682062327688593,0.18951574099385032,-0.01894289206373944,-9.422407813483848e-05,0.517713696943938,0.8276347996881069,-3.7584960723321017,-1.4170488658737384,-0.006186861571158719,-0.0004646822404563711,0.0431679577361876,4.209280172934919,-4.93331595326883,-1.023244359816005,-0.008356591251560533,-0.0006005978953854249
0.96,-0.3112351834369842,0.003090721262740684,-0.026325856285247546,0.529939704746223,-0.03505948217284129,-0.00015275173004292484,-0.11911236486348764,-0.05224935910175969,0.33071437068409343,0.17617462188468283,-0.018994080302727125,-0.00010140711579826244,0.5135405384056917,0.7297806198578188,-3.43175484766249,-1.3340922065785215,-0.005607895395654483,-0.0004933316740743932,0.043147466855927456,4.1899941745937985,-4.889728492214389,-1.0114447201373156,-0.008383104578821392,-0.0005975889064957448
0.97,-0.3123754255469127,0.0026409374013288732,-0.023361166253084494,0.5315761909015292,-0.03524988275562992,-0.00015383514684876677,-0.11402421099285336,-0.044978386141181104,0.29646900321630515,0.16364861553062252,-0.01904005827886267,-0.00010834168058419211,0.5093382118124594,0.645019996169359,-3.1268015141970826,-1.2525267076598015,-0.0050725636516222306,-0.0005161151458221158,0.04313064785457246,4.17264748518323,-4.8489922892802575,-1.0004379343811214,-0.008409610193373721,-0.0005947865452626253
0.98,-0.3134652026229367,0.002255409283650153,-0.020708617630306965,0.533095379952644,-0.035440695366811714,-0.00015498554084604775,-0.10897770760239564,-0.038552811767872015,0.26525486227775275,0.15191890511147665,-0.019081261118179288,-0.00011503939972809843,0.5051112627651578,0.5661490971762931,-2.843135395101468,-1.1728619653472538,-0.004579317920420073,-0.0005338128412065157,0.04311670612269235,4.1564647947202165,-4.810890561804821,-0.9901850666420104,-0.008436074841904615,-0.000592156353173434
0.99,-0.3145049336387056,0.001926272326481734,-0.018340001063721578,0.5345050018438257,-0.035631876493082616,-0.0001562006506445184,-0.10397310157688852,-0.032913695716841926,0.23686165665853876,0.1409621891181669,-0.019118112627089998,-0.00012151097984706447,0.5008640437897712,0.4933857336603579,-2.5800643245503414,-1.09553672367322,-0.004126935231559492,-0.0005469864073972541,0.04310496688813351,4.1414623440554825,-4.775381844748737,-0.9806636947369505,-0.008462530536066305,-0.0005897030355169089
