tonegas/nnodely-applications/joint_friction_estimation/dataset/validation/mpc_mujoco_episode_1 copy.csv
time,q1,q2,q3,q4,q5,q6,dq1,dq2,dq3,dq4,dq5,dq6,ddq1,ddq2,ddq3,ddq4,ddq5,ddq6,tau1,tau2,tau3,tau4,tau5,tau6
0.0,0.0,1.57,-1.57,0.0,0.0,0.0,0.0,0.0,0.0,0.0,0.0,0.0,2.472636163684772,6.5808757012441,7.105675320080522,2.5111001586681994,0.35173860454681183,-4.375835067627065e-06,0.34464243599185906,0.10322691942308904,-2.301535533652837,-0.5114682804435855,0.031265788620013835,0.00017710899773271474
0.01,0.00024594394741081743,1.5706584372416246,-1.5692911064423463,0.00023617179144374206,2.9901846210365337e-05,4.335399347198399e-07,0.024594394741081743,0.06584372416245693,0.07088935576537035,0.023617179144374206,0.0029901846210365337,4.335399347198399e-05,2.451025346908632,6.399058962023952,6.942735648733274,2.3095704272216793,0.2948500778432823,0.004317824461770314,0.34484949730192044,-0.030568525349535136,-2.358490226607827,-0.5240234145716014,0.03121932255993762,0.0001685082283717906
0.02,0.0007355006405178326,1.571957222032851,-1.567890503211324,0.0006919236288251285,8.617083463820041e-05,1.3205577372918278e-06,0.04895566931070151,0.12987847912264047,0.14006032310224142,0.04557518373813864,0.005626898842783508,8.870178025719878e-05,2.4258415821227084,6.206756368194137,6.761900611083043,2.1403820671318385,0.25871281572026206,0.004460241372052476,0.34682199273847036,-0.18603317882357917,-2.4196532211154027,-0.5370636859603362,0.031263638519887844,0.0001589225268773262
0.03,0.0014660612312245996,1.5738771864081076,-1.5658169064753598,0.00135306774769093,0.0001665068227598205,2.629930595385444e-06,0.07305605907067671,0.1919964375256484,0.20735967359642338,0.06611441188658013,0.008033598812162009,0.0001309372858093616,2.3977604758510376,6.004427115003089,6.566416478643815,1.995375458057616,0.23462600919879506,0.00404991891921247,0.3504065613950839,-0.3616478226253923,-2.484701256634015,-0.5505313504245241,0.03138726162324411,0.0001483275672527611
0.04,0.0024347758386526305,1.5763981373102567,-1.563090301767628,0.002207206560517203,0.0002693214259998273,4.330094087478132e-06,0.0968714607428031,0.252095090214921,0.27266047077316435,0.08541388128262731,0.01028146032400068,0.0001700163492092688,2.367153115142144,5.7926274536073485,6.358925389156154,1.8684225206651277,0.21739538090418087,0.0035962947217562657,0.3554360790221582,-0.5558274459022385,-2.553280981587221,-0.5643614703546039,0.03157711960909228,0.00013670039067132278
0.05,0.0036385718614825274,1.5794989177964651,-1.559731726823784,0.0032432729435419114,0.0003934253700318992,6.3935307871336845e-06,0.12037960228298968,0.31007804862084803,0.33585749438440077,0.10360663830247083,0.012410394403207192,0.00020634366996555523,2.3342063025776363,5.57198995788803,6.14160720263996,1.7549373171683484,0.20393596469427955,0.0031505300034280204,0.36173064049883924,-0.7669344029630127,-2.6250131143007165,-0.57848297580033,0.03181889209503564,0.00012401788550319066
0.06,0.00507416127687016,1.5831574745950359,-1.5557630894841077,0.004451187543562121,0.0005378430344207245,8.79550070453637e-06,0.14355894153876325,0.3658556798570648,0.39686373396763663,0.120791460002021,0.014441766438882526,0.00024019699174026858,2.2989970603965415,5.343206933384773,5.9162870223900335,1.6515044144326225,0.19243907789017456,0.002707622052174674,0.36909839461607086,-0.9932913586296115,-2.6994966652549275,-0.5928197408378566,0.03209734127032136,0.00011025779240028959
0.07,0.00673804147662104,1.5873509306559563,-1.5512070125586779,0.0058216048633808765,0.0007017040698468701,1.151272817137647e-05,0.16638801997508793,0.4193456060920498,0.45560769254297456,0.13704173198187555,0.016386103542614557,0.00027172274668401,2.2615391343611364,5.107016859526374,5.6845166355301355,1.5555958086820851,0.181868616644282,0.0022625646534901733,0.37733643347488516,-1.2331940124737835,-2.776313191694811,-0.6072916685478462,0.03239663036079777,9.540089925472119e-05
0.08,0.008626492516070053,1.5920556615683579,-1.5460866995334845,0.007345726605745853,0.000884181693935676,1.452259945397136e-05,0.18884510394490134,0.4704730912401486,0.5120313025193372,0.1524121742364977,0.01824776240888059,0.0003009871282594889,2.2218123370528278,4.864193061195277,5.447636027291557,1.4653552453286096,0.17165512065158417,0.0018152492302552226,0.38623188514498047,-1.4849235865196393,-2.8550310597093036,-0.6218157765537431,0.03270063260089645,7.943367884506551e-05
0.09,0.010735572624933735,1.5972473748860194,-1.540425816508987,0.009015165880229123,0.0010844591953098862,1.7802753274139723e-05,0.2109080108863683,0.5191713317661535,0.566088302449756,0.16694392744832698,0.020027750137421016,0.0003280153820168363,2.1797813481335027,4.615534041679259,5.206819678767738,1.3794339208092232,0.1615094772032979,0.0013688601311283577,0.39556331526262,-1.7467590338354442,-2.935209682843971,-0.6363072726206395,0.0329932309598043,6.235095031258435e-05
0.1,0.013061113197761327,1.6029011915265041,-1.5342483869181456,0.010821849784193564,0.0013017133975738002,2.1330919741545224e-05,0.23255405728275919,0.5653816640484673,0.6177429590841443,0.18066839039644414,0.021725420226391397,0.0003528166467405502,2.135407986094201,4.361855066968459,4.963111256832957,1.2968653526195233,0.15130917360555252,0.0009281539035024267,0.4051025044817601,-2.0169889124112954,-3.016403705926884,-0.6506806094297313,0.03325860712637068,4.415832511910317e-05
0.11,0.015598714087459453,1.6089917285030093,-1.5275786964519324,0.012757950845817212,0.0015351082134620686,2.508490648235211e-05,0.2537600889698126,0.6090536976505131,0.6669690466213106,0.19361010616236485,0.023339481588826837,0.0003753986740806886,2.0886593713123394,4.103980711156789,4.71744946594501,1.216970095871197,0.14102863256225007,0.0004982864307225832,0.41461663276814187,-2.2939228557987668,-3.0981671014001657,-0.6648505075065672,0.033481517114695984,2.4874297976740863e-05
0.12,0.01834373977281218,1.6154931823201142,-1.5204412062904942,0.014815840084623085,0.0017837940786648,2.904266679236507e-05,0.2745025685352726,0.650145381710496,0.7137490161438195,0.20578892388058723,0.02486858652027313,0.00039577603100129585,2.0395134299989075,3.842738160684508,4.470687187655519,1.139283196710231,0.1306964195380722,8.409230617667518e-05,0.4238708675968554,-2.5759025629427805,-3.1800571447611397,-0.6787329355830295,0.033647550139982565,4.531900514524929e-06
0.13,0.02129131680197043,1.6223794124222828,-1.5128604732463764,0.01698805617179928,0.002046910675127011,3.318240862354512e-05,0.29475770291582476,0.6886230102168595,0.7580733044117663,0.21722160871761947,0.026311659646221106,0.0004139741831180049,1.9879626044765135,3.578951139857775,4.22360553976076,1.0634989645386455,0.1203689131180603,-0.0003103225058165293,0.43263132153827527,-2.861312224140671,-3.261638235593349,-0.6922460382547737,0.03374336704265516,-1.6820129347481312e-05
0.14,0.024436332794003236,1.6296240241323028,-1.5048610758100183,0.01926728648772329,0.0023235913459497947,3.748271863571283e-05,0.3145015992032808,0.7244611710019896,0.7999397436358213,0.22792303159240096,0.027668067082278345,0.0004300310012167713,1.9340162883472551,3.3134343672348954,3.976924108249344,0.9894289372582534,0.11011413462841979,-0.0006817767375526529,0.4406683163409048,-3.14858829808809,-3.342485531154152,-0.7053110015850362,0.033756914452648945,-3.911668532240712e-05
0.15,0.027773437189656636,1.637200450559479,-1.496467545375813,0.021646356875939632,0.0026129682163363206,4.192268549538041e-05,0.33371043956533997,0.757642642717634,0.8393530434205243,0.2379070388216341,0.028937687038652574,0.0004439966859667577,1.8777023027858961,3.0469884863010437,3.731308314692698,0.9169698997615008,0.10000190702876388,-0.001028068762956913,0.4477598664823944,-3.4362285564003923,-3.4221883606195505,-0.7178528482576138,0.03367761104841478,-6.22761425387654e-05
0.16,0.03129704386907701,1.6450820329969198,-1.487704302141461,0.024118227656410616,0.0029141774166552463,4.6482013087878606e-05,0.35236066794203724,0.7881582437440638,0.8763243234351764,0.24718707804709844,0.03012092003189256,0.00045593275924981914,1.8190676148716536,2.7803954375321904,3.4873746587541454,0.8460795674954653,0.09009800207077134,-0.0013479393518061045,0.4536952762728425,-3.72280031663185,-3.5003533898932315,-0.7298011549679929,0.03349650264662172,-8.62007081606281e-05
0.17,0.03500133569227686,1.6532420993654082,-1.478595595331031,0.02667599404331498,0.003226364044471941,5.114111856797415e-05,0.37042918231998545,0.8160066368488504,0.9108706810430119,0.25577663869043654,0.03121866278166949,0.00046591054800955434,1.7581784349839642,2.514414254881198,3.245694404205805,0.7767581191262298,0.08046083097419654,-0.0016409771967551556,0.45827873178254613,-4.006947792373505,-3.5766075093703633,-0.741090685941681,0.03320638342837093,-0.0001107772479652442
0.18,0.03888027096444406,1.6616540402992825,-1.4691654475061289,0.02931288955748261,0.003548686656362165,5.5881212974593116e-05,0.38789352721671994,0.8411940933874402,0.9430147824902166,0.26368955141676276,0.032232261189022386,0.00047400944066189663,1.6951197960167144,2.249777279767154,3.0067961449759104,0.7090341977005572,0.07113977443352582,-0.0019074925457678304,0.4613327626619071,-4.28739849914283,-3.6506004201916364,-0.7516619377652586,0.03280188133171574,-0.00013587855153042856
0.19,0.04292759178140421,1.6702913825080707,-1.4594376028099074,0.032022291363778606,0.0038803211800332226,6.068436395875646e-05,0.4047320816960152,0.8637342208788105,0.9727844696221376,0.2709401806295994,0.0331634523671058,0.00048031509841633453,1.629994699283035,1.9871867912559023,2.7711675860275182,0.6429543305183358,0.062174575517317976,-0.002148377257590095,0.46270144949997927,-4.562968667067375,-3.7220068982863403,-0.761461592089878,0.032279506479385794,-0.00016136498768858955
0.2,0.04713683417009675,1.679127859086666,-1.4494354790430892,0.03479772672448136,0.004220464202444075,6.553354133071494e-05,0.42092423886925356,0.8836476578595359,1.0002123766818196,0.27754353607027543,0.03401430224108521,0.00048491773719584735,1.5629229026117786,1.7273120534392337,2.539256795127838,0.5785749692048796,0.05359541973080795,-0.002364964258621871,0.4622532595251791,-4.832567625339851,-3.7905287198141906,-0.7704428741966005,0.031637662421934054,-0.00018708649262679026
0.21,0.051501339904662866,1.6881374764865884,-1.4391821235058015,0.037632879959981665,0.004568335632278672,7.041264682850782e-05,0.4364505734566114,0.9009617399922323,1.0253355537287616,0.28351532355003056,0.03478714298345973,0.0004879105497792876,1.4940394207062553,1.470786780918922,2.3114731203687016,0.515956542130338,0.04542345144345106,-0.0025588952151269773,0.45988340660982335,-5.095201138603898,-3.8558962363906244,-0.7785658168749339,0.030876620915025382,-0.00021288482573368877
0.22,0.05601426985062502,1.697294577901192,-1.428700172558547,0.04052159946239952,0.004923180762754251,7.530652988675427e-05,0.4512929945962152,0.9157101414603611,1.0481950947254508,0.2888719502417854,0.035484513047557925,0.0004893883058246453,1.4234928038318957,1.2182070215768264,2.088187920603748,0.45515905591746986,0.03767155550609491,-0.002732001976267995,0.45551564979742953,-5.349973691248415,-3.917869593576944,-0.7857974305249061,0.029998461870880226,-0.00023859602324298912
0.23,0.06066861866758866,1.7065739028582756,-1.418011814863771,0.043457904426909416,0.0052842717780773795,8.020099134059633e-05,0.4654348816963636,0.9279324957083492,1.0688357694776083,0.29363049645098943,0.036109101532312816,0.0004894461453842067,1.3514432570028234,0.9701294529296203,1.8697352185311242,0.3962388923629927,0.030345285191990534,-0.0028862048319726608,0.4491034667577526,-5.596089731596302,-3.976239591434447,-0.7921117818242224,0.029006980985913297,-0.000264052977053477
0.24,0.0654572306847436,1.7159506428540279,-1.4071387582691868,0.046435991057962124,0.005650908756993936,8.508277700651343e-05,0.4788612017154945,0.9376739995752205,1.087305659458433,0.2978086631052709,0.03666369789165559,0.0004881785665917099,1.2780606574954365,0.7270700848844154,1.6564123567372027,0.33924653013608896,0.02344385318946962,-0.003023428733743172,0.4406305633489237,-5.8328539035993385,-4.030828191296811,-0.7974899846631759,0.027907568312869002,-0.0002890880658495986
0.25,0.07037281675289565,1.7254004929022047,-1.3961022002876031,0.049450238079457,0.006022420231915311,8.993956299109941e-05,0.4915586068152053,0.9449850048176707,1.1036557981583714,0.30142470214948747,0.037151147492137535,0.00048567859845859764,1.2035225235572724,0.4895033579231386,1.4484807137672047,0.28422498352823666,0.016961127443158475,-0.003145537269132359,0.4301107063997996,-6.059670308473224,-4.081488678174736,-0.8019201083114937,0.026707061686091264,-0.0003135357677360337
0.26,0.07540797187141908,1.7348996989114382,-1.384922802117333,0.05249521143399347,0.006398163363518628,9.475993442849959e-05,0.5035155118523426,0.9499206009233558,1.1179398170270092,0.3044973354536478,0.03757431316033164,0.00048203714374001755,1.1280119816630214,0.25786162194807266,1.2461665188906847,0.2312087981766009,0.010886591844026405,-0.003254283252237311,0.4175868925052201,-6.276040852293518,-4.128105493210283,-0.8053970089088377,0.025413579401034968,-0.00033723518785674114
0.27,0.08055519338790011,1.7444251008412213,-1.373620666133834,0.05556566810019872,0.006777523789587572,9.953335916441082e-05,0.5147221516481029,0.9525401929783082,1.1302135983498989,0.30704566662052496,0.03793604260689444,0.0004773424735911233,1.0517157737590497,0.03253497743357663,1.0496617896637537,0.18022347983744158,0.005206245261735631,-0.0033512742241269544,0.40312988974014596,-6.481562747570229,-4.170593755200569,-0.8079220913352757,0.024036336880342922,-0.00036003244062456964
0.28,0.08580689957178966,1.7539541716229903,-1.3622153167682305,0.05865655899150633,0.007159915203982889,0.00010425015770870799,0.5251706183889547,0.9529070781768925,1.140534936560355,0.309089089130761,0.03823914143953171,0.00047167985442971754,0.9748223398255157,-0.18612854270530285,0.8591254048814929,0.13128525971983596,-9.657747137392647e-05,-0.003437950846718052,0.3868362106102786,-6.675925246950372,-4.208898494286142,-0.8095030092968055,0.022585452223992098,-0.00038178283390466277
0.29,0.09115544837051304,1.7634650518665185,-1.3507256846727451,0.061763030926707124,0.007544778717613381,0.00010890147058347951,0.5348548798723379,0.9510880243528148,1.1489632095485458,0.310647193520079,0.038486351363049245,0.000465131287477152,0.8975200049642303,-0.39782247488839084,0.6746843164823697,0.08440112075449413,-0.005040471439379246,-0.0035155760922125356,0.36882559236681145,-6.858905695261957,-4.242993624342393,-0.8101533120372943,0.021071745543533728,-0.0004023528113860806
0.3,0.09659315616659563,1.7729365804032242,-1.3391700940575701,0.06488042768367161,0.007931582048579426,0.00011347922400719389,0.5437707796082587,0.9471528536705731,1.1555590615174989,0.31173967569644884,0.03868033309660452,0.00045777534237143746,0.8199952942588473,-0.6022811368949007,0.49643489694771603,0.03956902510271662,-0.0096453175856972,-0.0035852331604521726,0.34923807439240223,-7.0303649919901465,-4.272880683343733,-0.8098920464528951,0.019506536830885383,-0.0004216216190308612
0.31,0.10211231636686419,1.782348320746765,-1.3275662530689272,0.06800429016404831,0.008319818583628763,0.00011797609468463349,0.5519160200268555,0.9411740343540814,1.160384098864305,0.3123862480376699,0.038823653504933615,0.00044968706774396066,0.7424313929904292,-0.7992785784243096,0.32444441338651975,-0.0032217045804067146,-0.013931727852927622,-0.003647830214637382,0.32823077137095186,-7.190242559929085,-4.298587372941555,-0.8087433235373047,0.017901446827017147,-0.0004394826714963514
0.32,0.10770521766910611,1.7916805835772542,-1.31593124706444,0.07113035570938857,0.008709006347956474,0.00012238547431884925,0.5592901302241923,0.9332262830489197,1.1635006004487152,0.31260655453402547,0.03891877643277113,0.0004409379634215763,0.6650067645310547,-0.9886272995979596,0.158752615524546,-0.04398988821612537,-0.017920575808558326,-0.0037041102029983786,0.30597444532100027,-7.3385509172192025,-4.3201659296892965,-0.8067358580328963,0.016268204956259764,-0.00045584460439173686
0.33,0.11336416186718243,1.8009144453784807,-1.3042815346298184,0.07425455661874347,0.009098686915384091,0.00012670143432721003,0.5658944198076323,0.9233861801226406,1.1649712434621553,0.31242009093549045,0.03896805674276165,0.000431596000836077,0.5878939334556251,-1.1701767673733132,-0.0006265779999232723,-0.08276190648877124,-0.021632607163534878,-0.0037546642799931307,0.28264997949184256,-7.475369949366607,-4.337691360772683,-0.8039024899177869,0.014618467901885243,-0.00047063200779984683
0.34,0.11908148107200976,1.8100317633775753,-1.2926329461704398,0.07737301792487279,0.009488424286195929,0.00013091869112824022,0.5717319204827328,0.9117317999094617,1.1648588459378686,0.3118461306129319,0.0389737370811837,0.0004217256801030189,0.5112584371538945,-1.343811759891515,-0.15370331249143154,-0.11957105919587674,-0.025088123456453282,-0.0037999475570726082,0.25844485299906034,-7.600840975314466,-4.351259576798668,-0.8002796959424743,0.012963651843581671,-0.0004837858453631642
0.35000000000000003,0.12484955424261815,1.8190151869536433,-1.2810006849028819,0.08048205449123551,0.0098778037554786,0.00013503257226867897,0.5768073170608385,0.8983423576067984,1.1632261267557902,0.3109036566362717,0.03893794692826717,0.0004113881140438761,0.4352579455144566,-1.5094505683578963,-0.3005099677065153,-0.15445688429319038,-0.028306731609069047,-0.0038402961309643956,0.23354970748605425,-7.715160697409772,-4.360985453224776,-0.795907098866668,0.011314780783055626,-0.0004952635711566077
0.36,0.1306608229382772,1.8278481656960055,-1.269399330064871,0.08357816749524274,0.010266430790751587,0.00013903898357971292,0.581126869565905,0.8832978742362239,1.1601354838010849,0.30961130040072293,0.03886270352729871,0.000400641131103396,0.3600415450931479,-1.667043085215086,-0.4410992849101234,-0.18746445450868432,-0.031307151912846276,-0.0038759445592797814,0.2081550867288471,-7.818575119431717,-4.367000850452354,-0.790826981365744,0.009682352774689923,-0.0005050389633663582
0.37,0.13650780621913813,1.8365149543039538,-1.257842842157482,0.08665804036513,0.010653929934015767,0.0001429343774856932,0.5846983280860938,0.8666788607948396,1.1556487907388884,0.30798728698872635,0.03874991432641799,0.0003895393905980274,0.2857491815579578,-1.8165688061688645,-0.5755424692089393,-0.2186436654527517,-0.03410707715754446,-0.003907043116818595,0.1824484177025365,-7.911373509990265,-4.369452620556623,-0.7850838108067514,0.008076225276270959,-0.0005131016993493458
0.38,0.1423831146386963,1.8450006145284372,-1.246344570030735,0.08971853423847925,0.01103994374008656,0.00014671572253636338,0.5875308419558167,0.8485660224483292,1.1498272126747067,0.3060493873349254,0.0386013806070792,0.00037813450506701726,0.2125112520967672,-1.9580347721316236,-0.7039272852905212,-0.24804852670358812,-0.036723075970252816,-0.003933674335802023,0.15661128795979598,-7.993882480847853,-4.368500626186289,-0.7787237802665772,0.00650552025969051,-0.0005194567009097152
0.39,0.14827946328642017,1.8532910143620087,-1.2349172596228937,0.09275668301008762,0.011424131760208381,0.00015038047419275484,0.5896348647723866,0.8290399833571477,1.1427310407841227,0.30381487716083616,0.03841880201218213,0.0003664751656391464,0.14044833784883073,-2.0914734754148188,-0.8263561637470609,-0.2757364653126526,-0.039170533911148664,-0.0039558684704960045,0.13081705996239185,-8.06646024134182,-4.364315794440657,-0.7717943703087908,0.004978549189255142,-0.0005241232816002698
0.4,0.1541896838529517,1.8613728246868562,-1.2235730641646925,0.09576968803570537,0.011806169577448213,0.0001539265468657307,0.5910220566531535,0.8081810324847559,1.1344195458201205,0.3013005025617754,0.03820378172398319,0.00035460726729758625,0.06967106523671766,-2.2169407525937723,-0.9429443339490651,-0.30176764944126155,-0.04146362642621043,-0.00397361762561832,0.10522884891533527,-8.12949108135976,-4.357078225626473,-0.7643439351779077,0.003502757498196191,-0.000527134129591068
0.41000000000000003,0.16010673570323644,1.8692335135919893,-1.2123235556622536,0.09875491255629477,0.012185747898212862,0.00015735228718333056,0.5917051850284745,0.7860688905133165,1.124950850243883,0.29852245205893946,0.037957832076464956,0.0003425740317599863,0.00028008428730494725,-2.3345136844378778,-1.0538179980280367,-0.3262043383652591,-0.04361531833042792,-0.003986888401416755,0.07999787724544677,-8.183380126492217,-4.34697537380743,-0.7564213162341897,0.002084687780885319,-0.0005285341602384847
0.42,0.16602371595470755,1.8768613385698798,-1.2011797374764825,0.10170987590501833,0.012562571702399024,0.00016065644844685264,0.5916980251471107,0.7627824977890394,1.1143818185771064,0.29549633487235494,0.0376823804186162,0.00033041612635220657,-0.06763384840717138,-2.4442885212013277,-1.1591125589943703,-0.34911026379593935,-0.045637385070373876,-0.0039956329650572275,0.05526220659700265,-8.228548400280065,-4.3342003130743185,-0.748075484658602,0.0007299605743224034,-0.0005283792720585305
0.43,0.1719338685681802,1.8842453368002507,-1.1901520578220641,0.10463224755626216,0.012936359453138159,0.00016383816622503265,0.5910152613472645,0.7383998230370917,1.102767965441837,0.29223716512438225,0.03737877507391347,0.0003181717778180003,-0.1339896945717019,-2.5463786494493457,-1.2589709144057615,-0.3705500463773239,-0.047540451559284214,-0.003999798527996701,0.031145837424637342,-8.265428220079553,-4.318950100560575,-0.7393552147223964,-0.0005567286703572335,-0.000526735038502053
0.44,0.17783059246839555,1.8913753137244997,-1.1792504240156816,0.10751984107273227,0.013306842365810923,0.00016689693502948253,0.5896723900215375,0.7129976924248893,1.0901633806382498,0.28875935164701066,0.037048291267276455,0.00030587688044498706,-0.1987158793356486,-2.6409126144906137,-1.3535418253771287,-0.39058865021961076,-0.04933404489227822,-0.003999335252839076,0.007758157169168941,-8.294458945144719,-4.301424244469295,-0.7303087882505918,-0.001771598028174208,-0.0005236753659041404
0.45,0.18370744871919806,1.8982418301086248,-1.168484217310564,0.11037060800311868,0.01367376373495067,0.00016983258601183107,0.5876856250802492,0.6866516384124985,1.0766206705117427,0.2850766930386407,0.03669213691397482,0.0002935650982348526,-0.2617499685502684,-2.7280322104392543,-1.442978369097211,-0.4092908775155468,-0.051026657712219814,-0.003994202648434475,-0.014806289282128252,-8.316083088200308,-4.281823282814583,-0.7209837303213662,-0.0029117546897462,-0.0005192811453916127
0.46,0.1895581667851677,1.9048361877857172,-1.1578623081627828,0.11318263177907811,0.01403687831680693,0.00017264526562296226,0.5850718065969648,0.6594357677092444,1.0621909147781268,0.2812023775959435,0.03631145818562604,0.00028126796111311805,-0.3230382898560731,-2.8078906479597827,-1.5274364814539214,-0.4267209045287137,-0.05262581941989919,-0.003984374542699454,-0.03646773860756683,-8.330742795138988,-4.260347476248407,-0.7114265757379807,-0.003975159510825593,-0.0005136389235399492
0.47000000000000003,0.19537664991721265,1.9111504142612736,-1.1473930717836935,0.11595412165641023,0.014395951764674033,0.00017533541517662942,0.5818483132044941,0.6314226475556488,1.046923637908928,0.2771489877332114,0.03590734478671031,0.0002690149553667165,-0.3825355083808685,-2.8806508078864974,-1.607073594869672,-0.4429418596186725,-0.05413817279666033,-0.00396984273617601,-0.05716089299033689,-8.338876691584886,-4.237195616268378,-0.7016826653871449,-0.00496058235099987,-0.0005068396133182955
0.48,0.20115697970421653,1.9171772463559582,-1.1370844038424217,0.1186834067413531,0.014750760113585823,0.00017790375126305107,0.5780329787003868,0.6026832094684476,1.0308667941271898,0.27292850849428757,0.03548083489117897,0.00025683360864216546,-0.44020416721352135,-2.9464835871672195,-1.6820473750496947,-0.4580154434064916,-0.05556955393689922,-0.003950619460267257,-0.07683438650802872,-8.340917089952194,-4.212563948294173,-0.6917959712556884,-0.005867550000622352,-0.0004989772634818281
0.49,0.2068934198364071,1.9229101130511825,-1.1269437361921553,0.12136893013895414,0.015101089310615537,0.00018035124696228003,0.5736440132190563,0.5732866695224382,1.0140667650266484,0.2685523397601041,0.03503291970297133,0.00024474956992289604,-0.49601420199629187,-3.0055663419760226,-1.7525145590491062,-0.47200159072853864,-0.05692507368323518,-0.003926738765176407,-0.095450072110043,-8.33728754629793,-4.186645207563117,-0.6818089486117064,-0.0066962884247546844,-0.0004901479011822048
0.5,0.21258041912874515,1.9283431176931318,-1.1169780525041284,0.12400924325652578,0.01544673478678301,0.00018267911381190238,0.568699929233803,0.5433004641949393,0.9965683688026888,0.2640313117571638,0.03456454761674735,0.0002327866849622355,-0.5499424381379456,-3.0580814313764484,-1.8186298958916516,-0.48495817362542226,-0.05820919901131072,-0.003898256974982084,-0.11298216668871963,-8.328400752706557,-4.15962776452286,-0.6717624136611562,-0.0074476609502514375,-0.0004804484592663373
0.51,0.2182126138544107,1.9334710197007845,-1.10719390370342,0.12660300029131044,0.015787501066444075,0.0001848887844885332,0.5632194725665569,0.5127902007652656,0.9784148800708504,0.25937570347846495,0.03407662796610645,0.00022096706766308287,-0.601972078293474,-3.1042148636011464,-1.8805451899218624,-0.4969407442885547,-0.05942583304263982,-0.003865252345185699,-0.1294162900936836,-8.314656748116766,-4.131694875378068,-0.6616954448590571,-0.008123103894811148,-0.00046997579660129147
0.52,0.22378482943947375,1.9382892159131984,-1.0975974231109542,0.1291489529276873,0.01612320141000513,0.0001869818961674292,0.5572215585063046,0.4818196212413752,0.9596480592465733,0.25459526363768464,0.03357003435610565,0.00020931116788959952,-0.6520921869049623,-3.1441550458455336,-1.938408446149161,-0.5080023166173735,-0.06057839255886188,-0.0038278240530088548,-0.1447484314822844,-8.296441428360563,-4.103024032661311,-0.6516453059783024,-0.008724560992109633,-0.00045882581686159713
0.53,0.22929208157016215,1.9427937217009708,-1.0881943412062831,0.13164594526558135,0.016453657485857275,0.0001889602745292014,0.5507252130688399,0.4504505787772396,0.9403081904670987,0.249699233789406,0.03304560758521444,0.00019783783617721858,-0.700297177766628,-3.1780916374507906,-1.992363116039281,-0.5181931848474228,-0.06166988207668611,-0.003786090653507823,-0.15898387335808048,-8.274125334674547,-4.073786410124394,-0.6416473890106573,-0.009254417811632814,-0.0004470926885865173
0.54,0.2347295767638672,1.9469811519564315,-1.078989999935766,0.1340929089982023,0.016778699067547073,0.00019082591838682993,0.5437495193705036,0.4187430255460828,0.9204341270517207,0.24469637326209742,0.03250415816897985,0.00018656438576285253,-0.7465863097796324,-3.2062145054678326,-2.042547441535809,-0.5275607775301037,-0.06270296370005068,-0.003740188129272959,-0.1721361002239098,-8.248062698999062,-4.044146395862202,-0.631735174985856,-0.009715437211389932,-0.0004348681669892573
0.55,0.24009271245423322,1.9508487020668819,-1.0699893665005795,0.1364888588538648,0.017098163752384925,0.000192580984909855,0.5363135690366033,0.386755011045027,0.9000633435186484,0.23959498556624825,0.03194646848378525,0.0001755066523025095,-0.7909631953077896,-3.2287127808454774,-2.0890938945284887,-0.5361495450452054,-0.06368002211249157,-0.0036902676425394354,-0.18422571514424424,-8.2185907239357,-4.0142612073625,-0.6219402108383585,-0.01011069670133858,-0.0004222410159903264
0.56,0.24537707663944125,1.9543941289651272,-1.0611970465685348,0.13883288831343313,0.017411896697927143,0.00019422777542585763,0.5284364185208031,0.3545426898245342,0.8792319932044832,0.23440294595683359,0.03137329455422174,0.00016467905160026165,-0.8334353248411115,-3.245774012860883,-2.1321287085314835,-0.5440008787496886,-0.06460322420741704,-0.003636493108486627,-0.19527938382630122,-8.186029075219619,-3.984280582098244,-0.6122921005202764,-0.010443528439266086,-0.0004092965272570956
0.5700000000000001,0.2505784471411857,1.9576157323417283,-1.0526172968628884,0.14112416561190183,0.017719750373045233,0.0001957687217818292,0.5201370501744449,0.3221603376601006,0.8579749705646244,0.22912772984687074,0.03078536751180903,0.00015409463559715633,-0.8740136110249691,-3.257583418901664,-2.171771498979325,-0.5511530598254151,-0.06547457297581882,-0.003579038681617297,-0.20532882221715823,-8.150679564912757,-3.954346537320391,-0.6028185086469339,-0.010717462432381239,-0.0003961161316524982
0.58,0.2556927905199252,1.9605123360938561,-1.0442540370902005,0.14336193002977088,0.018021584320606996,0.00019720637325002476,0.5114343378739498,0.2896603752127935,0.8363259772687972,0.22377644178690453,0.03018339475617628,0.00014376514681955387,-0.9127119545211526,-3.2643232263048603,-2.2081349682839244,-0.557641235873719,-0.06629595538295696,-0.003518086250643704,-0.21440984017493667,-8.112826004174018,-3.9245931928475652,-0.5935451750629995,-0.010936173379525026,-0.00038277709741324484
0.59,0.26071626068982096,1.9630832700764398,-1.036110861177756,0.14554548847720625,0.01831726492913092,0.00019854338396420098,0.5023470169895758,0.2570933982583585,0.8143175912444475,0.21835584474353736,0.029568060852392605,0.00013370107141762205,-0.9495468336335695,-3.266172102647752,-2.241324691609649,-0.5634974233200687,-0.06706918407354667,-0.00345382301217223,-0.22256145058071322,-8.072734205352292,-3.8951466508640147,-0.5844959388273061,-0.01110343146251836,-0.0003693523085707742
0.6,0.2656451972744139,1.9653283522124483,-1.0281910477991445,0.1476742123714896,0.01860666521113034,0.00019978250087301322,0.49289365845929295,0.22450821360084758,0.7919813378611656,0.2128723894283333,0.028940028199942038,0.0001239116908812239,-0.9845369191557451,-3.2633046706590187,-2.2714389792055645,-0.5687505337261669,-0.06779603283856073,-0.003386439198289737,-0.22982505036595743,-8.030652114223336,-3.8661249270114166,-0.575692770229434,-0.01122305728189477,-0.00035591011657206035
0.61,0.27047612374158186,1.9672478710107,-1.0204975701742354,0.1497475348059534,0.01888966458622986,0.00020092655219758847,0.4830926467167983,0.19195187982517492,0.7693477624909159,0.20733224344638174,0.028299937509952036,0.00011440513245752584,-1.01770271547714,-3.255891103764165,-2.2985688110801927,-0.5734264221437435,-0.06847826586804473,-0.0033161260033697793,-0.2362436773693809,-7.986810054402391,-3.8376379273773367,-0.5671558095676015,-0.011298881032711844,-0.0003425142577239686
0.62,0.2752057453537036,1.9688425685315298,-1.0130331051370254,0.15176494800646773,0.01916614866750709,0.0002019784363802545,0.47296216121217655,0.1594697520829858,0.746446503721009,0.201741320051433,0.027648408127722724,0.00010518841826660407,-1.0490662286177326,-3.2440967981854785,-2.322797839790807,-0.5775479557164793,-0.06911766089855131,-0.0032430737623818096,-0.2418613447211595,-7.941421067267074,-3.8097874663299187,-0.5589034115327781,-0.011334705930414904,-0.00032922382894713843
0.63,0.2798309469662725,1.970113623833001,-1.0058000414716348,0.15372600106958312,0.019436009049881138,0.0002029411115108729,0.46252016125688333,0.12710553014711903,0.7233063665390543,0.19610530631154058,0.026986038237404922,9.626751306184067e-05,-1.0786506615423723,-3.22808211747602,-2.3442024571543016,-0.581135100787634,-0.06971602643519859,-0.003167470404472905,-0.24672245258140513,-7.894681332082474,-3.782667320513114,-0.5509521941562926,-0.011334275824568035,-0.00031609331435382177
0.64,0.28434879070548347,1.9710626369231132,-0.998800487523124,0.15563029797463984,0.019699143099730376,0.00020381758521655194,0.4517843739211002,0.09490130901121932,0.6999553948510846,0.1904296905056713,0.026313404984923912,8.764737056790227e-05,-1.1064801368328268,-3.2080022053655095,-2.3628519207428336,-0.5842050268545727,-0.0702752133000688,-0.003089500209318141,-0.25087127552206123,-7.846770652398898,-3.7563633146895636,-0.5433170913860049,-0.011301246879089403,-0.0003031726553320255
0.65,0.28875651355258974,1.9716916132366364,-0.9920362780957696,0.15747749586051518,0.01995545374526977,0.00020461090499955585,0.44077228471062785,0.0628976313523304,0.6764209427354432,0.18471978858753474,0.02563106455393949,7.933197830039138e-05,-1.1325794465630559,-3.1840068628283875,-2.3788085361127296,-0.5867722257712895,-0.07079712081591971,-0.0030093428671921774,-0.25435152261726307,-7.7978529961667675,-3.7309534354913767,-0.536011408458404,-0.011239163150615454,-0.0002905073570991781
0.66,0.29305152486010916,1.9720029486487887,-0.9855089806570139,0.1592673035561961,0.02020484926754846,0.00020532414900732398,0.42950113075193913,0.03113354121522706,0.6527297438755741,0.17898076956809136,0.024939552227868828,7.132440077681352e-05,-1.1569738290263833,-3.1562404853401236,-2.392127890806939,-0.5888486446799952,-0.07128369798860756,-0.0029271728543948106,-0.257205966370806,-7.748077078359501,-3.706507969505753,-0.5290468793300556,-0.011151435860791306,-0.0002781386250590273
0.67,0.29723140382228364,1.9719994150319646,-0.979219900870469,0.1609994803530228,0.020447243092236413,0.0002059604172174313,0.41798789621745025,-0.00035336168240417826,0.6289079786544896,0.1732176796826705,0.024239382468795395,6.362682101073339e-05,-1.1796887717979518,-3.124842056359356,-2.4028591362728924,-0.590443831218117,-0.07173694009614717,-0.0028431591039947413,-0.25947613593124524,-7.697576976196991,-3.683089662477923,-0.5224337255213566,-0.011041326132555882,-0.00026610352473321934
0.68,0.30129389691956526,1.9716841463561126,-0.973170087486146,0.16267383500524765,0.02068255358265161,0.00020652282301949888,0.40624930972816536,-0.03152686758521013,0.6049813384323025,0.1674354652224835,0.023531049041519717,5.624058020675747e-05,-1.2007498404775674,-3.0899451931551254,-2.411045313939302,-0.591565089609718,-0.07215888112742075,-0.0027574649639487414,-0.2612020695938463,-7.646472768305181,-3.660753896753948,-0.5161807158083843,-0.010911930943716194,-0.000254435159525518
0.6900000000000001,0.30523691535433867,1.9710606253281293,-0.9673603366204877,0.16429022494448328,0.020910703834732966,0.00020701448517526394,0.3943018434773413,-0.06235210279833369,0.5809750865658214,0.16163899392356296,0.022815025208135723,4.916621557650686e-05,-1.2201825323419404,-3.051678241183055,-2.41672372178805,-0.592217646312184,-0.07255158254611693,-0.00267024841013358,-0.26242212133232024,-7.594871190321416,-3.6395488844076946,-0.5102952262747878,-0.010766172042124595,-0.00024316286109440547
0.7000000000000001,0.30905853249260345,1.9701326705607987,-0.961791195462829,0.16584855569267148,0.02113162147488668,0.0002074385201375824,0.3821617138264778,-0.09279547673306818,0.5569141157658731,0.15583307481882003,0.0220917640153714,4.240349623184405e-05,-1.2380121540382354,-3.010164413297939,-2.4199263178442725,-0.5924048239364765,-0.07291711887551244,-0.0025816624950830702,-0.2631728160109134,-7.542866300553213,-3.6195158737978415,-0.5047833003054181,-0.010606787564443302,-0.0002323123876453942
0.71,0.3127569813239392,1.9689044242573235,-0.9564629654485907,0.16734878045738252,0.021345238461822624,0.00020779803470882404,0.3698448831335753,-0.12282463034751145,0.5328230014238301,0.15002247647110512,0.021361698693594517,3.595145712416523e-05,-1.2542637223686266,-2.965521970167424,-2.4206801570755547,-0.5921282222109809,-0.07325756061133948,-0.002491855985542024,-0.26348874796949173,-7.490540150314776,-3.600689367580036,-0.4996497081668542,-0.01043632610369944,-0.0002219061259950028
0.72,0.3163306519497699,1.967380340393389,-0.9513757049428513,0.16879089989255108,0.021551490893651888,0.00020809611901933872,0.35736706258306844,-0.15240838639345028,0.5087260505739386,0.14421194351685482,0.020625243182926356,2.980843105146701e-05,-1.268961887144617,-2.9178644383204353,-2.419007858247913,-0.5913879047891921,-0.07357495498304978,-0.00240097416157381,-0.2634025178235293,-7.437963454498755,-3.583097350456067,-0.49489800587762794,-0.010257142978562403,-0.00021196329379458094
0.73,0.3197780891077401,1.9655651733749375,-0.9465292314809253,0.17017496200716406,0.02175031882163508,0.00020833583980708678,0.34474371579701985,-0.18151670184513144,0.48464734619260125,0.13840621146129853,0.019882792798319202,2.397207877480469e-05,-1.2821308750283174,-2.8673008623204885,-2.41492809732008,-0.5901825907356368,-0.0738713050793427,-0.0023091597294836452,-0.2629447025526135,-7.38519625878854,-3.566761525175004,-0.4905305931229911,-0.010071398468541529,-0.00020250013882612861
0.74,0.32309798973791964,1.9634639671464318,-0.9419231236152255,0.17150106220393657,0.02194166607205374,0.00020852023398044905,0.331990063017957,-0.21012062285058286,0.46061078656997917,0.13261001967725103,0.019134725041866023,1.843941733622602e-05,-1.2937944532227812,-2.8139360875993047,-2.4084561239747964,-0.5885098495480818,-0.07414854784852043,-0.0022165538085853753,-0.2621438542434277,-7.332288600679705,-3.5516975555109913,-0.48654877001599306,-0.009881057793228343,-0.0001935301327871141
0.75,0.3262892005945705,1.9610820447213155,-0.9375567224199923,0.17276934342963998,0.02212548007772411,0.00020865230244752209,0.3191210856650859,-0.23819224251161764,0.4366401195233132,0.12682812257034112,0.018381400567037232,1.3206846707303974e-05,-1.3039759118224148,-2.75787107051599,-2.39960429788152,-0.5863662985928961,-0.07440853147616888,-0.002123296952910414,-0.2610265231869304,-7.2792811621586795,-3.537915315128607,-0.48295279254870127,-0.00968789262948502,-0.000185064157463048
0.76,0.32935071590534526,1.9584249981036712,-0.933429132707438,0.17397999641848155,0.022301711720684153,0.00020873500419683834,0.3061515310774746,-0.2657046617644353,0.4127589712554367,0.1210652988841564,0.01762316429600416,8.270174931625033e-06,-1.3126980635876988,-2.6992032122248175,-2.388382641266333,-0.5837478018381166,-0.07465299262022729,-0.0020295301602975546,-0.25961730138846595,-7.226205912484563,-3.525419141410001,-0.47974192661505377,-0.00949348397740716,-0.0001771106816408735
0.77,0.33228167507804657,1.9554986785676842,-0.929539224010476,0.17513326000977486,0.02247031518756237,0.00020877125061655858,0.2930959172701307,-0.29263195359870303,0.38899086969620544,0.1153263591293311,0.016860346687821704,3.624641972022683e-06,-1.319983259863007,-2.638026712939027,-2.374799404324975,-0.5806496687786709,-0.07488353396420866,-0.0019353958330873555,-0.2579388829199906,-7.173086740038622,-3.5142080934586994,-0.47691450052031886,-0.0092992262033325,-0.00016967592754103805
0.78,0.3350813604534633,1.952309187259494,-0.9258856313884838,0.17622942152108542,0.02263124783908222,0.00020876390004157747,0.2799685375416761,-0.3189491308190194,0.3653592621992127,0.10961615113105665,0.016093265151985087,-7.350574981097168e-07,-1.3258534213130715,-2.5744329431722797,-2.3588616399635445,-0.577066852455685,-0.07510160252337617,-0.001841038657110744,-0.25601213791434413,-7.119940072648443,-3.5042762136140504,-0.4744679559218654,-0.009106332105592353,-0.00016276402593935364
0.79,0.3377491951013187,1.9488628660843077,-0.9224667561134707,0.17726881715808418,0.022784470095070283,0.0002087157525206196,0.2667834647855355,-0.3446321175186333,0.3418875275013066,0.1039395636998753,0.015322225598806121,-4.814752095788632e-06,-1.3303300821122956,-2.508510828524547,-2.340575784288696,-0.57299414547251,-0.0753084691041499,-0.0017466063560079848,-0.25385619736342724,-7.066775486162769,-3.4956127919082824,-0.4723988971721109,-0.008915838865647207,-0.00015637715951036504
0.8,0.3402847406550204,1.9451662888402965,-0.9192807662945889,0.17825183244249418,0.022929945336222633,0.00020862954479843477,0.25355455537017374,-0.369657724401115,0.31859898188818975,0.0983015284409996,0.014547524115235091,-8.620772218482925e-06,-1.3334344461812846,-2.4403472445580916,-2.319948239200645,-0.5684263729094852,-0.07550520928563031,-0.001652250303392555,-0.2514885462282247,-7.013596301352326,-3.4882026329763116,-0.47070313905746364,-0.008728614763330363,-0.00015051569425125074
0.81,0.34268769517969977,1.9412262525597836,-0.9163255974991306,0.17917890263977204,0.023067639823744355,0.00020850794551123298,0.24029545246793413,-0.3940036280512921,0.29551687954582706,0.09270701972778536,0.01376944875217208,-1.2159928720179223e-05,-1.3351874540282889,-2.3700274182869867,-2.2969859533673462,-0.5633585810528725,-0.07569268625222669,-0.00155812595959956,-0.24892512269352107,-6.9604001694447994,-3.482026324987695,-0.4693757529469942,-0.008545366549834052,-0.00014517829913891783
0.8200000000000001,0.34495789106696384,1.937049769017562,-0.913598953427985,0.18005051316852483,0.023197522637814678,0.00020835355059677373,0.22701958872640496,-0.41764835422215707,0.2726644071145585,0.08716105287527963,0.012988281407032343,-1.5439491445923445e-05,-1.3356098587197398,-2.297635332781087,-2.2716969977913637,-0.5577862208479205,-0.07587153576639416,-0.0014643931205278737,-0.2461804217000056,-6.90717964677196,-3.477060510211761,-0.468411111381701,-0.00836664738556637,-0.00014036205443275745
0.8300000000000001,0.3470952929488733,1.932644056365866,-0.9110983067029784,0.1808671999741259,0.02331956563564825,0.00020816887892372783,0.21374018819094887,-0.44057126516961886,0.25006467250065584,0.081668680560107,0.012204299783357242,-1.846716730458921e-05,-1.3347223094756648,-2.223254131369505,-2.2440911321154426,-0.5517053250084487,-0.07604215352639532,-0.0013712159601237395,-0.24326760115877005,-6.85392275911718,-3.4732781568521305,-0.4678029311497759,-0.008192865261909507,-0.0001360625492616102
0.84,0.34909999562289346,1.9280165308555464,-0.9088208998225931,0.18162954984955723,0.02343374342972457,0.00020795636814815427,0.20047026740201498,-0.46275255103197105,0.22774068803853306,0.0762349875431334,0.011417779407631867,-2.125107755735694e-05,-1.3325454413631517,-2.1469665179211677,-2.2141803577639196,-0.5451126777266149,-0.0762046851083662,-0.001278762864867694,-0.24019858949644154,-6.800613556406343,-3.4706488317971615,-0.46754431490539894,-0.008024291836095952,-0.00013227396932596652
0.85,0.35097222197895406,1.9231747986033876,-0.9067637463412354,0.1823382006871716,0.0235400333865465,0.00020771837080792968,0.18722263560606184,-0.48417322521586886,0.20571534813577586,0.07086508376143669,0.010628995682193384,-2.37997340224581e-05,-1.3290999695460144,-2.06885514968694,-2.1819794539863646,-0.5380059759468496,-0.07635901864686989,-0.0011872060534690865,-0.2369841933928879,-6.747232658387455,-3.4691389739296112,-0.46762779139846095,-0.007861071616830988,-0.0001289891757055187
0.86,0.3527123209192968,1.9181266473662317,-0.9049236323255113,0.18299384164583202,0.023638415646068445,0.00020745715066881778,0.1740098940342711,-0.5048151237155826,0.18401140157240153,0.0655640958660418,0.009838225952194177,-2.6122013911189754e-05,-1.3244067865430762,-1.9890030192129329,-2.1475064928591827,-0.5303839812084323,-0.0765047803565837,-0.0010967209914855836,-0.23363420475778268,-6.693757791898648,-3.4687121676236323,-0.4680453543903644,-0.00770323144491116,-0.000126199775888183
0.87,0.3543207652614832,1.9128800382836566,-0.9032971181388603,0.18359721321874678,0.023728873161709057,0.0002071748793383279,0.16084443421864078,-0.5246609082575092,0.16265141866509972,0.06033715729147645,0.009045751564061155,-2.822713304898982e-05,-1.3184870609517043,-1.9074938218800803,-2.110783329322514,-0.522246661093626,-0.07664133295265518,-0.0010074856043153502,-0.23015750614822178,-6.640164320234124,-3.4693294160318406,-0.468788500336844,-0.007550690217958319,-0.0001238961882300963
0.88,0.3557981496147873,1.9074430975523808,-0.9018805406033972,0.18414910718827204,0.02381139176063635,0.00020687363316569373,0.14773843533040942,-0.5436940731275755,0.14165775354631444,0.0551893969525275,0.008251859892729198,-3.0124617263417553e-05,-1.3113623361096909,-1.824412305698517,-2.0718360623830283,-0.51359531937364,-0.07676777697830062,-0.00091967931145151,-0.2265621739584831,-6.586425764987855,-3.470949413731187,-0.46984826492265913,-0.007403268811588577,-0.00012206770111722531
0.89,0.3571451882201969,1.9018241079973255,-0.9006700155849312,0.1846503664549963,0.023885960223787788,0.00020655539044791814,0.13470386054096153,-0.5618989555055324,0.1210525018465943,0.050125926672426734,0.007456846315143756,-3.1824271777558567e-05,-1.3030546271980301,-1.7398446000844436,-2.030695463703129,-0.5044327140013349,-0.07688295499745834,-0.0008334818978694702,-0.22285557881677764,-6.532514320589115,-3.473528818255536,-0.47121525853517937,-0.007260700150986618,-0.00012070252812891905
0.9,0.3583627127443996,1.8960315005063506,-0.8996614410438682,0.1851018847295469,0.023952570384869167,0.00020622202896300755,0.1217524524202689,-0.5792607490974792,0.10085745410629032,0.04515182745505756,0.00666101610813802,-3.333614849105999e-05,-1.2935865153303032,-1.6538785204810436,-1.9873973699286025,-0.49476316217494,-0.07698545856940253,-0.0007490722449579046,-0.21904448270474242,-6.4784013615481,-3.477022519997133,-0.47287970076441194,-0.00712263938712027,-0.00011978786050275995
0.91,0.3594516700184236,1.8900738452980845,-0.8988505005910782,0.18550460607676159,0.02401121724736639,0.0002058753238521751,0.10889572740239925,-0.5957655208266049,0.08109404527901003,0.04027213472146844,0.005864686249722042,-3.467051108324504e-05,-1.2829812372325369,-1.56660384584824,-1.9419830352818146,-0.4845926317732241,-0.07707363787543375,-0.0006666269558484872,-0.21513513237602314,-6.424057942207633,-3.4813839099099817,-0.4748314540159557,-0.00698867413089831,-0.00011930991816957237
0.92,0.3604131197120388,1.8839598429949607,-0.8982326675838401,0.18585952430314162,0.024061899118407493,0.00020551694587275806,0.09614496936152223,-0.6114002303123967,0.06178330072380353,0.03549182263800339,0.005068187104110326,-3.583779794170127e-05,-1.2712627691905996,-1.4781125662474917,-1.8944994411653657,-0.4739288185623787,-0.07714561382779461,-0.0005863188964751603,-0.2111333486934146,-6.369455288555179,-3.4865651443978516,-0.47706005632088394,-0.006858334696668427,-0.00011925400056885993
0.93,0.36124823193558897,1.8776983154765525,-0.8978032097926858,0.1861676821798365,0.02410461775813159,0.00020514846004310568,0.08351122235501662,-0.6261527518408075,0.04294577911543794,0.03081578766948865,0.004271863972409751,-3.684858296523863e-05,-1.2584559040303298,-1.3884990979808203,-1.8449995597913944,-0.46278120865643757,-0.07719929245607826,-0.0005083156951204704,-0.20704461153269443,-6.31456528139241,-3.4925174067194718,-0.47955475342263704,-0.00673110430381439,-0.00011960453837000553
0.9400000000000001,0.3619582847616148,1.8712981964915283,-0.8975571946653679,0.18643017049479946,0.024139378543059066,0.00020477132469944511,0.07100528260258304,-0.6400118985024296,0.02460151273179527,0.026248831496293888,0.0034760784927474653,-3.771353436605669e-05,-1.244586319998657,-1.2978604640128406,-1.7935425691540368,-0.4511611258524102,-0.07723238133388843,-0.0004327782205949815,-0.20287413991862552,-6.259360929894276,-3.499191164195451,-0.48230453021582986,-0.006606429182102346,-0.00012034514711543762
0.9500000000000001,0.3625446616594302,1.864768522009999,-0.8974894952093272,0.1866481269291817,0.02416619064181626,0.00020438689098310279,0.05863768978154528,-0.6529674481529284,0.006769945604066723,0.02179564343822569,0.0026812098757193993,-3.844337163423267e-05,-1.2296806405308118,-1.2062964377044016,-1.740194017027066,-0.43908176354163775,-0.07724240778460612,-0.00035985908916401355,-0.19862696706783856,-6.203816834321623,-3.5065364204571434,-0.48529814160545476,-0.006483728523113965,-0.00012145868367117419
0.96,0.3630088488367167,1.8581184203016972,-0.8975947965089429,0.1868227347544974,0.024185067201449386,0.0002039964027740109,0.046418717728644705,-0.6650101708301889,-0.010530129961574458,0.01746078253157113,0.0018876559633124847,-3.9048820909187215e-05,-1.2137664840188975,-1.1139096482195734,-1.685025932055197,-0.4265582010519031,-0.07722673858058648,-0.0002897012136863081,-0.1943080100176455,-6.147909636387593,-3.514502961938547,-0.4885241428474503,-0.006362404216863217,-0.0001229273062206602
0.97,0.3633524324831913,1.851357101729236,-0.897867602888573,0.18695522134857334,0.024196025542468365,0.0002036009970837665,0.03435836464746445,-0.6761318572461094,-0.02728063796301027,0.013248659407594445,0.0010958341018978105,-3.9540569024440256e-05,-1.1968725028374687,-1.0208056463245891,-1.6281168804473944,-0.41360740437863086,-0.07718260084841155,-0.00022243644048942912,-0.1899221335224362,-6.091618455524494,-3.5230405977798154,-0.4919709194230305,-0.006241850309791214,-0.00012473253837293015
0.98,0.3635770959124719,1.8444938482496558,-0.8983022457269667,0.18704685652979108,0.024199087360691807,0.00020320170491815338,0.022466342928057912,-0.6863253479580195,-0.043464283839366694,0.00916351812177349,0.00030618182234433823,-3.9929216561311517e-05,-1.1790284110333489,-0.9270929296801076,-1.569551967242168,-0.40024821140324374,-0.07710710387294473,-0.00015818429545300106,-0.18547420790315158,-6.034925309061264,-3.5320993922863004,-0.49562671648970336,-0.006121462118025997,-0.00012685533777957692
0.99,0.36368461659938484,1.8375380026215005,-0.8988928919231034,0.1870989507106186,0.02419427893392054,0.00020279945261540125,0.010752068691293915,-0.6955845628155348,-0.05906461961366461,0.005209418082751494,-0.0004808426771267802,-4.0225230275212725e-05,-1.160265000243658,-0.8328829271275503,-1.5094227816081076,-0.3865013018243193,-0.07699726151068642,-9.705086140594787e-05,-0.18096916054320103,-5.97781551410847,-3.541629889071316,-0.49947966794161675,-0.0060006449283173235,-0.00012927616947078644
