tonegas/nnodely-applications/joint_friction_estimation/dataset/validation/mpc_mujoco_episode_3 copy.csv
time,q1,q2,q3,q4,q5,q6,dq1,dq2,dq3,dq4,dq5,dq6,ddq1,ddq2,ddq3,ddq4,ddq5,ddq6,tau1,tau2,tau3,tau4,tau5,tau6
0.0,0.0,1.57,-1.57,0.0,0.0,0.0,0.0,0.0,0.0,0.0,0.0,0.0,-12.265730767634093,-16.921374434046815,2.0314951109285033,1.8083366035486677,-1.9256949488160586,3.0559345454150844e-07,-1.7111748945363812,-12.71494925635398,-7.208812105114596,-1.5493181486682794,-0.1551513622903646,-0.002670339322018693
0.01,-0.0012206455387334507,1.5683141502669085,-1.5698019241785754,0.0001642468179455669,-0.00015937442706712092,-1.5254518597263234e-06,-0.12206455387334506,-0.16858497330915964,0.019807582142470005,0.01642468179455669,-0.01593744270671209,-0.00015254518597263234,-12.01330830130896,-16.600341941335333,1.925835146397258,1.6110398181078693,-1.6144161397496362,-0.015368367816879669,-1.6696430985377915,-12.579944915474352,-7.1656171910962225,-1.5409415328397507,-0.15205744514406444,-0.002632962615442303
0.02,-0.003635832085650612,1.5649744971106812,-1.569417072494305,0.00047653076775380044,-0.00045847963999911417,-4.636113930781472e-06,-0.24151865469171616,-0.3339653156227296,0.03848516842704512,0.031228394980823353,-0.029910521293199325,-0.00031106620710551485,-11.726228114085785,-16.251305871630294,1.8165233005884929,1.4486262936224037,-1.4237319103138262,-0.016328183863221213,-1.6031642882425026,-12.416557983689131,-7.106625305348999,-1.5289293965838073,-0.14738111169697474,-0.002581723833076151
0.03,-0.007216396418242338,1.5600158517464726,-1.5688568587205294,0.0009233173820626427,-0.0008849668290718185,-9.238708743100709e-06,-0.35805643325917264,-0.4958645364208498,0.056021377377566885,0.04467866143088422,-0.042648718907270435,-0.00046025948123192386,-11.40648721764101,-15.873820603677196,1.7079532333461884,1.3138086989144213,-1.309637878055085,-0.016026483478754017,-1.5136771688146997,-12.224169361194683,-7.031990504304422,-1.513345697856196,-0.14118665660606416,-0.002517101432561116
0.04,-0.01193016547560782,1.5534758422737456,-1.5681324307537465,0.0014932069529067578,-0.001431117600162522,-1.5265232629473234e-05,-0.4713769057365481,-0.6540009472727,0.07244279667827744,0.0569889570844115,-0.054615077109070355,-0.0006026523886372526,-11.054676937672783,-15.467565782912216,1.6039043772477584,1.2011521502937228,-1.24548138389369,-0.0162740988376342,-1.4035468249852205,-12.0021653890564,-6.941937631254895,-1.4942744804114756,-0.1335462984957133,-0.0024395149460132914
0.05,-0.017741927962512227,1.5453949514998255,-1.5672543387576132,0.002176535133036506,-0.00209221736851704,-2.2685346497195133e-05,-0.5811762486904406,-0.808089077392014,0.08780919961333535,0.06833281801297482,-0.06610997683545179,-0.00074201138677219,-10.670645659486349,-15.032425155357648,1.5076338190402012,1.1066272232282728,-1.2150408486335493,-0.01723270419552847,-1.2755306885224855,-11.749981988565192,-6.836773064801484,-1.4718220661252543,-0.12454151515243332,-0.00234936993527848
0.06,-0.024613369771732257,1.5358165331456815,-1.566232245099863,0.002965079799865419,-0.0028655558818162074,-3.14991400489232e-05,-0.6871441809220031,-0.957841835414406,0.10220936577503217,0.07885446668289128,-0.07733385132991671,-0.0008813793551728066,-10.253895705420392,-14.568551384392558,1.4219364170363207,1.027258347515449,-1.2084140436027369,-0.018880370342809982,-1.1327380608623443,-11.46714707814619,-6.716892563789594,-1.4461184080014218,-0.11426453403941804,-0.002247094467342622
0.07,-0.03250299818915631,1.5247868002601848,-1.5650746725287976,0.003851847149303985,-0.0037498077909384154,-4.173061556375792e-05,-0.788962841742405,-1.1029732885496706,0.11575725710652687,0.08867673494385657,-0.0884251909122208,-0.001023147551483472,-9.80382215369792,-14.076418291200879,1.3491811784417358,0.9608511612744124,-1.2195352955576553,-0.02121735106945266,-0.9785800316614349,-11.153321773875714,-6.582786400770985,-1.4173176417460296,-0.10281974278835687,-0.002133170260045455
0.08,-0.04136607014779828,1.5123547808440274,-1.563788788827766,0.00483091606194654,-0.004744643307251185,-5.342362272407792e-05,-0.8863071958641968,-1.2432019416157294,0.12858837010315916,0.09790689126425556,-0.09948355163127698,-0.001169300716032,-9.319856151057104,-13.556860863421926,1.2913310085253045,0.9057816893707695,-1.2446568828796245,-0.024285588529703972,-0.8167077390200758,-10.808340397364322,-6.435041940422691,-1.3855978728677811,-0.09032484289705223,-0.00200815982572423
0.09,-0.051154533827708425,1.4985722368478664,-1.5623802273970064,0.005897324497025246,-0.005850476924146178,-6.663963729383974e-05,-0.9788463679910148,-1.3782543996160985,0.14085614307594593,0.10664084350787065,-0.11058336168949925,-0.0013216014569761823,-8.80154994454988,-13.0111035748306,1.2499516652296876,0.8608335548085364,-1.2814008247635797,-0.02816470675944771,-0.6509380124931305,-10.432249334739565,-6.274343978243153,-1.3511602781225343,-0.0769116080434621,-0.0018727299468594204
0.1,-0.0618169891643896,1.4834935438346102,-1.5608529439470817,0.007046985334296138,-0.007068296609694921,-8.145673820874285e-05,-1.0662455336681178,-1.5078693013256317,0.15272834499246207,0.11496608372708914,-0.12178196855487429,-0.0014817100914903112,-8.248627108993631,-12.440775677383572,1.2262146819027713,0.8250726288153629,-1.3281422115551393,-0.03296725279579604,-0.4851665866541548,-10.025343636983717,-6.10147289594196,-1.3142275586403593,-0.06272613856342887,-0.0017276712328558074
0.11,-0.07329867053654532,1.4671755298661266,-1.5592091098286789,0.008276621951390992,-0.008399536024516914,-9.796931631684061e-05,-1.1481681372155719,-1.631801396848351,0.16438341184028563,0.12296366170948539,-0.1331239414821993,-0.0016512578108097762,-7.661014448235212,-11.847914978305594,1.2208979985933297,0.7977510029023769,-1.3835757344179171,-0.0388347761794261,-0.32327024147328165,-9.588201430552989,-5.917301247754013,-1.2750419084461508,-0.047928530514869776,-0.0015739132691487937
0.12,-0.08554145367075319,1.4496772733030843,-1.5574490425545386,0.009583716083849567,-0.009845963651122386,-0.00011628816881168538,-1.2242783134207866,-1.7498256563042387,0.17600672741403273,0.13070941324585747,-0.1446427626605472,-0.001831885249484477,-7.038869544654139,-11.234959237055023,1.2343872850732147,0.7782341255182992,-1.4463699100273892,-0.04593311537005906,-0.169000383042338,-9.121714682610138,-5.72278895125304,-1.2338625833575647,-0.032691905283957906,-0.0014125347222265962
0.13,-0.09848388852663607,1.4310598604282805,-1.555571173850178,0.01096646231313731,-0.011409568480053232,-0.00013654068024818628,-1.2942434855882878,-1.8617412874803743,0.18778687043604783,0.13827462292877418,-0.15636048289308446,-0.0020252511436500906,-6.382618296644628,-10.60472597348494,1.2666802014232346,0.7659463869468404,-1.5148443663553053,-0.05444440860974087,-0.02587163982045637,-8.627115382765695,-5.518977504435108,-1.190963215692319,-0.017200773876705308,-0.0012447678113947345
0.14,-0.11206126069122205,1.4113861049525682,-1.5535720551643721,0.012423724972343899,-0.013092424025592945,-0.00015887077425587274,-1.3577372164585977,-1.9673755475712227,0.19991186858058768,0.14572626592065896,-0.1682855545539712,-0.002233009400768647,-5.693019248901421,-9.960381167273686,1.3173952639746176,0.7603315692570938,-1.5866245839522186,-0.06455248394682123,0.10295006646677729,-8.105995741141747,-5.306983494173798,-1.1466289945755506,-0.0016487378095717126,-0.0010719966511538088
0.15,-0.1262056858331509,1.390720232568806,-1.5514464000269539,0.01395499443308053,-0.014896512170713968,-0.00018343824569717323,-1.4144425141928856,-2.066587238376226,0.2125655137418268,0.15312694607366312,-0.18040881451210242,-0.0024567471441300504,-4.971275156737492,-9.305397408521637,1.3857865180127433,0.760825465609976,-1.6582435597418197,-0.07641711412444607,0.2147548862554325,-7.560320788357673,-5.08799153761159,-1.101153809043588,0.013764445831638578,-0.0008957491164565557
0.16,-0.14084624534476348,1.3691275347749197,-1.5491871620001898,0.0155603407046323,-0.016823486619126655,-0.00021041695266707215,-1.4640559511612576,-2.159269779388638,0.22592380267641973,0.16053462715517694,-0.19269744484126874,-0.0026978706969898914,-4.219215509871216,-8.643501949327483,1.470764887838957,0.7668387049453607,-1.7246789268520555,-0.09013136454507897,0.3073864369444513,-6.992431523931491,-4.863246611483405,-1.0548374116910035,0.028836386367809178,-0.0007176820387395338
0.17,-0.1559091767217625,1.3466739972027446,-1.5467856462579603,0.017240363089847797,-0.01887435362187557,-0.00023999116455151675,-1.5062931376999016,-2.245353757217501,0.24015157422294084,0.16800223852154997,-0.20508670027489131,-0.002957421188444459,-3.4395736477817977,-7.978614789748276,1.570926881567491,0.7777484459469086,-1.7788468114592533,-0.10565565365609553,0.3793238367338856,-6.405036504323434,-4.634045485902474,-1.0079826070983482,0.04336610460086952,-0.0005395596648017843
0.18,-0.17131813959492714,1.3234259086950813,-1.5442316520577912,0.01899613534609829,-0.02104904673666122,-0.00027234914176119633,-1.540896287316466,-2.3248088507663405,0.25539942001691945,0.17557722562504935,-0.2174693114785651,-0.0032357977209679575,-2.6363730600900808,-7.314776565432853,1.6845912522188495,0.792898134595422,-1.8111316782100122,-0.12272380833962782,0.4297433196731942,-5.801189581716503,-4.401726732915399,-0.9608924117705956,0.05715852807346732,-0.00036322536547217835
0.19,-0.18699458720613762,1.2994494584023983,-1.5415136425456124,0.02082914643288674,-0.023345875259242248,-0.0003076728101275221,-1.567644761121049,-2.397645029268292,0.27180095121788317,0.18330110867884505,-0.22968285225810292,-0.003532366836632572,-1.815410929709732,-6.65606558861263,1.8098441953483277,0.8116048839687782,-1.8091240502949342,-0.14072320226487456,0.45855495967279847,-5.184251415665843,-4.167658545140233,-0.9138670762174191,0.07002935720576373,-0.00019056654046427856
0.2,-0.20285828200367162,1.2748103292569375,-1.5386189374465413,0.022741237521750335,-0.025760836620030578,-0.00034612228952507896,-1.586369479753398,-2.4639129145460945,0.28947050990710604,0.19120910888635964,-0.241496136078833,-0.0038449479397556882,-0.9847607313140364,-6.006618996415023,1.9445943048453582,0.833174051433847,-1.7578601272245429,-0.15856679762153303,0.46641142544042746,-4.557889606980352,-3.9332431242883743,-0.8672047240610413,0.08181026705986744,-2.3472833323124774e-05
0.21,-0.2188279983839375,1.2495732857953157,-1.5355339232467757,0.024734536595941478,-0.028286806676416417,-0.0003878142248401649,-1.5969716380265868,-2.523704346162192,0.30850141997655506,0.19932990741911427,-0.25259700563858395,-0.0041691935315085905,-0.15521126624321574,-5.370125900077231,2.086632970252067,0.8569208571890474,-1.6409650845791353,-0.1746018460159029,0.45468266806484314,-3.925804291644826,-3.6998283273046106,-0.8211838821263695,0.09235406173060706,0.0001362151033380964
0.22,-0.23482245745870173,1.2238018068550878,-1.5322442745399398,0.02681139220166666,-0.03091266404094331,-0.00043279363608920144,-1.5994459074764253,-2.5771478940227857,0.32896487068358504,0.207685560572518,-0.2625857364526895,-0.004497941124903657,0.6597446088929216,-4.75023264807259,2.2337105518110247,0.8821923989639471,-1.4430877281852483,-0.18663234330896084,0.4254012058467403,-3.291889581870727,-3.4687751967861247,-0.7760775498472697,0.10154001569100032,0.00028675883874753217
0.23,-0.2507615098907719,1.1975577226998997,-1.5287351791621744,0.028974308739637734,-0.0336224655410817,-0.00048100061329689627,-1.5939052432070169,-2.6244084155188125,0.3509095377765479,0.21629165379710735,-0.27098015001383896,-0.0048206977207694846,1.4444822448315597,-4.1501029400831815,2.3836106200838163,0.9083930038062511,-1.153705141024613,-0.1921489213578207,0.3811704777739089,-2.6599635940056126,-3.241374176457186,-0.7321373502851837,0.10927865973240956,0.00042658817949396227
0.24,-0.26656754746535016,1.1709009001919901,-1.5249915593236874,0.031225885603388688,-0.03639486156702794,-0.0005322357911385302,-1.5806037574578256,-2.665682250790947,0.3743619838487129,0.22515768637509562,-0.2772396025946239,-0.005123517784163392,2.1826730178459597,-3.572370494405395,2.534228952077912,0.9349991425333766,-0.7716889902563642,-0.18882098129052793,0.3250418998009199,-2.033680394612795,-3.0188273241084964,-0.6895913400486241,0.11551561317145179,0.0005543679888955605
0.25,-0.2821670542040411,1.143888980401293,-1.5209982807423346,0.03356876229060354,-0.03920299456297443,-0.0005861316570929414,-1.559950673869091,-2.701191979069711,0.39932785813526916,0.23428766872148576,-0.28081329959464874,-0.0053895865954411235,2.85940345462327,-3.019046556920584,2.6836444128397265,0.9615615073261818,-0.30912584811514066,-0.17518374171227724,0.2603644587687095,-1.4164116572687295,-2.8022193607657333,-0.6486399036938685,0.12023370138669784,0.0006690640501895098
0.26,-0.2974921329127076,1.1165771775171833,-1.5167403426630435,0.03600557084074199,-0.04201511876059121,-0.0006421390878411386,-1.5325078708666493,-2.7311802884109735,0.42579380792911475,0.2436808550138446,-0.2812124197616781,-0.005600743074819715,3.463469293196515,-2.491479882601564,2.8301722558144764,0.9876919429812405,0.20758500740984775,-0.151283450770892,0.19061688013211908,-0.8111521914373887,-2.5924958308206723,-0.6094532694412113,0.12345258555351458,0.000769997658040468
0.27,-0.3124817886412955,1.0890181428455552,-1.5122030436171938,0.03853889571976185,-0.0447960744218594,-0.0006995381129742372,-1.4989655728587907,-2.7559034671628146,0.4537299045849688,0.25333248790198576,-0.27809556612681857,-0.005739902513309861,3.9890914716540538,-1.990387744809408,2.9723896050993446,1.013040270514174,0.7406853094856825,-0.1189535754620028,0.1192373992725904,-0.22046613695862005,-2.390453299782351,-0.5721714100004174,0.12522542164705963,0.0008568768137491967
0.28,-0.3270827524738325,1.0612618908793838,-1.5073721207694861,0.041171239930067265,-0.047509544194404556,-0.0007574773411977982,-1.4600963832537022,-2.775625196617134,0.4830922847707711,0.26323442103054107,-0.2713469772545154,-0.0057939228223561085,4.436474148140271,-1.515960636733395,3.10912710818549,1.0372707220475235,1.247642191773803,-0.08151163794468541,0.04946920589323581,0.35351692657575656,-2.1967441739077653,-0.5369065735205137,0.12563270943848717,0.0009297932416922212
0.29,-0.3412497040210437,1.0333557773704998,-1.502233864164719,0.04390499518806759,-0.05012077646924925,-0.0008150384610744279,-1.4166951547211228,-2.790611350888401,0.5138256604767097,0.2733755258000323,-0.2611232274844691,-0.005756111987662968,4.811124572910195,-1.0680204336985406,3.2394289096561995,1.0600468096507702,1.6891622634577317,-0.04296104565762526,-0.015761988018456213,0.9090600295969333,-2.0118945055180326,-0.5037478758381666,0.12477428932707282,0.0009891810734443353
0.3,-0.35494487858987134,1.0053445141350348,-1.4967752102476217,0.046742413867102754,-0.052599289746975676,-0.00087131406664073,-1.3695174568827648,-2.8011263235465016,0.5458653917097287,0.2837418679035162,-0.24785132777264254,-0.005627560556630211,5.122328662953531,-0.6461947334583671,3.3624920145299155,1.0810278845453718,2.0358856059981623,-0.007043446212161353,-0.07392867336083808,1.444747753751214,-1.8363291977149476,-0.4727667164281036,0.1227610006513774,0.0010357431958811663
0.31,-0.3681371748663014,0.9772702036515822,-1.4909838208596469,0.04968558103293694,-0.05492105988040049,-0.0009254828557933866,-1.3192296276430053,-2.8074310483452565,0.5791389387974895,0.2943167165834187,-0.23217701334248153,-0.005416878915265663,5.381346796358385,-0.25006816503216084,3.4776011454024744,1.0998748471124813,2.2719336016365608,0.023480146479558428,-0.12294058497740241,1.9594085491007225,-1.6703973837305437,-0.44402161958187614,0.11970751219718079,0.0010703603015924648
0.32,-0.38080096150698206,0.9491723786294173,-1.484848154144062,0.05273638590427598,-0.05706984291205246,-0.0009768679708718744,-1.2663786640680668,-2.8097825022164935,0.6135666715585035,0.30508048713390373,-0.21487830316519663,-0.0051385115078487805,5.5997804711742765,0.12071555079753815,3.5840738850987113,1.11625985726592,2.3950235251576757,0.04712509031930345,-0.16115023343750964,2.452049697284885,-1.5143920539934528,-0.4175614991934947,0.11572728775794867,0.001094001156580911
0.33,-0.3929147959626634,0.9210880364469177,-1.478357532635506,0.05589649296452845,-0.0590375228576534,-0.0010249704698724698,-1.2113834455681314,-2.8084342182499578,0.6490621508555947,0.31601070602524745,-0.1967679945600948,-0.004810249900059531,5.788347200105079,0.4664077240948483,3.6812247821350352,1.1298755492357362,2.414033195767063,0.06359048484922081,-0.18733680246043105,2.9218152208744588,-1.3685611084714,-0.3934270216359483,0.11092987909942108,0.001107649385465486
0.34,-0.40446022905432044,0.8930516638256023,-1.4715022118916674,0.05916731344786966,-0.060823594670842716,-0.001069477240806091,-1.1545433091657082,-2.803637262131537,0.6855320743838555,0.3270820483341208,-0.17860718131893172,-0.004450677093362132,5.956114435294786,0.7872574236393266,3.768348022673619,1.1404408799286578,2.3453200900354156,0.07344237438707157,-0.20067970322200657,3.3680148013757183,-1.233094417525735,-0.3716473858889191,0.10542018135625272,0.0011122551201446988
0.35000000000000003,-0.41542080462577335,0.865095261836644,-1.464273451148426,0.06254997789366684,-0.0624340301978532,-0.0011102481658587788,-1.0960575571452928,-2.795640198895832,0.7228760743241256,0.3382664445797189,-0.16104355270104817,-0.004077092505268771,6.110208588569428,1.0830989630352406,3.8447277619834894,1.147705477236439,2.208937614808188,0.07774324482406847,-0.20072702600048412,3.7899168290648655,-1.10819051506461,-0.352252220485177,0.0992984782427904,0.0011087084177210968
0.36,-0.4257812946513272,0.8372483299744489,-1.4566635851108707,0.0660453108964103,-0.06387981514877428,-0.001147289834771477,-1.0360490025553826,-2.784693186219514,0.7609866037555387,0.34953330027434626,-0.14457849509210796,-0.0037041668912698358,6.255740473212223,1.3541346961597007,3.9096357301374143,1.1514495405707503,2.0254771643527985,0.07773773467369605,-0.18736801784912122,4.187104044433878,-0.993932321696662,-0.33524747043832603,0.09266185072736843,0.001097839836222084
0.37,-0.435527173040355,0.8095378871182124,-1.4486660965839526,0.06965380782355707,-0.06517541220463081,-0.0011807230646467956,-0.974587838902778,-2.771044285623648,0.7997488526917953,0.3608496927146768,-0.12955970558565413,-0.003343322987531853,6.396057189854512,1.600428727317728,3.9623612608451926,1.151481931839701,1.813844919649871,0.07463632570137335,-0.16080196624929077,4.559230046869875,-0.890369795626783,-0.32063090540962047,0.08560448816204262,0.0010804235461348293
0.38,-0.44464429211077494,0.7819884788003966,-1.440275687275728,0.0733756141160731,-0.06633733549179882,-0.001210749915459949,-0.9117119070419927,-2.754940831781581,0.8390409308224485,0.3721806292516032,-0.11619232871680112,-0.003002685081315354,6.533044255418131,1.8221034516211811,4.00222705325813,1.1476397170989543,1.5899798265286467,0.0694945129777933,-0.12150914484184594,4.906107043794724,-0.7974878626234083,-0.3083858572463543,0.07821829441219844,0.0010571921919483754
0.39,-0.45311871977955487,0.7546221902548713,-1.4314883450978877,0.07721050721691824,-0.06738294538843383,-0.0012376239013170628,-0.8474427668779903,-2.73662885455252,0.8787342177840314,0.38348931008451465,-0.10456098966350072,-0.002687398585711375,6.667472131850802,2.0193680378603935,4.028606778789843,1.139787024847097,1.366347053652163,0.06316416571743222,-0.07021981043959369,5.227715399271392,-0.7152025128215402,-0.29848053528921453,0.07059292175246545,0.0010288503553323924
0.4,-0.46093669347755356,0.7274586680150869,-1.4223014062307042,0.08115788117453358,-0.06832950804643466,-0.0012616252867029176,-0.7817973697998706,-2.716352223978447,0.9186938867183571,0.3947373957615335,-0.09465626580008339,-0.0024001385385854883,6.799322741200442,2.1925360334741555,4.040939483827271,1.1278143524462578,1.1519813262284595,0.056291126929223445,-0.007880932454758682,5.524207554505226,-0.6433593624516012,-0.2908679284486782,0.0628154186086623,0.0009960850552465355
0.41000000000000003,-0.4680846520062474,0.7005151517849469,-1.412713610549727,0.08521673394496981,-0.06919351808108817,-0.0012830420125630859,-0.7147958528693846,-2.6943516230139872,0.9587795680977133,0.40588527704362265,-0.08640100346535173,-0.002141672586016822,6.928068179323625,2.342033709533482,4.038740287985391,1.1116382948651982,0.9528632546569014,0.049337649231079084,0.06437951227887229,5.7959063319982835,-0.581734589591562,-0.28548624041267034,0.05496959203999826,0.0009595718884066167
0.42,-0.4745493141727143,0.6738065174104886,-1.4027251493841246,0.08938565740724189,-0.0699902553259522,-0.001302155946957568,-0.6464662166466923,-2.6708634374458318,0.9988461165602378,0.4168923462272076,-0.07967372448640249,-0.001911393439448226,7.05289155540128,2.468401266610671,4.021607496596036,1.0912015320676858,0.7724545072415236,0.04261493980124076,0.14529023020640514,6.043298264685621,-0.5300379419278518,-0.28225977136836355,0.04713520557738833,0.0009199767079565978
0.43,-0.4803177808724484,0.6473453310876931,-1.392337704932161,0.09366283009770952,-0.07073353367927027,-0.001319233710439955,-0.5768466699734156,-2.6461186322795522,1.038744445196363,0.42771726904676405,-0.07432783533180623,-0.0017077763482386925,7.17285113074216,2.5722889563094338,3.9892265736237595,1.066472878268229,0.61226953991942,0.036316973347583215,0.23347538563268017,6.267022877028591,-0.4879174223224434,-0.28110014920104004,0.03938712531895428,0.000877953522792942
0.44,-0.485377644220563,0.621141914444967,-1.3815544809674223,0.09804601265498339,-0.07143559732673294,-0.0013345211663033831,-0.5059863348114614,-2.620341664272612,1.0783223964738637,0.43831825572738636,-0.07020636474626694,-0.0015287455863428072,7.286994893172316,2.654449855514725,3.941371547659574,1.037447225349002,0.4724087081903856,0.030551001596182736,0.3274933076717067,6.467858915514876,-0.45496523830920643,-0.2819078151845163,0.03179450601494867,0.000834139667086247
0.45,-0.48971709294175475,0.5952044198083393,-1.3703802247191794,0.10253254594664479,-0.07210712294887094,-0.001348240680607053,-0.4339448721191715,-2.5937494636627725,1.1174256248242898,0.4486533291661401,-0.06715256221380034,-0.0013719514303669916,7.394434990542958,2.7157306415465876,3.8779044274062056,1.0041452668829365,0.3520141845207658,0.025362916024545434,0.4258739143584924,6.646708471340249,-0.43072462345748375,-0.28457367749577217,0.024420083508896528,0.0007891493637095555
0.46,-0.4933250074921107,0.569538914756725,-1.3588212400025186,0.10711935182504363,-0.07275729283391079,-0.0013605903633469945,-0.36079145503559984,-2.5665505051614264,1.1558984716660878,0.4586805878398839,-0.06501698850398531,-0.0012349682739941474,7.494391290759819,2.7570640918897107,3.7987730771290797,0.9666129302900437,0.2496353725019338,0.020757181005556458,0.5271537006975686,6.804580981423247,-0.41469681614122855,-0.28898079421729006,0.017319618908155084,0.0007435667166839114
0.47000000000000003,-0.49619104148462917,0.5441494752423583,-1.3468853918203376,0.1118029364307523,-0.07339391105838615,-0.0013717446446624825,-0.28660339925184264,-2.5389439514366656,1.1935848182181028,0.46835846057086744,-0.0636618224475361,-0.0011154281315488017,7.586213777076949,2.7794470190290026,3.704008384726719,0.9249205662447295,0.16350607338278245,0.016711836347667486,0.6299074478416001,6.942570582042963,-0.4063501882451681,-0.29500641582310855,0.010541495943083925,0.0006979388576599935
0.48,-0.49830568800091574,0.5190382850953591,-1.3345821027333922,0.1165793959544434,-0.07402354184644103,-0.0013818556850026603,-0.21146465162865935,-2.5111190146999243,1.2303289086945415,0.47764595236911034,-0.0629630788054879,-0.0010111040340177683,7.669387409478196,2.7839478864152576,3.5937200050078992,0.8791618121105049,0.0917438813995588,0.013189381265025446,0.732775652968204,7.061846020588943,-0.40512528888431154,-0.30252329662957655,0.004126528582575326,0.0006527701376304071
0.49,-0.4996603309710945,0.49420574268323564,-1.3219223414159247,0.12144442471644916,-0.0746516552515892,-0.001391055249028054,-0.13546429701788018,-2.483254241212346,1.2659761317467504,0.48650287620057636,-0.06281134051481797,-0.0009199564025393662,7.743529112081919,2.7716838781050916,3.4680924067961074,0.8294521991303281,0.03248569188848194,0.010144394698406778,0.8344875794087329,7.163627687101284,-0.41044398777765223,-0.3114016910317555,-0.001892098920697867,0.0006085173316747176
0.5,-0.5002472824394595,0.46965057244840636,-1.3089186038000844,0.12639332543096868,-0.07528277020379776,-0.0013994567812651328,-0.05869514683649679,-2.455517023482931,1.3003737615840256,0.4948900714519524,-0.06311149522085566,-0.0008401532237078738,7.808377580369437,2.7438146941425883,3.3273802475447534,0.7759276008122082,-0.016026615370229536,0.007528682402955678,0.933879423325237,7.249172258461423,-0.4217159556678851,-0.3215108421980286,-0.007488717956609842,0.0005655864241023114
0.51,-0.5000598071134129,0.4453699407092389,-1.2955848872678155,0.13142102149601476,-0.07592058873445788,-0.0014071575072466724,0.01874753260465374,-2.428063173916742,1.333371653226891,0.5027696065046072,-0.0637818530660119,-0.0007700725981539605,7.86378001978204,2.701533513754262,3.1719037037197753,0.7187424992334002,-0.055397516862651486,0.005294601801396848,1.029907707993484,7.319756734007437,-0.43834516216786734,-0.33272042871287677,-0.01264493020210379,0.0005243308736793609
0.52,-0.4990921357883939,0.42135957482499325,-1.2819366583544913,0.13652207113980627,-0.0765681179613552,-0.001414240448345696,0.09676713250189903,-2.4010365884245664,1.364822891332425,0.5101049643791514,-0.0647529226897312,-0.0007082941099023657,7.909677511741864,2.646058668384838,3.002043763411697,0.6580681281882175,-0.08705550291966979,0.003397087834852819,1.1216580702383812,7.376663520719646,-0.4597358088967761,-0.3449018606497254,-0.017349248447512695,0.0004850513382018955
0.53,-0.49733946929204564,0.39761388489357374,-1.2679908144318088,0.14169068324533887,-0.07722777835970879,-0.0014207762852733812,0.17526664963482405,-2.37456899314195,1.3945843922682535,0.5168612105532594,-0.06596603983535981,-0.0006535836927685138,7.946090233429417,2.5786265559171224,2.818237541869428,0.594090527283603,-0.11224854451824307,0.0017947779778473283,1.2083497680141426,7.4211668695722715,-0.48529758788085786,-0.3579294026833766,-0.021596645402428144,0.0004479967301748936
0.54,-0.49479797454110463,0.3741260872731232,-1.2537656398347206,0.14692073466799185,-0.07790149814265591,-0.0014268250378550557,0.25414947509410335,-2.348779762045058,1.4225174597088295,0.5230051422652991,-0.06737197829471206,-0.0006048752581674435,7.973102940369679,2.5004922426716014,2.620973570801447,0.5270085159368989,-0.13205090938265585,0.0004505315077834027,1.2893363025955888,7.454523199964298,-0.5144495111854378,-0.37168100540778887,-0.025388024060776365,0.0004133664549586966
0.55,-0.49146477423182533,0.3508883299833939,-1.2392807568963249,0.15220578884928937,-0.0785907943863059,-0.0014324375506226013,0.3333200309279291,-2.3237757289729255,1.448488293839568,0.5285054181297508,-0.0689296243649984,-0.0005612512767545599,7.990852563200727,2.412912151031095,2.4107875654889885,0.457031649357047,-0.14737659214497434,-0.000668444570844251,1.3641028237912178,7.477955294694834,-0.5466253612718592,-0.38603932538746943,-0.02872966171518343,0.00038131346745220844
0.56,-0.4873379314422999,0.3278918182575853,-1.224557072317285,0.1575391155449259,-0.07929684199843512,-0.0014376567874719583,0.41268427895254023,-2.2996511725808624,1.472368457904004,0.5333326695636523,-0.07060476121292177,-0.000521923684935707,7.920322281517972,3.7811658676015543,2.166176702121037,0.38047541873912927,-0.15963594037000206,-0.0015906298196206592,1.4217957178604415,8.044262806246666,-0.4204256649533371,-0.37681026751067953,-0.02973546964001746,0.0003593257373323116
0.5700000000000001,-0.4824242901557769,0.3052727891070722,-1.2096181872941538,0.16291216760124205,-0.08002039374625965,-0.0014425340883796245,0.49136412865229834,-2.2619029150513104,1.493888502313102,0.5373052056316164,-0.07235517478245289,-0.00048773009076660405,7.772736927741141,6.078298038269284,1.899713578160135,0.28772601098328643,-0.16744720227858068,-0.002464343435671701,1.4595695027606876,8.928087309721672,-0.21520864098912096,-0.35777829204844747,-0.02877108171245324,0.0003423580653906768
0.58,-0.4767383674019394,0.28326002018812196,-1.1944895031600449,0.16831428478958424,-0.08076172958453874,-0.0014471247306073862,0.568592275383752,-2.201276891895022,1.5128684134108943,0.5402117188342177,-0.07413358382790948,-0.0004590642227761696,7.614936465465253,7.805835934352783,1.6356254550565943,0.1780557539972083,-0.1697833417311827,-0.003241732702912614,1.482539697724394,9.560325457082218,-0.10212862556454017,-0.35482876710604927,-0.027504277414274914,0.0003226038259107845
0.59,-0.470295722141616,0.2620255530166549,-1.1791965851879744,0.17373390816591572,-0.08152075974746491,-0.001451471406164359,0.6442645260323404,-2.123446717146704,1.5292917972070335,0.5419623376331468,-0.07590301629261681,-0.0004346675556972937,7.447793949524919,9.059967415177663,1.371018650395241,0.05989334993745565,-0.16819168649480787,-0.0037854525917322412,1.4906282423932526,9.986226393029263,-0.061924420189549245,-0.3641252119646704,-0.025857797571794537,0.0003019161895972405
0.6,-0.4631128660519528,0.2416942697836228,-1.163765341455298,0.17915915936574586,-0.08229713158296234,-0.0014556049810378706,0.7182856089663213,-2.033128323303214,1.5431243732676352,0.5425251199830141,-0.07763718354974332,-0.0004133574873511522,7.272260980844132,9.923172139710646,1.1041537566434378,-0.060957787678294295,-0.16376885746267078,-0.004130433179053927,1.4844670275049072,10.244504546391859,-0.07834249266111493,-0.3824782445440851,-0.02380771800473443,0.0002815122279115983
0.61,-0.45520716640365483,0.22235210682043471,-1.148222113394379,0.184578230097023,-0.0830903049961186,-0.0014595471862764327,0.7905699648297934,-1.9342162963188068,1.5543228060918894,0.5419070731277145,-0.07931734131562547,-0.00039422052385621934,7.089341195173764,10.465960736990597,0.8341512382135345,-0.1805933110962883,-0.15729265590132258,-0.004328674566556501,1.4652141263862364,10.368128248205032,-0.13788134049318113,-0.4072916995852547,-0.02136820832475121,0.0002621113633741531
0.62,-0.446596743783318,0.2040530772877881,-1.1325937010708058,0.1899796357011753,-0.08389960566203217,-0.001463313024032378,0.8610422620336851,-1.8299029532646605,1.5628412323573315,0.5401405604152287,-0.08093006659135703,-0.00037658377559452973,6.9000651620674445,10.74842656808397,0.5607638407513615,-0.29647169344301005,-0.1493132584192729,-0.004426289280805129,1.4343842005423848,10.385034604953903,-0.22948178662694096,-0.43649361536469916,-0.018579373099589153,0.0002440575472279872
0.63,-0.43730036723766574,0.1868252571706316,-1.1169073410535297,0.1953523723562566,-0.08472426240948862,-0.0014669126712894467,0.9296376545652265,-1.7227820117156498,1.5686360017276066,0.5372736655081322,-0.08246567474564459,-0.0003599647257068747,6.705468458706894,10.821612573749716,0.28420080282452,-0.4070200549653773,-0.14021836744564276,-0.004461057411763836,1.3937003634701508,10.31876941862809,-0.34420312179689017,-0.4684624361968722,-0.015497733367373314,0.00022742374648984878
0.64,-0.4273373490681213,0.17067587037523424,-1.1011906507134213,0.20068600683562277,-0.08556343335939787,-0.001470352946585317,0.9963018169544438,-1.614938679539736,1.5716690340108421,0.5333634479366166,-0.08391709499092549,-0.0003440275295870157,6.50657329230275,10.728713231083756,0.004992129226451425,-0.5113458894359724,-0.13028066353408452,-0.004463095367205572,1.3449712512790244,10.189058394424771,-0.47490854414581896,-0.5019547168602725,-0.012188918299884707,0.0002120987513414205
0.65,-0.4167274411275652,0.15559559239885953,-1.0854715496591087,0.2059707198117473,-0.08641622415553768,-0.0014736384277124611,1.0609907940556091,-1.5080277976374719,1.5719101054312572,0.5284712976124541,-0.08527907961398133,-0.00032854811271442374,6.304373614569493,10.506130297418785,-0.2761160816581203,-0.6090274770050748,-0.11969272560437183,-0.004455897598435676,1.2899941075993642,10.01231585329583,-0.6159734929779555,-0.536038024826902,-0.008722175955828068,0.0001978572426206914
0.66,-0.40549073410807973,0.1415621775525274,-1.0697781665836408,0.21119731782739956,-0.0872817007391267,-0.0014767722952246534,1.1236707019485497,-1.4033414846332126,1.5693383075467875,0.5226598015652266,-0.08654765835890213,-0.00031338675121923696,6.099823451262498,10.184399040908813,-0.5582421659708388,-0.6999625588188723,-0.1085927881655433,-0.004457310823724914,1.2304825455704822,9.802096748960489,-0.7630238540813574,-0.5700309753168488,-0.005166357069000132,0.0001844146442125102
0.67,-0.3936475609789116,0.1285435018718196,-1.0541387378925886,0.21635722472999716,-0.0881588984696208,-0.0014797569612780602,1.1843173129168094,-1.3018675680707803,1.5639428691052086,0.5159906902597593,-0.08771977304941042,-0.0002984666053406728,5.893828071019387,9.78899981787316,-0.8404305861003962,-0.7842599824857936,-0.09708363829027888,-0.004480375118097957,1.168016304144921,9.569497327332755,-0.9127066455886264,-0.6034511620659766,-0.001587073171863712,0.00017146859672633274
0.68,-0.38121840544582974,0.11650010247107664,-1.03858150299153,0.22144246019010744,-0.0890468289077923,-0.0014825945304235701,1.242915553308187,-1.2043399400742953,1.5557234901058596,0.5085235460110276,-0.08879304381714972,-0.0002837569145509968,5.687237591507944,9.341068212791933,-1.1216988739859843,-0.8621628990788044,-0.08524629710846288,-0.00453403465124147,1.104009642877646,9.323509317500262,-1.0624930116656326,-0.6359709938222232,0.0019552228923744447,0.0001587289967831679
0.6900000000000001,-0.368223816057732,0.10538728402238762,-1.023134599935296,0.2264456106084549,-0.08994448520759528,-0.0014852871286339542,1.29945893880977,-1.111281844868903,1.5446903056233812,0.5003150418347463,-0.08976562998029869,-0.00026925982103841135,5.480842631886057,8.858015526778967,-1.4010729868845182,-0.9339950049539423,-0.07314970526194653,-0.004623736085878072,1.0396948461693154,9.071332134933787,-1.2105116737202124,-0.6673809885025007,0.005406442299245466,0.00014593851297241736
0.7000000000000001,-0.3546843263816627,0.0951568541326925,-1.007825964212076,0.23135979603689785,-0.0908508467805955,-0.0014878371287224406,1.3539489676069334,-1.0230429889695116,1.5308635723220079,0.4914185428442967,-0.0906361573000222,-0.000255000008848635,5.275371662824024,8.354070008696596,-1.6776135237112264,-1.0001235086930025,-0.06085734204128368,-0.0047519359548457984,0.9761174690250928,8.818647167081291,-1.3554100783013616,-0.6975598237622462,0.008719520325818318,0.00013288536653757984
0.71,-0.340620381498426,0.08575854151348776,-0.9926832326978406,0.23617863553239435,-0.09176488368033037,-0.0014902472939940616,1.406394488323671,-0.9398312619204735,1.5142731514235308,0.4818839495496506,-0.09140368997348636,-0.00024101652716209806,5.071489729289094,7.8407482673238125,-1.9504347220448848,-1.0609341412687998,-0.04843150061805268,-0.004918537542635493,0.9141403063958096,8.569857928743815,-1.49624005663203,-0.7264503253805438,0.011854666573142505,0.00011940999004608869
0.72,-0.3260522709348746,0.07714114389435323,-0.977733654230242,0.24089621250506368,-0.09268556098905548,-0.0014925208571260503,1.4568110563551395,-0.8617397619134531,1.494957846759857,0.47175769726693306,-0.09206773087251073,-0.00022735631319886643,4.869798285640934,7.3272650202686584,-2.2187177292126217,-1.1168147552667027,-0.03593578694207,-0.0051212752327642885,0.8544535127889562,8.328299484650815,-1.6323647489708797,-0.7540405511714515,0.014779312085818976,0.0001054069801907662
0.73,-0.3110000680390045,0.06925344649718707,-0.963004007783176,0.24550704101970566,-0.09361184336488798,-0.0014946615476001531,1.505220289587012,-0.7887697397166156,1.4729646447066127,0.4610828514641969,-0.09262823758324999,-0.00021406904741028097,4.670835905670075,6.82088862152732,-2.4817193361695855,-1.1681449733026672,-0.023436291549011834,-0.005356060866271495,0.7975887560488325,8.096420319411273,-1.7633836554319469,-0.780349157690214,0.017467837321133398,9.082355822208717e-05
0.74,-0.2954835757177202,0.06204494649240489,-0.9485205288502376,0.2500060335954742,-0.09454269981486546,-0.001496673578261391,1.5516492321284248,-0.7208500004782172,1.4483478932938343,0.449899257576851,-0.0930856449977482,-0.00020120306612379118,4.47507967405867,6.3272489068216515,-2.7387771130998937,-1.215290029752051,-0.01100179102652099,-0.005617303081167924,0.7439357249182996,7.875939552563769,-1.8890729223493117,-0.8054143017457551,0.019901146355194525,7.565555684740545e-05
0.75,-0.27952227839007804,0.05546641411216618,-0.9343088443479335,0.2543884707694724,-0.09547710869229113,-0.001498561599543596,1.596129732764215,-0.6578532380238712,1.421168450230411,0.43824371739982304,-0.09344088774256677,-0.00018880212822049928,4.28294709793136,5.850603130638669,-2.9893116981228065,-1.258597458469362,0.0012967368430487625,-0.005898207183826942,0.6937596969395237,7.6679821524662986,-2.009338275235145,-0.8292854098213677,0.022066138123385717,5.994177185715991e-05
0.76,-0.2631352999577124,0.04947031692321583,-0.9203939161131985,0.25864997250870553,-0.0964140628697363,-0.001500330628407942,1.6386978432365629,-0.5996097188950346,1.3914928234734942,0.4261501739233147,-0.0936954177445169,-0.0001769028864345986,4.094798400557484,5.394065217277598,-3.232826842966048,-1.2983956559198813,0.013387057686729875,-0.006191060027434636,0.6472192028668307,7.473194615122434,-2.124178322468791,-0.8520172348108243,0.023955114234963503,4.375735379250718e-05
0.77,-0.24634136755665995,0.04401113010860168,-0.9067999928829307,0.26278647144283834,-0.09735257500811165,-0.0015019859579456026,1.6793932401052454,-0.5459186814614155,1.359392323026783,0.41364989341328123,-0.09385121383753392,-0.00016553295376604596,3.9109390859878554,4.959802892049808,-3.4689077028933717,-1.3349936295740905,0.025196904438757883,-0.006487501862613487,0.6043830968708392,7.2918433489062675,-2.233656275026339,-0.8736657060466329,0.025565153961105494,2.72067713673219e-05
0.78,-0.22915878082825725,0.039045552408282544,-0.8935505704967293,0.2667941878267167,-0.09829168282402649,-0.0015035330527849752,1.7182586728402702,-0.4965577700319131,1.3249422386201386,0.40077163838783814,-0.09391078159148375,-0.00015470948393726583,3.731622679865824,4.549206862959781,-3.697217766039288,-1.368681446931296,0.0366553370881153,-0.006778785131165477,0.565246561169584,7.123897849526307,-2.337878416964179,-0.8942851589199445,0.026897480210224898,1.0416753497679524e-05
0.79,-0.21160538642958268,0.034532644584264256,-0.8806683599504455,0.2706696061112984,-0.09923045424958764,-0.001504977434829508,1.7553394398674569,-0.45129078240182885,1.2882210546283834,0.3875418284581701,-0.09387714255611466,-0.0001444382044532593,3.5570536084713056,4.163033787363808,-3.9174947481807414,-1.3997310602839548,0.047694126273333914,-0.007056018778657469,0.5297457512930452,6.969100044409413,-2.43697803995816,-0.9139266108081464,0.02795683263704657,-6.470484808950212e-06
0.8,-0.19369855749042236,0.030433904664026592,-0.8681752628428022,0.27440945299414904,-0.10016799237882511,-0.0015063245633407589,1.7906828939160326,-0.4098739920237665,1.2493097107643198,0.3739846882850632,-0.09375381292374647,-0.00013471285112510686,3.38738996117753,3.8015361112029784,-4.129545697992774,-1.4283972336771846,0.058249066600834176,-0.007310395491569199,0.49777090065605,6.827024145712777,-2.531103147294689,-0.9326367734752458,0.028750872424093417,-2.3303546159048966e-05
0.81,-0.17545517773548566,0.026713292907032008,-0.856092353688821,0.2780106768238708,-0.10110344010053628,-0.0015075797130705557,1.82433797549367,-0.37206117569945835,1.2082909153981292,0.3601223829721759,-0.09354477217111735,-0.00012551497297968095,3.2227464420734964,3.4645641254790807,-4.3332415343955075,-1.4549185619214224,0.06826117281880784,-0.007533400758011677,0.46917783931455914,6.697123828947288,-2.620407985865272,-0.9504576506478143,0.02928961167613716,-3.992750426512151e-05
0.8200000000000001,-0.1568916299720247,0.023337216671060024,-0.8444398685312972,0.28147042824686463,-0.10203598432806521,-0.0015087478536619477,1.8563547763460964,-0.3376076235971983,1.1652485157523809,0.34597514229938237,-0.09325442275289285,-0.00011681405913920895,3.063196803633628,3.1516868861563085,-4.5285111294584555,-1.4795182707046255,0.0776776831919812,-0.007716998742562375,0.44379789895083044,6.578779607616036,-2.7050453537799073,-0.9674264224897626,0.02958492089365823,-5.618896267841959e-05
0.8300000000000001,-0.1380237886945059,0.020274487230819663,-0.8332371992317504,0.28478604198818835,-0.1029648597479264,-0.0015098335336172417,1.8867841277518778,-0.3062729440240362,1.1202669299546713,0.33156137413237435,-0.09288754198611826,-0.00010856799552939645,2.9087707111662526,2.8628263753963687,-4.71533376152183,-1.5024037292288028,0.08645276097149557,-0.007853799919831705,0.42144583462931484,6.471470002910578,-2.78513639516021,-0.9835746036708708,0.029650658519540463,-7.194228378260898e-05
0.84,-0.11886701710925279,0.017496311688835954,-0.822502892487642,0.28795501938366436,-0.10388935197708972,-0.001510840778524593,1.915677158525312,-0.2778175541983708,1.073430674410849,0.3168977395476008,-0.0924492229163331,-0.00010072449073512172,2.759221385704305,2.620522654462254,-4.893669753628006,-1.523707571857388,0.09454279134528498,-0.007937301438001754,0.4019088692642363,6.380277156045568,-2.859763926103787,-0.9988923946538544,0.029526221995984286,-8.714000266272792e-05
0.85,-0.09943619156161337,0.014978536263279805,-0.812254639181759,0.2909750001447847,-0.10480879814737849,-0.0015117732935033023,1.9430825547639414,-0.251777542555615,1.0248253305883013,0.30199807611203544,-0.09194461702887688,-9.325149787094525e-05,2.6131180178271163,2.551691758110803,-5.063076577816219,-1.5433814090596787,0.10191253226716057,-0.007966232240872118,0.3848235591280319,6.3354900038789665,-2.9235628119653203,-1.013245673197769,0.029370508865982792,-0.00010220714491660536
0.86,-0.07974584318191302,0.012714278616573583,-0.8025091899087573,0.29384367319178584,-0.10572257577299497,-0.0015126360809961641,1.969034837970035,-0.22642576467062223,0.9745449273001717,0.2868673047001127,-0.09137776256164801,-8.627874928618113e-05,2.471797668845603,2.468312770013704,-5.223471723531835,-1.5630983396905336,0.10878396043765504,-0.007962742410069001,0.3696230144562143,6.289699144499668,-2.9853622997221043,-1.0269691670309904,0.029048804138620255,-0.00011627201018466137
0.87,-0.05981002605528872,0.010695212514330824,-0.7932824169668078,0.2965587810768259,-0.10663010528455036,-0.001513433046050957,1.9935817126624302,-0.20190661022427603,0.9226772941949506,0.27151078850400495,-0.09075295115553875,-7.969650547926553e-05,2.335299186148209,2.362971948521464,-5.375210603810475,-1.5825125064534689,0.11509656195080487,-0.007899682633728256,0.3562408320383897,6.241177906161037,-3.045363999879522,-1.0400612363294357,0.02855827192579303,-0.00012922174870889152
0.88,-0.039642313452899605,0.008910829478666003,-0.784589349268509,0.29911815064258485,-0.10753085505626125,-0.0015141665984879206,2.016771260238911,-0.17843830356648205,0.869306769829876,0.25593695657589705,-0.09007497717108956,-7.335524369636741e-05,2.2035727338482864,2.2368644373300755,-5.518644982565962,-1.6013169810206662,0.1207917368807383,-0.00776968009511908,0.34462768605922556,6.190301685647955,-3.103396097376483,-1.0525110599328795,0.02790267614925089,-0.0001409900820205393
0.89,-0.019255802845901913,0.007348557389246135,-0.7764442043759836,0.30151971428118873,-0.10842434540545602,-0.0015148376636899175,2.038651060699769,-0.1562272089419868,0.8145144892525416,0.24015636386039002,-0.08934903491947713,-6.710652019967602e-05,2.0764854361255893,2.1077889645335626,-5.6540885229409765,-1.6192927603265268,0.12582168957658135,-0.007569792040460488,0.334737011825349,6.141292722803684,-3.1586674282386387,-1.0643054125415428,0.027103031624303067,-0.00015160487236864806
0.9,0.0013368708913221172,0.005995531605669639,-0.7688604122125452,0.3037615121774994,-0.10931015006819081,-0.0015154459561336421,2.059267373722403,-0.13530257835764964,0.7583792163438411,0.22417978963106616,-0.08858046627347904,-6.0829244372471596e-05,1.9539769877673243,1.9568082902152226,-5.781815688823765,-1.6364541129503039,0.1301735574634475,-0.007301362645134313,0.32645694437605155,6.08964789146743,-3.211858383226274,-1.0754502426744719,0.02614795616901672,-0.0001609176376079981
0.91,0.02212352930636695,0.004836710016569346,-0.7618506475477911,0.3058417029497992,-0.1101878988066363,-0.001515989782388278,2.078665841504483,-0.11588215891002926,0.7009764664754111,0.20801907722997864,-0.08777487384454906,-5.438262546358167e-05,1.8358909569798239,1.7897153952210634,-5.902131153231816,-1.6526770129414121,0.13381378085231344,-0.006960142842077688,0.3197420425902715,6.036720262866228,-3.262667327815229,-1.0859403012995288,0.02504484348814623,-0.0001689210050721488
0.92,0.043092434761812334,0.0038554493153605254,-0.7554268571479011,0.30775856726710127,-0.11105727902255191,-0.0015164661183786421,2.096890545544538,-0.09812607012088205,0.6423790399889953,0.19168643173020655,-0.08693802159156057,-4.763359903640498e-05,1.7220258337344085,1.628006697998734,-6.01529345031764,-1.6679168942771643,0.1367218781577355,-0.006545476985913512,0.31454634513205626,5.987373797384786,-3.3102691333438923,-1.0957777621674312,0.02381837193674416,-0.00017571326849034622
0.93,0.06423227041170576,0.0030356440232196026,-0.7496002782313999,0.3095104939268971,-0.1119180347565109,-0.001516870932129361,2.113983564989342,-0.08198052921409227,0.5826578916501236,0.1751926659795867,-0.08607557339589852,-4.0481375071880774e-05,1.6122069864329651,1.4506865068483485,-6.121497388992681,-1.6823257741260527,0.13891254190463176,-0.006061442666789929,0.3107410566231542,5.936662305693795,-3.3553932879315473,-1.1049600300852396,0.02245630192215618,-0.0001811604737174763
0.9400000000000001,0.08553212264626514,0.0023596368811251715,-0.7443814644351364,0.31109598131043037,-0.11276996742016653,-0.0015171989538583146,2.1299852234559378,-0.06760071420944311,0.5218813796263475,0.1585487383533272,-0.08519326636556349,-3.2802172895362864e-05,1.5061940368514206,1.275735752718856,-6.22097352111472,-1.6958676649632984,0.14037465919632464,-0.005505547230862273,0.3082891136854875,5.888563820435148,-3.3973770439837665,-1.1134928336046443,0.020978379451953723,-0.0001853777562778121
0.9500000000000001,0.10698145719206095,0.00181000792931158,-0.7397803028095621,0.31251362567141305,-0.11361293442977408,-0.0015174439229512665,2.144933454579581,-0.05496289518135916,0.4601161625574287,0.1417644360982684,-0.08429670096075567,-2.4496909295188282e-05,1.4037438474815147,1.1040566978652444,-6.313882641676841,-1.7086565602906525,0.14112576206227567,-0.004882179836690981,0.3071001380466226,5.843111487108349,-3.4361802992060753,-1.1213777252648918,0.019392170058258693,-0.00018839181232700847
0.96,0.1285700948523586,0.001369664058216822,-0.7358060298376783,0.31376211004645643,-0.11444684745389377,-0.0015175986641466092,2.1588637660297647,-0.0440343871094758,0.3974272971883797,0.12484843750433755,-0.08339130241197021,-1.547411953427489e-05,1.3045846242264134,0.9414022347444108,-6.400361885860262,-1.720788748249543,0.14118730100925658,-0.004194820171553815,0.30709253102326134,5.801421155756619,-3.471602932865926,-1.1286182044401478,0.01770971804346959,-0.0001902773854177987
0.97,0.15028818442489053,0.0010224112323002168,-0.7324672436743846,0.31484019126912866,-0.11527166985352565,-0.001517655218216634,2.171808957253194,-0.03472528259166051,0.333878616329368,0.10780812226722053,-0.08248223996318763,-5.655407002479055e-06,1.2084316158147876,0.7828487200109167,-6.480513748594452,-1.7323830124165625,0.14059153469452035,-0.003448723010622462,0.3081686983958072,5.762222271277033,-3.5037960253197404,-1.135209023293809,0.015933346240869027,-0.00019105427947543053
0.98,0.1721261742850082,0.0007524643227190623,-0.729771916206374,0.31574669306352243,-0.11608741443395133,-0.001517604839342904,2.183798986011768,-0.02699469095811545,0.26953274680106487,0.09065017943937924,-0.08157445804256927,5.037887372978936e-06,1.114976332751461,0.6368087152136838,-6.554431387456865,-1.7434915681517857,0.13936610520971016,-0.0026480809171101627,0.31026317035390394,5.727225269176353,-3.532471345427313,-1.1411531385601292,0.014076561219488718,-0.0001908481536707234
0.99,0.19407478167764405,0.0005452839693150727,-0.7277274000565661,0.3164804950401655,-0.11689414013740425,-0.00151743817963489,2.1948607392635857,-0.02071803534039896,0.20445161498078884,0.07338019766430598,-0.08067257034529121,1.6665970801412458e-05,1.0238962617454992,0.5131929364391031,-6.622159590009056,-1.754210023120038,0.13755264432992087,-0.0018003992219870202,0.31329774917150555,5.6984623730643955,-3.557300089183597,-1.1464545979057408,0.012156714041652632,-0.0001898102820410393
