tonegas/nnodely-applications/joint_friction_estimation/dataset/validation/mpc_mujoco_episode_10 copy.csv
time,q1,q2,q3,q4,q5,q6,dq1,dq2,dq3,dq4,dq5,dq6,ddq1,ddq2,ddq3,ddq4,ddq5,ddq6,tau1,tau2,tau3,tau4,tau5,tau6
0.0,0.0,1.57,-1.57,0.0,0.0,0.0,0.0,0.0,0.0,0.0,0.0,0.0,13.357049900860883,-2.1691812096616117,0.25298647671834473,0.20719447766465837,1.9672557729223499,-5.386057944534173e-06,1.8623422674190113,-5.62205707927289,-4.904978858669386,-1.1009712835526082,0.16820471258859387,0.0015450514981406847
0.01,0.0013288083936526822,1.5697838989385229,-1.569975477697912,1.9070725335601235e-05,0.00016561435713062807,1.7030597960375317e-06,0.1328808393652682,-0.021610106147725575,0.002452230208805819,0.0019070725335601235,0.016561435713062806,0.00017030597960375317,13.146317178231312,-1.9015617579887472,0.2898544059644719,0.19417052146770608,1.6393043495829858,0.017044355833848,1.8404892642449884,-5.484116102131449,-4.85279563852827,-1.089955092979897,0.1663244375721234,0.0015284798960986334
0.02,0.003964426784692209,1.5693783905695793,-1.5699227759560757,5.626391602587893e-05,0.0004762409139446831,5.171313035604252e-06,0.2635618391039527,-0.04055083689437053,0.005270174183637342,0.003719319069027769,0.031062655681405503,0.0003468253239566721,12.916954793098293,-1.6226792663843252,0.3271998652969512,0.18429980927648293,1.432183686220938,0.017711239084412966,1.8146205152767763,-5.344807774419487,-4.7990590200189045,-1.0784637390203973,0.16416584872772774,0.0015096643264456626
0.03,0.00788342486244863,1.568811289469618,-1.5698381649501145,0.00011087203290002968,0.0009185482138594837,1.0283886944459075e-05,0.3918998077756422,-0.056710109996118425,0.008461100596110823,0.005460811687415075,0.04423072999148005,0.0005112573908854823,12.673347755199403,-1.334597434709179,0.3646358044452356,0.17668955199762015,1.2980739395260699,0.01657088171264043,1.785410196431647,-5.2051567446382085,-4.744258715298909,-1.0666105051818857,0.16176911671739722,0.001488779619988979
0.04,0.013061210474719765,1.568111325633975,-1.5697178864651349,0.0001823583154036428,0.0014835949958015612,1.693481542604558e-05,0.5177785612271135,-0.06999638356430943,0.012027848497967982,0.00714862825036131,0.05650467819420776,0.0006650928481586505,12.418188696462297,-1.0393858590459135,0.4016928275546334,0.1706291821245065,1.2080553447953122,0.015593142842115881,1.7535346004376717,-5.066199824560114,-4.688887374270818,-1.0545093203906628,0.15917479465428958,0.0014659907026958769
0.05,0.019472197345190304,1.5673079383402055,-1.5695582050374441,0.00027029981510221575,0.0021650829281154643,2.5046499072327898e-05,0.6410986870470536,-0.08033872937694848,0.01596814276908142,0.008794149969857296,0.06814879323139031,0.0008111683646282319,12.153144319684253,-0.7391271380126944,0.43783640591117323,0.1655402213584385,1.144538704175666,0.014902646948661058,1.7196595621980018,-4.928990110769034,-4.633438418139587,-1.0422740363800642,0.1564230968562746,0.00144145481434442
0.06,0.0270899104143636,1.5664310686225682,-1.56935546463094,0.0003743402453341055,0.0029582922331937104,3.4561196887453135e-05,0.7617713069173299,-0.08768697176372436,0.020274040650414396,0.010404043023188972,0.07932093050782463,0.0009514697815125239,11.879255410444463,-0.4359160408182528,0.47248188856960244,0.16094482356978906,1.096764791659112,0.014404007704820643,1.6844293054223038,-4.7945966060862215,-4.578402579900844,-1.0300174548312566,0.15355326823706408,0.0014153218381811852
0.07,0.03588705280339489,1.565510950465021,-1.569106149582358,0.0004941503678159394,0.0038594295787910586,4.543312288918812e-05,0.8797142389031288,-0.09201181575471715,0.02493150485821095,0.011981012248183395,0.09011373455973484,0.0010871926001734989,11.597177390796924,-0.13185359118097745,0.5050087491106698,0.15644326200662673,1.0581001897455806,0.014007896210797455,1.648456528479126,-4.664100557964749,-4.524263680528327,-1.0178502225286234,0.15060300921913425,0.001387733669149187
0.08,0.045835548831812574,1.5645779013184615,-1.5688069485612726,0.0006293942510215673,0.00486522516823471,5.7623068111658864e-05,0.9948496028417687,-0.09330491465594931,0.029920102108545517,0.013524388320562783,0.10057955894436518,0.0012189945222470743,11.307325331380124,0.17096227653904986,0.5347744384712121,0.1516975849796236,1.024408401227376,0.013650513763252548,1.6123136689865405,-4.538589288696086,-4.471493990550435,-1.0058796740058749,0.14760794028962146,0.001358823077537829
0.09,0.05690657179490624,1.563662112886512,-1.5684548202908852,0.0007797002047390937,0.0059726807310062245,7.10948938743475e-05,1.107102296309367,-0.09157884319494197,0.03521282703873648,0.015030595371752633,0.11074555627715144,0.0013471825762688637,11.009961762750658,0.47044845307288946,0.5611279766024536,0.14641993729396674,0.9930686098074801,0.013287292564021058,1.5765253422096883,-4.4191480393934865,-4.420549418712822,-0.9942086773618031,0.14460110157336845,0.0013287123283217614
0.1,0.06907056178988445,1.562793443361024,-1.5680470597728822,0.0009446355570631647,0.0071789091942171205,8.581322245732327e-05,1.2163989994978206,-0.08686695254881048,0.040776051800317036,0.0164935352324071,0.12062284632108956,0.0014718328582975768,10.705250330162274,0.7645500840302853,0.5834233145616898,0.14036443758729966,0.9623852760479963,0.01288640069246938,1.5415619661096738,-4.306850213791937,-4.371864703879972,-0.9829345240599683,0.14161248933864107,0.0012975117242818735
0.11,0.08229723685188528,1.5620012124562535,-1.5675813637603997,0.0011236847160075501,0.008481030412016049,0.00010174187790598783,1.322667506200083,-0.07922309047706319,0.046569601248251276,0.017904915894438555,0.13021212177989286,0.001592865544866455,10.393289158116117,1.0512551819922933,0.6010324267745548,0.13332173246034973,0.9312337470877878,0.012424523003492283,1.5078345823196897,-4.202746342791717,-4.32584874608794,-0.9721478939106688,0.13866863504517554,0.001265318196658734
0.12,0.09655559946886415,1.5613140007075528,-1.5670558942329045,0.0013162301647811929,0.009876101582337602,0.0001188428037580095,1.4258362616978866,-0.06872117487007255,0.05254695274952732,0.01925454487736427,0.13950711703215526,0.0017100925852021674,10.074132271412667,1.3286100103989955,0.6133580350596257,0.12511552400139525,0.8988483953733919,0.011884389388931993,1.4756908674473512,-4.107852067221491,-4.282880187409984,-0.9619319198863302,0.13579223445215172,0.0012322140449080692
0.13,0.11181393985536557,1.5607594545764174,-1.5664693386502602,0.0015215361910600816,0.011361069587930372,0.00013707529541077281,1.5258340386501428,-0.05545461311353564,0.05865555826442654,0.020530602627888864,0.14849680055927714,0.0018232491652763303,9.747804092007845,1.5947348824427734,0.6198458199770984,0.11560050732690996,0.8646967685006928,0.01125340844317435,1.4454123092890392,-4.023135436013875,-4.243303336772218,-0.9523613726436859,0.13300183503001145,0.0011982659139105171
0.14,0.12803983697805338,1.5603640989441625,-1.5658209658041475,0.001738735257084905,0.012932737692471828,0.0001563954525563395,1.6225897122687802,-0.039535563225489206,0.06483728461127158,0.021719906602482325,0.1571668104541456,0.0019320157145566693,9.414310019344795,1.8478400459332294,0.6199959413682055,0.10466126673487519,0.8284055306299223,0.010522959725106418,1.4172125019904342,-3.9495038279307755,-4.207424521184548,-0.9435019808323561,0.13031158981432991,0.0011635240858536926
0.15,0.14520015811860143,1.560153158584137,-1.5651106761459919,0.001966816987716415,0.014587742149117101,0.00017675579773287364,1.716032114054805,-0.02109403600253737,0.0710289658155624,0.02280817306315099,0.1655004456645274,0.0020360345176534153,9.073644882865137,2.086241339811483,0.6133736687680487,0.09221176898157779,0.7897174342312141,0.009688057266505012,1.3912364959391632,-3.887790819184122,-4.175508936562232,-0.9354098999732862,0.12773108513220685,0.0011280221518125745
0.16,0.16326105765788312,1.5601503901786813,-1.5643390455532147,0.002204619794597422,0.016322536150798532,0.00019810503096962147,1.80608995392817,-0.00027684054558099747,0.07716305927770822,0.023780280688100695,0.17347940016814317,0.002134923323674784,8.725800307866324,2.3083753171513846,0.5996189135365873,0.07819516518334169,0.7484666905004573,0.008747200722177162,1.3675611232165945,-3.8387433315717407,-4.147778062873521,-0.9281313396048555,0.12526524838042624,0.0010917771124384608
0.17,0.18218797572331713,1.5603779263929036,-1.5635073616003992,0.002450825171949073,0.018133379659998117,0.0002203879041346329,1.8926918065434009,0.022753621422238784,0.08316839528155413,0.024620537735165107,0.1810843509199586,0.0022282873165011424,8.370771583051837,2.51281353871699,0.578454457735396,0.06258367311194313,0.7045650246434434,0.007702295971365736,1.3461962104978018,-3.803009401947438,-4.124407699546838,-0.9217023553026396,0.12291434048732297,0.0010547899397561555
0.18,0.20194563733079812,1.5608561334337274,-1.5626176515282093,0.0027039546979882767,0.020016334297628786,0.00024354520584378582,1.9757661607480976,0.04782070408237156,0.08897100721899244,0.02531295260392037,0.1882954637630669,0.0023157301709152947,8.008564331003152,2.6982757527148435,0.5496926891808744,0.04537836249030036,0.6579936863353808,0.006558568931343878,1.327086586753305,-3.781126911896295,-4.1055266673600475,-0.9161488090015263,0.12067403574628732,0.0010170466110454319
0.19,0.22249805265568218,1.5616034834106765,-1.5616727012489258,0.0029623697595414587,0.021967262826330963,0.00026751385106550197,2.0552415324884055,0.0747349976949095,0.09449502792834935,0.02584150615531817,0.19509285287021758,0.0023968645221716127,7.639201103597198,2.863641692846646,0.5132406768278184,0.02660870967632256,0.6087985061292542,0.005324424559074892,1.3101147942178424,-3.7735136043861046,-4.091216211835703,-0.9114864977038643,0.11853558957229669,0.0009785196036351381
0.2,0.24380851907231432,1.5626364426762038,-1.5606760648905988,0.0032242739897069776,0.02398183294288955,0.00029222707036709956,2.1310466416632154,0.10329592655274358,0.09966363583268711,0.02619042301655187,0.20145701165585866,0.0024713219301597572,7.2627279066366475,3.0079612489683534,0.4691034543522292,0.006331826565174836,0.5570862101565766,0.004011223243742812,1.2951044164451286,-3.7804586912375795,-4.081510130305945,-0.9077214471441104,0.11648609241657838,0.0009391698165036107
0.21,0.26583962560077756,1.5639693771602203,-1.5596320645585646,0.0034877183725822063,0.026055525165352558,0.00031761469306823434,2.2031106528463256,0.13329344840165852,0.10440003320342332,0.026344438287522857,0.20736922224630078,0.0025387622701134797,6.879220580420741,3.1304627932441815,0.4173854209574843,-0.01536869730994006,0.5030209073775893,0.0026329622589660318,1.2818239461829304,-3.8021163212812357,-4.07639563022804,-0.9048503633218584,0.11450880569703789,0.0008989488625969246
0.22,0.2885532603876559,1.5656144755287362,-1.558545780179214,0.0037506089280294557,0.02818364460519692,0.0003436035170447281,2.271363478687831,0.1645098368515814,0.10862843793505646,0.026289055544724944,0.21281194398443637,0.0025988823976493772,6.488790918797976,3.230559479862601,0.35828981520031267,-0.03838437006715267,0.44682011327862625,0.001205862415617709,1.2699911278888658,-3.8385011344850684,-4.075814910148259,-0.9028612310683415,0.11258357333718769,0.0008578016571162957
0.23,0.31191062182182133,1.5675816907936957,-1.5574230294817013,0.004010716845859103,0.030361336380754455,0.0003701177560179186,2.335736143416547,0.1967215264959477,0.11227506975126521,0.02601079178296475,0.21776917755575328,0.0026514238973190545,6.0915924097730425,3.3078533782023345,0.2921162679427516,-0.06258379373199396,0.3887499709866553,-0.00025212980735478396,1.2592777261453096,-3.889486073137956,-4.07966743719629,-0.9017340450579991,0.11068730067979317,0.000815669215734052
0.24,0.33587223384766585,1.5698787007843609,-1.5562703383636591,0.004265690895063548,0.03258360437319583,0.0003970795532018816,2.396161202584454,0.22970099906651062,0.11526911180420799,0.025497404920444514,0.22222679924413744,0.0026961797183962972,5.687825556988445,3.3621373475474052,0.21925649217458876,-0.0878150615805584,0.32911953438777175,-0.0017219062729960655,1.249314695693291,-3.9548025590708162,-4.087812876594248,-0.9014416550230188,0.10879449168590014,0.0007724915789517671
0.25,0.36039796599505525,1.572510887664796,-1.5550949020717697,0.004513071891975495,0.034845332963380264,0.00042440954841205334,2.4525732147389414,0.263218688043519,0.11754362918894366,0.024738099691194615,0.22617285901844358,0.002732999521017175,5.2778560199676905,3.393398039150344,0.14018834052051243,-0.11390866712445913,0.26827293862418244,-0.003183803043775413,1.2397135070812686,-4.034041402039148,-4.100074004079358,-0.9019505799561954,0.10687921843908949,0.0007282274794217734
0.26,0.3854470698071896,1.5754813367941833,-1.5539045377892629,0.004750308959548633,0.0371413116424077,0.00045202748769106253,2.504910381213439,0.2970449129387417,0.11903642825069022,0.023723706757313875,0.2295978679027435,0.002761793927900917,4.861836557616305,3.4018018781579946,0.05546766101986211,-0.14068009257420933,0.20658995546770598,-0.0046181923368662225,1.2300194033286997,-4.1266643986375575,-4.116242881355957,-0.9032224208191172,0.1049111012767672,0.0006828010307944952
0.27,0.41097819426215887,1.5787908535278294,-1.5527076294439601,0.004974777334685733,0.03946626118818172,0.0004798528516421257,2.553112445496925,0.33095167336460457,0.11969083453027778,0.022446837513709978,0.2324949545774026,0.0027825363951063183,4.4402139301336225,3.387704297687395,-0.03428011058016622,-0.16793369013768,0.1444614449917232,-0.0060061597373337605,1.2197866287852297,-4.232002143698724,-4.136082447236575,-0.9052143979547703,0.1028620262860183,0.000636178215108675
0.28,0.43694943029443034,1.5824379988777681,-1.5515130655716611,0.005183797357622806,0.04181486161853859,0.0005078054942320104,2.597123603227145,0.3647145349938632,0.1194563872299014,0.02090200229370732,0.2348600430356871,0.0027952642589884765,4.013430911805217,3.3516344586133995,-0.1283705878411956,-0.19546580952918902,0.08229530609972002,-0.007330004115417843,1.2085441512265558,-4.349269612220214,-4.159333014613959,-0.9078807075383906,0.10070318041294717,0.0005883254294533199
0.29,0.46331835495979606,1.5864191425044114,-1.5503301712950832,0.005374654343159794,0.04418178120809227,0.0005358062753640241,2.6368924665365734,0.3981143626643192,0.11828942765779614,0.019085698553698852,0.23669195895536807,0.0028000781132013694,3.5819961280645005,3.294287826689037,-0.22607148228712948,-0.2230683921462795,0.02050317012919578,-0.00857374114442111,1.1958118225766143,-4.477576102515521,-4.185716839992346,-0.9111735097110958,0.0984065022366285,0.0005392215087182371
0.3,0.49004208212925726,1.5907285322956675,-1.5491686355177439,0.005544618986844793,0.046561705952911966,0.0005637776722186387,2.672372716946117,0.4309389791255978,0.11615357773394384,0.0169964643684998,0.23799247448196945,0.002797139685461461,3.1464843386400223,3.2165151686882645,-0.3266143670170498,-0.2505324841541947,-0.04050799317256093,-0.0097235130534159,1.1811075264133208,-4.615938328477858,-4.214943160366577,-0.9150439387040443,0.09594529000650742,0.0004888593706632105
0.31,0.5170773197305565,1.5953583794326034,-1.5480384345034053,0.005690967963979462,0.04894936892456575,0.0005916443560912621,2.7035237601299213,0.462984713693597,0.11302010143386805,0.014634897713466953,0.23876629716537817,0.0027866683872623363,2.707535404602334,3.119309943795635,-0.42920677403999274,-0.2776516539633782,-0.10034388310483955,-0.01076789184529936,1.1639544875356265,-4.763294874493722,-4.246713176642244,-0.9194430454344018,0.09329476884868862,0.0004372471723560826
0.32,0.5443804334274192,1.6002989576808673,-1.5469497530447918,0.005811004385851892,0.051339578974141806,0.0006193337232231097,2.7303113696862633,0.49405782482638577,0.10886814586134934,0.012003642187242971,0.23902100495760586,0.002768936713184758,2.26585189002102,3.0037943421348743,-0.5330443358859993,-0.30422523622637687,-0.1586302448558321,-0.011698072525367476,1.143888657126202,-4.918521667595579,-4.2807248597975045,-0.9243226484877889,0.09043260404383614,0.00038440894886467394
0.33,0.5719075164934081,1.605538715512418,-1.545912904429625,0.005902077791932887,0.05372724828169443,0.0006467763701413003,2.7527083065988975,0.5239757831550556,0.10368486151668248,0.009107340608099463,0.23876693075526254,0.002744264691819063,1.822195382224544,2.8712042451032085,-0.6373226920027459,-0.3300613323242114,-0.2150194095014406,-0.01250795631744439,1.12046608242508,-5.080448099397289,-4.316677462371472,-0.9296360726338502,0.08733935012319792,0.0003303847403088011
0.34,0.5996144655126482,1.6110643995549019,-1.5449382503885833,0.005961603378194008,0.056107418295351666,0.0006739065062338567,2.7706949019240112,0.5525684042484027,0.09746540410415822,0.005952558626112039,0.2380170013657239,0.002713013609255653,1.377381720626987,2.722873395073606,-0.741248899010686,-0.3549795071191033,-0.26919583316125273,-0.013194129534683352,1.0932701646359253,-5.247873422656404,-4.354275629019759,-0.9353387581064097,0.08399882844493292,0.0002752302437528773
0.35000000000000003,0.6274570614338643,1.6168611877875294,-1.5440361221604317,0.005987080189317709,0.05847528366483673,0.0007006622985768886,2.7842595921216087,0.5796788232627417,0.09021282281516071,0.002547681112370095,0.23678653694850627,0.0026755792343031884,0.9322753668525607,2.560217064990391,-0.8440521097821199,-0.3788131329825406,-0.3208805172306195,-0.013755748878310436,1.0619186991785474,-5.41958305362582,-4.393233015304754,-0.9413887286376494,0.08039842837533621,0.00021901604609024218
0.36,0.655391055421295,1.6229128308528151,-1.5432167437368447,0.00597610803531604,0.06082621384367223,0.0007269861462978946,2.7933993987430834,0.6051643065285768,0.08193784235869252,-0.0010972154001668622,0.23509301788355036,0.0026323847721005937,0.4877830226107078,2.3847155120903243,-0.9449933180446282,-0.40141134417911095,-0.36983423953944583,-0.014194347886299086,1.0260705618587032,-5.594364430109446,-4.433275342771419,-0.9477469114484566,0.07652932771968554,0.00016182648735789173
0.37,0.6833722588734554,1.629201799832435,-1.5424901582565331,0.005926402929802431,0.0631557721094251,0.0007528248839022061,2.798120345216039,0.6288968979620008,0.07265854803116553,-0.004970510551360892,0.23295582657528666,0.002583873760431154,0.04484650573890081,2.197897488870467,-1.0433740013567672,-0.4226405772704447,-0.41585958009882945,-0.014513581731873868,0.9854318816975387,-5.771022101544037,-4.474142839088666,-0.9543773077368137,0.0723866289449058,0.0001037581990940201
0.38,0.7113566369087776,1.6357094388415618,-1.541866158408752,0.005835810886653487,0.06545973182831161,0.0007781299149279323,2.798437803532216,0.6507639009126693,0.062399984778107695,-0.009059204314894369,0.23039597188865052,0.0025305031025726183,-0.3955650559954016,2.001324069053702,-1.1385435344497865,-0.44238568595156313,-0.4588017789997152,-0.01471892875613301,0.9397615459200657,-5.948391760497543,-4.515592033857239,-0.9612470174680526,0.06796941044197816,4.491837547701975e-05
0.39,0.7393004045506355,1.64241612082786,-1.5413542215840303,0.005702319952807638,0.0677340898660489,0.0008028572789680569,2.7943767641857926,0.6706681986298176,0.05119368247217488,-0.013349093384584884,0.22743580377372866,0.0024727364040124686,-0.8326020510448457,1.7965729802617882,-1.2299052960447343,-0.4605506330203628,-0.4985470234825806,-0.014817366934226528,0.8888527775769306,-6.125352873705955,-4.557396910950166,-0.9683261335879146,0.06327887714961425,-1.4596888003151135e-05
0.4,0.7671601110629248,1.649301405011383,-1.5409634503797027,0.005524070396981241,0.06997507679069259,0.0008269676545004614,2.7859706512289275,0.6885284183523048,0.03907712043276839,-0.017824955582639704,0.22409869246436998,0.002411037553240443,-1.2649290398681505,1.5852240472222567,-1.3169213633195973,-0.4770587611158208,-0.5350321504601014,-0.014817055396733947,0.8326386527502164,-6.300838692520228,-4.599349261901932,-0.9755875066741864,0.058326263311071956,-7.461744933701145e-05
0.41000000000000003,0.7948927724405483,1.6563441945177386,-1.5407025189296073,0.00529936300993932,0.07217916509702096,0.0008504263088079852,2.773266137762355,0.7042789506355714,0.026093145009542153,-0.022470738704192122,0.22040883063283676,0.0023458654307523786,-1.6917673118464402,1.3688445793843824,-1.3991159250658738,-0.4918526906185974,-0.5682148903456774,-0.014726973931628695,0.7710251156040598,-6.473850643577298,-4.641259082471517,-0.983006357222687,0.05311925743510693,-0.00013504737721623653
0.42,0.8224559487609364,1.6635228927397212,-1.5405796253948076,0.005026665522044586,0.0743430741133327,0.0008732029975045587,2.7563176320388054,0.7178698221982488,0.012289353479958675,-0.02726974878947334,0.2163909016311733,0.002277668869657346,-2.112115802971525,1.148977201230218,-1.4760772618698734,-0.5048938273141799,-0.598102118636433,-0.014556624484971303,0.7040207003372972,-6.643460172632446,-4.6829533754136525,-0.9905599168509507,0.04767189101935125,-0.0001957560399196944
0.43,0.8498078435630994,1.670815557221045,-1.5406024508159697,0.004704617166222343,0.07646377223402852,0.0008952718173197552,2.735189480216288,0.7292664481323748,-0.0022825421162125867,-0.0322048355822243,0.21206981206958236,0.002206881981519647,-2.5249906186216498,0.9271279356270486,-1.5474584864950789,-0.5161615755026885,-0.6247327648778391,-0.014315795423738287,0.631700136047777,-6.808817256855016,-4.724275288889148,-0.9982269098717578,0.04200130558769976,-0.00025661240288265045
0.44,0.8769074015514331,1.6782000498722176,-1.5407781244009717,0.004332031454815998,0.07853847680587213,0.0009166110221444146,2.7099557988333776,0.7384492651172478,-0.017567358500207395,-0.037258571140634474,0.2074704571843616,0.002133920482465943,-2.9294328151649704,0.7047558260519866,-1.6129770779158101,-0.5256522586534373,-0.6481747008514205,-0.014014284731045379,0.5542038524487471,-6.969154599106453,-4.765082624145747,-1.0059870240913564,0.03612742069340282,-0.00031748674963226806
0.45,0.9037144038543874,1.6856541824846594,-1.541113195202421,0.003907897265626192,0.0805646518538036,0.00093720280937506,2.6807002302954244,0.745413261244175,-0.0335070801449451,-0.042413418918980636,0.20261750479314644,0.0020591787230645415,-3.3245150883832566,0.48326386282002937,-1.6724133296953452,-0.5333778065077301,-0.6685211915419949,-0.013661690150089889,0.4717364982016379,-7.123790091586517,-4.805246051360152,-1.0138203671046668,0.030072578648534732,-0.0003782521177268211
0.46,0.9301895601758542,1.6931558566394007,-1.541613610031865,0.003431378356532054,0.08254000386729403,0.0009570330830554353,2.647515632146679,0.7501674154741322,-0.050041482944388774,-0.04765189090941375,0.19753520134904262,0.001983027368037529,-3.709347721228785,0.2639912218047867,-1.7256078408938236,-0.5393642568060564,-0.6858871057467759,-0.013267241237761684,0.38456445122619,-7.272127652355088,-4.844647131593859,-1.0217069314186544,0.023861170713871276,-0.0004387854828179891
0.47000000000000003,0.9562945972497031,1.7006831972377137,-1.5422846973623439,0.0029018114475887835,0.08446247588940184,0.0009760911999850524,2.610503707384897,0.7527340598312952,-0.06710873304790346,-0.05295669089432705,0.19224720221078115,0.0019058116929617098,-4.083083869170725,0.04820679716218554,-1.7724581904141579,-0.5436501204685618,-0.7004050580035894,-0.012839668903862567,0.29301237099487665,-7.413656567254284,-4.883176242595726,-1.0296260902215768,0.017519252797279325,-0.0004989686933859795
0.48,0.9819923430725643,1.7082146790101893,-1.5431311568898165,0.002318703024269924,0.08633024016022404,0.000994369704547335,2.569774582286119,0.7531481772475582,-0.08464595274727035,-0.05831084233188595,0.1867764270822203,0.0018278504562282483,-4.444924146813015,-0.16289601578450447,-1.8129149433124785,-0.5462846582878331,-0.7122216192476643,-0.012387109941462082,0.19745888763380615,-7.547949495919975,-4.9207305028386275,-1.037556143396999,0.011074159822001578,-0.0005586891501049187
0.49,1.0072468064582294,1.715729245485516,-1.5441570543576266,0.0016817250256132197,0.08814168956672952,0.0010118640574978952,2.525446338566503,0.7514566475326726,-0.10258974678101104,-0.06369779986567041,0.18114494065054695,0.0017494352950560388,-4.7941204604917,-0.36820335336638643,-1.8469771404785436,-0.5473261151910487,-0.7214936997972643,-0.01191704327034504,0.09833154824868118,-7.674659321225658,-4.957211781694498,-1.045473930572719,0.004554127593488298,-0.0006178402278432045
0.5,1.0320232515308811,1.723206420018362,-1.5453658211968881,0.0009907095865988604,0.08989542814413515,0.0010285723633828342,2.477644507265179,0.7477174532846069,-0.12087668392616269,-0.06910154390143594,0.17537385774056272,0.0016708305884939034,-5.129979053661609,-0.5666838159101215,-1.8746874217068588,-0.5468399550998022,-0.7283851788584563,-0.01143625409067095,-0.003898845706493348,-7.793515035318724,-4.992524874376186,-1.0533545247547795,-0.0020120700831826183,-0.0006763214471506683
0.51,1.0562882668516453,1.7306264085855212,-1.54676025849928,0.00024564300540560124,0.09159026086180937,0.0010444951006581807,2.4265015320764256,0.7419988567159046,-0.13944373023918374,-0.07450665811932591,0.16948327176742137,0.0015922737275346577,-5.45186276350547,-0.7573903970835121,-1.8961269270453078,-0.5448971356330414,-0.7330638304359347,-0.010950821580029135,-0.10872437038920468,-7.904316862127606,-5.026575908766488,-1.061171016597141,-0.00859546265518113,-0.0007340384112279877
0.52,1.0800098289505802,1.7379701941594894,-1.5483425448167598,-0.0005533408964004353,0.0932251829106255,0.0010596348579837145,2.3721562098934816,0.7343785573968123,-0.15822863174798757,-0.07989839018060364,0.16349220488161284,0.0015139757325533932,-5.7591925156404375,-0.9394615172029571,-1.911410113017275,-0.5415724574644312,-0.7356985757811287,-0.010466125915509217,-0.21560644079485736,-8.006930816217354,-5.0592710381645984,-1.0688943957623331,-0.015167197509489562,-0.0007909025320101165
0.53,1.1031573601113722,1.7452196225579564,-1.5501142472743075,-0.001405967858775145,0.0947993686899609,0.0010739960795833753,2.314753116079209,0.7249428398467033,-0.17717024575475587,-0.08526269623747097,0.15741857793354042,0.0014361221599660857,-6.051448105753733,-1.112121272928138,-1.9206796094172898,-0.5369430183512627,-0.7364570765572864,-0.009986870305050743,-0.3239824651211528,-8.10128289185916,-5.090515459967595,-1.0764935322850886,-0.02169882458330423,-0.0008468305746973001
0.54,1.1257017803265046,1.7523574797457742,-1.5520763354858904,-0.0023118305603628247,0.09631216067217108,0.0010875848220179842,2.254442021513247,0.7137857187817791,-0.19620882115830182,-0.09058627015876795,0.15127919822101796,0.0013588742434609037,-6.328168332589299,-1.2746790175110496,-1.9241012294832571,-0.5310867967808779,-0.7355036701620108,-0.00951711428843005,-0.43327256379382484,-8.187353065030848,-5.120212785994777,-1.08393525748553,-0.02816254872836159,-0.0009017440539201514
0.55,1.1476155534049381,1.759367560632638,-1.5542291977791445,-0.0032703961467658547,0.09776305830121511,0.0011004085242093517,2.1913773078433594,0.7010080886863927,-0.21528622932539923,-0.09585655864030303,0.1450897629044036,0.001282370219136747,-6.588950556877161,-1.4265283841271732,-1.9218592318706769,-0.5240813850587518,-0.7329976386734458,-0.009060314779692824,-0.5428862354059718,-8.265169275729239,-5.1482647761161076,-1.0911845408923893,-0.034531448894165116,-0.0009555685169642565
0.56,1.168872727271373,1.766234729465151,-1.5565726592593243,-0.004281013782518845,0.09915170706087156,0.0011124757920968405,2.1257173866434793,0.6867168832513104,-0.23434614801797862,-0.10106176357529903,0.13886487596564523,0.0012067267887488887,-6.833449766485416,-1.567145860188091,-1.914151917534086,-0.5160028865586739,-0.7290917953433507,-0.008619371944861953,-0.6522288649063109,-8.334801539422912,-5.174571433541616,-1.0982047569059559,-0.040779664293543016,-0.0010082327503471078
0.5700000000000001,1.1894489685453395,1.7729449719565975,-1.5591060012764046,-0.005342922114697367,0.10047788782722354,0.0011237961988985092,2.057624127396662,0.6710242491446543,-0.25333420170802384,-0.1061908332178522,0.13261807663519798,0.0011320406801668748,-7.061377230057275,-1.6960890133514306,-1.9011876287900087,-0.5069249869352177,-0.7239313671242229,-0.008196677438081501,-0.7607079840278839,-8.396356315657181,-5.199031447952406,-1.1049580326056065,-0.04688254865757819,-0.0010596679457631874
0.58,1.2093215915294846,1.7794854393323536,-1.561827981899198,-0.0064552565525155346,0.10174150660024209,0.0011343801015904344,1.9872622984145003,0.6540467375756172,-0.27219806227933596,-0.11123344378181678,0.12636187730185486,0.001058390269192503,-7.272498820316479,-1.8129944606616013,-1.8831812019259657,-0.496918204410127,-0.7176531481099886,-0.00779416298095903,-0.8677392093922502,-8.449971239646366,-5.221542961897355,-1.1114056662152614,-0.052816794462665295,-0.0011098068601896683
0.59,1.2284695817695443,1.785844484494336,-1.564736857045441,-0.007617056284326871,0.10294258469067735,0.0011442384739086932,1.9147990240059747,0.635904516198245,-0.2908875146242996,-0.11617997318113363,0.12010780904352635,0.0009858372318258968,-7.466633084642272,-1.9175756613370298,-1.8603509090682588,-0.4860493198609497,-0.7103848966933697,-0.007413347785884206,-0.9727517992126637,-8.495810299974627,-5.242004626739256,-1.117508604288562,-0.058560529613699536,-0.0011585830029490444
0.6,1.2468736143739776,1.7920116905253256,-1.5678304019654106,-0.008827270970707934,0.10408124942129604,0.001153382755915194,1.8404032604433205,0.6167206030989615,-0.30935449199695914,-0.12102146863810641,0.1138664730618685,0.0009144282006500815,-7.643649134946696,-2.009620601633374,-1.8329159099223733,-0.4743809834507271,-0.7022449484228943,-0.007055383612422084,-1.075193784396959,-8.534059523008308,-5.260316907022141,-1.1232279646538075,-0.06409338949415436,-0.0012059298799050875
0.61,1.2645160672995805,1.7979778917646125,-1.5711059328272772,-0.010084767069377968,0.1051577253859145,0.0011618247199494767,1.7642452925602954,0.5966201239286995,-0.3275530861866584,-0.12574960986700343,0.10764759646184592,0.0008441964034282679,-7.803464421810362,-2.088989427404657,-1.8010942197233821,-0.46197149090490974,-0.6933420167233919,-0.006721096700665896,-1.1745366435716922,-8.564923202922346,-5.2763835864843145,-1.1285255915436063,-0.06939656755176761,-0.0012517803218496503
0.62,1.2813810298213257,1.8037351876914696,-1.574560328203651,-0.011388333764228773,0.10617232629573126,0.0011695763526083534,1.686496252174524,0.5757295926856973,-0.34543953763738583,-0.1303566694850804,0.10146009098167566,0.0007751632658876751,-7.946042449702743,-2.155612066890381,-1.765101186458753,-0.4488747193595479,-0.6837751545916078,-0.006411026039494061,-1.2702795036982126,-8.588620695873892,-5.290113425033341,-1.1333646290936374,-0.07445284768858464,-0.0012960659206250548
0.63,1.2974543064109378,1.8092769498537802,-1.5781900503093194,-0.012736688486387027,0.10712544743016496,0.0011766497522509882,1.607327658961211,0.5541762162310664,-0.3629722105668194,-0.1348354722158254,0.09531211344336972,0.0007073399642634671,-8.071390481348535,-2.2094858732766354,-1.725148458334699,-0.43514020995351643,-0.6736338518789964,-0.006125457690168368,-1.3619528582474068,-8.605383778217124,-5.301421913755348,-1.1377100994912894,-0.0792466216810509,-0.0013387165927037019
0.64,1.3127234162502086,1.81459782207703,-1.5819911658887964,-0.014128482029727349,0.10801755869871339,0.0011830570414143459,1.526910983927069,0.5320872223249866,-0.3801115579477027,-0.13917935433403208,0.08921112685484386,0.0006407289163357778,-8.179557270288013,-2.250673304085595,-1.6814434116820474,-0.4208133820062603,-0.6629982446700495,-0.005864455094821253,-1.4491218031963826,-8.615454552041513,-5.3102330743416255,-1.1415294724486629,-0.08376389468780883,-0.001379660285885648
0.65,1.3271775886026445,1.8196937141850498,-1.5859593666979535,-0.015562303276360216,0.10884919831119155,0.0011888102934386325,1.4454172352435868,0.5095892108019839,-0.3968200809157052,-0.14338212466328665,0.08316396124781646,0.000575325202428676,-8.270630851761654,-2.2792996427725822,-1.6341890001272086,-0.4059358617767952,-0.6519394153890019,-0.00562788542009951,-1.5313887973854174,-8.619083866926882,-5.316481250045816,-1.1447932133256806,-0.08799228163013745,-0.00141882284053595
0.66,1.3408077542616155,1.8245617894595598,-1.5900899895657172,-0.017036683559141872,0.10962096704598324,0.0011939214725410262,1.3630165658970932,0.4868075274510054,-0.4130622867763856,-0.1474380282781657,0.07717687347916956,0.0005111179102393582,-8.34473641352593,-2.2955507573437743,-1.5835839779936656,-0.39054590734192374,-0.6405197645292233,-0.005415442122937542,-1.6083959581183644,-8.61653021475621,-5.320112837287243,-1.1474752981003598,-0.09192099687434607,-0.0014561280124237414
0.67,1.353606533285573,1.8292004460617484,-1.5943780360588604,-0.01855010069803959,0.1103335230995368,0.0011984023865347407,1.2798779023957338,0.4638656602188626,-0.42880464931430784,-0.1513417138897721,0.07125560535535469,0.0004480913993714509,-8.402034260331886,-2.2996708815992046,-1.5298234445721555,-0.3746789101687753,-0.6287934371760215,-0.005226663975927082,-1.6798269054906596,-8.608059044746307,-5.321087910134063,-1.1495536844396277,-0.09554083922935627,-0.0014914976597997932
0.68,1.3655682192219154,1.8336092926367533,-1.5988181918046114,-0.020100982755128168,0.11098757749512662,0.0012022646513664326,1.1961685936342592,0.44088465750049766,-0.44401557457508906,-0.15508820570885776,0.06540543955898236,0.0003862264831691743,-8.442717878770862,-2.291960396949692,-1.4730996511708758,-0.3583679533830395,-0.6168067897596359,-0.005060950894611338,-1.7454081700488846,-8.593942438522483,-5.319381693977597,-1.1510107293337788,-0.09884417381870093,-0.0015248520929191662
0.6900000000000001,1.3766887600113964,1.8377891183217627,-1.6034048455517325,-0.02168771155902411,0.11158389002475977,0.0012055196666343683,1.1120540789480893,0.4179825685009395,-0.4586653747121166,-0.15867288038959412,0.05963125296331397,0.00032550152679357026,-8.467012103166848,-2.2727735868040697,-1.4136030097193677,-0.34164440660581263,-0.6045988846258865,-0.004917576896899867,-1.8049101783420605,-8.574459079999427,-5.31498584959118,-1.1518335450919865,-0.1018249119162088,-0.0015561105798475344
0.7000000000000001,1.3869657357551828,1.8417418573811102,-1.6081321080705298,-0.023308626053657616,0.11212326569490148,0.00120817860125064,1.0276975743786476,0.3952739059347402,-0.4727262518797226,-0.16209144946335044,0.053937567014171454,0.00026589346162718256,-8.475171378268657,-2.2425163313693335,-1.351523240155152,-0.32453853751310646,-0.5922020020655765,-0.004795700574126371,-1.8581478300683196,-8.549894451920126,-5.307909534301158,-1.1520142869288679,-0.10447848936964903,-0.001585191998159343
0.71,1.3963983335172985,1.8454705486976217,-1.612993831005826,-0.02496202552845424,0.11260655164430046,0.0012102523884200925,0.9432597762115748,0.3728691316511519,-0.48617229352963043,-0.16533994747966269,0.04832859493989793,0.00020737871694524805,-8.467478110722197,-2.20164370839301,-1.287050593839175,-0.30708012093544745,-0.5796421613367926,-0.004694373465228274,-1.9049806792148527,-8.52054118999999,-5.298180213035703,-1.1515503668779759,-0.10680184379600706,-0.001612015618128394
0.72,1.4049873193265656,1.8489792903588111,-1.6179836258042564,-0.02664617278730145,0.11303463450049141,0.001211751729124263,0.8588985809267111,0.35087416611893496,-0.4989794798430421,-0.16841472588472065,0.04280828561909508,0.00014993407041703725,-8.444241098682312,-2.1506574648968844,-1.22037709175948,-0.2892990273683349,-0.5669396439491123,-0.0046125467053110825,-1.945312730187592,-8.486699526554247,-5.2858441984133,-1.150444590323153,-0.1087933903332326,-0.0016365019993185743
0.73,1.4127350075345881,1.8522731895893627,-1.6230948828384737,-0.02835929731220132,0.11340843814042754,0.0012126871033188576,0.7747688208022501,0.32938992305516235,-0.5111257034217405,-0.1713124524899871,0.03738036399361433,9.353741945946862e-05,-8.40579402741488,-2.0901033262392645,-1.1516977192221667,-0.27122577415093474,-0.5541095140438657,-0.0045490763594697725,-1.9790918587575566,-8.448677758066719,-5.270966905643812,-1.1487052130184454,-0.11045299539133896,-0.0016585739792025229
0.74,1.4196452276799294,1.855358308297563,-1.628320790846296,-0.030099598474384804,0.11372892182004256,0.0012130687880756502,0.6910220145341318,0.3085118708200329,-0.522590800782226,-0.17403011621834852,0.03204836796150082,3.8168475679254556e-05,-8.352494018260252,-2.0205681117926653,-1.0812115229754138,-0.25289202427413926,-0.5411621320877344,-0.0045027277863258774,-2.006308866995125,-8.406792675190845,-5.253632814699459,-1.1463459180466997,-0.1117819475729235,-0.0016781577296672307
0.75,1.4257232890034828,1.8582416045226422,-1.633654356792898,-0.03186524884104128,0.11399707863726578,0.0012129068819235287,0.6078061323553321,0.28832962250791794,-0.5333565946602082,-0.17656503666564713,0.026815681722323164,-1.6190615212148117e-05,-8.284720218761576,-1.9426766309735115,-1.009122562133927,-0.2343310197648769,-0.5281036593014292,-0.004472179432307932,-2.02699618144613,-8.361369898954246,-5.233945138830659,-1.143385713719605,-0.11278292473877785,-0.0016951838551033474
0.76,1.4309759427560738,1.8609308700919285,-1.639088426249402,-0.03365439761988521,0.11421393429303076,0.0012122113346663527,0.5252653752590983,0.2689265569286387,-0.5434069456504105,-0.17891487788439323,0.021685565576497,-6.955472571760421e-05,-8.20287242296014,-1.857088339118707,-0.9356406707157605,-0.2155779387772725,-0.5149365512673398,-0.004456026384358935,-2.0412262047798326,-8.31274407326346,-5.212025204916573,-1.1398487549207175,-0.11345995608419382,-0.0017095885043049495
0.77,1.4354113424364512,1.8634346648207207,-1.6446157043622898,-0.035465174276745316,0.11438054611505087,0.0012109919819771045,0.4435399680377497,0.25037947287921947,-0.552727811288763,-0.18107766568601047,0.016661182202010977,-0.00012193526892483527,-8.107369712660432,-1.7644937395383427,-0.8609819968668329,-0.19667016791869152,-0.5016600399944338,-0.0044527840513461925,-2.049109333088163,-8.261258870966897,-5.188011557218849,-1.1357640918096705,-0.11381837806827963,-0.0017213144676993227
0.78,1.4390390020958348,1.865762247613164,-1.6502287774656779,-0.037295692353447756,0.1144980023095257,0.0012092585840867186,0.36276596593837146,0.23275827924430953,-0.5613073103388042,-0.1830518076702438,0.011745619447482682,-0.00017333978903857558,-7.998649112690935,-1.6656105257282137,-0.7853692917540367,-0.17764748381747353,-0.48827060437209013,-0.00446089227325519,-2.050791653939426,-8.207266778532023,-5.162058801725395,-1.1311653511124924,-0.11386478310095255,-0.0017303122315324632
0.79,1.4418697528438784,1.8679235048484129,-1.6559201353634558,-0.039144053504711535,0.11456742140643487,0.001207020867902094,0.2830750748043624,0.21612572352490178,-0.5691357897777909,-0.1848361151263776,0.0069419096909172,-0.00022377161846246483,-7.877164255648788,-1.5611794659281286,-0.7090319294191509,-0.15855214048590227,-0.47476242941488067,-0.004478720181104734,-2.046452344111254,-8.151128632626627,-5.134336213313081,-1.1260903563925269,-0.11360696003557577,-0.001736540961579238
0.8,1.4439156976900278,1.8699288764621569,-1.6616821942814024,-0.041008351763825945,0.1145899518646357,0.0012042885718999857,0.20459448461494423,0.20053716137439714,-0.5762058917946484,-0.18642982591144094,0.0022530458200836845,-0.0002732296002108313,-7.743384054143934,-1.4519600406804223,-0.6322056473874684,-0.13942886158057277,-0.46112785498087305,-0.004504572081016178,-2.0363007905008184,-8.09321289037539,-5.105026132324337,-1.1205806947041514,-0.11305382573148859,-0.0017399693907236668
0.81,1.4451901648535552,1.8717892801583147,-1.6675073204615354,-0.04288667803778365,0.11456677180357934,0.001201071493151947,0.1274467163527443,0.18604036961579154,-0.5825126180132961,-0.18783262739577064,-0.0023180061056361865,-0.0003217078748038647,-7.597791380978755,-1.3387258524962002,-0.5551320062880216,-0.12032473912544983,-0.4473578147712516,-0.0045366946154619114,-2.020573462824736,-8.03389462360662,-5.074322180758317,-1.1146812378554842,-0.11221534722882288,-0.0017405765873267454
0.8200000000000001,1.44570765967479,1.873516034208554,-1.6733878543429415,-0.044777124823538815,0.11449908882908223,0.0011973795358401413,0.0517494821234776,0.17267540502391956,-0.5880533881406058,-0.1890446785755168,-0.006768297449710815,-0.00036919573118057367,-7.440881759874656,-1.2222598349044644,-0.47805757494871903,-0.10128904260529126,-0.4334422663401014,-0.004573285408357997,-1.9995305721201184,-7.973554235838695,-5.042427331061248,-1.1084396271296593,-0.11110245440439334,-0.001738352584598166
0.8300000000000001,1.4454838152590301,1.875120779317405,-1.6793161352459982,-0.046677791128377395,0.11438813992123406,0.0011932227606252068,-0.022384441575974176,0.16047451088511125,-0.5928280903056717,-0.19006663048385794,-0.01109489078481738,-0.00041567752149345816,-7.273162071158736,-1.103349295786868,-0.40123285516416596,-0.08237294449274923,-0.4193706126401864,-0.0046125033756467815,-1.973452554450467,-7.912575908918207,-5.009551862423608,-1.1019057307253062,-0.1097269433364034,-0.0017332988551130586
0.84,1.4445353419831257,1.8766154000473918,-1.6852845264510123,-0.04858678756923915,0.11423519135319621,0.001188611434225768,-0.09484732759044213,0.14946207299867467,-0.5968391205014163,-0.19089964408617552,-0.015294856803785081,-0.0004611326399438885,-7.095149278169189,-0.9827808367648375,-0.3249109674115629,-0.06362917019350967,-0.4051321152564853,-0.004652480807119552,-1.9426364243004488,-7.851345793963499,-4.975911240541111,-1.095131083370372,-0.10810137098021239,-0.0017254286190365377
0.85,1.442879975992639,1.8780119463110712,-1.6912854405385547,-0.05050224161840965,0.11404153861036563,0.0011835560785659384,-0.16553659904867188,0.1396546263679258,-0.6000914087542253,-0.1915454049170502,-0.01936527428305721,-0.0005055355659829662,-6.907369180964119,-0.8613351963034782,-0.24934612504059572,-0.045111582039045306,-0.39071629899193283,-0.00469133728294846,-1.9073920466092562,-7.790249968449516,-4.941723956984402,-1.088168317540652,-0.10623894212987096,-0.0017147669793847425
0.86,1.4405364268147351,1.879322555444598,-1.6973113648377947,-0.05242230295647092,0.11380850628017394,0.001178067518843154,-0.2343549177903898,0.1310609133526855,-0.6025924299239899,-0.19200613380612686,-0.023303233019169284,-0.000548855972278419,-6.710355204206538,-0.7397820689760426,-0.17479192975279156,-0.026874708287139004,-0.3761133468733604,-0.004727195418564811,-1.8680383799626767,-7.729672187772669,-4.907209363687865,-1.081070595483702,-0.10415338999315632,-0.0017013508825915518
0.87,1.4375243242084979,1.8805593753799121,-1.7033548868114547,-0.05434514888789769,0.11353744788369483,0.0011721569298653617,-0.30121026062373496,0.12368199353142074,-0.6043521973660161,-0.19228459314267657,-0.027105839647911353,-0.000591058897779244,-6.504647225854901,-0.6188749568657447,-0.10149952540490892,-0.00897322909664755,-0.36131448398269583,-0.004758198343060904,-1.8248997458959095,-7.6699914653464205,-4.872585536671287,-1.0738910508245991,-0.10185885202502135,-0.001685228907585609
0.88,1.4338641643702381,1.8817344894295318,-1.709408719192025,-0.056268989770317364,0.11322974562128375,0.0011658358800057493,-0.36601598382597855,0.11751140496197282,-0.6053832380570309,-0.19238408824196748,-0.030770226241107587,-0.0006321049859612413,-6.29079045255782,-0.4993461112958172,-0.029715650253265835,0.008538567892642845,-0.3463123478109935,-0.004782528768243033,-1.7783021803624808,-7.611579520111498,-4.838067201033001,-1.0666822479331275,-0.09936974293107326,-0.0016664608913327969
0.89,1.4295772556066337,1.8828598431890144,-1.7154657246739113,-0.0581920744052879,0.11288681000571335,0.0011591163721260944,-0.428690876360448,0.1125353759482712,-0.6057005481886248,-0.19230846349705322,-0.03429356155704065,-0.0006719507879654949,-6.069334346497353,-0.3819016239290828,0.04031937032848287,0.025607349452185124,-0.33110134212136444,-0.0047984293805907186,-1.7285699230705804,-7.554798134218417,-4.803863746595509,-1.059495666487177,-0.09670062695661251,-0.001645117403190672
0.9,1.4246856635833247,1.8839471740473166,-1.7215189399604238,-0.060112695336525364,0.11251007935773917,0.0011520108808288187,-0.489159202330892,0.10873308583021149,-0.6053215286512589,-0.1920620931237465,-0.03767306479741775,-0.0007105491297275654,-5.840831606938296,-0.2672167257727796,0.10837364789240722,0.04218130320262259,-0.3156779706422199,-0.004804224251503619,-1.676022098519385,-7.499996466499778,-4.770177360456102,-1.0523812178037912,-0.09386609170859092,-0.0016212790842970808
0.91,1.4192121562510465,1.8850079437746021,-1.7275615989630106,-0.0620291940008399,0.11210101914077165,0.0011445323854140216,-0.547350733227828,0.10607697272854434,-0.6042659002586779,-0.1916498664314536,-0.04090602169675167,-0.0007478495414796979,-5.605837208022632,-0.15593135079611153,0.1742257293372131,0.05821069604858879,-0.3000411463165662,-0.004798340852117278,-1.6209696391972086,-7.447508369152077,-4.737201299210534,-1.0453867985580516,-0.09088062581151715,-0.001595035871439933
0.92,1.4131801485456728,1.8860532746306962,-1.7335871549528612,-0.06393996567758585,0.11166112111337584,0.0011366943979431914,-0.6032007705373699,0.10453308560941083,-0.6025555989850641,-0.19107716767459534,-0.043989802739581294,-0.000783798747083034,-5.36490749250862,-0.04864601779645786,0.23766652879713648,0.07364841268312533,-0.28419247136489645,-0.004779332206369169,-1.5637124966142408,-7.397649755771164,-4.705118319895535,-1.0385578865028804,-0.08775850267134518,-0.0015664861273239502
0.93,1.4066136469528685,1.8870938894056613,-1.7395893014718085,-0.06584346418414583,0.11119190228069623,0.0011285109858470668,-0.6566501592804161,0.10406147749651783,-0.6002146518947223,-0.19034985065599772,-0.04692188326796119,-0.0008183412096124462,-5.118599319307903,0.054081920066781614,0.2985011545167578,0.08845046315615801,-0.26813648310535143,-0.004745898646572044,-1.504537179782581,-7.3507160685297865,-4.6740992848501755,-1.0319371817710057,-0.08451367251477404,-0.0015357357007922277
0.9400000000000001,1.3995371940225803,1.8881400557673047,-1.7455619918200784,-0.06773820626776582,0.11069490362862473,0.0011199967885624816,-0.7076452930288138,0.10461663616434197,-0.5972690348270041,-0.1894742083619985,-0.04969986520714985,-0.0008514197284585253,-4.867469260922455,0.15174161388052013,0.35655059553676394,0.10257644961991685,-0.25188086035444357,-0.0046969086057711,-1.4437146536257892,-7.306979890867633,-4.644301951833096,-1.0255642963130192,-0.08115966468956246,-0.0015028969413404933
0.9500000000000001,1.391975812913519,1.8892015352493379,-1.751499456952567,-0.06962277564783607,0.11017168862759735,0.0011111670277424036,-0.756138110906133,0.10614794820332343,-0.5937465132488534,-0.1884569380070261,-0.052321500102738436,-0.0008829760820078034,-4.612072845327277,0.24387160763266053,0.41165323703094164,0.1159899836933782,-0.23543658533079181,-0.004631417839841667,-1.3814986218436376,-7.2666887496256765,-4.6158699569492105,-1.0194754930292738,-0.0777095019620256,-0.0014680876921834636
0.96,1.3839549520432592,1.8902875371690022,-1.7573962216325347,-0.07149582666734594,0.10962384149630677,0.0011020375106552745,-0.8020860870259553,0.10860019196643643,-0.5896764679967597,-0.18730510195098615,-0.05478471312905738,-0.0009129517087129122,-4.3529638355593985,0.33006224560976594,0.46366617774632146,0.12865904732640887,-0.2188180563126707,-0.004548686496598009,-1.3181242102454476,-7.2300631471558985,-4.588931994317166,-1.0137034752107263,-0.07417562824096431,-0.0014314302852343134
0.97,1.3755004299157312,1.8914066777149303,-1.7632471187114664,-0.07335608751759307,0.10905296521932556,0.001092624626473374,-0.8454522127527997,0.11191405459280826,-0.585089707893166,-0.18602608502471235,-0.057087627698120924,-0.0009412884181900524,-4.0906935393215695,0.40995757455296533,0.512466328022111,0.14055629160379546,-0.20204314687676828,-0.004448193437425196,-1.253807057783094,-7.197294859659202,-4.563601193016431,-1.0082772260334107,-0.07056985080523255,-0.0013930505597124765
0.98,1.3666383801947979,1.8925669443955653,-1.7690473014258208,-0.07520236300615094,0.1084606793166029,0.0010829453352449328,-0.8862049720933283,0.11602666806348591,-0.5800182714354265,-0.18462754885578736,-0.05922859027226646,-0.0009679291228441064,-3.825810140325784,0.48325672424932986,0.557951272169804,0.15165926950933084,-0.18513320835844382,-0.004329647294180283,-1.1887428137452045,-7.168545532949096,-4.539974688741996,-1.0032218970668159,-0.06690329772867866,-0.0013530769238021259
0.99,1.357395197090378,1.89377566598637,-1.7747922536249758,-0.07703353684443952,0.10784861736696724,0.0010730171494491452,-0.9243183104420026,0.12087215908047608,-0.574495219915498,-0.18311738382885828,-0.06120619496356525,-0.0009928185795787556,-3.558858042926285,0.5497147580656254,0.6000398844108059,0.16195060027718977,-0.16811301319581062,-0.0041929937970781594,-1.1231070310933717,-7.143945601127527,-4.518133384803068,-0.9985587440675305,-0.06318639079621584,-0.0013116394759697713
