tonegas/nnodely-applications/joint_friction_estimation/dataset/validation/mpc_mujoco_episode_0 copy.csv
time,q1,q2,q3,q4,q5,q6,dq1,dq2,dq3,dq4,dq5,dq6,ddq1,ddq2,ddq3,ddq4,ddq5,ddq6,tau1,tau2,tau3,tau4,tau5,tau6
0.0,0.0,1.57,-1.57,0.0,0.0,0.0,0.0,0.0,0.0,0.0,0.0,0.0,-9.121714380415332,-8.872407028639321,4.563236918533182,2.3803192310198646,-1.3809900630104437,-1.0026121675110744e-06,-1.2719308613487574,-8.172433781626964,-5.4038042504569965,-1.1613343015513957,-0.11516486474898435,-0.001970899843052707
0.01,-0.0009075865106571092,1.569117289466138,-1.5695479022544756,0.00021968198454837894,-0.00011542101499920535,-1.0518528185950116e-06,-0.09075865106571092,-0.08827105338620546,0.04520977455243555,0.021968198454837894,-0.011542101499920535,-0.00010518528185950116,-9.002660763786654,-8.662548993787127,4.5404948328335255,2.2001007675031037,-1.1603975367787598,-0.0105525698817166,-1.2563270908762656,-8.077289688117315,-5.369584697740857,-1.154141734826161,-0.11399454731277742,-0.00195326428197533
0.02,-0.0027101960758868183,1.5673728766664354,-1.5686469241078491,0.0006447585619728913,-0.0003325138279345176,-3.196752050499785e-06,-0.1802609565229709,-0.17444127997026493,0.09009781466263914,0.042507657742451244,-0.02170928129353122,-0.00021448992319047732,-8.870375265248228,-8.439219341116392,4.510519801419546,2.057199689434631,-1.024934397662328,-0.0110624247543889,-1.2318520817279155,-7.967593139190562,-5.3296511686060395,-1.1456304108412119,-0.11227644018093508,-0.0019290814870413747
0.03,-0.005394232837908031,1.5647890822201596,-1.5673007346099768,0.0012637908153641715,-0.0006426830922579389,-6.368154231620116e-06,-0.26840367620212124,-0.2583794446275875,0.1346189497872246,0.061903225339128,-0.031016926432342128,-0.0003171402181120331,-8.727450350959558,-8.203071142970645,4.476146021056831,1.9428596072444115,-0.9423475992791381,-0.010548773317395899,-1.1991210505463776,-7.843731992932098,-5.284288344524495,-1.1358744950473871,-0.11003949214096936,-0.0018987031708066334
0.04,-0.008945214584894352,1.5613894815492984,-1.5655132359438748,0.0020675247843156223,-0.0010405421120354794,-1.051322171316189e-05,-0.35509817469863214,-0.3399600670861284,0.17874986661018785,0.08037339689514506,-0.03978590197775404,-0.00041450674815417753,-8.575363986149618,-7.954706301977038,4.439541498675082,1.8504101452507555,-0.8931228096165427,-0.010220346948503156,-1.1588311809335345,-7.70611231499845,-5.233801281530699,-1.124953310369873,-0.10731483763567938,-0.0018624800391006582
0.05,-0.01334785292139042,1.557198850624323,-1.56328839623099,0.0030483865484530054,-0.0015227312268370073,-1.5600473394541957e-05,-0.44026383364960664,-0.4190630924975269,0.2224839712884819,0.09808617641373832,-0.048218911480152796,-0.0005087251681380067,-8.414941900302942,-7.6947051644584565,4.402354345325126,1.7747736337772233,-0.8653887058124852,-0.010149786234733504,-1.111749318082893,-7.555165728089999,-5.178516158862489,-1.112951468738093,-0.10413557223163603,-0.0018207669417752367
0.06,-0.018586095511471088,1.5522431124909988,-1.560630122639648,0.00420009799854472,-0.0020871967072546124,-2.1614199236320394e-05,-0.523824259008067,-0.495573813332429,0.2658273591341968,0.11517114500917144,-0.0564465480417605,-0.0006013725841778439,-8.246633730497404,-7.423648332192561,4.3658243710916835,1.7120836264229213,-0.8518850504651212,-0.01027824407263811,-1.0586998341772225,-7.391355500786687,-5.118780380335595,-1.0999588160624856,-0.10053660850777218,-0.0017739266591577838
0.07,-0.024643147129802537,1.5465492827322138,-1.5575421663982854,0.005517384248470697,-0.0027327479206305364,-2.8549464435627845e-05,-0.6057051618331448,-0.5693829758784904,0.3087956241362514,0.13172862499259777,-0.06455512133759239,-0.000693526519930745,-8.070678674086782,-7.142132822777389,4.330867782972149,1.6593928260510484,-0.8481381089759736,-0.010553142894281109,-1.0005523134922378,-7.2151817222026144,-5.054962181503735,-1.086070231480332,-0.09655455984199188,-0.001722332602874798
0.08,-0.031501479581515966,1.540145412499628,-1.5540280533570645,0.006995750492478813,-0.0034587827386631876,-3.640878562474974e-05,-0.6858332451713429,-0.6403870232585802,0.35141130412208554,0.14783662440081163,-0.07260348180326513,-0.0007859321189121894,-7.887205274409385,-6.850783979217504,4.298141385373228,1.6144500374004522,-0.8513575880627968,-0.01093866042361924,-0.9382089097807489,-7.0271857298292835,-4.987449831242257,-1.0713853060524405,-0.09222762080941062,-0.0016663705951203026
0.09,-0.039142836565530026,1.5330605281128293,-1.5500910352905948,0.008631311365133463,-0.004265114586124698,-4.5200006916953204e-05,-0.7641356984014056,-0.7084884386798845,0.3937018066469643,0.16355608726546494,-0.08063318474615105,-0.0008791221292203467,-7.6962918255362665,-6.550264050151568,4.26809125583229,1.5755300201047158,-0.8597675154160527,-0.011410733829964492,-0.872591360837881,-6.827953850113455,-4.916650480602019,-1.0560079172682764,-0.08759542549444861,-0.0016064398338553056
0.1,-0.04754823716790286,1.5253245665104271,-1.5457340583039458,0.010420659881400384,-0.005151860708970382,-5.4934915575485944e-05,-0.8405400602372833,-0.7735961602402183,0.4356976986648834,0.17893485162669207,-0.08867461228456837,-0.0009734908658532739,-7.498003192042244,-6.241278061292332,4.240989722191036,1.5413038142823208,-0.8721986755851816,-0.011952205551193806,-0.804627737071413,-6.618120447963156,-4.842988693011512,-1.0400457110621655,-0.08269887277280366,-0.0015429531140673915
0.11,-0.0566979802384953,1.516968306073808,-1.5409597455815278,0.012360766109303947,-0.006119367040069451,-6.562829094788951e-05,-0.914974307059244,-0.8356260436619233,0.477431272241808,0.19401062279035622,-0.09675063310990692,-0.001069337537240356,-7.292413515069498,-5.9245774089253835,4.216963580191693,1.5107400191244622,-0.8878388405726341,-0.01254951063933163,-0.7352390686232506,-6.39837024530031,-4.766904680990066,-1.0236095008624801,-0.0775799127042704,-0.0014763363522407305
0.12,-0.06657165104480986,1.5080232925460513,-1.5357703923711834,0.01444889807972862,-0.007168154584185855,-7.729719548994541e-05,-0.9873670806314551,-0.8945013527756593,0.5189353210344495,0.20881319704246726,-0.10487875441164037,-0.0011668904542055905,-7.079620523471127,-5.60096148631792,4.196015807478389,1.4830297462050317,-0.906078240528295,-0.013190509734660516,-0.6653260468979607,-6.169439849580565,-4.6888522711494005,-1.0068125924481501,-0.07228129179095644,-0.0014070274500510567
0.13,-0.07714813108543739,1.498521759945594,-1.5301679715759455,0.01668255923772835,-0.008298878012903372,-8.996038940450383e-05,-1.0576480040627532,-0.9501532600457205,0.560242079523784,0.22336611579997323,-0.11307234287175168,-0.0012663193914558405,-6.859754935525773,-5.271277578420482,4.178042503877568,1.4575296876357986,-0.926412554183873,-0.0138630398372106,-0.5957560344322571,-5.93211842481277,-4.609296618824592,-0.9897700434317549,-0.06684625764255349,-0.0013354745312428179
0.14,-0.08840561164775357,1.4884965465325806,-1.524154148673481,0.01905943811771692,-0.009512290652877526,-0.0001036377946467355,-1.1257480562316173,-1.0025213413013425,0.6013822902464484,0.237687887998857,-0.12134126399741545,-0.001367740524223167,-6.632987100396746,-4.9364192136442435,4.162846381755415,1.433719053935204,-0.9483807106755329,-0.014553899770999301,-0.5273506427086081,-5.687247436613828,-4.5287116946738415,-0.9725978666306525,-0.06131822588353189,-0.0012621335900516342
0.15,-0.10032161153000667,1.477981006028957,-1.5177303049293267,0.021577366980957833,-0.010809212173254005,-0.00011834996080146773,-1.1915999882253097,-1.0515540503623426,0.6423843744154322,0.2517928863240912,-0.1296921520376479,-0.0014712166154732234,-6.3995322193929,-4.597323133784426,4.150147815993084,1.4111671410474442,-0.9715239040449113,-0.015248101961313765,-0.46087415057913084,-5.435719407381722,-4.4475775671627575,-0.9554121871863053,-0.05574041409410932,-0.0011874655981810828
0.16,-0.11287299926796847,1.467008914423138,-1.5108975680387475,0.02423428696407376,-0.012190496580206683,-0.0001341175016967421,-1.25513877379618,-1.097209160581904,0.6832736890579234,0.26569199831159274,-0.1381284406952678,-0.001576754089527436,-6.159654983977361,-4.25496502782647,4.139594219150434,1.389509052485971,-0.9953577824135174,-0.015928298032327426,-0.3970230359977041,-5.178475626800598,-4.366377506555387,-0.9383283639049451,-0.050155449259056795,-0.0011119331284214571
0.17,-0.12603602018027327,1.4556143728073696,-1.5036568494422062,0.027028217909972483,-0.013656998943563205,-0.00015096048196665694,-1.3163020912304793,-1.13945416157684,0.7240718596541201,0.27939309458987227,-0.14665023633565213,-0.0016842980269914844,-5.913674137150213,-3.9103541680970277,4.130768317219851,1.3684276867260285,-1.0193531997880356,-0.016574335445858956,-0.33641688057529634,-4.916502776116199,-4.285594937678692,-0.9214600858423264,-0.04460495661666314,-0.0010359965650694949
0.18,-0.13978632855386447,1.4438317068009574,-1.4960088876257747,0.02995723153189611,-0.015209539818164931,-0.0001688977398331954,-1.375030837359119,-1.1782666006412306,0.7647961816431533,0.29290136219236274,-0.15525408746017266,-0.0017937257866538472,-5.6619672267509085,-3.5645270851272404,4.123195752443859,1.3476405443884998,-1.0429230580550914,-0.017162935884655894,-0.2795908803930929,-4.650828441649531,-4.205710270271604,-0.9049184556054032,-0.03912913894117889,-0.0009601099832349618
0.19,-0.1540990253161117,1.431695363205125,-1.487954296751945,0.03301942693088722,-0.01684886670835139,-0.0001879461378391744,-1.4312696762247215,-1.2136343595832277,0.8054590873829617,0.3062195398991106,-0.16393268901864563,-0.0019048398005979009,-5.404975625147498,-3.218540418767082,4.116352322396115,1.326890247183731,-1.0654141250513511,-0.01766750962006114,-0.22699015846845083,-4.382515513605382,-4.1271976372233885,-0.8888110711842782,-0.03376635613407414,-0.0008847167900275644
0.2,-0.16894870156979785,1.4192398046150123,-1.4794936199774495,0.03621290777235424,-0.01857561223729068,-0.00020811973820531048,-1.4849676253686153,-1.2455558590112823,0.8460676774495411,0.3193480841467019,-0.17267455289392894,-0.0020173600366136073,-5.14320971231054,-2.873463086272958,4.109671071610327,1.3059379161827742,-1.0861035866058444,-0.018058136693333893,-0.17896602584719257,-4.112655490067379,-4.050521572531701,-0.8732411183620168,-0.02855271552156513,-0.0008102452298602073
0.21,-0.18430948838842764,1.4064994027806226,-1.4706273868102306,0.03953576064793318,-0.020390248973352187,-0.000229428904573463,-1.5360786818629795,-1.2740401834389836,0.8866233167218937,0.33228528755789427,-0.18146367360615073,-0.0021309166368152525,-4.877253945400482,-2.5303679124616067,4.102549377975702,1.284558749993601,-1.1042006404770497,-0.018301756715363382,-0.13577428162057492,-3.842360732709325,-3.9761336624480617,-0.8583064858859109,-0.02352168343983197,-0.0007371038632026611
0.22,-0.20015511326902743,1.3935083315607784,-1.46135617384358,0.04298603431907354,-0.022293041163095575,-0.00025187933752675713,-1.5845624880599778,-1.2991071219844295,0.9271212966650462,0.3450273671140355,-0.19027921897433878,-0.0022450432953294132,-4.607771366599287,-2.1903228720879855,4.094356116789753,1.2625392887268996,-1.1188537504661014,-0.018362614035696723,-0.09757557986326348,-3.572755749603962,-3.904469205076491,-0.8440989156267027,-0.01870372852868374,-0.00066567713281706
0.23,-0.2164589636044106,1.3803004603516384,-1.4516806681865135,0.04656171966971466,-0.024283993940108894,-0.0002754710576132289,-1.6303850335383168,-1.320787120913991,0.9675505657066517,0.3575685350641122,-0.19909527770133192,-0.0023591720086471777,-4.335506940599823,-1.8543820999133223,4.084438937749881,1.239675958724387,-1.129164280744071,-0.018203002885603947,-0.0644378264678489,-3.3049676107583807,-3.835943915627559,-0.8307031998958458,-0.01412600664845201,-0.0005963211336514351
0.24,-0.23319415745384914,1.366909248893428,-1.4416017328895896,0.050260730295332276,-0.026362800924399993,-0.0003001973566074116,-1.6735193849438526,-1.3391211458210455,1.0078935296923983,0.36990106256176136,-0.20788069842910994,-0.0024726298994182713,-4.061288980604429,-1.523576829090401,4.07213165205575,1.2157745748877362,-1.1342071253318693,-0.017784346151843433,-0.036340504099882764,-3.0401156326719927,-3.7709507165256726,-0.8181964379196393,-0.009812096484303243,-0.0005293597020132623
0.25,-0.25033362174897406,1.3533676443650928,-1.4311204736478402,0.05408088373074687,-0.02852879149096072,-0.0003260437451832714,-1.7139464295124929,-1.3541604528335245,1.0481259241749292,0.3820153435414594,-0.21659905665607268,-0.002584638857585981,-3.7860278414217463,-1.1989064230348423,4.0567616967104545,1.1906505392362945,-1.1330586262110867,-0.017068620322216788,-0.013180762059803064,-2.779300498126575,-3.7098566534559505,-0.8066473631515336,-0.0057817937251779875,-0.00046508093640694427
0.26,-0.26785017786276816,1.339707981666085,-1.4202383060498074,0.058019883374113256,-0.03078087935056679,-0.00035298693259449096,-1.7516556113794126,-1.3659662699007704,1.088216759803283,0.39389996433663876,-0.2252087859606069,-0.0026943187411219535,-3.510711057673176,-0.8813296691532972,4.037657620010802,1.1641295217720256,-1.1248315322297362,-0.01602010719229785,0.005218947511260064,-2.523593005220935,-3.6529999799791693,-0.7961157525970226,-0.002050970217974228,-0.00040373425637684786
0.27,-0.28571663419146454,1.3259618877570516,-1.4089570226358923,0.06207530120308431,-0.0331175144229769,-0.00038099388071750743,-1.7866456328696403,-1.3746093909033397,1.12812834139152,0.4055417828971055,-0.23366350724101037,-0.002800694812301646,-3.2363942101557113,-0.5717565037617223,4.014156515415883,1.1360484474881218,-1.108716009098437,-0.014607411336526432,0.019101952442524994,-2.2740226638909142,-3.600687454252769,-0.7866519285806309,0.001368497273066649,-0.0003455280966674898
0.28,-0.303905885057295,1.3121601908867269,-1.3972788590317995,0.06624456140414019,-0.03553664025618883,-0.0004100209801000258,-1.8189250865830449,-1.3801696870324809,1.1678163604092744,0.41692602010558766,-0.2419125833211933,-0.002902709938251836,-2.9641870318946855,-0.27104033511658154,3.9856113200079015,1.1062566451427038,-1.0840248251101539,-0.012805634532644161,0.028767463898753398,-2.031566377270941,-3.553191891356717,-0.7782963623524302,0.004468726087736012,-0.0002906283217564042
0.29,-0.32239101484870814,1.2983328354711199,-1.3852065584347477,0.07052492504988296,-0.03803565941373616,-0.00044001339857285794,-1.8485129791413157,-1.3827355415607059,1.207230059705175,0.42803636457427785,-0.24990191575473333,-0.0029992418472832134,-2.695234618888401,0.02002887556603638,3.9513978881828615,1.0746170420291872,-1.050239910734371,-0.010598550616301772,0.034560025832343244,-1.7971374577554267,-3.5107500134393312,-0.7710793875747064,0.007245754068940839,-0.0002391574299980448
0.3,-0.3411454058979634,1.2845088033139187,-1.372743433751776,0.07491347596379941,-0.04061140927320337,-0.00047090465264876285,-1.8754391049255257,-1.382403215720109,1.2463124682971711,0.43885509139164464,-0.257574985946721,-0.0030891254075904903,-2.4306940680473423,0.3007306281524893,3.910921750580945,1.0410073162386855,-1.0070566701326902,-0.007980585122201234,0.03685864683133594,-1.5715752321610017,-3.4735606371337147,-0.7650210300307299,0.009699395272482966,-0.00019119459694190265
0.31,-0.36014284818685754,1.2707160417653367,-1.3598934267208633,0.07940710790949981,-0.04326015051736571,-0.0005026164476383168,-1.8997442288894144,-1.3792761548581975,1.2850007030912722,0.44936319457004026,-0.264874124416234,-0.003171179498955397,-2.1717073798319277,0.5704188655294965,3.8636244720211588,1.0053209445926736,-0.9544218834583997,-0.004958383461573623,0.036065947765585415,-1.3556354859334232,-3.441783233321644,-0.7601309578705462,0.01183302929006768,-0.0001467765837154489
0.32,-0.37935764860907795,1.2569813993125254,-1.3466611633861774,0.08400251323354363,-0.04597757023234128,-0.0005350588237786729,-1.9214800422220397,-1.3734642452811276,1.3232263334686056,0.4595405324043819,-0.2717419714975569,-0.0032442376140356067,-1.919371966509445,0.8285258233793743,3.8089895296459284,0.9674681102128311,-0.8925609500869518,-0.0015517581362739508,0.0325976421906935,-1.1499819823066033,-3.4155368883517814,-0.7564085544024464,0.013653330777105607,-0.00010589950888623801
0.33,-0.39876473724375083,1.2433305689810399,-1.3330520053476635,0.08869617307934606,-0.04875880095318643,-0.0005681306327878427,-1.940708863467288,-1.365083033148555,1.3609158038513816,0.4693659845802426,-0.2781230720845153,-0.003307180900916971,-1.6747105173228793,1.0745646818323684,3.746547642813349,0.9273764572919099,-0.8219907059390144,0.0022061552116515726,0.02687263728943634,-0.9551792687271478,-3.39489968842714,-0.7538431129388593,0.015169947853260993,-6.852145163254586e-05
0.34,-0.418339767947256,1.2297880398071754,-1.3190720962611135,0.09348434927584413,-0.05159845624036311,-0.000601720352777028,-1.9575030703505172,-1.35425291738644,1.397990908654994,0.4788176196498074,-0.28396552871766845,-0.0033589719989185352,-1.438642211574596,1.3081309928239278,3.6758814986246993,0.8849917001746661,-0.743515132767826,0.006269631733827552,0.019304002693959432,-0.7716869504194789,-3.379908540392675,-0.7524141506275513,0.016395139767208813,-3.456582166905459e-05
0.35000000000000003,-0.4380592105781197,1.216377056519338,-1.304728403126318,0.09836307798986549,-0.054490682481242975,-0.0006357072305944746,-1.9719442630863653,-1.3410983287837432,1.4343693134795454,0.48787287140213575,-0.2892226240879863,-0.003398687781744661,-1.2119572845195137,1.5289029001470755,3.596629830511497,0.8402781073136314,-0.6582028742145609,0.010581984793983423,0.010291005000211129,-0.5998555711010223,-3.370559433030577,-0.7520918356764638,0.01734338545501097,-3.925399123137806e-06
0.36,-0.45790043234710615,1.2031195874472285,-1.290028751966303,0.10332816521643164,-0.057429225663492886,-0.0006699627211102498,-1.9841221768986432,-1.3257469072109354,1.4699651160015093,0.49650872265661444,-0.29385431822499114,-0.0034255490515775235,-0.9952967218264223,1.736640212571853,3.508490821234894,0.7932188865820127,-0.5673473738688752,0.01507798525396259,0.0002123499387110539,-0.43992419559769314,-3.3668081337298794,-0.7528375200473731,0.018030975267878627,2.353308215015539e-05
0.37,-0.4778417661280341,1.1900363005647336,-1.2749818575683538,0.10837518416708573,-0.060407510951061755,-0.0007043521746083216,-1.9941333780927921,-1.3083286882494796,1.5046894397949095,0.5047018950654095,-0.29782852875688665,-0.0034389453498071838,-0.7891384138315338,1.9311824303866567,3.411224815282963,0.7438164963858576,-0.4724123611226392,0.019686874463637788,-0.010579284741635414,-0.2920197409198859,-3.3685713065587546,-0.7546043676663741,0.018475598139364932,4.7963958880207374e-05
0.38,-0.4978625640524682,1.177146547469799,-1.2595973470260522,0.11349947460288612,-0.06341873210072317,-0.0007387367082272009,-2.0020797924434106,-1.288975309493457,1.5384510542301524,0.5124290435800393,-0.3011221149661415,-0.0034384533618879278,-0.5937905086636673,2.1124458587545725,3.3046563384047505,0.6920928979390553,-0.3749670157260653,0.02433570224201284,-0.02176140108859745,-0.1561580538701719,-3.37572802978267,-0.7573380665617264,0.018695935803362942,6.953743836863333e-05
0.39,-0.5179432353054266,1.1644683550152903,-1.243885776889576,0.11869614414569407,-0.06645594716912956,-0.0007729751868611838,-2.0080671252958453,-1.2678192454508752,1.571157013647625,0.5196669542807946,-0.30372150684063937,-0.003423847863398292,-0.4093920560991208,2.2804199644926384,3.188675433393984,0.6380897501827842,-0.27661617733086397,0.028952689381682585,-0.03304454746169938,-0.032246686973821825,-3.3881216840648865,-0.7609776121335905,0.01871127442674589,8.843434979586889e-05
0.4,-0.5380652676908046,1.15201842423098,-1.227858643798008,0.12396007158827327,-0.06951217663536417,-0.0008069262341127137,-2.0122032385377997,-1.2449930784310235,1.6027133091567933,0.526392744257919,-0.30562294662346134,-0.0033951047251529875,-0.23592042764453747,2.435163144547428,3.0632383308515205,0.5818685331985023,-0.17893128008236725,0.03347032550563722,-0.04417397740588777,0.07991071742893952,-3.405562177128,-0.7654561479839337,0.018541142307390023,0.00010484101981921999
0.41000000000000003,-0.5582112331912716,1.1398121361193143,-1.211528388531587,0.12928591220984545,-0.07258050002867539,-0.0008404501950780885,-2.014596550046697,-1.220628811166588,1.6330255266420828,0.5325840621572168,-0.30683233933112203,-0.0033523960965374817,-0.07320451160685744,2.5767980742738343,2.928367481263994,0.5235105718045645,-0.08338727536782298,0.037827963203721865,-0.054930216904512774,0.1806085611748498,-3.4278284665634695,-0.7707018503506791,0.018204980276051688,0.00011894443274059358
0.42,-0.5783647783575645,1.1278635638663557,-1.1949083934832083,0.13466810508847843,-0.07565414739758114,-0.0008734109795345168,-2.0153545166292917,-1.1948572252958638,1.6619995048378817,0.5382192878632976,-0.30736473689057503,-0.0032960784456428235,0.07905763753625104,2.705506792776596,2.7841509802490023,0.4631169211014967,0.008690216680699026,0.041973746322425176,-0.06512868364031682,0.2702320979404417,-3.454671339640811,-0.7766388421362583,0.017721849315169916,0.0001309278141408148
0.43,-0.5985106008846226,1.1161854909831637,-1.1780129736067677,0.1401008823845706,-0.07872658244553904,-0.0009056777254455623,-2.014582252705813,-1.1678072883192088,1.689541987644053,0.5432777296092188,-0.30724350479579066,-0.0032266745911045465,0.2212781559074966,2.821525663360645,2.6307414223546215,0.4008080716932607,0.09616469621047097,0.04586579868220181,-0.07461851828352858,0.3492490925162359,-3.485816407200093,-0.7831881227270971,0.017110177849139836,0.00014096674900872296
0.44,-0.6186344141377889,1.104789434879963,-1.1608573609550306,0.14557828055057165,-0.0817915748270999,-0.0009371262371710682,-2.012381325316624,-1.1396056103200758,1.715561265173716,0.5477398166001032,-0.30649923815608593,-0.0031448511725505894,0.353957171711713,2.925140322567155,2.468354220663994,0.33672343464413146,0.17811422648258102,0.04947268388304865,-0.08328079348684958,0.4182005252714516,-3.5209672677918826,-0.7902685002020173,0.016387549320121524,0.00014922591375198245
0.45,-0.638722901666532,1.0936856753734463,-1.143457682971564,0.15109415340110519,-0.08484325987142545,-0.0009676401687461958,-2.0088487528743193,-1.1103759506516684,1.739967798346659,0.5515872850533533,-0.3051685044325554,-0.0030513931575127614,0.47766034446812083,3.016680704524272,2.297265430107011,0.27102057420306735,0.25384268978696456,0.052773215494840875,-0.09102626247416917,0.4776905449277966,-3.559808797955496,-0.7977975130740665,0.015570529147676815,0.00015585646886135925
0.46,-0.6587636638847105,1.0828832876339103,-1.1258309347499553,0.15664218695530932,-0.08787618480040696,-0.0009971119385353802,-2.0040762218178543,-1.0802387739535964,1.762674822160853,0.5548033554204135,-0.3032924928981503,-0.0029471769789184508,0.5929972116792122,3.0965162012829723,2.117809112358099,0.20387416841853323,0.32287819255031724,0.05575574296157182,-0.09779279768768528,0.5283758769802379,-3.602010524744113,-0.8056923293709698,0.014674529034891574,0.00016099412792959828
0.47000000000000003,-0.6787451591155744,1.0723901790911992,-1.1079949455190268,0.1622159159402011,-0.09088534126785608,-0.001025443376173095,-1.9981495230863895,-1.0493108542711165,1.7835989230928444,0.5573728984891774,-0.30091564674491167,-0.002833143763771485,0.7006011550518482,3.1650509966614537,1.9303742800293198,0.13547469204827856,0.3849607706506024,0.058417060653106034,-0.10354265300977161,0.5709548947900138,-3.6472300372202304,-0.8138706116221325,0.013713705834402356,0.00016475789115735122
0.48,-0.6986566411148643,1.0622131298344495,-1.0899683396550182,0.16780874182107047,-0.09386618471094399,-0.0010525461150361327,-1.991148199928987,-1.0177049256749766,1.8026605864008607,0.559282588086936,-0.2980843443087917,-0.0027102738863037656,0.8011115415883107,3.222719592303306,1.7354014579834676,0.06602683075175797,0.44002198116642255,0.060761088562972965,-0.10825966273158988,0.6061565562218543,-3.6951163946225325,-0.8222513371866755,0.012700891790791417,0.00016724940866976533
0.49,-0.718488095019441,1.0523578360586272,-1.0717704925606188,0.17341395220322658,-0.09681464154024183,-0.0010783417530086776,-1.9831453904576768,-0.9855293775822315,1.8197847094399264,0.5605210382156115,-0.2948456829297834,-0.0025795637972544864,0.8951583627184286,3.269982530780954,1.5333789002751121,-0.004252351152580047,0.488159062305316,0.06279745833693384,-0.11194646865459398,0.6347294012468666,-3.745313490257413,-0.8307555643366838,0.01164755286927006,0.00016855292148287095
0.5,-0.7382301734461341,1.042828956129509,-1.0534214817860768,0.1790247414297138,-0.09972710558390692,-0.0011027618108310642,-1.9742078426693024,-0.9528879929118214,1.834901077454208,0.5610789226487225,-0.2912464043665086,-0.0024420057822386585,0.9833495003544018,3.307322311581129,1.3248385025797509,-0.07513545614465844,0.5296061738118052,0.06454011394178177,-0.11462184512704346,0.657430795577819,-3.7974633319340794,-0.8393071356125003,0.010563771988316865,0.00016873571575364184
0.51,-0.7578741342089864,1.0336301588572288,-1.0349420337991257,0.18463423218262087,-0.1026004254445465,-0.0011257475209969748,-1.964396076285236,-0.9198797272280149,1.8479447986950959,0.5609490752907068,-0.28733198606395915,-0.0022985710165910624,1.066260596970182,3.3352394911328087,1.110351451927345,-0.1463869709462422,0.5647048833111592,0.06600600791468003,-0.11631817169823863,0.6750165924189511,-3.8512092019874538,-0.8478333111971605,0.009458254217706671,0.00016784901853823857
0.52,-0.7774117808529346,1.02476417358633,-1.0163534668378378,0.1902354978818905,-0.10543188453634653,-0.0011472494813283306,-1.9537646643948163,-0.886598527089872,1.8588566961287987,0.5601265699269647,-0.2831459091800023,-0.0021501960331355816,1.1444273962937832,3.3542489568260594,0.8905236579189588,-0.21776560975657056,0.5938756233374498,0.06721394615099191,-0.11707908528893626,0.6882313690051954,-3.906198662653858,-0.8562653264104274,0.008338351312040018,0.0001659292599189091
0.53,-0.7968354069344616,1.0162328417272963,-0.9976776303033765,0.19582158566547544,-0.10821917556567924,-0.001167227206484397,-1.9423626081527043,-0.8531331859033557,1.8675836534461268,0.558608778358493,-0.278729102933272,-0.0019977725156066183,1.2183403472607286,3.3648763662539154,0.6659910120828743,-0.289026734910915,0.6175913784265674,0.0681836096444477,-0.11695732883504184,0.6977993769706213,-3.962086375792999,-0.864538868883697,0.007210103265443761,0.0001629996261873414
0.54,-0.8161377447270606,1.0080371693708845,-0.9789368411676964,0.2013855397284765,-0.11096037112527314,-0.0011856486082684186,-1.9302337792598898,-0.8195672356411778,1.874078913568013,0.5563954063001062,-0.2741195559593902,-0.0018421401784021582,1.2884412202602316,3.3676547457406096,0.4374145243104275,-0.35992480680915007,0.6363544220922277,0.06893476184562575,-0.1160128014625953,0.7044163259517177,-4.0185367096693625,-0.8725944725189207,0.006078294853470053,0.00015907183095996544
0.55,-0.835311918799674,1.0001773806424925,-0.9601538178842123,0.20692042479657138,-0.11365389191560812,-0.0012024894321842484,-1.917417407261343,-0.785978872839208,1.8783023283484153,0.5534885068094874,-0.2693520790334985,-0.001684082391582993,1.3551214648866363,3.3631212457711612,0.20547538708027213,-0.43021581699650957,0.6506765414494842,0.0694866358451689,-0.11431080635152073,0.7087420984962082,-4.075226109666568,-0.8803778269216215,0.0049465253474466255,0.0001541480349237056
0.56,-0.8543514047144667,0.9926529714695889,-0.9413516122971725,0.21241934951049501,-0.11629847391126552,-0.0012177326737134904,-1.9039485914792622,-0.7524409172903627,1.8802205587039835,0.549892471392364,-0.26445819956573946,-0.001524324152924196,1.4187220363182655,3.3518140545407302,-0.029129980816001044,-0.4996596616332898,0.6610628783638548,0.06985748606542258,-0.11192048632238588,0.7113944716945824,-4.131845214330479,-0.8878400025874544,0.00381728973332637,0.00014822284979482017
0.5700000000000001,-0.8732499929183993,0.9854627634512229,-0.9225535400477961,0.2178754895033604,-0.11889313557502332,-0.0012313679935984877,-1.8898588203932671,-0.7190208018365988,1.8798072249376345,0.5456139992865365,-0.25946616637577974,-0.0013635319884997353,1.4795344278475338,3.3342694740141017,-0.2656948592920787,-0.5680224167808519,0.6679992836752486,0.07006428377983981,-0.10891343349525626,0.7129438974483935,-4.188100702916111,-0.894937593667368,0.0026920698421380278,0.00014128536759775768
0.58,-0.8920017577610869,0.9786049575351142,-0.9037831099721966,0.2232821099609295,-0.12143714600500487,-0.0012433911473096566,-1.8751764842687635,-0.6857805916108662,1.87704300755995,0.5406620457569113,-0.25440104299815514,-0.0012023153711168916,1.5378026656852724,3.3110191653123837,-0.5035070700040851,-0.6350784815702686,0.6719429203961278,0.07012253358878079,-0.10536245771548633,0.7139093694768152,-4.243716865527927,-0.9016327815917111,0.0015714338120630094,0.00013332116225704235
0.59,-0.9106010314578418,0.9720771872250092,-0.8850639529778322,0.22863258746623266,-0.12392999469242486,-0.0012538034400464328,-1.8599273696754868,-0.6527770310105039,1.8719156994364328,0.5350477505303158,-0.24928486874199948,-0.0010412292736776156,1.5937260455787716,3.282587571763441,-0.741853688812466,-0.700612560122323,0.6733157531173726,0.07004618813995095,-0.10134049838333896,0.7147553816298097,-4.298436891861006,-0.9078933241550182,0.00045514226838438976,0.00012431421657781947
0.6,-0.9290423827292085,0.9658765710590087,-0.8664197508719454,0.23392043094383175,-0.1263713633777652,-0.0012626112151945638,-1.8441351271366722,-0.6200616166000544,1.8644202105886774,0.5287843477599085,-0.24413686853403388,-0.0008807775148131104,1.647462416465693,3.249489528522435,-0.9800255822614246,-0.7644214578570467,0.6725005123348256,0.06984764001334787,-0.0969196654312499,0.7158899594290946,-4.352023879338824,-0.9136924758125909,-0.000657740454474318,0.00011424873387732459
0.61,-0.9473205997837555,0.9599997641184713,-0.8478741655975184,0.2391393015351633,-0.12876110032649993,-0.0012698253812037192,-1.8278217054546972,-0.5876806940537367,1.8545585274427037,0.5218870591331543,-0.2389736948734728,-0.0007214166009155436,1.6991318424752755,3.2122280673398222,-1.2173217268071495,-0.8263156724439846,0.6698387120016429,0.06953777207644529,-0.09217039705927352,0.7176637255882469,-4.404261565975157,-0.9190088458870552,-0.001768731795787017,0.00010311079977981668
0.62,-0.9654306772662828,0.9544430083468284,-0.8294507693101317,0.24428303125440717,-0.13109919720397756,-0.0012754609793784442,-1.8110077482527396,-0.5556755771642979,1.8423396287386633,0.5143729719243862,-0.23380968774776345,-0.0005635598174724953,1.7488204998031034,3.1712924239397076,-1.4530532744606606,-0.8861207640328868,0.6656303152256235,0.06912605045262346,-0.08716072410306569,0.7203699411151953,-4.454954797448538,-0.9238262021065492,-0.002879814965647148,9.088986597078375e-05
0.63,-0.9833678067658614,0.9492021814780977,-0.8111729757032803,0.24934564029384088,-0.13338576861289345,-0.001279536793077662,-1.7937129499578544,-0.5240826868730768,1.8277793606851476,0.5062609039433703,-0.2286571408915882,-0.00040758136992178256,1.7965846884932941,3.127156253722151,-1.6865473340575363,-0.9436784935542715,0.6601346771903058,0.06862064695015715,-0.0819556332605966,0.7242454469421422,-4.503929741571987,-0.9281332273848202,-0.003993323304147583,7.758003399490461e-05
0.64,-1.001127370464337,0.9442728443958796,-0.7930639729607539,0.25432135286829916,-0.13562103426462105,-0.001282074997259041,-1.7759563698475644,-0.49293370822181176,1.8109002742526343,0.49757125744582886,-0.2235265651727589,-0.00025382041813788085,1.8424548604792281,3.0802760592918372,-1.9171504433183468,-0.9988477217906411,0.653572438455015,0.06802858036203674,-0.07661652359450576,0.7294724172302427,-4.551033866494009,-0.9319232380059678,-0.005111826852763028,6.318112343190568e-05
0.65,-1.0187049375035047,0.939650286764936,-0.7751466586832487,0.2592046115098148,-0.13780530368526855,-0.001283100846137008,-1.757756703916761,-0.46225576309435545,1.7917314277505159,0.48832586415156015,-0.21842694206475122,-0.00010258488779670458,1.8864395841368835,3.031089830816403,-2.1442317130154303,-1.0515050656139593,0.646128089939217,0.06735586825494547,-0.0712007525704217,0.7361808248144206,-4.596135701529212,-0.9351938714010857,-0.0062380229464366055,4.769951492892836e-05
0.66,-1.0360962626557622,0.9353295707988493,-0.7574435771030585,0.2639900897454316,-0.13993896330593542,-0.0012826423958946312,-1.7391325152257537,-0.4320715966086714,1.7703081580190214,0.4785478235616815,-0.2133659620666858,4.584502423768833e-05,1.9285293820540155,2.980015897596646,-2.367185630712988,-1.1015453112786506,0.6379529789345355,0.06660768265938578,-0.06576126926399253,0.7444515118211151,-4.6391244014628406,-0.9379467515172759,-0.007374632545171197,3.1148764522720075e-05
0.67,-1.0532972868967205,0.9313055730484756,-0.7399768588661434,0.2686727031132294,-0.14202246575133542,-0.001280730258848057,-1.7201024240958351,-0.4023997750373655,1.746671823691518,0.4682613367797797,-0.20835024454000223,0.00019121370465742415,1.9687003928010023,2.9274519866392668,-2.585434517509245,-1.1488815879957084,0.6291685705866525,0.06578850456240543,-0.06034633320647077,0.7543197543183877,-4.679909136502055,-0.940187139405195,-0.008524303885935,1.3549991350851155e-05
0.68,-1.070304139497287,0.927573024116694,-0.7227681636256802,0.2732476184934631,-0.14405632111886166,-0.0012773973851578618,-1.700685260056655,-0.3732548931781637,1.720869524046317,0.4574915380233687,-0.20338553675262316,0.0003332873690195172,2.0069178193762927,2.873774481587776,-2.798430636826706,-1.1934453081913512,0.6198698197340891,0.06490227319176066,-0.0549993176297484,0.7657792088368175,-4.718418330778302,-0.9419235761185119,-0.0096895248525867,-5.067953883112737e-06
0.6900000000000001,-1.0871131412757717,0.9241265462250681,-0.7058386256559412,0.27771026175309527,-0.1460410900286339,-0.0012726788680707689,-1.6809001778484731,-0.3446477891625877,1.6929537969739,0.44626432596321913,-0.19847689097722493,0.0004718517087092981,2.043139136906147,2.8193378731929855,-3.005657959430142,-1.2351858838975769,0.6101285429183791,0.06395252697198911,-0.04975859565206554,0.7787861305189955,-4.754598772480048,-0.9431675243600199,-0.01087254523932815,-2.4668527565927093e-05
0.7000000000000001,-1.1037208086764436,0.9209606885772779,-0.689208802660537,0.28205632372259476,-0.14797737822173898,-0.0012666117687184465,-1.6607667400671906,-0.3165857647790177,1.6629822995404226,0.4346061969499509,-0.19362881931050754,0.0006067099352322302,2.0773170403473125,2.7644743906652347,-3.206633593404513,-1.2740702316267924,0.5999967095394378,0.06294253361720847,-0.04465750728721496,0.7932637572150887,-4.788414618368427,-0.9439330145589648,-0.012075309830117214,-4.5207722675304164e-05
0.71,-1.1201238583687712,0.9180699604823572,-0.6728986279151632,0.2862817645434056,-0.1498658324867346,-0.001259234956665513,-1.6403049692327585,-0.28907280949206043,1.6310174745373753,0.4225440820810839,-0.18884542649956243,0.0007376812052933394,2.1094021196165937,2.7094938017975942,-3.400908891721495,-1.3100820808495328,0.5895095947140376,0.06187540738384062,-0.039724404161599294,0.8091067606732976,-4.819846314667148,-0.9442363002566181,-0.013299402942217911,-6.663446938585892e-05
0.72,-1.1363192120905758,0.9154488622177582,-0.6569273658523931,0.29038281644269454,-0.15170713770188105,-0.0012505889626577605,-1.6195353721804677,-0.26210982645990283,1.597126206277009,0.41010518992889217,-0.1841305215146455,0.0008645994007752494,2.1393452549920213,2.654683368703164,-3.5880702532317557,-1.3432211037827528,0.57868875486768,0.06075421183421342,-0.03498276759980417,0.8261856746614853,-4.848889455196299,-0.9440955268449037,-0.014546004797123603,-8.889118433225626e-05
0.73,-1.1523040014879247,0.9130919136279466,-0.641313571165088,0.29435598500861176,-0.15350201479116335,-0.001240715840351993,-1.59847893973489,-0.23569485898116582,1.5613794687305105,0.397316856591723,-0.17948770892823157,0.0009873122305767686,2.1670997300177994,2.6003079453721845,-3.7677396354290495,-1.373501886594287,0.567544801087907,0.05958204685343482,-0.0304513944113846,0.8443512199590886,-4.8755535962149645,-0.9435304168756458,-0.015815859797079734,-0.0001119144441591372
0.74,-1.168075572734325,0.9109936804685591,-0.626075051475909,0.2981980490541207,-0.1552512194049445,-0.0012296590341907146,-1.577157124640043,-0.2098233159387496,1.5238519689178978,0.38420640455089267,-0.17492046137811393,0.0011056806161278338,2.192623062730449,2.5466102029996267,-3.9395747991597196,-1.4009527642814188,0.5560799555012825,0.058362118982667854,-0.026144643395633188,0.8634384572303075,-4.899861045825968,-0.9425619743614471,-0.017109256510372428,-0.00013563575786428681
0.75,-1.1836314907412855,0.909148798519093,-0.6112288335933885,0.30190605917026414,-0.15695554115027704,-0.0012174632510019508,-1.5555918006960394,-0.1844881949466077,1.484621788252052,0.37080101161434725,-0.1704321745332543,0.0012195783188763804,2.215878558918925,2.4938109691275496,-4.103269306651018,-1.4256145433302247,0.5442903831340491,0.05709779445521984,-0.02207273438679226,0.8832707103997475,-4.921845644051804,-0.9412122097448159,-0.01842601891292457,-0.00015998241209096525
0.76,-1.1989695428012832,0.9075519954986631,-0.5967911333501842,0.305477335080364,-0.15861580321093946,-0.0012041743333427132,-1.5338052059997824,-0.1596803020429963,1.443770024320439,0.35712759100998676,-0.166026206066241,0.0013288917659237645,2.2368365935960757,2.4421096670292517,-4.258552294852081,-1.4475391377630924,0.5321682965723329,0.055792634709339095,-0.018242090673890474,0.9036632148965409,-4.941551547879351,-0.9395038865359546,-0.019765508204887698,-0.0001848783639092527
0.77,-1.2140877415323839,0.9061981108295851,-0.5827773289965572,0.3089094619149572,-0.1602328622127607,-0.0011898391330509392,-1.5118198731100634,-0.13538846690779074,1.4013804353626969,0.34321268345932177,-0.1617059001821231,0.0014335200291773899,2.2554756289311317,2.3916848423766974,-4.405188046214728,-1.466788145243532,0.5197038338911941,0.054450414525523794,-0.01465571491885348,0.924426456653112,-4.9590320337517415,-0.9374602900232321,-0.021126634325442217,-0.0002102451566706411
0.78,-1.2289843270209828,0.9050821133024871,-0.5692019381018046,0.3122002855331586,-0.16180760820548393,-0.001174505383913732,-1.4896585488598937,-0.11159975270979813,1.3575390894752621,0.32908236182013795,-0.15747459927232257,0.0015333749137207233,2.271782978726564,2.342694765010354,-4.542975378758693,-1.4834313905021794,0.5068867123268337,0.053075123326640994,-0.011313588305260011,0.9453691787303853,-4.9743483282073475,-0.935105017950324,-0.022507876131081992,-0.00023600283614129338
0.79,-1.2436577680852192,0.9041991167043758,-0.5560785978983074,0.31534790701955406,-0.1633409646481111,-0.001158221572788906,-1.467344106423631,-0.0882996598111295,1.312334020349729,0.31476214863954577,-0.15333564426271795,0.0016283811124825963,2.285755331180722,2.295278094505317,-4.6717468766695,-1.49754546337903,0.4937076614833833,0.05167095062553162,-0.008213082598448669,0.9663010426392422,-4.9875684756678105,-0.9324617926327123,-0.023907309084897934,-0.0002620708462159558
0.8,-1.2581067626063718,0.903544393477688,-0.5434200489869783,0.31835067648666815,-0.16483388830023168,-0.0011410368089217339,-1.444899452115245,-0.06547232266878397,1.2658548911329084,0.300276946711406,-0.14929236521205838,0.001718476386717222,2.2973990432114473,2.249554599137699,-4.7913679818409705,-1.5092122782402804,0.4801596408675337,0.0502422569579245,-0.00534937508245064,0.9870349406443586,-4.9987662507882815,-0.9295542936523077,-0.025322639227570855,-0.00028836888597963314
0.81,-1.2723302368988536,0.9031133864839044,-0.5312381223091179,0.3212071863115674,-0.16628736893716375,-0.0011230006915709835,-1.4223474292481768,-0.04310069937836485,1.2181926677860333,0.2856509824899246,-0.1453480636932076,0.0018036117350750244,2.3067302210557172,2.20562591874788,-4.901735965789943,-1.5185176803585563,0.46623884749548106,0.04879353205065817,-0.00271585693718214,1.0073889634343836,-5.008020121323682,-0.9264060100179166,-0.02675124216407484,-0.0003148177126056765
0.8200000000000001,-1.28632734411113,0.9029017189498892,-0.5195437292779195,0.3239162639313668,-0.16770242882172415,-0.0011041631763890716,-1.399710721227641,-0.021166753401515193,1.1694393031198438,0.2709077619799392,-0.14150598845604045,0.0018837515181912058,2.31377460321126,2.1635763628278983,-5.002778800296233,-1.5255501230738275,0.45194552039430125,0.04732934226774066,-0.0003045264908814668,1.0271880344405553,-5.015412266146102,-0.9230401105043566,-0.02819020580118286,-0.0003413398774486582
0.8300000000000001,-1.3000974616698682,0.9029052026788108,-0.5083468549529953,0.32647696431646234,-0.1690801218799899,-0.0010845744412839033,-1.3770117558738049,0.0003483728921600017,1.119687432492427,0.2560700385095516,-0.13776930582657396,0.0019588735105168205,2.3185672630379024,2.123473735900781,-5.0944539440195875,-1.5303994371786747,0.4372845501198954,0.04585426965727046,0.001893640123853943,1.0462652277523867,-5.021027651874486,-0.9194793307757222,-0.029636375606251417,-0.00036786038560531137
0.84,-1.3136401877977693,0.9031198446103645,-0.4976565541332142,0.328888562232439,-0.17042153254239864,-0.0010642847527188286,-1.3542726127901135,0.021464193155375563,1.0690300819781078,0.24115979159766587,-0.13414106624087643,0.0020289688565074777,2.3211521494643867,2.0853701828937234,-5.176747061257904,-1.5331557110453353,0.42226590294650856,0.04437284507395167,0.003888347126246798,1.0644627910263194,-5.024953170546851,-0.9157458758492416,-0.031086401223022465,-0.00039430727208296314
0.85,-1.3269553371517333,0.9035418518171192,-0.48748095023672994,0.3311505443920646,-0.17172777422483027,-0.0010433443335785572,-1.3315149353964115,0.04220072067547199,1.0175603896484267,0.22619821596255982,-0.13062416824316297,0.002094041914027144,2.3215814852165,2.0493030477312217,-5.249670687953602,-1.5339082966423074,0.4069048711160237,0.042889477969294765,0.005689670915851576,1.081632898060014,-5.027276839870516,-0.9118613364554473,-0.032536783370244494,-0.00042061209045278963
0.86,-1.3400429356421648,0.9041676350251833,-0.47782723683222805,0.33326260158788207,-0.17299998743677217,-0.0010218032338403286,-1.3087598490431467,0.06257832080640735,0.9653713404501884,0.2112057195817464,-0.12722132119419038,0.002154109973822875,2.319915042757285,2.0152957387990704,-5.313262859055771,-1.5327449528280823,0.391222162372304,0.041408385422010974,0.007307789039718553,1.097638157888894,-5.028087066817938,-0.9078466178883503,-0.033983920058361976,-0.0004467103124052601
0.87,-1.3529032145062934,0.9049938107480815,-0.46870168168202503,0.335224620883996,-0.17423933751515475,-0.0009997112053411388,-1.2860278864128623,0.08261757228982791,0.912555515020304,0.19620192961139465,-0.12393500783825923,0.002209202849918984,2.316219318671945,1.9833585952744934,-5.367585710384533,-1.5297511333363527,0.3752438438360488,0.03993352288073437,0.008752748390220836,1.1123519084530824,-5.027471974682292,-0.9037218800067114,-0.035424151282816604,-0.000472541638917822
0.88,-1.365536603718302,0.9060172021227777,-0.4601096331556004,0.3370366779330686,-0.17544701199280735,-0.0009771175819252402,-1.263338921200876,0.10233913746961978,0.8592048526424652,0.181205704907256,-0.12076744776526029,0.002259362341589859,2.310566627506833,1.9534897486077472,-5.412724067224672,-1.5250094227830893,0.35900115696526,0.038468518934413276,0.010034273421414153,1.125658323196304,-5.025518793155605,-0.8995064871360023,-0.036853801484260415,-0.0004980502257502456
0.89,-1.3779437248268145,0.9072348385362006,-0.4520555288713375,0.3386990294716603,-0.17662421761960412,-0.0009540711661946739,-1.2407121108512342,0.12176364134229013,0.8054104284262886,0.16623515385917312,-0.11772056267967614,0.002304641573056629,2.303034136059543,1.9256759737060218,-5.448784030971763,-1.5185991199983722,0.3425302217656969,0.03701661614357321,0.011161613979769856,1.1374523585174452,-5.022313310529559,-0.8952189667228246,-0.03826921920112948,-0.0005231848276797554
0.9,-1.3901253833159115,0.9086439541294642,-0.4445429064245837,0.34021210603423213,-0.17777217706214016,-0.0009306201239750175,-1.2181658489097016,0.14091155932636354,0.7512622446753748,0.15130765625717982,-0.11479594425360437,0.002345104221965644,2.293702858802683,1.8998935246426665,-5.475891574254066,-1.5105959641358044,0.32587164945450287,0.03558061967713089,0.012143431297287888,1.1476395689265515,-5.017939386732845,-0.8908769757032037,-0.039666813474005504,-0.0005478988672652956
0.91,-1.4020825605893692,0.9102419852652437,-0.4375744160615161,0.3415765049137036,-0.17889212531412826,-0.00090681188745518,-1.1957177273457744,0.15980311357795401,0.6968490363067628,0.13643988794714862,-0.11199482519881064,0.0023808236519837532,2.282656634508634,1.8761089500186454,-5.494191154026697,-1.5010719955098573,0.30907008333401054,0.034162855135029035,0.012987719813282193,1.1561358151851084,-5.012478525597742,-0.8864972736581884,-0.04104308669003047,-0.000572150434990076
0.92,-1.4138164056793041,0.9120265670415163,-0.43115183516060845,0.34279298338475067,-0.17998530585460196,-0.0008826930677719523,-1.1733845089934973,0.17845817762726032,0.642258090090765,0.12164784710470551,-0.10931805404736832,0.0024118819683227677,2.2699811032384347,1.854279883463724,-5.503844351178186,-1.490095540024031,0.29217368765789287,0.03276513655383817,0.013701761787543166,1.162866888754964,-5.006009504482057,-0.8820957019405987,-0.04239466367605999,-0.0005959022283856807
0.93,-1.4253282267799947,0.9139955289321424,-0.42527608438663456,0.3438624521952893,-0.1810529665944588,-0.0008583093775958005,-1.1511821100690707,0.19689618906261444,0.5875750773973922,0.10694688105386398,-0.10676607398568468,0.0024383690176151785,2.2557627016930217,1.8343558051943387,-5.505028544184899,-1.4777313035153412,0.2752336037234011,0.03138874524040125,0.01429211114506694,1.1677680736524894,-4.998608059152434,-0.8776871680626804,-0.04371831695867641,-0.000619121438208781
0.9400000000000001,-1.4366194827054388,0.9161468896315991,-0.41994724538599554,0.3447859693220549,-0.1820963556539287,-0.0008337055640425627,-1.1291255925444126,0.21513606994565954,0.532883900063902,0.0923517126765567,-0.10433890594699084,0.002460381355323781,2.240087693534454,1.816278771050576,-5.4979356232943735,-1.4640405603849675,0.2583033913259689,0.030034419673892088,0.014764602646135062,1.1707836644056084,-4.990346621653813,-0.8732856347337832,-0.04501098820579087,-0.0006417795899487523
0.9500000000000001,-1.44769177436536,0.9184788511776395,-0.4151645798966179,0.3455647339780126,-0.18311671701429655,-0.0008089253519957568,-1.1072291659920985,0.2331961546040378,0.47826654893776355,0.07787646559576747,-0.10203613603678335,0.002478021204680586,2.223041249715963,1.7999841060155017,-5.482770750624567,-1.4490814195620807,0.24143847209321811,0.028702356417592667,0.015124382293799761,1.171866456330744,-4.981294108742006,-0.8689041130288695,-0.04626980594717747,-0.000663852348920792
0.96,-1.458546836349061,0.9209897924218132,-0.4109265501506102,0.34620008085263876,-0.1841152860867771,-0.0007840113976840483,-1.0855061983701182,0.251094124417376,0.4238029746007759,0.06353468746262012,-0.09985690724805515,0.002491395431170859,2.2047065921615645,1.785401059862682,-5.4597511704346005,-1.4329091501539217,0.22469558915659515,0.027392221662290384,0.015375954857408282,1.1709772218616512,-4.971515758337256,-0.8645546592519647,-0.04749209973938657,-0.0006853192969764462
0.97,-1.4691865286999188,0.9236782619137026,-0.40723084045317676,0.34669347456094923,-0.18509328523999297,-0.0007590052521262443,-1.0639692350857928,0.2688469491889408,0.36957096974334136,0.04933937083104654,-0.09779991532158502,0.0025006145557803896,2.185164212363913,1.7724534232703122,-5.429105072685028,-1.4155765490433438,0.2081322951948419,0.026103172785316597,0.015523244485926596,1.1680841842380774,-4.961073011362907,-0.8602483751336086,-0.04867541099410277,-0.0007061636884750176
0.98,-1.4796128289555943,0.9265429702604978,-0.404074379826848,0.3470465042735214,-0.18605191932522877,-0.0007339473338387755,-1.0426300255675582,0.2864708346795194,0.31564606263287615,0.03530297125721997,-0.09586340852357976,0.0025057918287468835,2.1644911746724143,1.7610601034566347,-5.3910705118712805,-1.3971343331593538,0.19180647821589902,0.02483388912207285,0.01556966458677334,1.1631624975519694,-4.950023436262099,-0.8559954110680892,-0.04981750072866423,-0.0007263721926374707
0.99,-1.489827824520407,0.9295827820192177,-0.4014533656157804,0.3472608784976211,-0.1869923712357302,-0.0007088769100037624,-1.0214995564812688,0.3039811758719979,0.26210142110676404,0.02143742240996758,-0.09404519105014325,0.0025070423835013072,2.142760512272605,1.751135659109848,-5.3458943820180185,-1.3776315401097587,0.17577593162634053,0.02358261100547454,0.01551819343229502,1.1561937399949436,-4.938420693434856,-0.851804972155284,-0.05091635452403502,-0.0007459346287806002
