tonegas/nnodely-applications/joint_friction_estimation/dataset/validation/mpc_mujoco_episode_10.csv
time,q1,q2,q3,q4,q5,q6,dq1,dq2,dq3,dq4,dq5,dq6,ddq1,ddq2,ddq3,ddq4,ddq5,ddq6,tau1,tau2,tau3,tau4,tau5,tau6
0.0,0.0,1.57,-1.57,0.0,0.0,0.0,0.0,0.0,0.0,0.0,0.0,0.0,-3.210261389793204,-18.051893682407407,3.580755876010251,2.5213349809607166,-0.5065115428206699,-1.5615880242236813e-06,-0.44751873318557783,-12.987184606577038,-7.163577310857768,-1.5257870501824815,-0.04088183176541674,-0.0012489081840780553
0.01,-0.0003194778733883971,1.5682020084655017,-1.5696478790160113,0.00023022183388119973,-4.191245148223004e-05,-2.905218292259537e-07,-0.03194778733883971,-0.17979915344983077,0.03521209839886733,0.023022183388119972,-0.004191245148223004,-2.905218292259537e-05,-3.1437982946615453,-17.99165834338209,3.381578414856101,2.2552476911949597,-0.42610336165060225,-0.002936924861514534,-0.43639378530221185,-12.998892909777146,-7.179206439098348,-1.5300569247229174,-0.04006172605953825,-0.0012424936633594992
0.02,-0.0009515647683812536,1.5646120724728079,-1.5689645972325188,0.0006686805465684948,-0.0001206604464505995,-8.839735172858189e-07,-0.06320868949928564,-0.3589935992693865,0.06832817834925337,0.04384587126872951,-0.007874799496836947,-5.9345168805986505e-05,-3.0664112111834654,-17.928008358986883,3.1592291896764024,2.029901988736569,-0.37712675641298965,-0.003160579556997334,-0.4180878863615208,-12.98920408434926,-7.183187348813011,-1.5317274151780662,-0.03878197537848784,-0.001231046318312424
0.03,-0.0018884067763983168,1.559236538121892,-1.5679730975081871,0.001296414770560454,-0.00023306431028347383,-1.7668458247465992e-06,-0.09368420080170631,-0.5375534350915909,0.09914997243316162,0.06277342239919591,-0.011240386383287433,-8.828723074607802e-05,-2.978063092481365,-17.859873551605816,2.917634447974585,1.8350902424545765,-0.34818605351973986,-0.0031992127286395444,-0.3929581671435976,-12.957698922363214,-7.175287358016131,-1.5307566061286413,-0.037046311230006436,-0.0012145800687975838
0.04,-0.0031211226155293164,1.5520821663850757,-1.5666979893475115,0.0020967162978177177,-0.000377149363506812,-2.932801583963962e-06,-0.12327158391309999,-0.7154371736816347,0.12751081606757605,0.08003015272572639,-0.01440850532233382,-0.0001165955759217363,-2.878270713872109,-17.78595653809159,2.660078984832065,1.663104975305842,-0.3323881542763534,-0.0033937014163512025,-0.36149802536353814,-12.903870220822167,-7.155210587175862,-1.5270879834428017,-0.034859983743070234,-0.0011930756390040973
0.05,-0.004639733391136737,1.5431562695675143,-1.565165279148548,0.003054550247651973,-0.0005517228463284372,-4.384297917298108e-06,-0.15186107756074202,-0.8925896817561478,0.15327101989635553,0.09578339498342557,-0.017457348282162517,-0.00014514963333341456,-2.7662779398045223,-17.704761610462207,2.389393286329799,1.508162547016667,-0.32555311413895716,-0.003774771487583539,-0.32434093343260745,-12.827127729437573,-7.122601787396919,-1.5206515082452947,-0.03223046869317871,-0.0011664911801817137
0.06,-0.006433075270281911,1.5324668659990488,-1.563402132208183,0.004156121992888183,-0.0007561133442673929,-6.13083028454453e-06,-0.1793341879145175,-1.0689403568465479,0.1763146940364844,0.11015717452362096,-0.020439049793895575,-0.00017465323672464226,-2.6411628285609683,-17.61462095051283,2.1080980360007224,1.3659605700908557,-0.3251474392154723,-0.004345050821091601,-0.2822636965542446,-12.726805365252243,-7.0770512212827095,-1.5113648487772444,-0.029168364944414472,-0.0011347721545024664
0.07,-0.008488702042232621,1.5200228507213949,-1.5614366552665,0.005388557273911032,-0.0009900084118474343,-8.187569317697618e-06,-0.20556267719507093,-1.2444015277653846,0.19654769416831103,0.12324352810228496,-0.023389506758004136,-0.00020567390331530875,-2.5019071237657102,-17.513719728248745,1.818515007951362,1.233338902443613,-0.32963869932204304,-0.00511822040046539,-0.23618764594401265,-12.602170618377926,-7.018100639894929,-1.4991347961730215,-0.025688442639249843,-0.0010978613615587837
0.08,-0.010792782395504385,1.505834179953839,-1.5592976909806042,0.00673966981025839,-0.0012533512221646417,-1.0574625878398246e-05,-0.2304080353271764,-1.4188670767555838,0.21389642858957583,0.1351112536347358,-0.026334281031720738,-0.00023870565607006289,-2.3474448808695607,-17.400121175009673,1.5228512695395366,1.108020035235171,-0.33809845435730423,-0.00612315157882648,-0.18717618246131795,-12.452436065784493,-6.945250391433264,-1.483858883772969,-0.021810809530418918,-0.00105570963583234
0.09,-0.0133299956223796,1.4899120670534869,-1.557014617807394,0.00819779674197838,-0.0015462719643969166,-1.331677084829491e-05,-0.2537213226875215,-1.5922112900352203,0.22830731732101797,0.14581269317199896,-0.029292074223227483,-0.0002742144969896665,-2.1767004449773166,-17.271792196360533,1.2232619172353623,0.9884100823366069,-0.34994928118036484,-0.007404333375477634,-0.1364270028948194,-12.276772808784006,-6.857967660018096,-1.465427218800075,-0.017562162110480083,-0.0010082875229575872
0.1,-0.016083428978738636,1.4722691875794571,-1.5546171504757191,0.009751686820333956,-0.001869038387619724,-1.644345295257896e-05,-0.2753433356359035,-1.764287947402965,0.23974673316748873,0.15538900783555754,-0.03227664232228074,-0.0003126682104284051,-1.9886227066539532,-17.126628054944927,0.921895327638012,0.8734458904331461,-0.36479038867038227,-0.009022785602039729,-0.08525729670992224,-12.074324738401156,-6.755695511841615,-1.4437244681014996,-0.012977082626018877,-0.0009555980635275814
0.11,-0.019034479893916604,1.4529198911228665,-1.5521351376334918,0.011390429749495062,-0.00222201467646603,-1.9989001930041082e-05,-0.29510509151779674,-1.9349296456590572,0.2482012842227331,0.16387429291611064,-0.035297628884630596,-0.0003545548977462121,-1.7822211462664548,-16.962484842406123,0.6209235682356855,0.7624769497236557,-0.3822574412499238,-0.011057451136711638,-0.03508019856939365,-11.844227786778156,-6.637864302849543,-1.4186323215328802,-0.00809933061515837,-0.0008976908574370205
0.12,-0.02216276656133599,1.4318804167577073,-1.5495983544807814,0.013103417703034581,-0.0026056200580196285,-2.399292348189696e-05,-0.31282866674193854,-2.10394743651591,0.2536783152710322,0.17129879535395184,-0.03836053815535987,-0.0004003921551855877,-1.5566168032785286,-16.776995124885662,0.322567581351219,0.6551768753777694,-0.40188232561741355,-0.013606091098196771,0.012628444005199885,-11.585520577580175,-6.503865328893275,-1.3900243076807666,-0.00298312231897575,-0.0008346739370863591
0.13,-0.025446051891598882,1.4091691305503387,-1.5470362883904625,0.014880332168717049,-0.0030202789051457044,-2.8500180541119376e-05,-0.3283285330262893,-2.2711286207368677,0.2562066090319002,0.1776914465682468,-0.04146588471260759,-0.00045072570592224136,-1.311429998553166,-16.557118494366428,0.029434986431741805,0.5516204943952658,-0.42292394092857233,-0.016783757149755996,0.056347842884746674,-11.291891216007842,-6.351204752701174,-1.357393019661013,0.002303185512003675,-0.0007665754835284959
0.14,-0.028860218663703783,1.3848078264149808,-1.544477877954781,0.01671115745314347,-0.0034663544485529466,-3.35613232488341e-05,-0.3414166772104901,-2.436130413535797,0.2558410435681463,0.18308252844264228,-0.04460755434072423,-0.0005061142707714722,-1.085596489784288,-15.035770236927679,-0.2191230927313761,0.46912171033728356,-0.444438466167723,-0.020714915064294903,0.09154703363643266,-10.327781973847799,-5.955880430595281,-1.2755833055979064,0.007387737919415549,-0.0006751886419843648
0.15,-0.03238310770461334,1.3589479851505095,-1.541946822916923,0.018586948415250975,-0.003944252056245273,-3.9234829048677755e-05,-0.3522889040909557,-2.585984126447132,0.25310550378579205,0.18757909621075047,-0.04778976076923261,-0.0005673505799843659,-0.8533940106749345,-13.296211638088003,-0.4432078723353605,0.3848615743929713,-0.4653688702279375,-0.02545649527980931,0.11864021789995365,-9.239510929072573,-5.520611029831475,-1.1862451232142797,0.01229366794669157,-0.0005801926579683018
0.16,-0.035991994656463376,1.3317628460583253,-1.5394643332758247,0.020498628460490585,-0.004454238321571623,-4.558585332945204e-05,-0.36088869518500377,-2.71851390921843,0.24824896410984462,0.19116800452396088,-0.05099862653263503,-0.0006351024280774281,-0.612681960863389,-11.44582328800225,-0.6450116652371918,0.2980568052837711,-0.4819672974395699,-0.030992009181694646,0.13715187211647117,-8.083096255312672,-5.068488728598288,-1.09427509298663,0.016938924151624526,-0.0004844840397280184
0.17,-0.03966337525885115,1.3034367071896609,-1.537049411526022,0.022436982955851306,-0.004996204963519605,-5.268274238634984e-05,-0.36713806023877765,-2.8326138868664326,0.2414921749802718,0.19383544953607207,-0.05419666419479822,-0.0007096889056897799,-0.3636276472319088,-9.556978586399088,-0.8256854020280251,0.20936433156301604,-0.488989947514775,-0.03715180678810004,0.14696693906105726,-6.8966648481332,-4.615378395014577,-1.0030327632475629,0.021234663156393684,-0.00039036772865391723
0.18,-0.04337296446653661,1.2741577132215243,-1.5347190033686064,0.02439274924805714,-0.005569365026050718,-6.0590992118756216e-05,-0.37095892076854553,-2.927899396813665,0.23304081574156793,0.19557662922058322,-0.057316006253111285,-0.0007908249732406378,-0.10844065034288085,-7.645021252232852,-0.9858422284374484,0.12008202346705943,-0.4797877470677928,-0.04353135440300404,0.14839878114146132,-5.689834548186115,-4.166401408189197,-0.9136661133116323,0.025097766384428663,-0.00029909380749223964
0.19,-0.047095877927908515,1.2441163254295362,-1.5324880577545377,0.026356722949129812,-0.006171887128308817,-6.936400803205589e-05,-0.37229134613719056,-3.0041387791988114,0.2230945614068856,0.19639737010726732,-0.06025221022580991,-0.0008773015913299672,0.1493509449634327,-5.7335835056228435,-1.1261184220421505,0.03124059096325027,-0.4468897434548421,-0.049412896170542786,0.14220651746793644,-4.4762124496383935,-3.727681206065944,-0.8274899412786877,0.028453930599017595,-0.00021199907660159322
0.2,-0.050806924115242263,1.213502966011959,-1.53036959578922,0.028319849058699526,-0.006800493138387632,-7.903017842448188e-05,-0.3711046187333746,-3.0613359417577235,0.21184619653176007,0.19631261095697136,-0.06286060100788156,-0.0009666170392425982,0.4048593038365865,-3.864025029169461,-1.2472031248368758,-0.05626111912727261,-0.38347629257526117,-0.05376576862029614,0.1295545756093044,-3.277980057109843,-3.307806820381362,-0.7462638064238323,0.03124071418149913,-0.00013062338846518576
0.21,-0.05448102082176806,1.1825038961889347,-1.5283747961726428,0.03027331468962164,-0.007450091091302917,-8.957696633184687e-05,-0.3674096706525798,-3.099906982302429,0.19947996165771553,0.19534656309221163,-0.06495979529152848,-0.0010546787907364991,0.6522985584492618,-2.1320054460398805,-1.3499328996026363,-0.14149390598514522,-0.28582171982632976,-0.05541211047328207,0.11193711804342808,-2.1437232149318106,-2.9237677124660713,-0.6733409694941048,0.03340780371980884,-5.727700541982679e-05
0.22,-0.05809371440134434,1.151291683949937,-1.5265131271960055,0.03220868025677345,-0.008113566523389341,-0.00010093482099325681,-0.3612693579576275,-3.1212212238997723,0.18616689766372238,0.19353655671518125,-0.06634754320864243,-0.0011357854661409943,0.8860281271152656,-0.9086991977812396,-1.4356076141304115,-0.22313369185422083,-0.15595074809483433,-0.05339550892328371,0.09104977819909225,-1.256400612240064,-2.6375454270217773,-0.6208019180599241,0.03489406430284197,1.2068729091486925e-06
0.23,-0.06162172926041484,1.119988220059592,-1.5247926860394625,0.03411822557017919,-0.00878188232638507,-0.00011296611748863647,-0.35280148590705024,-3.130346389034486,0.17204411565429825,0.19095453134057372,-0.06683158029957278,-0.0012031296495379656,1.1016735244123055,-0.004077787625681179,-1.5074920856022167,-0.29761789866077226,-0.0029105132029298986,-0.04745280566562393,0.06872541348445649,-0.5236729855832313,-2.4122636385068605,-0.580974958079799,0.03576277629237151,4.902323150818584e-05
0.24,-0.065043453926784,1.0886836471582064,-1.5232203783902216,0.03599508223806674,-0.009444576226597189,-0.0001254652905678629,-0.3421724666369155,-3.1304572901385748,0.15723076492409727,0.18768566678875492,-0.06626939002121188,-0.0012499173079226445,1.2972908462050337,-0.0006687451347550925,-1.567452884515248,-0.36364276007566687,0.15868300814504144,-0.038163673355456895,0.046484145270125087,-0.23014841927705731,-2.3424586752993135,-0.5720640824804863,0.035959768561015695,7.645525665924763e-05
0.25,-0.06833922772989634,1.057378316964009,-1.5218024393373355,0.03783372253156663,-0.010090636492940511,-0.0001381724472189117,-0.3295773803112349,-3.130533019419749,0.1417939052886209,0.18386402934998924,-0.06460602663433235,-0.0012707156651048787,1.4737783342215038,-0.000612246633579656,-1.620807232390533,-0.41634248182268596,0.3122788805711916,-0.026886549352003852,0.025789093802629913,0.062158373783237075,-2.2682854339692073,-0.5620620431706452,0.035716456445900074,0.00010141449289738228
0.26,-0.07149134638114846,1.0260722423766673,-1.5205443807840484,0.03962969995133976,-0.010709552061332945,-0.00015079916737902697,-0.3152118651252115,-3.130607458734178,0.12580585532870592,0.17959774197731332,-0.061891556839243266,-0.0012626720160115292,1.6332714582280883,-0.0005497447629347495,-1.6667034820374742,-0.45812653642112355,0.44319591137693015,-0.015168098834907218,0.007650313230980341,0.35473440633395203,-2.1891280664276227,-0.5508351837309617,0.035042888801599795,0.00012394945345774
0.27,-0.07448389848677961,0.9947654339165704,-1.5194509218519265,0.04137946506711017,-0.011292340292394763,-0.00016305899014087337,-0.2992552105631146,-3.1306808460096933,0.10934589321219645,0.17497651157704047,-0.05827882310618181,-0.0012259822761846403,1.7790947362676734,-0.0004799533885495085,-1.7044477068116846,-0.49083838752787656,0.5411222317748008,-0.004419357547802205,-0.006991772996827017,0.6474396824394538,-2.104974432914232,-0.5383709103095659,0.033948823107897826,0.00014408678950875208
0.28,-0.07730243042986586,0.9634579012542717,-1.5185259330752559,0.04308022666220101,-0.011832337239623424,-0.00017469648635950425,-0.28185319430862443,-3.130753266229874,0.09249887766707544,0.1700761595090842,-0.053999694722866066,-0.0011637496218630874,1.9150211674511832,-0.0004044763880832659,-1.7334929281725897,-0.5158730344784388,0.6013071942551069,0.004384060871302609,-0.017265599544678968,0.9401421754462237,-2.0158203638866614,-0.5246587523735788,0.03244285833186848,0.00016187371970741312
0.29,-0.07993352838279108,0.9321496541445143,-1.5177723920718826,0.04472984676456573,-0.012325613986663202,-0.0001855087679288725,-0.263109795292522,-3.1308247109757334,0.0753541003373161,0.16496201023647167,-0.049327674703977836,-0.0010812281569368269,2.044658336629368,-0.0003259103408793554,-1.7534136535885838,-0.5342882497423274,0.6242328932650649,0.010796468326655262,-0.02236309365795077,1.232718050527989,-1.9216698116804602,-0.5096904366886053,0.030531639110456324,0.00017735299919740568
0.3,-0.08236440508954031,0.9008407030398685,-1.5171923489066312,0.046326761043988064,-0.012770997756878096,-0.0001953563530692956,-0.24308767067492232,-3.130895110464582,0.05800431652514092,0.1596914279422337,-0.044538377021489384,-0.0009847585140423086,2.1710348200265837,-0.0002470739109056459,-1.76388578099608,-0.5468881627069626,0.6143176040635667,0.014823337676216797,-0.021533769399719307,1.5250508850927016,-1.8225352676681008,-0.49345999354406905,0.028220008251469312,0.00019054337363226865
0.31,-0.08458255404383402,0.8695310595164271,-1.5167868997128446,0.047869918218233456,-0.013169772129869216,-0.00020416378019645208,-0.22181489542937183,-3.130964352344148,0.04054491937865763,0.15431571742453912,-0.039877437299112056,-0.0008807427127156465,2.2963848327681595,-0.0001703264168922482,-1.764669865113382,-0.5542860403475052,0.578287279102824,0.01676365152512349,-0.014082290380481782,1.8170309832743357,-1.7184380008692115,-0.47596382009998933,0.025511854253155178,0.00020142874548968192
0.32,-0.08657550204768913,0.8382207366164075,-1.5165561673388928,0.049358733729353566,-0.013525177825553758,-0.0002119126236972331,-0.1992948003855105,-3.1310322900019583,0.023073237395185554,0.1488815511120108,-0.035540569568454305,-0.0007748843500781022,2.42209560799387,-9.726629356676149e-05,-1.7555968790849141,-0.556951525053405,0.5236807616029319,0.01705340532364752,0.0006286141900856274,2.1085548601622737,-1.6094080618204358,-0.4572006968463556,0.022411314847874543,0.0002099562593866401
0.33,-0.08833066492312992,0.8069097491623722,-1.5164992879347279,0.050793054144441685,-0.013841836412174298,-0.0002186302594455847,-0.17551628754407872,-3.131098745403529,0.005687940416494293,0.14343204150881225,-0.03166585866205401,-0.0006717635748351608,2.5487687105049206,-2.8246373008958573e-05,-1.7365561696576222,-0.5552462386212129,0.45772749746998,0.0161499173577504,0.02316984607767633,2.399525115721216,-1.4954839674545037,-0.43717174198854786,0.01892404524707751,0.0002160414888939543
0.34,-0.08983529480942339,0.7755981141079215,-1.5166144025338573,0.05217312961473047,-0.014125192276987615,-0.00022437730976971777,-0.15046298862934568,-3.1311635054450826,-0.011511459912942154,0.1380075470288784,-0.028335586481331693,-0.0005747050324133058,2.6763462201677384,3.5884776208654125e-05,-1.7074855350650302,-0.5494506808198034,0.3866543029696484,0.014463765625263525,0.05403333208513092,2.6898493276083086,-1.376712558966056,-0.41588039715325587,0.015058361295749233,0.00021957811160320175
0.35000000000000003,-0.0910765001767799,0.744285850763135,-1.5168986528380368,0.05349959237911136,-0.014381032251191202,-0.0002292358015760186,-0.12412053673565171,-3.1312263344786477,-0.028425030417945255,0.13264627643808932,-0.025583997420358624,-0.00048584918063008414,2.8042618761816778,9.621248329679303e-05,-1.6683631876440468,-0.5397846228396208,0.31536771508499883,0.01232884437908388,0.09361667088712088,2.979440841769234,-1.2531480447590293,-0.39333224869228023,0.01082616646028733,0.00022044985436021824
0.36,-0.09204131850638136,0.712972981146414,-1.5173481805507827,0.054773439778944104,-0.01461510981280699,-0.0002332991583028327,-0.09648183296014683,-3.1312869616721,-0.044952771274592504,0.12738473998327424,-0.0234077561615787,-0.0004063356726814077,2.931589332996241,0.00013906962538730566,-1.6192011761395584,-0.526422580959256,0.24741184778243386,0.009997082205536412,0.1422065664252946,3.2682100166093253,-1.1248542106777806,-0.3695354474191589,0.006243630543835304,0.00021854249189466227
0.37,-0.09271682374069219,0.6816595288091332,-1.5179581297277855,0.05599602063149749,-0.014832877128586809,-0.0002366644366744666,-0.06755052343108305,-3.1313452337280907,-0.0609949177002949,0.12225808525533813,-0.021776731577982027,-0.00033652783716339014,3.057168843135643,0.00019889569179679318,-1.5600420694586927,-0.5095055909392503,0.18509753258823647,0.007646378794253561,0.19996212560167992,3.556093187364578,-0.9918936292175716,-0.34449862803136017,0.0013316594709941176,0.00021375610714360302
0.38,-0.09309025436421565,0.6503455224036141,-1.5187226518575607,0.05716902401653729,-0.015039313877379626,-0.00023942676142694764,-0.03734306235234594,-3.131400640551908,-0.0764522129775271,0.11730033850398014,-0.020643674879281752,-0.0002762324752481055,3.1797147378705364,0.00024932830205601306,-1.4909533699268136,-0.48915059853236453,0.1297166015977309,0.00539394648498881,0.2668996433944314,3.842998470317731,-0.8543457167097018,-0.3182343694254554,-0.0038838809189474686,0.00020601359365459668
0.39,-0.09314915099313996,0.6190309931530628,-1.5196349132542644,0.05829446985130095,-0.015238835053312427,-0.0002416756661591209,-0.005889662892430612,-3.131452925055134,-0.09122613967035674,0.11254458347636552,-0.019952117593280104,-0.00022489047321732575,3.2978921186768417,0.0003006419498810969,-1.412026885120643,-0.46545695414837995,0.0817798148022133,0.003310501714496983,0.3428789137865762,4.128850170965004,-0.7122902345326247,-0.29075596926952313,-0.009372061809296419,0.00019527050938306778
0.4,-0.09288149603778922,0.5877159759377254,-1.5206871046830344,0.05937470067642473,-0.015435258395264047,-0.00024349295595477884,0.026765495535073,-3.13150172153374,-0.10521914287699433,0.10802308251237833,-0.019642334195162054,-0.00018172897956579342,3.410374711804462,0.0003562370242836503,-1.3233767957686102,-0.43851221297840937,0.041240903544984775,0.001433019233184174,0.42759225364531805,4.413564736273555,-0.5658152092671767,-0.26207895696615324,-0.015096966648353367,0.00018152109824120903
0.41000000000000003,-0.09227585016064915,0.5564005096690262,-1.5218704530924005,0.06041237423846286,-0.015631813575483922,-0.00024495170555780205,0.060564587714006975,-3.131546626869919,-0.11833484093661799,0.10376735620381261,-0.019655518021987475,-0.000145874960302318,3.5158846338967784,0.0004219001144968957,-1.2251390725380713,-0.4083963777730606,0.007687359509862546,-0.000224805027182029,0.5205564999684211,4.697051581513163,-0.4150160792282874,-0.23222089678550195,-0.02101787719141974,0.00016480366432301255
0.42,-0.09132148212109062,0.5250846378794015,-1.5231752354173438,0.061410456530643344,-0.01583117821324449,-0.00024611605293227944,0.09543680395585401,-3.1315871789624743,-0.1304782324943167,0.09980822921804862,-0.019936463776056637,-0.00011643473744773762,3.613217907475443,0.0012925596067211277,-1.1174726702574442,-0.3751855882228958,-0.019508642839278778,-0.0016644866313839657,0.6211084200611041,4.979590725730549,-0.259866115764401,-0.2011767034225894,-0.027089374379167263,0.00014521770274186248
0.43,-0.09000848997201505,0.4937684879178598,-1.5245907941102026,0.06237221442007643,-0.016035529100469632,-0.00024704151288235045,0.1312992149075567,-3.1316149961541675,-0.14155586928587457,0.09617578894330824,-0.02043508872251422,-9.254599500710368e-05,3.701265018923858,0.0015853296003970332,-1.0005513168767466,-0.33896007705756315,-0.04107790623990937,-0.002896812866169718,0.7284030833666598,5.260390155881653,-0.10071872890006464,-0.16901492957920392,-0.03326240881514942,0.00012287548574227745
0.44,-0.08832791198268872,0.4624521331563888,-1.5261055554628138,0.06330120944618343,-0.01624660022892473,-0.0002477755985886077,0.1680577989326335,-3.1316354761471072,-0.15147613526111184,0.09289950261070054,-0.0211071128455098,-7.340857062572512e-05,3.765448716603142,0.123827050166366,-0.8922511682592857,-0.3031546841174819,-0.05796898918331017,-0.003937659416988204,0.8392375247217714,5.59582699516626,0.08012340521982719,-0.13254115452094786,-0.039375015635794215,9.865172885087148e-05
0.45,-0.08627317469412464,0.43114779219435784,-1.5277087102891158,0.06420082717580068,-0.01646573845184768,-0.00024835996024571256,0.2054737288564073,-3.130434096203094,-0.1603154826302117,0.08996177296172475,-0.02191382229229528,-5.843616571048541e-05,3.76708277714619,4.285871224210184,-0.8440150587178525,-0.2792604908408318,-0.07124105012336024,-0.004813819868767721,0.9458240528225292,7.883658809572698,0.9278279080266673,0.03023902743313364,-0.044103308056124745,0.00013620192914607303
0.46,-0.08384393577306866,0.40027014951743745,-1.529392865208517,0.06507017344745541,-0.0166938629273613,-0.0002488366554830412,0.24292389210559778,-3.0877642676920387,-0.16841549194010388,0.086934627165473,-0.022812447551361754,-4.766952373286562e-05,3.7586591555406375,7.7134358739547535,-0.7723474154929217,-0.28840548921063913,-0.07943773851618374,-0.005513747818684855,1.0483050913301797,9.818948149900532,1.6148087488734941,0.1591691896588198,-0.04840357567902634,0.00015860065816984236
0.47000000000000003,-0.08104087811870817,0.37016074872054244,-1.531149003153585,0.06590644489531226,-0.016931514524376853,-0.00024924013556278736,0.2803057654360488,-3.0109400796895014,-0.17561379450681752,0.08362714478568507,-0.02376515970155541,-4.0348007974614384e-05,3.74029718449334,10.311808585416985,-0.6846294746736348,-0.31697589932720405,-0.08378796008584288,-0.005981973505077232,1.14347839856589,11.35064983193867,2.1315404275998495,0.253148352284554,-0.05219235422135457,0.00016636962201748356
0.48,-0.07786569652431152,0.3410785424042136,-1.5329671754764242,0.06670602092105436,-0.017178951159644733,-0.00024959694000872596,0.3175181594396649,-2.908220631632885,-0.18181723228392666,0.0799576025742097,-0.024743663526787987,-3.5680444593860246e-05,3.7121036591711696,12.219352449293936,-0.5878354268135872,-0.35400209052847487,-0.08533747042207374,-0.006245939603487738,1.2290177208944013,12.541694526146768,2.509190504846242,0.3189249785118381,-0.055391228918913515,0.00016370313970486797
0.49,-0.07432108480987612,0.313213665864257,-1.5348370273714769,0.06746517968481576,-0.017436224341340487,-0.0002499268299542676,0.3544611714435403,-2.78648765399566,-0.18698518950525894,0.0759158763761402,-0.025727318169575575,-3.298899455416729e-05,3.674301740137846,13.554902909090782,-0.487137780232608,-0.39225397100471326,-0.08490646337095953,-0.006345409332098928,1.3032833816024385,13.446562255850228,2.774574929807714,0.36229454215588963,-0.05796269744670441,0.00015400262991528273
0.5,-0.07041071127168795,0.286699268852257,-1.5367481834237344,0.06818054670903102,-0.017703238985658797,-0.00025024405689215884,0.39103735381881644,-2.6514397011999993,-0.19111560522576584,0.07153670242152618,-0.026701464431830916,-3.172269378912132e-05,3.627205287764434,14.420217845853381,-0.3863196754914817,-0.42718015644256013,-0.08312012030114246,-0.006317705286159825,1.365279275823473,14.112302586906527,2.950392358048866,0.38813620548763905,-0.059900671549370677,0.00013995499087885084
0.51,-0.06613918520186109,0.2616216485347738,-1.538690525181627,0.0688493546541032,-0.01797979879560149,-0.00025055851147587756,0.427152606982687,-2.507762031748319,-0.19423417578925128,0.06688079450721812,-0.02765598099426931,-3.1445458371869325e-05,3.571195414421882,14.902169571245441,-0.28809395278671346,-0.4561244067367838,-0.08044012671040868,-0.006194694717462923,1.4145737463303474,14.57945157623247,3.0556022004333956,0.40049040722101303,-0.06122220558818989,0.0001236256574506121
0.52,-0.06151201691086947,0.2380289013123047,-1.5406543855051875,0.0694695719530479,-0.01826563959946706,-0.0002508766970871491,0.4627168290991613,-2.359274722246911,-0.1963860323560622,0.06202172989446933,-0.02858408038655687,-3.1818561127156004e-05,3.506700504968292,15.074679603964809,-0.19435036836957664,-0.4777499186250793,-0.07719583479555503,-0.006002448405090899,1.4512012550837983,14.882843019421706,3.1058623755733774,0.40265524049270296,-0.0619605188266349,0.0001065549464732139
0.53,-0.05653557327845652,0.2159382857191664,-1.5426306789318807,0.07003994240552866,-0.01856045300931386,-0.00025120252602220237,0.49764436324129546,-2.209061559313831,-0.19762934266930945,0.057037045248076595,-0.029481340984679975,-3.258289350532576e-05,3.4341799560205204,15.000422710297434,-0.10634751883365112,-0.4916187343290801,-0.07361321781224817,-0.005761724595410911,1.4755588000268531,15.05232473863132,3.113976646253014,0.3972880388084657,-0.0621592942583131,8.985057966426498e-05
0.54,-0.051217030452361686,0.1953424657774258,-1.5446109830523658,0.0705599662357584,-0.018863902572203387,-0.00025153795529981243,0.5318542826094833,-2.059581994174059,-0.1980304120485015,0.052002383022973615,-0.030344956288952694,-3.3542927761005016e-05,3.354111377875761,14.732325913334732,-0.024862144847343615,-0.49788653213131795,-0.06984027769516388,-0.0054887273755670485,1.4883071586924523,15.113390689355171,3.0903216854549367,0.3865039073118748,-0.06186817135764619,7.427216614082696e-05
0.55,-0.04556432495130685,0.1762147838557204,-1.5465875826009123,0.07102984452228733,-0.019175634302093444,-0.00025188348591164995,0.5652705501054837,-1.9127681921705413,-0.1976599548546533,0.046987828652892784,-0.031173172989005606,-3.45530611837536e-05,3.266980789771438,14.314885608517194,0.049694502765618154,-0.49708298335612966,-0.06596827930970584,-0.005195910178819485,1.4902832628681895,15.087738622197353,3.0432374991752185,0.3719665215745608,-0.06113930551195981,6.030550920449809e-05
0.56,-0.039586104123048096,0.158513694040188,-1.5485534854142045,0.07145040255762422,-0.01949528315542682,-0.0002522385502238051,0.5978220828258753,-1.7701089815532391,-0.19659028132920267,0.04205580353368877,-0.03196488533333749,-3.5506431215518474e-05,3.173275287368013,13.785323397505081,0.11718583093685453,-0.4899553688104703,-0.062048770184667035,-0.004892719572747506,1.4824268440434798,14.993761911805244,2.979373707341116,0.3549689020196062,-0.060024842948914574,4.822604666143953e-05
0.5700000000000001,-0.033291676660571756,0.14218647101474496,-1.550502417425849,0.07182300302305618,-0.019822476692437464,-0.0002526018102095166,0.6294427462476341,-1.6327223025443052,-0.19489320116445324,0.037260046543195424,-0.03271935370106448,-3.63259985711473e-05,3.0734776898643505,13.174598983383465,0.17767893508802501,-0.4773588041837371,-0.05810672501190339,-0.004586236988926018,1.4657221295319416,14.846983127069738,2.9039898478223147,0.3365034149550491,-0.058575153418366284,3.8151679095204543e-05
0.58,-0.02669096368394119,0.12717229525054996,-1.5524288023113177,0.07214945644109529,-0.02015683687571851,-0.0002529713859466176,0.6600712976630567,-1.5014175764194997,-0.1926384885468777,0.032645341803910884,-0.03343601832810457,-3.695757371010026e-05,2.9680627365924743,12.508296461486022,0.23138913674357298,-0.4601806693482686,-0.05415035068278229,-0.0042817089182014545,1.4411537987124485,14.66043599851124,2.8212113123386837,0.3173212062911923,-0.056837669143245326,3.008580826410344e-05
0.59,-0.01979445074392626,0.11340480272330304,-1.554327730179998,0.07243193387401485,-0.020497980710421988,-0.0002533450303037336,0.6896512940014933,-1.376749252724692,-0.18989278686802566,0.028247743291956378,-0.03411438347034798,-3.7364435711600456e-05,2.8574944744439525,11.807398562805146,0.2786366706962866,-0.4392900141012923,-0.05017815080379329,-0.0039829723666213734,1.4096755044775728,14.445001640411624,2.734244457099341,0.29798182569036946,-0.05485619303772122,2.395170245799496e-05
0.6,-0.012613140988273628,0.10081417623779894,-1.5561949187519901,0.072672885032227,-0.020845520229706604,-0.0002537202624608347,0.7181309755652632,-1.2590626485504104,-0.18671885719919945,0.024095115821215034,-0.03475395192846151,-3.7523215710111895e-05,2.7422245458605037,11.088961830740306,0.31981292366264213,-0.415505086433658,-0.046183828409372296,-0.0036927892616447355,1.3721888648473293,14.209704195880207,2.6455553615996745,0.2788940795229289,-0.052670558002589914,1.9619412268935045e-05
0.61,-0.005158509644988248,0.08932884558695445,-1.5580266696997012,0.07287496366194407,-0.02119906217207303,-0.00025409447007851204,0.745463134328538,-1.1485330650844487,-0.183175094771103,0.020207862971706094,-0.03535419423664261,-3.742076176773083e-05,2.622691147204947,10.36670431456399,0.3553542050074867,-0.3895738999752254,-0.042159540810954965,-0.003413105323446075,1.3295307754497319,13.961970480687645,2.5570169941628005,0.2603492548355478,-0.0503165392839844,1.6926445111487497e-05
0.62,0.0025575400869176004,0.07887685506971397,-1.559819822234128,0.07304096116439109,-0.02155820757848367,-0.0002544649876044773,0.7716049731905849,-1.0451990517240486,-0.17931525344267082,0.016599750244702175,-0.03591454064106401,-3.705175259652419e-05,2.4993184778677784,9.651516089423065,0.38572147285701774,-0.3621640768935954,-0.0380979377082582,-0.0031452481864049364,1.2824670515846908,13.707857676069054,2.4700294256175104,0.2425478486022073,-0.047825941407446074,1.5693318741077532e-05
0.63,0.010522719695198806,0.06938694921309918,-1.561571705539179,0.07317374875961237,-0.021922551450096903,-0.000254829156360693,0.7965179608281205,-0.948990585661478,-0.17518833050510138,0.013278759522128784,-0.036434387161323134,-3.6416875621571064e-05,2.3725165403040664,8.951902020813725,0.411384776669383,-0.3338591860539246,-0.033993329133847894,-0.0028900777622298257,1.2316906767280917,13.452252785742335,2.385617430267655,0.22562087141118775,-0.04522679874756758,1.573499273162417e-05
0.64,0.01872439654960964,0.06078942080022771,-1.5632800912784381,0.0732762280726189,-0.02229168254558304,-0.00025518437062942216,0.8201676854410834,-0.8597528412871474,-0.17083857392592033,0.010247931300652876,-0.03691310954861368,-3.55214268729179e-05,2.2426811860735354,8.274364957717204,0.4328114426250149,-0.3051595301164909,-0.029842252258127644,-0.0026480996760518405,1.1778232421859798,13.199047067761228,2.3045093186179373,0.20964668040517542,-0.042543643981443384,1.6869034508789683e-05
0.65,0.027149633646397157,0.05301675937612304,-1.5649431470970205,0.07335128973344808,-0.022665183354537377,-0.00025552811287786074,0.8425237096787517,-0.777266142410467,-0.1663055818582468,0.007506166082918642,-0.03735008089543363,-3.43742248438603e-05,2.1101943207969813,7.623739089771356,0.4504572119811705,-0.2764858848306524,-0.025643639836284038,-0.002419550552084093,1.1214184627793662,12.95128952428976,2.227200771585306,0.1946642550116221,-0.039797810221976385,1.8921281504384423e-05
0.66,0.03578522792837793,0.04600413344159689,-1.566559391801177,0.07340177940252375,-0.023042630255503096,-0.0002558579804615125,0.8635594281980776,-0.7012625934526149,-0.16162447041565994,0.005048966907567485,-0.03774469009657188,-3.2986758365176645e-05,1.9754242297900608,7.0034695258499475,0.46475979582546145,-0.24818510211258982,-0.021398737324988204,-0.0022044620304317863,1.062966923226539,12.711316839158151,2.1540047437096104,0.18068328828019686,-0.03700774668582474,2.172941563761274e-05
0.67,0.044617747217883426,0.039689734190134086,-1.5681276527067967,0.07343047053857697,-0.023423593849901194,-0.00025617170554698815,0.8832519289505495,-0.6314399251462799,-0.1568260905619499,0.0028691136053224067,-0.038096359439809886,-3.1372508547563046e-05,1.8387258146280339,6.415928297270673,0.47613371662072623,-0.2205368483362271,-0.017110881709031744,-0.0020027089487725247,1.0029014319913396,12.480904050174036,2.0851043735265544,0.16769444138613882,-0.034189302627510174,2.5146381666282244e-05
0.68,0.053633565790234615,0.03401501227285103,-1.5696470255037045,0.07344004311349803,-0.023807639451295444,-0.0002564671696633524,0.9015818572351186,-0.5674721917283053,-0.15193727969077347,0.0009572574921050173,-0.03840456013942515,-2.9546411636424994e-05,1.7004263368988248,5.870090785876519,0.48490643456004,-0.19377494684446006,-0.012785698402147716,-0.0018140455248800702,0.9415989875048797,12.265084003293381,2.0218706849997474,0.1559184732538186,-0.03135316796607109,2.917178186248343e-05
0.6900000000000001,0.06281889717900264,0.028925572341875566,-1.5711168379885592,0.07343306026249227,-0.02419432750092225,-0.00025674242349540055,0.9185331388768035,-0.5089439930975465,-0.1469812484854696,-0.0006982851005753129,-0.038668804962680575,-2.7525383204817265e-05,1.5604296692273836,5.596040190945887,0.4895568721100574,-0.16855870802856998,-0.008443612708449955,-0.001638064671960593,0.879270981411006,12.179115983380857,2.0038220223363576,0.15279559305366588,-0.028420861579297685,3.771207621680788e-05
0.7000000000000001,0.0721597850265422,0.024394094851203783,-1.5725366519805766,0.07341172859865892,-0.024583207798513352,-0.0002569959919631757,0.9340887847539553,-0.4531477490671784,-0.14198139920174044,-0.0021331663833344524,-0.03888802975911026,-2.535684677751438e-05,1.4194552549988524,5.322078260754579,0.49348599431074547,-0.1465309596651725,-0.004002449998508517,-0.0014717111698754337,0.8154235369063253,12.08853866944165,1.9837271771857583,0.14932245356966878,-0.025447246927834066,4.651199258880347e-05
0.71,0.08164217451459559,0.02039327117105787,-1.5739061201722868,0.07337800180437938,-0.02497382260813636,-0.0002572264286073152,0.948238948805338,-0.4000823680145913,-0.1369468191710276,-0.003372679427954492,-0.039061480962300686,-2.3043664413953146e-05,1.2778943303059167,5.006860710329852,0.4969727240213153,-0.12691447385386745,0.0004978156205410755,-0.0013106875425102915,0.7504234270198774,11.972910425645424,1.9544068132239323,0.14412690614862111,-0.022464018605861433,5.470913368747749e-05
0.72,0.09125195147036577,0.016891684207811074,-1.5752249810520111,0.07333367510411086,-0.02536571112041895,-0.00025743222284960724,0.9609776955770184,-0.35015869632467944,-0.131886087972427,-0.004432670026851981,-0.039188851228259144,-2.0579424229205283e-05,1.1360476475153543,4.675208439466317,0.4997321228227012,-0.1088402403298101,0.005010751836131533,-0.0011552254208881951,0.6847609777299745,11.844752259443533,1.9201778169562518,0.13802052903368872,-0.01948683301307228,6.250060945294494e-05
0.73,0.10097497252945713,0.013856280362090561,-1.5764930648424382,0.07328043199175464,-0.025758412240847448,-0.00025761186791863945,0.9723021059091354,-0.3035403845720514,-0.1268083790427093,-0.005324311235621477,-0.03927011204284942,-1.7964506903219465e-05,0.9942216114025311,4.323440713690185,0.5017812516134708,-0.09182517487261421,0.009509639110027557,-0.001006616576747832,0.6188212570765396,11.702404876311808,1.8804054588060497,0.13087351327475844,-0.016535416090126806,6.964970335262779e-05
0.74,0.11079709579780764,0.011252002473216366,-1.5777102911680538,0.0732198848678855,-0.026151466898203895,-0.0002577638954998767,0.9822123268350518,-0.2604277888874195,-0.12172263256156578,-0.006054712386915086,-0.039305465735644855,-1.5202758123727291e-05,0.8527039206157279,3.9399990687847253,0.5031141045447667,-0.07547076348384252,0.013971778778151034,-0.0008659330531179954,0.5529813052948793,11.540239834813727,1.8330876065480584,0.1222973079125817,-0.01363264142808664,7.57763751123363e-05
0.75,0.12070420962640696,0.009040637992601486,-1.578876674659381,0.07315361506335125,-0.02654442031828276,-0.0002578868951020912,0.9907113828599325,-0.22113644806148802,-0.11663834913271738,-0.006626980453425479,-0.039295342007886716,-1.229996022145022e-05,0.7117475953436844,3.5634159226952695,0.5035330795020165,-0.05940968684053338,0.018374102987665175,-0.0007343977699742488,0.4876493393328226,11.377748426212602,1.7849725180189968,0.11356566882954003,-0.010783611314367407,8.136283381055131e-05
0.76,0.13068225798277863,0.007184657378000137,-1.579992316534609,0.07308317023097238,-0.0269368226505578,-0.0002579796021193347,0.9978048356371665,-0.18559806146013486,-0.11156418752279564,-0.007044483237886962,-0.03924023322750407,-9.270701724345438e-06,0.5716122025128453,3.1753996277081287,0.5032166389768777,-0.04364878461039012,0.022711403493307802,-0.0006130017541182697,0.4230613202274648,11.205999920148917,1.7329061692098429,0.10407090825900857,-0.008005290600803024,8.600123019680714e-05
0.77,0.14071726637680362,0.005645391898204719,-1.5810573992885033,0.07301007914168887,-0.027328230208084715,-0.00025804089234859466,1.0035008394024991,-0.15392654797954178,-0.10650827538942102,-0.007309108928350568,-0.03914075575269133,-6.129022926000289e-06,0.43253366085209966,2.7877469893363034,0.5021251264545414,-0.028062456863869656,0.026971147336732892,-0.0005022316049434483,0.35950461389854077,11.03112423017525,1.6790028674722914,0.0942082106569201,-0.005306180907128326,8.977784667617916e-05
0.78,0.15079536546710395,0.004384208763562023,-1.582072181964577,0.07293585200439791,-0.027718206195703247,-0.0002580698155101961,1.0078099090300323,-0.12611831346426966,-0.101478267607383,-0.007422713729096412,-0.03899759876185314,-2.892316160142295e-06,0.2947380238644507,2.4210201518774817,0.5002997505396767,-0.012650519612702915,0.03114650830224619,-0.00040266770661756546,0.2972041777822644,10.86370646474383,1.6269381515315113,0.08467057048588561,-0.0026870992068073907,9.298103353430368e-05
0.79,0.16090281368150583,0.0033645596470367736,-1.5830369826013855,0.07286196467150009,-0.028106320713277854,-0.00025806563658157936,1.0107448214401868,-0.10196491165252497,-0.09648006368082951,-0.00738873328978126,-0.03881145175746066,4.1789286167288816e-07,0.1584428984806198,2.0581810994920646,0.49791217826644374,0.0024262868440718677,0.035237677340734075,-0.0003144394724323707,0.23627512453742852,10.695441314403885,1.5738144578978084,0.07490225467982156,-0.0001580420982770026,9.530172216367524e-05
0.8,0.17102601893232217,0.0025502835004918714,-1.5839521737619768,0.07278986043402798,-0.028492151541881065,-0.0002580278112477821,1.012320525081635,-0.08142761465449022,-0.0915191160591389,-0.007210423747211761,-0.03858308286032119,3.782533379726976e-06,0.023852210488395805,1.737086266513019,0.49496906273446806,0.017175931581546955,0.03923705284354423,-0.00023739539082862082,0.17689068464074742,10.545634423074693,1.5263770727818144,0.0661831684450113,0.002290596262680915,9.737297215541086e-05
0.81,0.1811515590414179,0.0019093779800030465,-1.5848181568622557,0.07272092111187428,-0.028875283541862962,-0.00025795604082848696,1.0125540109095734,-0.0640905520488825,-0.08659831002788695,-0.00689393221536983,-0.03831319999818972,7.177041929514293e-06,-0.10883704805754062,1.4300099584118826,0.4917344534796593,0.03130901373309669,0.04315077559367775,-0.00017121623730848023,0.1190410973835686,10.400608127339455,1.4798761240374088,0.05760737610162666,0.004651443254183859,9.87800114751901e-05
0.8200000000000001,0.1912662013666891,0.0014112376678483488,-1.5856353566195625,0.07265646775994018,-0.02925530937982751,-0.0002578502167877573,1.0114642325271197,-0.04981403121546976,-0.08171997573067659,-0.006445335193410231,-0.03800258379645479,1.0582404072965844e-05,-0.23943913368157999,1.1652507751791608,0.48824136386188366,0.04482631586973973,0.046971903040992746,-0.00011510395014283081,0.06281921435026426,10.274860507097959,1.4394031483794785,0.05014292514334947,0.0069348088667558734,0.00010003845120164318
0.8300000000000001,0.20135692139102673,0.0010294733178961052,-1.586404199129448,0.07259773881283614,-0.0296318291612283,-0.00025771045154777614,1.0090720024337627,-0.03817643499522435,-0.07688425098854315,-0.00587289471040426,-0.03765197814007889,1.397652399811812e-05,-0.3677768734189138,0.9331262255728523,0.48470197165822704,0.05750613495498191,0.05070419109663904,-6.839630378464856e-05,0.008181645427419545,10.163773690031228,1.403383783411385,0.04348992066097537,0.00914268979457896,0.0001010771617685503
0.84,0.21141092038951206,0.0007409475416701385,-1.5871250990395434,0.07254588167599284,-0.030004450663794275,-0.00025753704386658204,1.005399899848534,-0.028852577622596673,-0.07208999100954341,-0.005185713684330375,-0.03726215025659755,1.7340768119409813e-05,-0.49368228269132286,0.7303228796108074,0.48124161192230464,0.06926255314252261,0.05434558976699977,-2.99685997208754e-05,-0.04489111578500232,10.065896868984515,1.3713544295780928,0.03756065024583215,0.011277959572279131,0.00010191783038793764
0.85,0.22141564219186233,0.0005254448491967428,-1.5877984500843119,0.07250194939007848,-0.030372789740918088,-0.00025733045204363625,1.000472180235027,-0.021550269247339562,-0.0673351044768437,-0.004393228591435467,-0.0368339077123812,2.0659182294580086e-05,-0.6169965365033161,0.5758061824101277,0.47794273794246633,0.08005850351810118,0.05789234493945372,1.1761071633739628e-06,-0.09641193897103995,9.991013472003297,1.3467716998025052,0.03301405375246907,0.01335313875735039,0.00010297674084216703
0.86,0.23135878906135365,0.0003675611402926977,-1.588424604740965,0.07246688341867637,-0.03073647000153253,-0.00025709130490377154,0.9943146869491319,-0.01578837089040451,-0.06261546566530495,-0.0035065971402116823,-0.036368026061444195,2.391471398647234e-05,-0.7375696123388713,0.4299063043736911,0.47500899804020036,0.08972076687033059,0.06134779602064233,2.6136171671610475e-05,-0.14649352771131113,9.919281946796723,1.322751049017946,0.02854022056775432,0.015359555461167528,0.00010367879942520735
0.87,0.24122833660415918,0.000252751891215785,-1.5890038817927499,0.0724415324430621,-0.03109512419105019,-0.00025682031210851405,0.986954754280553,-0.01148092490769127,-0.057927705178495964,-0.002535097561425772,-0.03586541895176614,2.709927952574665e-05,-0.8552603058356856,0.32588355713409584,0.4723582775189882,0.09843551214796431,0.06469876935314112,4.608418463355503e-05,-0.19508473636052345,9.8676355505426,1.305244045534052,0.025273746283243585,0.017311882353566316,0.00010464277949869216
0.88,0.251012547918467,0.00017064547827466605,-1.5895365510479933,0.07242664032913428,-0.03144839396043758,-0.00025651830709687697,0.9784211314307817,-0.008210641294111894,-0.053266925524349015,-0.0014892113927822278,-0.035326976938738874,3.020050116370973e-05,-0.9699359338689556,0.24224820881480164,0.470140661991953,0.10608096120581689,0.06794781078628365,6.165768521616821e-05,-0.2422828165569054,9.825371225265634,1.2905490954787433,0.022510638434890984,0.019208331183413953,0.00010560341755794547
0.89,0.26069998679742146,0.00011290247141905518,-1.590022833769213,0.07242285439051738,-0.03179593062063691,-0.00025618619314484375,0.9687438878954433,-0.005774300685561087,-0.048628272121979996,-0.0003785938616897395,-0.03475366601993268,3.3211395203319686e-05,-1.081472638846259,0.17724876501591408,0.4683498173428632,0.11273892424522836,0.07108791658490343,7.39558833431804e-05,-0.2881030800760395,9.791706211053365,1.278424563596689,0.02020579997032325,0.021050907809895696,0.00010658712256132741
0.9,0.27027953009003813,7.304107142144307e-05,-1.5904629038979723,0.07243073309145592,-0.032137395803051354,-0.000255824925672888,0.9579543292616687,-0.003986139999761212,-0.04400701287593329,0.000787870093854493,-0.034146518241444185,3.61267471955789e-05,-1.189755036884195,0.12528803295575977,0.46697203321520464,0.11848582266145158,0.074113051927295,8.366624577713089e-05,-0.3325596079239794,9.76389574395231,1.2679405246242528,0.01818292330477763,0.022839468857209177,0.00010754606568157291
0.91,0.2797403792097384,4.587942398103088e-05,-1.5908568925839728,0.07245075629516659,-0.03247246220059206,-0.00025543549412078957,0.9460849119700226,-0.0027161647440412185,-0.03939886860004302,0.0020023203710670995,-0.03350663975407039,3.894315520984246e-05,-1.2946759765572957,0.1068631528550521,0.46595934306559017,0.12342339046066186,0.0770164509831126,9.133843071516823e-05,-0.375640667464346,9.752391848419446,1.2627715325590172,0.017142659386687253,0.02458501172278799,0.00010888409355292171
0.92,0.28907207086075637,2.957750877809779e-05,-1.591204878565574,0.07248331682701664,-0.032800813313423764,-0.0002550189512583268,0.9331691651017986,-0.001630191520293309,-0.03479859816010468,0.003256053185004431,-0.032835111283170904,4.1654286246275534e-05,-1.3961367452967997,0.048236784651579434,0.46540883229691454,0.1274670196007901,0.07980106957800714,9.749801577085826e-05,-0.4174405774593538,9.719935876367463,1.2499261913988993,0.014610623246281713,0.026258137957391053,0.0001093687468037634
0.93,0.298264486772336,1.8291277172271312e-05,-1.5915069282254433,0.07252877226968305,-0.033122146300325235,-0.0002545762714331538,0.9192415911579658,-0.0011286231605826475,-0.03020496598694189,0.004545544266640807,-0.03213329869014693,4.426798251729879e-05,-1.4940469574696815,0.04133588406793312,0.4649199176686677,0.13113548442579925,0.08243969265925077,0.00010271188300271794,-0.4577413929892425,9.713059807616906,1.2456818786082748,0.013688693038288222,0.02789218861256766,0.00011054009523301536
0.9400000000000001,0.30730786288267337,1.1330086517487322e-05,-1.5917630700455898,0.07258741080823945,-0.03343617023610848,-0.0002541085316333344,0.9043376110337319,-0.000696119065478399,-0.02561418201465844,0.005863853855641382,-0.03140239357832465,4.6773979981940914e-05,-1.588323549943106,0.006914145572078499,0.46474724775297327,0.13408632193218195,0.08494993572391962,0.0001063481035651348,-0.4967084186278453,9.691736192051382,1.236076288054334,0.011717372114463553,0.02945883361380833,0.00011111440429485483
0.9500000000000001,0.31619279748495077,5.262326586217564e-06,-1.5919733247460623,0.07265948827295465,-0.03374260820517034,-0.0002536167572537084,0.8884934602277433,-0.0006067759931269758,-0.021025470047247495,0.007207746471520347,-0.030643796906185516,4.9177437962599055e-05,-1.7036282933616695,1.5823917252542448,0.46251103456342024,0.13413320464127043,0.08821970200336615,0.00010946229143236202,-0.5429121612029094,10.485491350906788,1.5105721522318496,0.06379678158793176,0.032096463649167656,0.00013998912902245326
0.96,0.32490779412293674,0.00015704124571018615,-1.5921368620354053,0.07274375779506649,-0.0340410404807997,-0.0002531048651746965,0.8714996637985993,0.01517789191239686,-0.016353728934299157,0.008426952211183761,-0.029843227562935868,5.118920790118808e-05,-1.7652445470923581,-1.0710317412708281,0.47462459442266436,0.1266956413574758,0.0901264975353957,0.00011612901061439085,-0.5756083874234768,9.138267554070246,1.0370599941674448,-0.02658627667518726,0.032231757204168425,9.760278444927595e-05
0.97,0.3334467038108771,0.00020233720474562917,-1.5922543196270573,0.07284179903970939,-0.034331377634334415,-0.00025256818246306484,0.8538909687940371,0.004529595903544303,-0.011745759165208931,0.009804124464289115,-0.029033715353471108,5.3668271163166745e-05,-1.8482307658924078,-0.6178218982930266,0.4665965199965314,0.14007295355959384,0.09156069038522574,0.00015353120995317826,-0.606484160213909,9.360359560602953,1.1114684120870026,-0.012641729261808345,0.033635281156746036,0.00010376878507755822
0.98,0.34180125249081567,0.0001862847387824782,-1.5923260878999086,0.07295424782296221,-0.03461340890185181,-0.00025200897559772296,0.8354548679938586,-0.0016052465963150983,-0.007176827285135198,0.011244878325282443,-0.028203126751739156,5.592068653418695e-05,-1.9272975559416055,-0.2706417132654735,0.4624772455020885,0.14640080186677462,0.09324566272874968,0.0001303378398211097,-0.6375253766563502,9.52955686803223,1.1673597658509751,-0.002240882722101852,0.03503147322690037,0.00010918934197826481
0.99,0.34996355636998366,0.00014346343765815782,-1.5923522943718174,0.07308129843181611,-0.03488691500062054,-0.00025142971768527797,0.8162303879168007,-0.004282130112432036,-0.0026206471908843086,0.012705060885390616,-0.027350609876873273,5.792579124449941e-05,-2.002419187546841,-0.01728108019680154,0.46096914784948884,0.14829452328648318,0.09500761337986852,0.00011171808795490401,-0.6682738920901626,9.651639975844963,1.2066424825237778,0.004973198617356988,0.03639709979804656,0.00011373686356981641
