tonegas/nnodely-applications/joint_friction_estimation/dataset/validation/mpc_mujoco_episode_8.csv
time,q1,q2,q3,q4,q5,q6,dq1,dq2,dq3,dq4,dq5,dq6,ddq1,ddq2,ddq3,ddq4,ddq5,ddq6,tau1,tau2,tau3,tau4,tau5,tau6
0.0,0.0,1.57,-1.57,0.0,0.0,0.0,0.0,0.0,0.0,0.0,0.0,0.0,-4.769400074361168,5.81701171340589,1.5784607804446118,0.29089296751382676,-0.6804992595024189,-2.398946526760426e-06,-0.6647807597420862,-1.3421583756574442,-3.3002054340586913,-0.7644441719388856,-0.05989660758026003,-0.0010854529713826273
0.01,-0.0004744024851387118,1.5705803547830945,-1.5698415569352522,2.895588157646074e-05,-5.77951151663136e-05,-5.782230501286845e-07,-0.04744024851387118,0.05803547830944703,0.01584430647478973,0.002895588157646074,-0.005779511516631359,-5.782230501286845e-05,-4.698366760673411,5.64094187608125,1.4710527295956197,0.2521257077389656,-0.5663025248609337,-0.005760795896868398,-0.6605147876331879,-1.4526551062390167,-3.346819527958521,-0.7747252634679764,-0.05942394667284132,-0.00108401559119872
0.02,-0.0014157881649110712,1.5717234808772045,-1.5695354389366205,8.32831861793995e-05,-0.0001661985765207378,-1.755309968486446e-06,-0.09413856797723595,0.11431260941098859,0.030611799863167432,0.005432730460293875,-0.01084034613544242,-0.00011770869183577615,-4.619141462751319,5.455769148832654,1.3575889520258428,0.21448023834216912,-0.49289771089456735,-0.005902411902122928,-0.6586051345890194,-1.5761837064918285,-3.3958875894575726,-0.7853208426506794,-0.05906567076882134,-0.001082492832440538
0.03,-0.0028160745806380463,1.573410883282095,-1.569092999690772,0.00015945204776698853,-0.0003204518730785267,-3.4878557689989544e-06,-0.14002864157269754,0.16874024048904834,0.0442439245848323,0.007616886158758902,-0.015425329655778891,-0.00017325458005125084,-4.533208136778386,5.2622101023757475,1.2389191420387373,0.17760832441229013,-0.44332169035558167,-0.005360135425577006,-0.6587993380926792,-1.7118339746420022,-3.4472014183325825,-0.796196993813753,-0.058804652061064576,-0.0010807813718375617
0.04,-0.004666603879831323,1.5756232276844542,-1.5685260979115991,0.00025396488442662994,-0.0005172049598916825,-5.735045894912628e-06,-0.1850529299193277,0.22123444023592198,0.056690177917304754,0.009451283665964141,-0.019675308681315576,-0.0002247190125913673,-4.441455205863819,5.060991520079284,1.1158473482372813,0.14128680831639429,-0.40743382016472296,-0.004805098063551672,-0.6608386914084441,-1.8586799638860492,-3.500546340865937,-0.8073186719874765,-0.05862271111486679,-0.0010787839251550039
0.05,-0.006958194860359435,1.5783404135590184,-1.5678470204206219,0.00036334376114523687,-0.0007539062081314956,-8.463207023101361e-06,-0.22915909805281115,0.27171858745642813,0.06790774909772633,0.010937887671860694,-0.023670124823981308,-0.00027281611281887333,-4.344410563305603,4.852845924555807,0.9891389229393948,0.10538816338076273,-0.3791970637738409,-0.004289875991026371,-0.6644591890365583,-2.015786397845707,-3.555702980512314,-0.8186500490204062,-0.05850097792032763,-0.001076406669248635
0.06,-0.009681173454550062,1.581541647742487,-1.5670684083473492,0.00048412495373502726,-0.0010284398394022666,-1.1643169550793437e-05,-0.27229785941906276,0.32012341834686514,0.07786120732725887,0.012078119258979038,-0.0274533631270771,-0.00031799625276920766,-4.242386023013516,4.6385082092151135,0.8595255660895216,0.0698557961903532,-0.3550522353115966,-0.0037961738594964878,-0.6693923215614063,-2.1822144119015583,-3.6124488629583,-0.8301548275222781,-0.05842021806307235,-0.001073559092581936
0.07,-0.012825390407856522,1.5852055181684892,-1.5662031861243038,0.0006128587983721893,-0.0013389129292363054,-1.524797778097442e-05,-0.3144216953306459,0.36638704260021665,0.08652222230454848,0.012873384463716208,-0.031047308983403885,-0.0003604808230180984,-4.1355664482637,4.418712962401657,0.7277087001213207,0.0346849142451795,-0.33293655580319026,-0.0033094169948202357,-0.6753658776666529,-2.3570267699501133,-3.6705599108212352,-0.8417965334907522,-0.05836113245405806,-0.0010701550247836028
0.08,-0.016380231596909715,1.5893100675137621,-1.5652644930764932,0.0007461133613950358,-0.0016835327507984477,-1.9251528739843743e-05,-0.3554841189053194,0.41045493452728643,0.09386930478106408,0.013325456302284648,-0.03446198215621424,-0.0004003550958869323,-4.02406508962803,4.194192219788892,0.5943615769953414,-9.209319267355909e-05,-0.3116895887508093,-0.0028240667957772914,-0.6821048555278212,-2.5392926461179792,-3.7298118584915563,-0.8535387931141108,-0.05830463465241771,-0.0010661141402929985
0.09,-0.020334624409940764,1.5938328665434147,-1.5642656174976186,0.00088048080956276,-0.002060538597747859,-2.3627874830280967e-05,-0.39543928130310513,0.4522799029652484,0.09988755788746756,0.013436744816772423,-0.0377005846949411,-0.0004376346090437222,-3.9079582745063166,3.96567348229018,0.46013045403346275,-0.03441681064931856,-0.2906931988195609,-0.0023406442159044083,-0.6893325473675518,-2.7280920236737454,-3.7899816019502537,-0.865345595934161,-0.05823210713625136,-0.0010613635457013297
0.1,-0.024677042375472902,1.598751086966196,-1.56321993317251,0.0010125856237629387,-0.0024681663528313604,-2.8350934321867973e-05,-0.4342417965532137,0.4918220422781431,0.10456843251084724,0.013210481420017859,-0.04076277550835016,-0.0004723059491587006,-3.7873074439507333,3.733877900456108,0.325635098976373,-0.0682133169451884,-0.2696530539618003,-0.0018629523283633098,-0.6967718326333531,-2.922519740865262,-3.8508484885424936,-0.8771815445519053,-0.058125636369417776,-0.0010558392376298872
0.11,-0.0293955094640139,1.6040415736249032,-1.562140838353,0.001139093999088846,-0.0029046326120248313,-3.3394439443213066e-05,-0.4718467088540997,0.5290486658707213,0.10790948195099673,0.01265083753259072,-0.043646625919347086,-0.0005043505121345093,-3.6621733821696707,3.4995185658489043,0.19146882377378116,-0.10139469944669877,-0.24846579580106365,-0.0013962385052730397,-0.704146692899125,-3.1216892001450898,-3.912195545501576,-0.8890120898661749,-0.05796822574204823,-0.0010494873178398447
0.12,-0.03447760501344092,1.609680915856047,-1.5610416972271124,0.0012567239267787264,-0.0033681303429884675,-3.873201623657736e-05,-0.5082095549427023,0.563934223114382,0.10991411258876833,0.01176299276898803,-0.04634977309636362,-0.0005337576793364295,-3.532625563324363,3.2632988745577656,0.058198200352505225,-0.1338680358306803,-0.22713812171746284,-0.0009460650892672007,-0.7111839431122307,-3.3247357496513903,-3.9738106421560633,-0.9008037501521217,-0.05774398515164176,-0.0010422649094001118
0.13,-0.039910469927022144,1.6156455178589035,-1.5599357839424368,0.0013622555704289139,-0.0038568311877764643,-4.4337331407737996e-05,-0.5432864913581218,0.5964602002856458,0.11059132846756822,0.010553164365018743,-0.04887008447879966,-0.000560531517116064,-3.398748374915742,3.025910943573532,-0.07363742340541712,-0.1655382002070116,-0.20573739123922863,-0.0005176431673623583,-0.7176151582909014,-3.53081974165275,-4.035487578413228,-0.9125243119355143,-0.05743829597105575,-0.0010341407514702157
0.14,-0.04568081459416374,1.621911667918504,-1.5588362292564384,0.0014525416389543507,-0.00436889142073978,-5.018426681242581e-05,-0.5770344667141596,0.6266150059600352,0.10995546859985265,0.009028606852543676,-0.05120602329633149,-0.0005846935404687813,-3.2606452744481884,2.788034070645732,-0.20352651594089988,-0.19631076269440584,-0.1843614431354439,-0.00011546279846763596,-0.7231787619168937,-3.7391292705850834,-4.097027090824064,-0.9241430104975451,-0.05703795031641311,-0.0010250954711477417
0.15,-0.05177492884642645,1.6284556063308597,-1.5577559698912096,0.0015245175285708585,-0.004902459730872856,-5.6247097916292294e-05,-0.6094114252262711,0.6543938412355833,0.10802593652289218,0.007197588961650771,-0.0533568310133076,-0.0006062831103866483,-3.1184415157444194,2.550333234594398,-0.3309859915680944,-0.22609418578810292,-0.16312018025414154,0.0002568865498107087,-0.7276222320408546,-3.9488825924995283,-4.158237767028511,-0.9356306878939024,-0.05653126381756411,-0.0010151215445611435
0.16,-0.058178694160501296,1.6352535918823392,-1.5567077006693513,0.0015752110605583456,-0.0054556857074456065,-6.250066232461936e-05,-0.6403765314074845,0.6797985551479424,0.10482692218582028,0.005069353198748719,-0.055322597657275076,-0.0006253564408327066,-2.9722858323526076,2.3134576371294213,-0.4555618223267528,-0.25480147158572297,-0.14212441452921887,0.0005967732618841204,-0.730704373588876,-4.159330227731009,-4.218936859498174,-0.9469599265553894,-0.05590816146368422,-0.0010042229689499857
0.17,-0.06487759824132429,1.6422819667389645,-1.5557038295024967,0.0016017516844378755,-0.006026728345733822,-6.892051059910684e-05,-0.6698904080822996,0.7028374856625251,0.10038711668545236,0.0026540623879529874,-0.05710426382882152,-0.0006419848274487481,-2.8223513199033667,2.078039289821984,-0.5768295898273723,-0.282351377015452,-0.12147923235634295,0.0009025028733704588,-0.7321976005797792,-4.369756749124333,-4.27895099014367,-0.958105156832256,-0.055160236516095584,-0.0009924146744008915
0.18,-0.07185675205416997,1.6495172196057126,-1.5547564352954415,0.0016013790502326234,-0.0066137641626413425,-7.548303544891576e-05,-0.6979153812845676,0.7235252866748065,0.09473942070551447,-3.726342052521236e-05,-0.05870358169075201,-0.0006562524849808908,-2.668835675439927,1.8446916514619345,-0.6943949449447757,-0.30866928656708925,-0.10128020493134393,0.0011732490878864077,-0.731890169916776,-4.579482259071623,-4.338116738468279,-0.9690427372324174,-0.05428078292496365,-0.0009797217089653797
0.19,-0.07910090931987428,1.6569360470208006,-1.5538772288177352,0.0015714508807575436,-0.007214994684177249,-8.216557784090954e-05,-0.7244157265704303,0.7418827415087891,0.08792064777063388,-0.002992816947507992,-0.060123052153590664,-0.0006682542391993783,-2.5119609042981303,1.6140083219154724,-0.8078939515206325,-0.33368781135583436,-0.08161140949056289,0.0014089568387727347,-0.729588308991678,-4.787863559846104,-4.396281107471875,-0.9797510065684399,-0.05326480213486572,-0.0009661782344429123
0.2,-0.08659448843989902,1.6645154126554937,-1.553077516581575,0.0015094500969426192,-0.007828653176765595,-8.89465101309419e-05,-0.7493579120024746,0.7579365634693199,0.07997122361603302,-0.006200078381492431,-0.0613658492588345,-0.0006780932290032353,-2.3519725787231005,1.3865617989815422,-0.9169932971480421,-0.35734716786555165,-0.06254461472651052,0.001610231508976101,-0.7251181823325356,-4.994295023205453,-4.453301863374912,-0.9902103077511829,-0.05210898559787175,-0.0009518263723566798
0.21,-0.09432159677655323,1.6722326044962137,-1.5523681677505115,0.0014129911671954308,-0.008453010565550636,-9.580529728959085e-05,-0.7727108336654214,0.7717191840720028,0.07093488310634546,-0.009645892974718823,-0.06243573887850414,-0.0006858787158648958,-2.1891387177905557,1.1629023047191203,-1.021390359942264,-0.37959537818440325,-0.04413921871547899,0.0017782241588453207,-0.7183276476323838,-5.198209166966672,-4.5090477473782125,-1.000402983531372,-0.050811674714194593,-0.0009367149406744263
0.22,-0.1022660571777492,1.6800652897926251,-1.5517595840883096,0.001279825666607501,-0.00908638052935432,-0.00010272253787937786,-0.7944460401195964,0.7832685296411538,0.060858366220184285,-0.013316550058792977,-0.06333699638036851,-0.0006917240589787019,-2.0237483499309046,0.9435566874121981,-1.1208131251977504,-0.4003883249236756,-0.02644267158369118,0.001914519517416835,-0.7090877583595951,-5.399076948166266,-4.563398560014601,-1.0103133450719664,-0.049372800275715875,-0.0009208981217225356
0.23,-0.11041143660491395,1.6879915676629162,-1.5512616729417377,0.0011078470440427336,-0.009727123792379742,-0.00010967998676332308,-0.8145379427164754,0.7926277870291133,0.049791114657189356,-0.017197862256476737,-0.06407432630254223,-0.0006957448883945215,-1.8561098141901446,0.729027404779914,-1.2150199501508105,-0.41968968756040437,-0.00949120445443441,0.002021031236222548,-0.697293978342078,-5.596407784491544,-4.616245121102002,-1.0199276148134706,-0.047793803783979336,-0.0009044341005848002
0.24,-0.11874107669693125,1.6959900192555855,-1.5508838232354738,0.0008950946052889946,-0.010373651652476822,-0.0001166605616698547,-0.8329640092017295,0.7998451592669148,0.0377849706263793,-0.021275243875373894,-0.06465278600970797,-0.0006980574906531621,-1.6865488525417331,0.5197915933001781,-1.3037991788026602,-0.43747078215230273,0.006689257191968778,0.0020999071922922496,-0.6828670827985139,-5.789749317837357,-4.667489110778874,-1.0292338456489811,-0.04607754324282327,-0.000887383711177336
0.25,-0.12723812608209714,1.7040397553756375,-1.5506348844420408,0.0006397567288547818,-0.011024428798164706,-0.00012364833576317222,-0.84970493851659,0.8049736120052065,0.024893879343298383,-0.025533787643421284,-0.06507771456878841,-0.0006987774093317523,-1.515406542114766,0.31630022763489923,-1.3869686120036735,-0.4537103227324999,0.02208208074331708,0.002153446333516662,-0.6657537298086591,-5.978686936050417,-4.717042799499481,-1.038221818935171,-0.04422818618051462,-0.0008698091242670227
0.26,-0.13588557423383785,1.7121204614920786,-1.5505231484750142,0.00034017333791567925,-0.011677975473824034,-0.00013062851831058598,-0.8647448151740695,0.808070611644121,0.011173596702662648,-0.029958339093910248,-0.06535466756593285,-0.0006980182547413758,-1.343037112673131,0.11897737316187948,-1.4643748407725425,-0.4683941199714381,0.03667887442508899,0.002184027604180905,-0.6459266957424987,-6.1628430711021815,-4.764828677099102,-1.0468829243110347,-0.04225109273441151,-0.0008517726080932487
0.27,-0.14466628665410716,1.7202124400528844,-1.5505563344399445,-5.162342444533954e-06,-0.012332869055995918,-0.00013758742542708467,-0.8780712420269303,0.8091978560805729,-0.0033185964930371754,-0.03453356803602132,-0.06548935821718833,-0.0006958907116498706,-1.1698056908955639,-0.07178046642025313,-1.5358924531713058,-0.4815147305791081,0.050478438795826364,0.0021940507918605245,-0.6233847773131127,-6.341876294004895,-4.810778993024396,-1.0552100246619949,-0.0401526916333351,-0.0008333353881125125
0.28,-0.15356304116064257,1.7282966500430919,-1.5507415761647094,-0.00039760270904400997,-0.012987745104574481,-0.00014451244273273092,-0.889675450653541,0.8084209990207355,-0.01852417247648699,-0.0392440366599476,-0.06548760485785633,-0.0006925017305646242,-0.9960860089598843,-0.2556049055105767,-1.6014231269899595,-0.4930710692618394,0.06348575196120265,0.002185888657023183,-0.5981523713431239,-6.5154802286827165,-4.854835221492313,-1.063197309841008,-0.037940351842488354,-0.0008145566278705128
0.29,-0.16255856505025373,1.736354743731232,-1.5510854124195446,-0.0008383453483125188,-0.013641297951595651,-0.0001513919815952063,-0.8995523889611153,0.805809368814025,-0.034383625483521044,-0.04407426392685088,-0.06535528470211698,-0.0006879538862475399,-0.8222581106967833,-0.43215613719010865,-1.6608946220090188,-0.5030679937294922,0.0757110093045883,0.002161849366657087,-0.5702787507669405,-6.683382308655159,-4.896947466633791,-1.070840142932052,-0.035622252499024745,-0.0007954925482724441
0.3,-0.17163557290965215,1.7443691005588622,-1.5515937797269412,-0.001328433208167526,-0.014292280887860352,-0.00015821543045912761,-0.9077007859398414,0.8014356827630186,-0.05083673073966781,-0.04900878598550071,-0.06509829362647016,-0.0006823448863921306,-0.6487060842564091,-0.6011232991098797,-1.7142596867448732,-0.511515872108304,0.08716873136586711,0.0021241481052425293,-0.5398370616298991,-6.845342401721379,-4.937073823557715,-1.0781349029113727,-0.03320725357150498,-0.0007761956977205223
0.31,-0.1807768048475937,1.7523228581373809,-1.5522720076530359,-0.0018687553325736888,-0.01493950600421124,-0.0001649731025929093,-0.9141231937941556,0.7953757578518623,-0.0678227926094698,-0.05403221244061629,-0.06472251163508877,-0.000675767213378168,-0.4758158459391097,-0.7622247467377457,-1.7614948953155778,-0.5184301411626011,0.09787694799258162,0.002074886634700679,-0.5069230707634547,-7.001151328793149,-4.975179711712486,-1.0850788275280803,-0.030704769433325264,-0.0007567143808552853
0.32,-0.1899650649268776,1.7601999403255282,-1.5531248164651374,-0.002460048116312395,-0.015581843740239932,-0.00017165618141879295,-0.9188260079283892,0.7877082188147267,-0.08528088121016018,-0.059129278373870615,-0.06423377360286903,-0.0006683078825883653,-0.303972995685691,-0.915208236826835,-1.8025994304412116,-0.5238308628279214,0.10785646264267013,0.0020160395762016114,-0.4716536973570785,-7.150629303568473,-5.01123719692263,-1.0916698600925268,-0.02812464725966196,-0.0007370922490977955
0.33,-0.1991832595816175,1.7679850823698964,-1.5541563170346568,-0.0031028970371864365,-0.016218222188796306,-0.00017825666443583546,-0.9218194654739925,0.7785142044368168,-0.10315005695194555,-0.06428489208740415,-0.06363784485563728,-0.0006600483017042507,-0.13356076079269197,-1.0598510246475756,-1.8375938286067786,-0.5277422857386966,0.1171301974859924,0.0019494462604598417,-0.43416536382268567,-7.293624319836803,-5.045224318048081,-1.0979065036360607,-0.025477051850940312,-0.0007173680519463866
0.34,-0.20841443581378122,1.775663853099343,-1.555370012860933,-0.0037977388232058834,-0.01684762620010516,-0.0001847673066011215,-0.923117623216371,0.767877072944664,-0.12136958262759649,-0.06948417860194468,-0.06294040113088521,-0.0006510642165286037,0.035041959214056534,-1.1959598790565646,-1.8665187030973902,-0.5301924176457025,0.12572261754027805,0.0018768070429510675,-0.3946122022243555,-7.4300105128437,-5.077124433380344,-1.1037876855996074,-0.022772358164684384,-0.0006975755441179319
0.35000000000000003,-0.21764181897291837,1.7832226741723567,-1.5567688040892433,-0.004544864013178827,-0.017469096324723876,-0.00019118156390309274,-0.9227383159137157,0.7558821073013854,-0.1398791228310499,-0.07471251899729435,-0.06214701246187168,-0.0006414257301971249,0.20146243689805052,-1.3233710198499133,-1.889433459997473,-0.5312126138303093,0.1336592303323535,0.0017996831318266016,-0.35316415224051745,-7.559686520319233,-5.106925600693459,-1.1093126358339904,-0.02002105251276167,-0.0006777435402025772
0.36,-0.22684884993393212,1.7906488363841355,-1.5583549933955967,-0.005344419870497419,-0.018081727630114817,-0.0001974935377424862,-0.9207030961013748,0.742616221177881,-0.15861893063533583,-0.07995558573185925,-0.06126313053909393,-0.000631197383939346,0.365335843675709,-1.4419499820564492,-1.9064150213449382,-0.530837185866579,0.1409661563786535,0.0017194990858309285,-0.31000498528986925,-7.6825738675006106,-5.1346200033573455,-1.114480780265833,-0.017233643062583973,-0.0006578961055636308
0.37,-0.23601922149940194,1.7979305130473775,-1.5601302936116128,-0.00619641361169893,-0.018684668421342678,-0.0002036979206309965,-0.9170371565469833,0.7281676663242047,-0.17753002160160372,-0.08519937412015104,-0.06029407912278612,-0.0006204382888510309,0.5263068547832237,-1.551591411872004,-1.917556568490169,-0.5291030343254892,0.14766976502070017,0.001637547227272787,-0.2653302872633616,-7.798615398785007,-5.160203433154827,-1.1192916521142298,-0.014420579977730337,-0.0006380528697860423
0.38,-0.24513691386507835,1.8050567704675597,-1.5620958369648226,-0.007100715913525664,-0.019277118892399015,-0.00020978994362543026,-0.9117692365676413,0.712625742018224,-0.19655433532096617,-0.09043023018267336,-0.05924504710563392,-0.0006092022994433737,0.6840311303127959,-1.6522187988202364,-1.9229663173685645,-0.5260493082602071,0.15379636974254485,0.0015549934050700376,-0.21934542945363783,-7.907773776569627,-5.183674838483089,-1.123744822050008,-0.011592185253346534,-0.0006182294470615716
0.39,-0.2541862289995271,1.8120175755397876,-1.564252185812896,-0.008057064664637837,-0.01985832973094065,-0.00021576532583389356,-0.9049315134448752,0.696080507222776,-0.21563488480734158,-0.09563487511121725,-0.05812108385416347,-0.0005975382208463307,0.8381766719063775,-1.7437841484629042,-1.922766335876291,-0.521717093593276,0.1593719769600126,0.0014728835739510338,-0.17226355395505571,-8.010030065420626,-5.205035944528625,-1.1278398481855187,-0.008758592050718573,-0.000598437946490281
0.4,-0.26315182380132496,1.8188038005001808,-1.5665993447545032,-0.009065068930783331,-0.020427600695826494,-0.0002216202262607104,-0.8965594801797885,0.6786224960393156,-0.23471589416072305,-0.10080042661454947,-0.05692709648858439,-0.0005854900426816832,0.9884250560527543,-1.826267599587227,-1.9170914119029665,-0.5161491318026385,0.164422082339315,0.0013921508236062752,-0.12430359621107367,-8.105382417017637,-5.224290949845872,-1.131576246282173,-0.005929693118279521,-0.0005786875543547775
0.41000000000000003,-0.2720187419095589,1.825407224870249,-1.569136774004555,-0.010124213105030321,-0.020984279183755564,-0.00022735119819620715,-0.8866918108233943,0.6603424370068411,-0.25374292500516943,-0.10591441742469891,-0.05566784879290698,-0.0005730971935496758,1.1344725459576241,-1.899676989287621,-1.9060879788488418,-0.509389569621284,0.16897150891945323,0.0013136225313418182,-0.0756883636875249,-8.19384486840527,-5.241446301602958,-1.1349534800771388,-0.0031150977061444075,-0.0005589851699577145
0.42,-0.2807724440555489,1.8318205346378575,-1.5718634039272894,-0.01123386121755845,-0.021527758798544776,-0.00023295514630590033,-0.8753702145990003,0.6413309767608367,-0.2726629922734393,-0.11096481125281292,-0.054347961478921195,-0.0005603948109693187,1.2760310846815002,-1.964047368761375,-1.8899131036789214,-0.5014837398187026,0.17304428163270824,0.001238027412340914,-0.026642686007609717,-8.275446263013695,-5.256510549640029,-1.1379709711705912,-0.00032409623981024226,-0.0005393360765680928
0.43,-0.2893988368556262,1.838037318723247,-1.5747776506268905,-0.012393261382420076,-0.02205747793412857,-0.0002384292865295633,-0.8626392800077273,0.6216784085389458,-0.29142466996009586,-0.11594001648616253,-0.05297191355837911,-0.0005474140223662964,1.4128291727071487,-2.019440471973658,-1.8687335407917063,-0.4924779725101729,0.17666353320556638,0.0011660023088368998,0.02260835156850674,-8.35022930075183,-5.269494277465926,-1.1406281274892554,0.0024343680837073597,-0.0005197446293586033
0.44,-0.29788429995640053,1.8440520627832346,-1.5778774325018616,-0.013601550361565217,-0.022572918380197964,-0.0002437711088630889,-0.8485463100774358,0.6014744059987577,-0.30997818749711037,-0.12082889791451416,-0.05154404460693952,-0.0005341822333525578,1.5446126333490795,-2.065944138649187,-1.8427248532306422,-0.48241943588841707,0.17985143684317606,0.0010980985905976182,0.07184108259130279,-8.418249720296966,-5.28041010644219,-1.1429243889582017,0.005151721678096834,-0.0005002149428924079
0.45,-0.3062157114552177,1.8498601404112223,-1.5811601876760693,-0.014857758229218764,-0.023073603957506014,-0.00024897834306443777,-0.833141149881715,0.5808077627987714,-0.3282755174207682,-0.1256207867653546,-0.05006855773080482,-0.0005207234201348851,1.6711452694951214,-2.103671692339941,-1.812070601089467,-0.4713560047508185,0.18262916154243136,0.0010347881086603117,0.12083483584358723,-8.479575613565446,-5.2892727677047375,-1.1448592886761664,0.007819777856753645,-0.00048075156169131105
0.46,-0.3143804715294272,1.8554578017950862,-1.5846228922260368,-0.016160813122355254,-0.023559099188228634,-0.00025404892729802633,-0.8164760074209503,0.5597661383864068,-0.3462704549967474,-0.13030548931364916,-0.04854952307226221,-0.0005070584233588554,1.7922094151178178,-2.132761273634464,-1.7769615953805897,-0.4593361547604804,0.18501684631279325,0.0009764686571906989,0.16937341012434726,-8.534286869314629,-5.296099234883892,-1.1464325276043774,0.01043074995089308,-0.00046136009864557425
0.47000000000000003,-0.322366524218659,1.8608421598994522,-1.5882620791305626,-0.017509546065491974,-0.02402900800536351,-0.00025898097970925824,-0.7986052689231802,0.538435810436601,-0.3639186904525827,-0.13487329431367193,-0.046990881713487385,-0.000493205241123191,1.9076063848513793,-2.153375127937266,-1.7375952141941235,-0.4464088799717896,0.1870335900079514,0.0009234689450676736,0.2172464456618519,-8.582474739951985,-5.30090890942396,-1.1476440605473075,0.012977261142739942,-0.0004420478274691523
0.48,-0.33016237731455317,1.8660111742433583,-1.5920738578749098,-0.018902695860274817,-0.02448297250395286,-0.00026377277290157614,-0.7795853095894127,0.5169014343906035,-0.3811778744347225,-0.13931497947828433,-0.04539644985893527,-0.0004791793192317886,2.017156824737195,-2.165698846687729,-1.6941747766773116,-0.43262363085606736,0.18869745387445036,0.0008760530751130702,0.2642506918359962,-8.624241522965875,-5.303723849289973,-1.1484941910274458,0.015452351837136991,-0.0004228242170232381
0.49,-0.3377571203223217,1.870963632348921,-1.596053934647535,-0.02033891403233303,-0.024920671735907635,-0.00026842271127221055,-0.7594743007768543,0.49524581055626504,-0.3980076772625139,-0.14362181720582143,-0.04376992319547729,-0.0004649938370634418,2.1207009670317225,-2.1699405604264417,-1.646908969257633,-0.4180302697947855,0.19002547429890093,0.0008344245748459489,0.3101911718540246,-8.65970034599059,-5.3045690310902955,-1.1489836725351363,0.01784948531041496,-0.00040370139708928476
0.5,-0.34514044046816467,1.8756991289413953,-1.600197633072491,-0.02181676982960107,-0.025341820549369908,-0.00027292931114875974,-0.7383320145842979,0.4735496592474437,-0.4143698424955934,-0.14778557972680406,-0.042114881346227234,-0.00045065998765492053,2.218098791775646,-2.166330081776464,-1.5960113176145052,-0.402679040846289,0.1910336835834734,0.0007987299826190952,0.3548822455754238,-8.688975042415844,-5.303472635142398,-1.1491138135681485,0.020162552273653416,-0.00038469454703491475
0.51,-0.3523026367359308,1.8802180429859943,-1.6044999154251531,-0.023334755267730954,-0.02574616847285824,-0.000277291183657214,-0.7162196267766174,0.4518914044598922,-0.4302282352662247,-0.15179854381298813,-0.04043479234883292,-0.00043618725084542396,2.3092300976674993,-2.1551179962018616,-1.5416996971980215,-0.38662055048361843,0.19173713690054583,0.0007690620772944357,0.3981485718721281,-8.712200102680738,-5.300466342762169,-1.148886583862184,0.022385874873293576,-0.0003658222007486675
0.52,-0.35923463192552624,1.8845215126520223,-1.6089554042827152,-0.024891290219334047,-0.026133498643878095,-0.0002815070202414864,-0.6931995189595421,0.4303469666028047,-0.4455488857562166,-0.1556534951603092,-0.03873301710198556,-0.0004215836584272414,2.3939944846895655,-2.136574698348145,-1.4841958746108617,-0.36990575595740793,0.19214994386591577,0.0007454627549794424,0.43982597180222016,-8.729520684981143,-5.29558563505745,-1.1483047192507816,0.024514210530196402,-0.0003471064631898313
0.53,-0.3659279827344369,1.8886114083002983,-1.6135584045639293,-0.026484727544591514,-0.02650362678122983,-0.00028557558074601106,-0.669335080891065,0.4089895648276004,-0.4603000281214034,-0.1593437325257467,-0.037012813735173414,-0.0004068560504524676,2.472311250912477,-2.1109893718694304,-1.42372507189237,-0.3525859579996862,0.1922853034380747,0.000727925611383462,0.47976219353995186,-8.741092668085757,-5.288870082741374,-1.147371822677977,0.026542755893300497,-0.0003285731358761793
0.54,-0.37237488787234924,1.8924903035954677,-1.618302925914803,-0.028113358261260945,-0.02685640019989323,-0.00028949568396544214,-0.6446905137912362,0.38788952951693045,-0.47445213508735545,-0.16286307166694297,-0.03527734186634009,-0.00039201032194310643,2.5441192059676836,-2.078668910899848,-1.3605155457052405,-0.33471279466022885,0.19215554108880184,0.0007163982978601879,0.5178175795175326,-8.747082728310438,-5.280363616934537,-1.1460924590160841,0.028467151060421577,-0.0003102517505839921
0.55,-0.37856819422721805,1.8961614448506254,-1.6231827053984065,-0.029775416752289185,-0.02719169686709579,-0.000293266200558588,-0.6193306354868809,0.3671141255157796,-0.4879779483603451,-0.16620584910282388,-0.03352966672025591,-0.00037705165931458393,2.609376403827222,-2.039936781738439,-1.2947981735831404,-0.3163382332514004,0.1917721474052243,0.0007107846641738469,0.5538656356709782,-8.747668422448045,-5.270114771577903,-1.144472241510098,0.030283484100524123,-0.00029217551243087696
0.56,-0.384501401109229,1.8996287187176386,-1.6281912304476027,-0.03146908600913364,-0.027509424497967543,-0.0002968860482181095,-0.593320688201092,0.34672738670130787,-0.5008525049196175,-0.16936692568444525,-0.03177276308717545,-0.0003619847659521519,2.668059797765816,-1.9951318238703382,-1.2268060397641793,-0.29751455759390666,0.19114581748238635,0.0007109467469046393,0.5877935021172667,-8.743038258585727,-5.258176888907157,-1.1425179078747467,0.03198829580264972,-0.0002743811553223108
0.5700000000000001,-0.39016866260691224,1.9028966183426117,-1.6333217620394305,-0.033192502908515616,-0.027809519689035583,-0.00030035418898231733,-0.5667261497683288,0.3267899624973122,-0.5130531591827655,-0.17234168993819796,-0.030009519106803852,-0.0003468140764207833,2.7201648206966986,-1.9446069901366418,-1.1567740136887386,-0.27829434801906494,0.19028649063444192,0.0007167066479651929,0.619502324091852,-8.733391737254642,-5.244608280419999,-1.140237384305404,0.03357858447980477,-0.000256908714438211
0.58,-0.3955647880971503,1.9059702081120269,-1.6385673580491038,-0.03494376351970394,-0.028091947087704513,-0.0003036696285706941,-0.5396125490238047,0.30735897694152464,-0.5245596009673364,-0.17512606111883275,-0.028242739866892887,-0.0003315439588376745,2.7657048944569618,-1.8887280266699857,-1.0849383149495666,-0.25873045192436805,0.1892033901130219,0.0007278483361874422,0.6489075216045697,-8.7189393462282,-5.229472336872888,-1.1376398359243927,0.03505181057412834,-0.0002398012219877945
0.59,-0.40068524095794905,1.9088550871211094,-1.6439208967402066,-0.03672092843858592,-0.028356698595794223,-0.0003068314176205816,-0.5120452860798752,0.28848790090824694,-0.5353538691102878,-0.1777164918881977,-0.02647515080897085,-0.00031617890498875204,2.804710872058453,-1.827872094112932,-1.0115360593542846,-0.23887594298916426,0.18790506265425222,0.0007441193984938366,0.6759389560787046,-8.699902493490445,-5.212837582045038,-1.134735702464105,0.03640590074465515,-0.00022310433384295546
0.6,-0.40552613553956707,1.9115573515018502,-1.6493751003457477,-0.0385220281437558,-0.0286037926051536,-0.00030983865469879105,-0.4840894581618015,0.27022643807408864,-0.5454203605541107,-0.18010997051698838,-0.02470940093593786,-0.00030072370782094793,2.8372304173984118,-1.7624263326104046,-0.9368047817272007,-0.2187840675803745,0.186399417799322,0.0007652327936997771,0.7005409922609389,-8.676513364405285,-5.194777666276007,-1.1315367182820362,0.03763925107240633,-0.00020686589584782347
0.61,-0.4100842324558687,1.9140835557537512,-1.6549225586924015,-0.04034506836867702,-0.028833273263329448,-0.00031269049095819154,-0.45580969163016494,0.25262042519009204,-0.5547458346653658,-0.182304022492122,-0.022948065817584903,-0.00028518362594004973,2.8633273274194297,-1.6927863740843727,-0.8609819321537073,-0.19850817724175762,0.1846937670314226,0.0007908686228037531,0.7226724539533946,-8.649014690890981,-5.175371297088301,-1.1280559161039367,0.0387507289901381,-0.00019113545957434667
0.62,-0.4143569322635405,1.9164406732256396,-1.6605557528175918,-0.04218803548268871,-0.029045209767236218,-0.00031538613630612943,-0.42726998076717665,0.23571174718884852,-0.5633194125190412,-0.18429671140116932,-0.02119365039067701,-0.00026956453479379136,2.8830808022056504,-1.6193548063405525,-0.7843043435013315,-0.1781016465821219,0.1827948628589624,0.0008206759642002126,0.7423064726360151,-8.617659422407005,-5.1547021055216105,-1.1243076141944368,0.039739673536117674,-0.00017596375803268578
0.63,-0.41834226760203186,1.9186360559017406,-1.666267078526203,-0.04404890187226974,-0.029239695682737713,-0.0003179248669482081,-0.398533533849139,0.21953826761009673,-0.5711325708611144,-0.18608663895810298,-0.019448591550149358,-0.00025387306420786347,2.896584668974023,-1.5425395945867038,-0.7070076692166061,-0.15761777627633844,0.18070893803843546,0.000854274767219998,0.7594302288131985,-8.582710290741051,-5.132858448099328,-1.1203073869529943,0.04060589354218765,-0.00016140215233894874
0.64,-0.42203889387170807,1.920677393649469,-1.672048869830726,-0.04592563131258266,-0.029416848288011322,-0.0003203060341683027,-0.3696626269676222,0.20413377477284994,-0.5781791304522957,-0.1876729440312922,-0.017715260527360895,-0.0002381167220094621,2.9039465663507853,-1.4627524669386625,-0.6293257915625601,-0.13710968130621826,0.17844174518056022,0.000891257888403274,0.7740445869182171,-8.544439262898742,-5.109933145596324,-1.116072019221639,0.04134966339515237,-0.0001475020605839031
0.65,-0.42544607853168726,1.9225726730900357,-1.6778934222157076,-0.047816184317935675,-0.029576807938514464,-0.00032252907420223664,-0.340718465997919,0.18952794405666173,-0.5844552384981557,-0.18905530053530128,-0.01599596505031434,-0.00022230400339339593,2.9052870956939207,-1.3804072714274311,-0.5514902016127814,-0.1166301649342083,0.17599859700845144,0.0009311932270557044,0.7861636258132003,-8.503126878798682,-5.086023160955168,-1.1116194448642778,0.041971716055530385,-0.00013431438013320667
0.66,-0.42856368910214365,1.9243301362558336,-1.6837930156645526,-0.04971852345845844,-0.02971973745130917,-0.0003245935190602453,-0.31176105704563867,0.17574631657979117,-0.5899593448845087,-0.19023391405227663,-0.014292951279470665,-0.00020644448580086293,2.90073894651396,-1.2959183128720684,-0.47372935340994227,-0.09623157927670967,0.17338440755194284,0.0009736260509529693,0.7958140682916413,-8.459061472908365,-5.061229219783273,-1.1069686704302577,0.04247323307687559,-0.00012188891432782532
0.67,-0.4313921799584605,1.9259582392006198,-1.6897399373841673,-0.051630618629023926,-0.029845821506422378,-0.0003264990081500927,-0.28284908563168415,0.16281029447862838,-0.5946921719614718,-0.19120951705654854,-0.012608405511320756,-0.0001905489089847434,2.890446003246363,-1.209698678732832,-0.3962679957178139,-0.07596567367760265,0.17060373454698308,0.001018081467227816,0.8030346144761839,-8.412538281376541,-5.035655377838847,-1.1021396849434304,0.042855831439693584,-0.00011027381405359453
0.68,-0.4339325780064928,1.9274656107296377,-1.6957265041607104,-0.05355045225529583,-0.029955266062826884,-0.00032824530055058026,-0.2540398048032273,0.15073715290180228,-0.5986566776543004,-0.19198336262719026,-0.010944455640450605,-0.0001746292400487559,2.8745624407252133,-1.1221585636819282,-0.3193264857277458,-0.05588343236247262,0.1676608232878607,0.0010640671338801866,0.8078751855516605,-8.363858438573736,-5.009408540762527,-1.0971533570583063,0.04312154709366521,-9.9515043929223e-05
0.6900000000000001,-0.4361864673293398,1.9288610114169895,-1.7017450842779405,-0.05547602442076779,-0.03004829778652178,-0.0003298322877820099,-0.22538893228469709,0.13954006873517788,-0.6018580117230171,-0.19255721654719551,-0.009303172369489503,-0.00015869872314296427,2.853251815694546,-1.0337036031198135,-0.2431200898870829,-0.03603490313689406,0.16455965213073398,0.0011110761364063748,0.810396085823117,-8.313327869203636,-4.9825979420245154,-1.0920313209945807,0.04327281518743225,-8.965588194560656e-05
0.7000000000000001,-0.43815597289643304,1.9301532930767074,-1.707788118928388,-0.05740535789781384,-0.030125163488074487,-0.00033126000691860474,-0.19695055670932474,0.1292281659717848,-0.604303465044767,-0.19293334770460535,-0.007686570155270763,-0.00014277191365948458,2.826686161564846,-0.944733226205219,-0.16785827771196105,-0.016469019080023184,0.16130397978753663,0.0011585901422188627,0.8106670925806818,-8.261256084249956,-4.955334585625436,-1.0867958527982031,0.043312447053486,-8.073646030519021e-05
0.71,-0.439843743425429,1.9313513588520583,-1.713848143046904,-0.05933650306510921,-0.030186129566862757,-0.0003325286538850404,-0.1687770528995955,0.11980657753510296,-0.6060024118515844,-0.1931145167295369,-0.0060966078788269274,-0.00012686469664356713,2.795045093378859,-0.8556390391555921,-0.09374401498737717,0.002766584624415369,0.15789739447176032,0.0012060827422684106,0.808766484629189,-8.207954890940819,-4.927730660510262,-1.0814697385803678,0.043243604103637506,-7.279335399074501e-05
0.72,-0.4412529334863809,1.932464124084624,-1.7199178054961073,-0.06126754269332482,-0.030231481459129083,-0.00033363859677828356,-0.1409190060951923,0.1112765232565818,-0.6069662449203467,-0.19310396282156156,-0.004535189226632608,-0.0001109942893243121,2.7585149295954867,-0.7668032496051727,-0.02097306316852432,0.021625756470560198,0.15434336486843137,0.0012530230549141486,0.8047800215458781,-8.153737028614048,-4.899898933928952,-1.076076136455181,0.04306976887513269,-6.585922227532378e-05
0.73,-0.44238718493598883,1.9335004781206278,-1.7259898885339051,-0.06319659658076016,-0.030261523086837744,-0.0003345903890543327,-0.11342514496079531,0.10363540360036735,-0.6072083037797786,-0.1929053887435327,-0.003004162770866068,-9.517922760491459e-05,2.7172878368408586,-0.6785971426853211,0.05026670795197474,0.04006401469753307,0.1506452928005615,0.0012988795551067689,0.7987998867165991,-8.09891474382515,-4.871952131108285,-1.0706384339328745,0.04279471354594039,-5.9962507006952365e-05
0.74,-0.4432506077674335,1.9344692472068425,-1.732057326494604,-0.06512182602056461,-0.03027657630421256,-0.00033538478241898413,-0.08634228314447132,0.09687690862148848,-0.6067437960698892,-0.192522943980446,-0.0015053217374817018,-7.943933646514356e-05,2.6715610032209796,-0.5913796192168256,0.11979598713834139,0.05803873127862191,0.14680656735642117,0.0013431241092165536,0.7909236079301074,-8.04379831923612,-4.844002308594708,-1.0651801025299101,0.04242246630759229,-5.512719010247925e-05
0.75,-0.44384776045844654,1.93537915862224,-1.7381132236172112,-0.06704143808141258,-0.030276980338738706,-0.0003360227392621725,-0.0597152691013017,0.09099114153973581,-0.6055897122607261,-0.19196120608479605,-4.04034526144102e-05,-6.379568431883475e-05,2.621535845153769,-0.5054958059865204,0.1874446610292324,0.07550931149601237,0.1428306201333065,0.0013852362139794572,0.7812529697520169,-7.988694571742473,-4.8161602284968,-1.0597245513320486,0.04195727604308795,-5.137261130321231e-05
0.76,-0.4441836298969183,1.9362388061843558,-1.7441508709572953,-0.06895368968393865,-0.030263091223341657,-0.00033650544447651843,-0.03358694384717238,0.08596475621158044,-0.6037647340084149,-0.19122516025260727,0.0013889115397050624,-4.8270521434596304e-05,2.56741725197487,-0.4212757475310922,0.25305241891956,0.09243736681121018,0.13872098113815312,0.001424707391594282,0.7698929320361434,-7.9339053359310645,-4.788534740610915,-1.0542949811943538,0.04140357580410692,-4.871334591721965e-05
0.77,-0.4442636109595679,1.9370566172612365,-1.750163762322252,-0.07085689145590485,-0.030235281216418417,-0.0003368343165032096,-0.007998106264963216,0.0817811076880508,-0.601289136495664,-0.19032017719661867,0.002781000692324045,-3.288720266911348e-05,2.509412871817226,-0.33903318817994493,0.3164693163474038,0.10878687884726235,0.13448133478015123,0.0014610457170882718,0.7569505687543967,-7.879725949309263,-4.761232179067767,-1.0489142411859604,0.040765945614883704,-4.7159141033202004e-05
0.78,-0.44409348581507024,1.9378408214108238,-1.7561456091739527,-0.0727494113499493,-0.030193938206397403,-0.00033701101745189834,0.01701251444976653,0.07842041495873214,-0.5981846851700683,-0.18925198940444624,0.004134301002101579,-1.767009486887515e-05,2.4477324414771946,-0.25906445233344083,0.37755629125024254,0.1245243524248903,0.1301155752919545,0.0014937804275496624,0.7425340408414008,-7.826443755811771,-4.734355779706626,-1.0436046887909944,0.04004907514888081,-4.671490756797894e-05
0.79,-0.4436794030186326,1.938599420759844,-1.7620903544475068,-0.07462967800884629,-0.030139465097550545,-0.00033703746214635346,0.04140827964376125,0.07585993490202687,-0.5944745273554056,-0.1880266658896978,0.0054473108846857295,-2.6444694455102093e-06,2.3825871621779684,-0.18164743008497453,0.43618562697928925,0.1396189557576315,0.12562786082369648,0.0015224665205630927,0.7267516159716109,-7.774336643882253,-4.708005123881919,-1.0383880552634916,0.03925772682859778,-4.73807645285715e-05
0.8,-0.4430278564604215,1.9393401622237485,-1.7679921852401839,-0.07649618386447249,-0.030072279173880383,-0.000336915825954812,0.06515465582111497,0.07407414639044221,-0.5901830792676941,-0.18665058556261932,0.006718592367016351,1.2163619154147445e-05,2.3141891223413853,-0.10704067435494033,0.4922413570765122,0.15404264609910667,0.12102266538541606,0.001546689357139197,0.709710747139743,-7.723671634957787,-4.682275613850442,-1.0332853174073762,0.03839669988873804,-4.9152131049323255e-05
0.81,-0.44214566422553153,1.9400705116581254,-1.7738455443303656,-0.07834748795810896,-0.029992811438060568,-0.00033664855127166633,0.08821922348899641,0.0730349434376856,-0.5853359090181671,-0.185130409363647,0.007946773581981427,2.6727468314565753e-05,2.242750767699899,-0.03548261470335046,0.5456196074057296,0.16777027935317235,0.11630482775954043,0.0015660690986276649,0.6915172206328601,-7.674703537471852,-4.657257984290516,-1.0283165769158862,0.03747079591920005,-5.201986111746628e-05
0.8200000000000001,-0.4410399474184507,1.940797630020349,-1.7796451404926537,-0.08018221847128844,-0.029901505922624153,-0.00033623835252814366,0.110571680708081,0.07271183622236287,-0.5799596162288164,-0.18347305131794844,0.009130551543641565,4.101987435226774e-05,2.1684844183371434,0.03280910805159358,0.5962288719817948,0.18077970236864727,0.11147959647142613,0.0015802649765661592,0.6722743825039933,-7.627673680558104,-4.633037853881728,-1.0235009482616753,0.036484786368047833,-5.5970415433702055e-05
0.8300000000000001,-0.4397181090002739,1.9415283516081638,-1.785385957581875,-0.08199907495810506,-0.029798818970871953,-0.0003356882196213281,0.13218384181767898,0.07307215878147816,-0.5740817089221313,-0.1816856486816616,0.010268695175219906,5.501329068155315e-05,2.0916018315507294,0.09763818335041434,0.6439902196275316,0.19305182690041223,0.10655266990420209,0.0015889792851626616,0.6520824510267307,-7.58280874050608,-4.60969532023801,-1.0188564559821767,0.03544338243715569,-6.09860645685711e-05
0.84,-0.4381878126823285,1.942269164429524,-1.7910632623656226,-0.08379683027171177,-0.029685218485313615,-0.0003350014196648731,0.1530296317945429,0.07408128213602393,-0.5677304783747777,-0.17977553136067123,0.011360048555833687,6.867999564550477e-05,2.0123138088025274,0.1588300465635022,0.6888374294107455,0.2045706844420998,0.10153023066011713,0.0015919610073820145,0.6310379208759656,-7.540319671717986,-4.587304600849712,-1.0143999420575147,0.03435120774637174,-6.704511746477538e-05
0.85,-0.4364569619154582,1.9430261927454322,-1.7966726110920714,-0.08557433217961834,-0.029561183141855067,-0.0003341814969806475,0.1730850766870271,0.07570283159081946,-0.5609348726448881,-0.1777501907906573,0.012403534345854754,8.199226842255715e-05,1.9308298444616465,0.21623216790981853,0.7307170536376895,0.21532346140948988,0.09641897332165783,0.0015890090055075135,0.6092330629877135,-7.500400752471228,-4.565933722062024,-1.010146983932653,0.03321277407758933,-7.412216939118752e-05
0.86,-0.43453367901002476,1.943805181814846,-1.802209854787015,-0.08733050466434238,-0.02942720156840446,-0.0003332322712679548,0.1923282905433407,0.07789890694138105,-0.5537243694943369,-0.17561724847240429,0.013398157345060925,9.492257126926864e-05,1.8473578135688415,0.2697142147733381,0.7695884080117136,0.22530051438116283,0.09122612483914239,0.0015799747045384116,0.5867555222492076,-7.463228754232905,-4.545644257506348,-1.006111823593618,0.0320324604401778,-8.218836366004188e-05
0.87,-0.4324262844177756,1.9446114848580642,-1.807671143281323,-0.08906434890793567,-0.02928377148707912,-0.00033215783390577855,0.21073945922491893,0.08063030432181821,-0.5461288494308205,-0.17338442435932983,0.014343008132534004,0.00010744373621762783,1.7621036954597433,0.3191680885967164,0.8054234893716823,0.23449536536518245,0.08595945687275375,0.0015647641793825606,0.5636880134025593,-7.428962241629804,-4.526491116815031,-1.0023073079711957,0.030814495625830995,-9.121166175683277e-05
0.88,-0.4301432762031327,1.945450052242457,-1.813052927977223,-0.09077494396088176,-0.029131398819751485,-0.00033096254236389557,0.22830082146428782,0.08385673843927406,-0.5381784695899854,-0.1710595052946089,0.01523726673276362,0.00011952915418829536,1.675271329782077,0.3645078385202714,0.8382068222131001,0.2429046772758907,0.0806272895451503,0.0015433395969988162,0.5401081138515952,-7.3977410084798265,-4.508522384893955,-0.9987448408157722,0.02956294434612002,-0.00010115711698126435
0.89,-0.4276933097282116,1.9463254228820757,-1.8183519633688776,-0.09246144709781691,-0.02897059675726341,-0.00032965101271988594,0.24499664749210703,0.0875370639618633,-0.5299035391654722,-0.16865031369351494,0.016080206248807544,0.0001311529644009607,1.58706220122977,0.40566945487435335,0.8679352359304209,0.2505282100585795,0.07523848620540718,0.001515719965466733,0.5160881504771752,-7.36968565356761,-4.491779211506514,-0.9954343460650218,0.02828169697187225,-0.0001119871472341027
0.9,-0.42508517757299913,1.947241717830655,-1.8235653073396283,-0.09412309386444087,-0.02880188479325586,-0.0003282281103008999,0.2608132155212475,0.091629494857923,-0.5213343970750602,-0.16616467666239546,0.016871196400754802,0.00014229024189860384,1.497675249192819,0.44261054651578957,0.8946175754244986,0.2573687580731585,0.06980243897321259,0.001481981135558419,0.49169517612092056,-7.3448972981245655,-4.4762957504388625,-0.9923842426125319,0.026974462821802173,-0.00012366180318477716
0.91,-0.42232778970962237,1.948202636035896,-1.828690320264873,-0.09575919782183775,-0.028625787724192928,-0.00032669893849145913,0.2757387863376756,0.09609182052411216,-0.512501292524464,-0.1636103957396883,0.017609706906293102,0.00015291718094407824,1.4073066984828235,0.4753099068176428,0.9182743483458381,0.2634320695765,0.06432904500909231,0.0014422550565320602,0.46699103011409554,-7.323457445280546,-4.4620991470734115,-0.9896014302808465,0.025644766880266703,-0.0001361390286939577
0.92,-0.41943015394752803,1.9492114522117743,-1.833724662955848,-0.09736914999619962,-0.028442834617793376,-0.0003250688257705411,0.2897635762094341,0.10088161758783111,-0.5034342690974855,-0.16099521743618692,0.018295310639955306,0.00016301127209180033,1.3161499073349856,0.503766973869448,0.9389373128272975,0.268726749296591,0.0588286736437329,0.001396728260511182,0.4420324761244293,-7.3054279801119755,-4.449209572795019,-0.9870912867068025,0.024295949762077253,-0.00014937491102090875
0.93,-0.41640135666465883,1.950271016775023,-1.8386662934854745,-0.09895241804361944,-0.028253557752706566,-0.00032334331106298995,0.3028797282869221,0.10595645632488275,-0.4941630529626494,-0.1583268047419818,0.018927686508680944,0.00017255147075511735,1.2243952290016953,0.5280011911186401,0.9566490100587726,0.2732641452579392,0.05331212468915947,0.0013456395935012022,0.416871409679957,-7.290851307346051,-4.437640304294767,-0.9848576747609172,0.02293117068719747,-0.00016332391899510316
0.9400000000000001,-0.41325054383835147,1.9513837577819781,-1.843513462942904,-0.1005085451411804,-0.028058491532869646,-0.0003215281275110834,0.3150812826307345,0.11127410069551481,-0.48471694574295104,-0.1556127097560965,0.019506621983691932,0.00018151835519065353,1.1322298834327746,0.5480512752784604,0.9714622464949882,0.2770582211392165,0.04779057844044843,0.0012892772376946748,0.39155512701050244,-7.279750622308836,-4.427397845517702,-0.9829029600455498,0.021553413180854894,-0.00017793912795607125
0.9500000000000001,-0.4099869023886698,1.95255168479268,-1.8482647101683796,-0.10203714861700225,-0.027858171380546446,-0.0003196291847913121,0.3263641449681665,0.11679270107017993,-0.4751247225475549,-0.15286034758218398,0.020032015232320014,0.00018989427197713184,1.0398378357748903,0.563974398842261,0.9834395308357056,0.28012541558044557,0.042275538053948125,0.0012279750327972572,0.3661266463242748,-7.272130309347188,-4.418482089724666,-0.9812280379488223,0.020165493175803323,-0.00019317243084730691
0.96,-0.40661964184620264,1.9537763945805773,-1.8529188555245102,-0.10353791833319917,-0.027653132612563705,-0.00031765255011953264,0.3367260542467158,0.12247097878972386,-0.4654145356130636,-0.15007697161969244,0.020503876798274038,0.0001976634671779476,0.9473996787081783,0.5758452949730223,0.9926524712075575,0.28248448991637787,0.03677876515028178,0.0011621082125978788,0.34062507230448374,-7.267976460724952,-4.410886518903144,-0.9798323696726362,0.018770069163626956,-0.0002089747353756529
0.97,-0.4031579763559727,1.9550590785984014,-1.8574749937639896,-0.10501061483685206,-0.027443909304715693,-0.0003156044281028534,0.34616654902299165,0.12826840178240648,-0.45561382394795014,-0.14726965036528994,0.02092233078480131,0.00020481220166792606,0.8550925159626623,0.5837552928864073,0.999181138169438,0.28415636590987514,0.03131220963586401,0.0010920885758296528,0.3150859944603711,-7.267257507903744,-4.404598437566717,-0.978714026603235,0.01736965402126147,-0.00022529614760550325
0.98,-0.399611107028985,1.9564005321038151,-1.861932486057168,-0.10645506729509019,-0.02723103314969418,-0.00031349113961030986,0.3546869326987716,0.13414535054137397,-0.4457492293178334,-0.1444452458238127,0.021287615502151365,0.00021132884925435252,0.7630898447112656,0.5878112921067032,1.0031133993010677,0.2851639550792697,0.025887934853607852,0.001018359231939936,0.28954190998704965,-7.269924956179311,-4.399599237826792,-0.9778697423516316,0.015966628127265684,-0.00024208614274016257
0.99,-0.3959882046530568,1.9578011648423157,-1.8662909512456887,-0.10787117123121234,-0.02701503231420905,-0.00031131909984463755,0.36229023759282,0.1400632738500523,-0.4358465188520603,-0.14161039361221575,0.021600083548513026,0.00021720397656723044,0.6715614349108263,0.5881346841561884,1.0045442311809136,0.2855319812513093,0.02051803926895346,0.0009413889728054903,0.2640226619650599,-7.275914212862312,-4.39586469250271,-0.9772949717585896,0.014563253379535795,-0.0002592937241460275
