tonegas/nnodely-applications/joint_friction_estimation/dataset/validation/mpc_mujoco_episode_5.csv
time,q1,q2,q3,q4,q5,q6,dq1,dq2,dq3,dq4,dq5,dq6,ddq1,ddq2,ddq3,ddq4,ddq5,ddq6,tau1,tau2,tau3,tau4,tau5,tau6
0.0,0.0,1.57,-1.57,0.0,0.0,0.0,0.0,0.0,0.0,0.0,0.0,0.0,6.8095659973173,-1.1313945550488707,10.066335631936173,4.189491538672758,0.9978402087802891,-5.076476121246287e-06,0.9496459575146321,-3.215171094607871,-3.187375347214392,-0.6627478182676982,0.08576538369986428,0.000772447771367447
0.01,0.0006774263642498973,1.5698907800526667,-1.5689981236100357,0.00039034827334150145,8.409290493825772e-05,1.0766931902242317e-06,0.06774263642498973,-0.01092199473333117,0.10018763899644437,0.039034827334150146,0.008409290493825772,0.00010766931902242316,6.776919844925787,-1.0291068946379738,10.040429622692468,3.9105260480955124,0.8422114762912436,0.010744279630118037,0.9501962313833252,-3.1833195023222194,-3.173787506058116,-0.65954082021165,0.0858093538587818,0.0007719109993085043
0.02,0.0020285104099530705,1.5696826859236754,-1.5669985771420207,0.0011491226928907492,0.00024272834774959973,3.28534022120095e-06,0.1351084045703173,-0.020809412899124587,0.19995464680149988,0.07587744195492477,0.015863544281134203,0.0002208647030976718,6.738805590594771,-0.9218254697942628,9.997442718398679,3.6897606614378766,0.7465810640759187,0.011209042360960986,0.9509928348731863,-3.156550507589289,-3.160807541244104,-0.6561385125267316,0.08586246254460657,0.0007673949485263675
0.03,0.004049150079782862,1.5693865079950873,-1.5640068375452252,0.0022588098054803136,0.00046997119508978397,6.5598847677062594e-06,0.20206396698297918,-0.02961779285881664,0.2991739596795575,0.11096871125895644,0.02272428473401842,0.0003274544546505309,6.697088320539268,-0.8105978888255038,9.941238565377715,3.512679294701826,0.6870818454119423,0.010372889246117012,0.9520480190803753,-3.1353113617683857,-3.148628577614506,-0.652582742686361,0.08592360738534276,0.0007588957604462879
0.04,0.006735012393037653,1.5690133887182325,-1.5600293706793482,0.0037052006265041416,0.0007620646157878523,1.0837246121000965e-05,0.26858623132547904,-0.03731192768548753,0.3977466865876884,0.14463908210238277,0.029209342069806826,0.0004277361353294706,6.652762883663725,-0.6963613793081747,9.874585109418232,3.3681797344839417,0.6493126564843692,0.009469346214351582,0.9533440604580633,-3.12006139345376,-3.137438180509511,-0.6489110970339372,0.08598921238966059,0.0007463953851504427
0.05,0.0100815821760584,1.568574738247099,-1.5550734344584978,0.005476544977450401,0.0011165600641418775,1.606726683589408e-05,0.3346569783020745,-0.04386504711336509,0.49559362208503377,0.1771344350946259,0.035449544835402524,0.0005230020714893113,6.60628651617875,-0.579973582203318,9.799398417276896,3.247761204530267,0.6245528717735205,0.008594811357150789,0.9548326765728556,-3.111264498526208,-3.1274165223603694,-0.6451566565884206,0.0860532249532398,0.0007298549623535099
0.06,0.014084177162211414,1.568082155861061,-1.5491469482868712,0.007562902921467725,0.0015317895049658842,2.2208556360783627e-05,0.40025949861530147,-0.049258238603797605,0.5926486171626575,0.20863579440173236,0.041522944082400676,0.0006141289524889548,6.557780134468478,-0.4622345734097197,9.716930883058259,3.144906189972186,0.6075126322733055,0.007707884722454317,0.9564343766250109,-3.1093803464698593,-3.118734242877532,-0.6413476660210916,0.08610711283987128,0.0007092137685424289
0.07,0.018737941640215017,1.5675473554915982,-1.5422584143831664,0.009955646342361513,0.0020065446402470527,2.9224346114581033e-05,0.46537644780036036,-0.053480036946273624,0.6888533903704808,0.23927434208937867,0.04747551352811684,0.0007015789753797407,6.507150609176558,-0.3439024576400987,9.627917367474442,3.0546084114321914,0.5949787830115518,0.006769026904204445,0.9580378467558021,-3.1148544562934988,-3.1115500520566988,-0.6375071468222089,0.08613986797152498,0.0006843911925141537
0.08,0.02403782607239266,1.56698209418634,-1.534416879769156,0.012647074816782879,0.0025398814752942405,3.707968849721892e-05,0.5299884432177644,-0.056526130525832594,0.7841534614010385,0.2691428474421367,0.053333683504718794,0.0007855342382637886,6.454165547619212,-0.22570412610330287,9.532689333344369,2.9730127153130823,0.584997366131045,0.0057531294830655,0.9594994783831764,-3.128107276442022,-3.1060081173788348,-0.633652479078584,0.08613802531015564,0.0006552904365352814
0.09,0.029978557255109194,1.5663981027344314,-1.5256319301109138,0.015630118459148783,0.003131000884180807,4.573969012489716e-05,0.5940731182716532,-0.05839914519085018,0.8784949658242261,0.29830436423659057,0.0591119408886566,0.0008660001627678238,6.398499652380283,-0.1083422993339524,9.4312646874195,2.89714087713293,0.5763797536199924,0.004646014474365856,0.96064315616872,-3.149522409461398,-3.1022352783874867,-0.6297949736108113,0.08608570553015751,0.0006218033017507475
0.1,0.03655460189982604,1.565807017978262,-1.5159137084246617,0.018898106967824853,0.0037791753660970035,5.516841846313977e-05,0.6576044644716849,-0.05910847561695303,0.9718221686252174,0.3267988508676071,0.06481744819161968,0.0009428728338242609,6.339764199150186,0.007500336121745351,9.32341925653741,2.8246833272464826,0.5684043072926208,0.0034405810499613665,0.9612604304557338,-3.1794341473815404,-3.1003381398841774,-0.625939455974722,0.08596469019373479,0.0005838157535367087
0.11,0.043760125519511875,1.5652203165735525,-1.5052729530295572,0.022444589124890457,0.004483703990412477,6.532823541549205e-05,0.7205523619685836,-0.05867014047093025,1.0640755395104415,0.3546482157065603,0.07045286243154739,0.0010159816952352285,6.277526619628779,0.12115930072843356,9.208744441749753,2.753841412979771,0.5606361821159105,0.0021341585300911348,0.9611112060976079,-3.2181145218514526,-3.100400106680564,-0.6220838849101834,0.08575453790580674,0.0005412141226012322
0.12,0.05158894793534138,1.5646492501497853,-1.4937210501535763,0.02626319085222376,0.0052438846633040435,7.617940287074447e-05,0.7828822415829504,-0.05710664237672815,1.1551902875980928,0.3818601727333303,0.07601806728915662,0.001085116745525242,6.211324408821597,0.23198835279183425,9.08669451240193,2.683208362578341,0.5528184837797454,0.0007267893331883712,0.9599250841211443,-3.265760118984924,-3.1024784362196103,-0.6182190294300167,0.08543274944986486,0.0004938918621312927
0.13,0.0600344964046162,1.5641047819773355,-1.481270097359487,0.030347502875066355,0.006058997158775109,8.767986390834434e-05,0.8445548469274824,-0.054446817244974265,1.2450952794089298,0.4084312022842595,0.0815112495471066,0.0011500461037599863,6.140675890882135,0.3393610226157561,8.956626155084352,2.611679852997092,0.5448064824264911,-0.0007799070365432925,0.9574034930475931,-3.3224789582742216,-3.1066013988544787,-0.6143282302863018,0.08497498914715318,0.0004417567942519036
0.14,0.06908975720981168,1.5635975253739036,-1.4679329745213594,0.03469099129946244,0.006928292958049148,9.978513939538617e-05,0.9055260805195486,-0.050725660343179074,1.3337122838127706,0.43434884243960864,0.08692957992740383,0.0012105275487041822,6.065089345467282,0.44267335959190196,8.817832227964413,2.538387187774102,0.5365277666213508,-0.002383523534194687,0.953222741248769,-3.3882777837156564,-3.1127656477865786,-0.6103872725536108,0.08435536857971372,0.0003847387644007646
0.15,0.07874722647711768,1.5631376841855729,-1.4537234194997506,0.03928692613230299,0.007850989508746981,0.00011244830160860215,0.9657469267305994,-0.04598411883307432,1.420955502160885,0.45959348328405514,0.09226965506978342,0.0012663162213215984,5.984071358905869,0.5413476422501448,8.66957114911322,2.462647705986587,0.5279579856096461,-0.00408145065197818,0.947038108797784,-3.4630501594418086,-3.120933910349037,-0.6063643961310909,0.08354679732003002,0.0003227975931226131
0.16,0.08899886097109162,1.5627349957597823,-1.4386561059764194,0.04412832408493609,0.008826267457277211,0.00012561999979880044,1.0251634493973938,-0.040268842579056045,1.5067313523331165,0.4841397952633099,0.0975277948530231,0.001317169819019829,5.897134865646861,0.6348368251259086,8.511092937339749,2.38392828031483,0.5191059204662061,-0.0058713398780883,0.9384890753939101,-3.546565797641895,-3.131033118286257,-0.6022204697562352,0.0825214033809281,0.0002559311789090393
0.17,0.09983602961475568,1.5623986768900682,-1.4227467211493487,0.04920790299734909,0.00985326997150279,0.0001392485206746256,1.0837168643664066,-0.03363188697141501,1.5909384827070605,0.5079578912413004,0.10270025142255773,0.001362852087582519,5.8038070920007145,0.7226295089566991,8.341662602297712,2.301818708882422,0.5100041020293311,-0.007751492345260402,0.9272057489253135,-3.6384615693981774,-3.1429530958249643,-0.5979093513814168,0.08125102372988198,0.00018418356795393256
0.18,0.1112494664951171,1.5621373732560948,-1.406012041181396,0.054518045971549745,0.010931103605495075,0.00015327987168155645,1.1413436880361418,-0.026130363397338378,1.6734679967952695,0.5310142974200658,0.10778336339922853,0.001403135100693085,5.7036374503410165,0.8042552265038093,8.160581329515885,2.2160125297872106,0.500702694033361,-0.00972119780681524,0.9128165164067051,-3.738234655516366,-3.156545919712043,-0.593378453314105,0.07970776242493045,0.00010765277066857222
0.19,0.1232292261216213,1.5619591129072783,-1.3884700024609535,0.06005077386480621,0.012058840354589827,0.0001676578779474325,1.1979759626504192,-0.01782603488164116,1.7542038720442528,0.5532727893256464,0.11277367490947517,0.0014378006265876055,5.596205324684302,0.879289838711874,7.967205712030992,2.1262933417532395,0.491265269614086,-0.011781036240306797,0.8949568854054418,-3.845238281216317,-3.171626054328059,-0.5885695243005813,0.07786461078451944,2.649807353313229e-05
0.2,0.13576464170196123,1.5618712643440058,-1.370139766885994,0.06579772520780007,0.013235520661910064,0.00018232428562380744,1.253541558033994,-0.00878485632725731,1.833023557495946,0.5746951342993869,0.11766803073202366,0.0014666407676374928,5.481127618623839,0.9473608378482351,7.760965134103119,2.032525140008495,0.4817656615769259,-0.013933146978138744,0.8732794205380667,-3.9586804430342584,-3.187971346999621,-0.5834196527757192,0.07569612059907198,-5.905342887155924e-05
0.21,0.1488442871809127,1.561880499736939,-1.3510417795353693,0.07175014291170931,0.014460157200349396,0.00019721886554089192,1.3079645478951458,0.0009235392933295648,1.9097987350624772,0.5952417703909242,0.1224636538439333,0.0014894579917084495,5.358065892770372,1.0081523580283889,7.541377304910407,1.9346455047121331,0.47228540241906813,-0.016181466294804103,0.8474646080816878,-4.077625977223336,-3.2053249439934017,-0.5778624860678025,0.0731791178640794,-0.00014870137049723944
0.22,0.16245594375022748,1.5619927637923077,-1.331197817251638,0.07789886733663165,0.015731739286996383,0.00021227951189729463,1.3611656569314776,0.011226405536852755,1.9843962283731262,0.6148724424922339,0.12715820866469854,0.0015060646356402697,5.226732894813936,1.0614097009507715,7.308061864948781,1.832660734164488,0.462911474141233,-0.018531932516895555,0.8172324052204641,-4.201002236163666,-3.2233981569490675,-0.5718296498056636,0.07029344103506041,-0.00024206800936174067
0.23,0.17658657147938328,1.5622132487199858,-1.3106310268337582,0.08423433543094902,0.017049237802491315,0.000227442331296573,1.41306277291558,0.022048492767804448,2.0566790417879806,0.6335468094317375,0.13174985154949317,0.0015162819399278382,5.086898277315409,1.1069431969798247,7.060751942453109,1.726642214822661,0.45373421176420337,-0.020992657281205584,0.7823541530445269,-4.3276085338745816,-3.2418742734679915,-0.5652523405636258,0.06702268457280501,-0.00033869575946704846
0.24,0.19122228663776233,1.5625463756926314,-1.2893659517288447,0.09074658573249138,0.018411610493393946,0.00024264171792204135,1.463571515837905,0.03331269726455867,2.1265075104913573,0.6512250301542363,0.1362372690902629,0.0015199386625468346,4.9383933039791215,1.1446312396881937,6.799303512442309,1.6167234788853335,0.4448452791683337,-0.02357406187395439,0.742664459216754,-4.456129397351547,-3.2604132664895378,-0.5580630537124172,0.06335492577900743,-0.00043804660863291586
0.25,0.2063483451794034,1.5629957830999177,-1.2674285463212862,0.09742526905990266,0.019817807535909886,0.00025781041106830724,1.5126058541641074,0.044940740728622655,2.19374054075584,0.6678683327411278,0.14061970425159404,0.0015168693146265888,4.781114362755909,1.174422355781486,6.523702403661033,1.5030975279206693,0.4363356801867475,-0.02628897842872835,0.698072593037064,-4.585151521599526,-3.278657316961919,-0.5501973982525674,0.0592834108384441,-0.0005395036282677582
0.26,0.2219491327437259,1.5635643218042228,-1.2448461771447341,0.10425966472637085,0.021266777237064147,0.00027287953165346026,1.5600787564322498,0.056853870430516935,2.258236917655204,0.6834395666468195,0.14489697011542613,0.0015069120585153033,4.615025131986955,1.1963362016086745,6.234068809395845,1.3860141051673693,0.4282937931631601,-0.029152716717371963,0.6485728885965965,-4.713184178426932,-3.2962370249760586,-0.5415959417368654,0.05480717479027681,-0.0006423747225541897
0.27,0.2380081613924061,1.564254057495927,-1.2216476105861034,0.11123870208607953,0.022757471746273624,0.00028777859473543205,1.6059028648680194,0.06897356917042663,2.3198566558630715,0.6979037359708667,0.14906945092094764,0.001489906308197179,4.440157281984621,1.210463411306253,5.930659191560515,1.2657766850750498,0.4208034303974024,-0.03218309827153654,0.5942536267696511,-4.8386826787989285,-3.312778147454352,-0.5322060217350554,0.049931570021032795,-0.0007458986924537918
0.28,0.25450807315753843,1.5650662801310309,-1.1978629869069584,0.11835098718332264,0.024288852647182512,0.0003024354954550927,1.649991176513231,0.081222263510405,2.3784623679145005,0.7112285097243111,0.15313809009088888,0.0014656900719660613,4.256609636521788,1.2169642586222371,5.613865542025795,1.1427390204631216,0.4139419293516191,-0.035400460384061194,0.5353038690838593,-4.960074342082879,-3.327908665221127,-0.521983455586132,0.044668678924587216,-0.0008492536065938203
0.29,0.2714306503235543,1.5660015203148436,-1.1735237806687258,0.12558483422130215,0.025859896297036868,0.00031677646622765187,1.6922577166015855,0.09352401838126398,2.433920623823267,0.7233847037979505,0.15710436498543565,0.0014340970772559157,4.064544045924748,1.2160652733072874,5.284312779023752,1.017299507462532,0.40777827361567276,-0.038827633092132,0.47201753449123335,-5.075776011885003,-3.3412519993843257,-0.5108906091339447,0.03903756199372119,-0.0009515652177718118
0.3,0.2887568320397645,1.5670595723371596,-1.1486627380886627,0.13292830195166733,0.0274695987711864,0.0003307260012335024,1.7326181716210223,0.10580520223160408,2.4861042580063097,0.7343467730365184,0.1609702474149534,0.0013949535005850543,3.8641865661410977,1.208058621816686,4.942518500985904,0.8899075808980825,0.4023712418362244,-0.04248993264980161,0.4047952414357693,-5.18425849026958,-3.352480095481334,-0.4989091007118174,0.03306444487295124,-0.001051927042813675
0.31,0.3064667373842702,1.5682395236354398,-1.1233138244727203,0.14036923353284192,0.029116980296849195,0.00034420675397442066,1.7709905344505752,0.11799512982802489,2.534891361594235,0.7440931581174578,0.1647381525662795,0.0013480752740918272,3.6558156628779788,1.1932930516775473,4.589326258582188,0.7610371449142352,0.3977677371566912,-0.04641498193679183,0.3341417813774596,-5.284027767913474,-3.361259667728536,-0.4860258832878341,0.026782588731184442,-0.0011494045594333993
0.32,0.32453969371745994,1.5695397899936754,-1.097512139619495,0.1478953002276931,0.030801089018462166,0.0003571393976297718,1.8072956333189716,0.1300266358235539,2.5801684853225337,0.7526066694851161,0.16841087216129697,0.001293264365535116,3.439758850175025,1.172170979743587,4.2256334698194875,0.6311986338185651,0.39400091438862717,-0.05063275479679796,0.26066087307356334,-5.373682516419602,-3.3672938627597437,-0.47224266942200643,0.02023209530221979,-0.0012430570965912687
0.33,0.34295426999567935,1.570958156051999,-1.071293827659849,0.15549404831586533,0.032521003963843664,0.0003694424527022962,1.8414576278219437,0.14183660583236368,2.621831195964587,0.7598748088172235,0.17199149453815016,0.0012303055072524433,3.2163838291598874,1.1451412901216493,3.852440577711762,0.5009276806061678,0.3910885047456887,-0.05517541520808833,0.18504607519280053,-5.451934249168798,-3.3703192539287445,-0.4575741799001607,0.013459485576710756,-0.0013319530493531681
0.34,0.3616883141724252,1.5724918204368847,-1.044695976604533,0.1631529485917172,0.03427583707069425,0.0003810320809534363,1.8734044176745832,0.15336643848857293,2.6597851055316037,0.7658900275851855,0.17548331068505882,0.001158962825114008,2.986089336775414,1.1126921785314303,3.470838865135964,0.3707787164205776,0.38903109986678786,-0.060077210260571334,0.10806830739054235,-5.5176318383253955,-3.370109936971729,-0.4420479815626626,0.006517109242316112,-0.0014151869937480354
0.35000000000000003,0.38071899378555263,1.5741374447958998,-1.0177565088270457,0.1708594478541968,0.036064734131300104,0.000391821845753736,1.9030679613127433,0.1645624359015031,2.6939467777487276,0.7706499262479592,0.17888970606058516,0.0010789764800299725,2.749295172726624,1.0753435354523504,3.0819971342072954,0.24131830452061465,0.3878104177134407,-0.06537433912672241,0.030560227824013853,-5.569782922988013,-3.366480523528425,-0.42570393111266686,-0.0005376108684027187,-0.0014918967540992409
0.36,0.40002283874805666,1.575891205975438,-0.9905140638223651,0.17860102176654694,0.0378868745100724,0.000401722439589941,1.9303844962504022,0.17537611795380809,2.7242445004680635,0.7741573912350134,0.18221403787722953,0.0009900593836204951,2.506431649360667,1.0336390623686986,2.687147508179934,0.11311831921348237,0.38738752143910204,-0.07110479989238927,-0.04660207544664563,-5.607571577834284,-3.3592879710761236,-0.40859324807153463,-0.007643081300455393,-0.0015612799018013682
0.37,0.41957578530363443,1.5777488505537405,-0.963007874669578,0.18636522844578776,0.039741469483926636,0.0004106413800871303,1.9552946555577744,0.1857644578302562,2.750618915278704,0.776420667924082,0.18545949738542342,0.0008918940497189334,2.2579287273071853,0.9881383178481106,2.287570581544288,-0.013250920557389634,0.38770095890804335,-0.07730820865605131,-0.12251947229864119,-5.630371753469508,-3.348432246203288,-0.3907772586704853,-0.014734563581664098,-0.0016226091798144948
0.38,0.43935322007832533,1.5797057509350148,-0.9352776396909912,0.1941397621342518,0.04162775904924029,0.00041848267663382397,1.977743477469089,0.19569003812743033,2.77302349785868,0.7774533688464045,0.18862895653136588,0.0007841296546693678,2.0042051098190528,0.9394088843404277,1.8845802074453304,-0.1372274617706113,0.38866478884617717,-0.08402558147441028,-0.19629152960273566,-5.6377561529317965,-3.3338558615016174,-0.3723258653649346,-0.02174529415763512,-0.0016752463827280927
0.39,0.45933002315712723,1.5817569622230159,-0.9073633908358386,0.20191250630770044,0.04354500703108253,0.0004251464705953535,1.9976803078801917,0.2051211288001132,2.791424885515261,0.7772744173448644,0.19172479818422336,0.0006663793961529501,1.7456575705010307,0.8880188331485839,1.4795084060715844,-0.25826438110674843,0.390166459929814,-0.09129906624297579,-0.2670387898705695,-5.629500368183324,-3.315542346472103,-0.3533158016318052,-0.02860766634901897,-0.0017186542753105727
0.4,0.4794806091398445,1.5838972791227872,-0.8793053603042255,0.20967158558687068,0.045492494320558144,0.0004305286532139612,2.0150585982717306,0.21403168997714503,2.8058030531613203,0.7759079279170255,0.19474872894756173,0.0005382182618607686,1.4826507876016286,0.8345296470308843,1.0736910051996649,-0.37583621292992575,0.3920645118264092,-0.09917160780376626,-0.33392473821947266,-5.605582274575313,-3.293513733983067,-0.33382873466640417,-0.035254439959219785,-0.0017524062048803993
0.41000000000000003,0.49977896518345954,1.5861212921655654,-0.8511438468539269,0.21740541584202988,0.047469510054591366,0.00043452046668125607,2.0298356043615002,0.2224013042778132,2.8161513450298603,0.7733830255159196,0.19770157340332203,0.0003991813467294871,1.2155079613863602,0.7794897401189418,0.6684544255864229,-0.4894450465737967,0.3941860729588855,-0.10768652544416624,-0.39617661340470317,-5.566176870641117,-3.267827199605919,-0.313949287910183,-0.0416199435980244,-0.0017761931570036103
0.42,0.5201986851194337,1.5884234426120525,-0.8229190831184322,0.22510275191250081,0.0494753405396976,0.000437008095606511,2.0419719935974188,0.2302150446487076,2.822476373549462,0.7697336070470927,0.20058304851062295,0.0002487628925254919,0.9445024999329135,0.723428691790171,0.26510364953412724,-0.5986262034453946,0.3963241397264512,-0.11688697729528609,-0.4531042716246713,-5.511646923520234,-3.2385710601596216,-0.29376306612020253,-0.047641235682802784,-0.0017898281109217909
0.43,0.5407129988444793,1.5907980754608972,-0.7946711051458889,0.23275273240274405,0.05150925570801652,0.00043787225828611603,2.0514313725045605,0.23746328488447818,2.8247977972543254,0.7649980490243234,0.20339151683189177,8.641626796050084e-05,0.6698510672718001,0.6668522823908862,-0.13508874756879063,-0.7029534317233959,0.39823463718622065,-0.12681528090961655,-0.504116406977841,-5.442529905606809,-3.205860365914859,-0.27335476518883883,-0.05325919240172485,-0.0017932476549781336
0.44,0.5612947963234098,1.593239490069385,-0.7664396252611192,0.24034492106054145,0.05357049288127395,0.00043698780990322474,2.0581797478930497,0.24414146084876562,2.8231479884769692,0.7592188657797402,0.20612371732574308,-8.844483828912873e-05,0.3917082956194631,0.6102383861436543,-0.530892500480786,-0.802043589335582,0.39963328272533083,-0.13751205374764267,-0.5487335633880681,-5.359521790103692,-3.1698322990340753,-0.25280643539470815,-0.05841949457133866,-0.0017865109162276218
0.45,0.581916645713513,1.5957419879788428,-0.7382639092449412,0.24786934428918903,0.05565823760803628,0.00043422337314935963,2.0621849390103186,0.2502497909457927,2.8175716016177956,0.7524423228647571,0.20877447267623336,-0.0002764436753865115,0.11016347708568063,0.5540337444378931,-0.9211283532583833,-0.8955608044536296,0.4001923032261776,-0.14901513156542534,-0.5865975305865123,-5.2634583324487165,-3.130641556175732,-0.23219594975131674,-0.06307349006041436,-0.0017697959450373732
0.46,0.6025508053228845,1.598299917624953,-0.7101826587033996,0.2553165243935926,0.057771601333846866,0.00042944101586451497,2.0634159609371574,0.25579296461101564,2.808125054154165,0.7447180104403567,0.2113363725810585,-0.0004782357284844681,-0.1747604251747031,0.4986516129439877,-1.3046754214136018,-0.9832201064576132,0.39953709448788266,-0.16135821709228632,-0.6174768905928278,-5.155294505208398,-3.0884558690872783,-0.21159571478691785,-0.06717891397121405,-0.0017433937751507938
0.47000000000000003,0.6231692293527558,1.6009077157000338,-0.6822338993648448,0.2626775082094313,0.05990959566558557,0.00042249600024677793,2.061842402987119,0.26077980750806806,2.7948759338554816,0.7360983815838728,0.21379943317387057,-0.0006945015617737063,-0.46310325680598863,0.4444706636460271,-1.6805753426060352,-1.064788969150901,0.39724292857795795,-0.17456920614163413,-0.64126857412858,-5.036085429580016,-3.0434652039907193,-0.19107490653432024,-0.07070041899915153,-0.0017077031296355374
0.48,0.6437435678268751,1.6035599450332951,-0.65445488552721,0.2699438904842563,0.06207110301942501,0.0004132366371664693,2.0574338474119385,0.2652229333261349,2.777901383763482,0.7266382274825016,0.21615073538394453,-0.0009259363080308624,-0.7549704677754459,0.39183225087899937,-2.047601108929124,-1.1401011251821522,0.3928322281056571,-0.1886680428418143,-0.6579957938226507,-4.906951480287298,-2.9958186672099036,-0.17068439411910635,-0.07361010342696331,-0.001663208482745559
0.49,0.6642451605073677,1.606251328834651,-0.6268819784198488,0.2771078328747613,0.0642548433990418,0.0004015042698771235,2.050159268049256,0.26913838013558444,2.757290710736115,0.7163942390504984,0.21837403796167948,-0.0011732367289345852,-1.0505124712856824,0.3410440911916168,-2.4049965279103174,-1.2090309007440965,0.38577145538206636,-0.2036645534169866,-0.6678027695461388,-4.769079230406938,-2.945720827246606,-0.15048026322458308,-0.07588761477385711,-0.001610490405245147
0.5,0.684645026900231,1.6089767814626557,-0.5995505708941249,0.2841620771745464,0.06645933723883371,0.0003871334535500263,2.039986639286324,0.2725452628004707,2.7331407525723987,0.7054244299785066,0.22044938397919062,-0.0014370816327097156,-1.349921041828651,0.29237762884258406,-2.7519137109799114,-1.2715239290116198,0.37547053923579154,-0.21955503417458988,-0.67094524243951,-4.6236808240528395,-2.893352746505051,-0.13050539358519328,-0.0775203045594647,-0.0015501967572711351
0.51,0.7049138528071422,1.6117314356171921,-0.5724950034064453,0.291099952892027,0.06868286421723638,0.00036995237040885663,2.026882590691129,0.275465415453655,2.7055567487679566,0.6937875717480635,0.2223526978402663,-0.0017181083141169686,-1.6534094909455939,0.24607018068628198,-3.0875830318692543,-1.3275859874252802,0.3612824224808642,-0.23631894297010256,-0.6677794329676843,-4.471980075738092,-2.8388922787327013,-0.11079489071334359,-0.07850317448086859,-0.0014830353911318502
0.52,0.725021975477275,1.6145106661153605,-0.5457484879069138,0.29791537926737827,0.07092341810375342,0.00034978354809951575,2.0108122670132693,0.2779230498168519,2.674651549953154,0.6815426375351272,0.22405538865170402,-0.0020168822309340885,-1.9611900433208607,0.2023263078117554,-3.4113124996470003,-1.3772835375720263,0.3425051772369141,-0.2539147447105983,-0.6587486117321091,-4.315193702530397,-2.7825121537031845,-0.09137631854288743,-0.07883869741552021,-0.0014097614364203908
0.53,0.7449393697014991,1.6173101103831866,-0.5193430395721904,0.30460286167479195,0.07317865788195409,0.0003264449566419546,1.9917394224224167,0.27994442678260834,2.640544833472336,0.6687482407413666,0.22552397782006584,-0.0023338591457561127,-2.27344516783858,0.1613194154982303,-3.7224865951950386,-1.4207435333943117,0.31838700738060854,-0.2722751875716393,-0.6443682354411637,-4.154514454983772,-2.7243785785157963,-0.0722701176000775,-0.07853652759650301,-0.001331164730427908
0.54,0.7646356377925497,1.6201256858166218,-0.4933094162662342,0.3111574824225927,0.07544585562957086,0.00029975156937351205,1.9696268091050595,0.28155754334350347,2.603362330595621,0.655462074780079,0.22671977476167735,-0.0026693387268442548,-2.5902922007883595,0.12319345072852969,-4.020564786931317,-1.458152496902379,0.28813511070640274,-0.2913020142044275,-0.6252102519860769,-3.9910963561516484,-2.664650321636767,-0.05349017471471701,-0.07761311947024531,-0.0012480576831433545
0.55,0.7840800070546609,1.6229536041731125,-0.46767706557957356,0.31757488603106054,0.07772184195274427,0.00026951748281338176,1.944436926211113,0.2827918356490737,2.5632350686660663,0.6417403608467839,0.22759863231734104,-0.003023408656013027,-2.9117406800510803,0.08806457454070794,-4.305079856365529,-1.4897548514310142,0.2509295391902526,-0.31086019091589423,-0.6018871496966137,-3.8260421702305294,-2.6034782254040376,-0.03504450772858171,-0.07609127552857431,-0.0011612638106678263
0.56,0.8032413390528766,1.625790383150703,-0.4424740792782011,0.32385125913753393,0.08000295017672283,0.0002355586977131448,1.9161331998215747,0.2836778977590426,2.5202986301372445,0.6276373106473389,0.228110822397856,-0.003395878510023697,-3.2376419906632776,0.056022701397670724,-4.575636153826228,-1.5158504928558738,0.20594333819132782,-0.3307718235486895,-0.57503627314352,-3.660393144388619,-2.54100508906484,-0.016936030637932337,-0.07399964307708574,-0.0010716071122663265
0.5700000000000001,0.8220881557226773,1.628632855296811,-0.4177271549860275,0.3299833052515846,0.08228496099977978,0.00019769666679043062,1.8846816669800655,0.2842472146108081,2.4746924292173547,0.6132046114050659,0.22820108230569447,-0.0037862030922714163,-3.567631245969118,0.027132818787170436,-4.831907929587548,-1.536791574187582,0.1523703320090437,-0.3508100397711771,-0.5453048569565931,-3.4951209980835425,-2.4773658715465383,0.000836630579650624,-0.07137217848058201,-0.0009799024060114692
0.58,0.8405886880761312,1.6314781743657363,-0.39346156493240325,0.3359682146602331,0.08456304992522228,0.00015576271126650543,1.8500532353453818,0.28453190689252417,2.4265590053624253,0.5984909408648467,0.22780889254424946,-0.00419339555239252,-3.90106184188385,0.0014360265178844436,-5.0736380063431135,-1.5529784788133885,0.08946190697985301,-0.37069325853636026,-0.5133361462175015,-3.33112207343738,-2.412688188253017,0.018278292091349096,-0.06824759493608613,-0.000886946680653705
0.59,0.8587109539027676,1.6343238192153744,-0.3697011316302711,0.3418036298639284,0.08683174049314084,0.000109603395170485,1.8122265826636497,0.2845644849638098,2.376043330213219,0.5835415203695332,0.22686905679185596,-0.004615931609602043,-4.236933865376941,-0.021049736100662117,-5.300637967526653,-1.5648549574620247,0.01657396119516097,-0.39008043782195045,-0.479756883487378,-3.1692135021211025,-2.3470932112809053,0.03539632169577639,-0.06466880602458837,-0.0007935114910331555
0.6,0.8764228713491404,1.6371675953025506,-0.3464682105001944,0.3474876070046738,0.08908486711927212,5.90869196517655e-05,1.7711917446372765,0.2843776087176254,2.3232921130076685,0.5683977140745385,0.22531266261312807,-0.00505164755187195,-4.5738187361824245,-0.04032924404175746,-5.512777545342325,-1.572902580103447,-0.06677522535271496,-0.40856808307349457,-0.44516634391326937,-3.010131293076197,-2.2806952806287897,0.05220011640175545,-0.06068237838710685,-0.0007003359588038282
0.61,0.8936924154635709,1.640007633809862,-0.3237836783950174,0.3530185738676615,0.09131555216900479,4.11055462439e-06,1.7269544114430502,0.2840038507311261,2.2684532105176958,0.5530966862987705,0.2230685049732668,-0.00549763650273755,-4.90978263716134,-0.056429997470245116,-5.710056481750786,-1.5776331384309294,-0.16083629343205885,-0.4256900242265329,-0.4101271074745402,-2.854529408873392,-2.2136127429587473,0.06869797508587078,-0.056337962030717184,-0.0006081231592426499
0.62,0.9104878246806656,1.642842388391209,-0.3016669350838438,0.358395284899588,0.09351620270074794,-5.539093937847695e-05,1.6795409217094714,0.2834754581347169,2.211674331117363,0.5376711031926504,0.2200650531743142,-0.005950149400286695,-5.233021090448738,-0.07139196608212119,-6.603232955482965,-1.5729872494362702,-0.2659922418681342,-0.4409203007637017,-0.3756633280750064,-2.694814528452159,-2.241492896434925,0.06214305271763437,-0.05137188526718478,-0.0005398030817016624
0.63,0.926778733862089,1.6456704390550656,-0.2802057651829906,0.36361451943644574,0.0956786955220975,-0.00011941589615187461,1.6290909181423447,0.282805066385646,2.146116990085316,0.5219234536857743,0.21624928213495617,-0.006402495677339766,-5.536838016369035,-0.08630686274440696,-8.213774359693273,-1.586794776091768,-0.3801082099022093,-0.4520208708505562,-0.341261198752752,-2.5258965880594055,-2.368707233709192,0.03113079453246384,-0.04557557136412941,-0.0004960202668295485
0.64,0.9425368254974368,1.648490432542637,-0.2595585672661537,0.36866873323018595,0.09779456967197228,-0.00018786858931529114,1.5758091635347824,0.2819993487571528,2.0647197916836917,0.5054213793740198,0.21158741498747796,-0.006845269316341654,-5.826990176507736,-0.09780026875013467,-9.355156152267481,-1.6533887335876507,-0.4997572118139617,-0.4562236542266529,-0.3056909166298287,-2.361539863569618,-2.4377678118389894,0.012745213583388482,-0.03931866484407421,-0.0004395090150059216
0.65,0.9577353172532659,1.6513013999171613,-0.2398378154979003,0.3735478563499461,0.09985498115548377,-0.0002605598408657809,1.519849175582909,0.2810967374524158,1.9720751768253373,0.4879123119760125,0.206041148351149,-0.007269125155048974,-6.095661625561328,-0.10531222367898402,-10.116575568433984,-1.7463438150698956,-0.6242800373034489,-0.4533062298498245,-0.27050088489415114,-2.2059071607426146,-2.4601345709012454,0.004611692424948577,-0.03281669039850525,-0.0003747625378958751
0.66,0.9723497005325084,1.6541027790155547,-0.2211187183236345,0.37824110286830054,0.10185081140116774,-0.0003371999568332468,1.461438327924246,0.2801379098393508,1.87190971742658,0.4693246518354435,0.19958302456839666,-0.007664011596746587,-6.335179672786215,-0.1087580746327593,-10.571910864875498,-1.8477805359995116,-0.750875141760571,-0.4431818365376885,-0.2368013146629046,-2.0616231703586667,-2.445376879070959,0.004745546497289754,-0.026252676832943623,-0.00030534646370130014
0.67,0.9863584585729529,1.6568944006093793,-0.20344641056111937,0.3827381516129074,0.10377291705427846,-0.0004173955185834099,1.4008758040444504,0.2791621593824539,1.7672307762515131,0.44970487446068597,0.19221056531107233,-0.008019556175016315,-6.538330363488311,-0.10838221471142233,-10.782394072471,-1.9459568834931034,-0.8753915983370151,-0.4260519832126888,-0.20533663088090168,-1.9301158426079699,-2.401468827903215,0.011483658146476727,-0.019778858720751125,-0.00023403520135688923
0.68,0.9997437302256671,1.6596764502816215,-0.18684192958084714,0.38702987998524385,0.105612465641819,-0.0005006526413973462,1.338527165271423,0.27820496722422433,1.660448098027222,0.4291728372336441,0.18395485875405376,-0.008325712281393633,-6.698732322859572,-0.10463921145932527,-10.798801058233103,-2.033492529363844,-0.9929973640293235,-0.40244350686950536,-0.17655541065235036,-1.811922618170215,-2.33504097567278,0.02342987641931521,-0.013518438174461187,-0.00016293581878077496
0.6900000000000001,1.0124918819451028,1.6624494157386478,-0.1713071821549666,0.3911087843411598,0.10736130895118301,-0.0005863872537222171,1.274815171943561,0.2772965457026424,1.5534747425880544,0.40789043559159743,0.17488433093640068,-0.008573461232487086,-6.811215981708563,-0.09810005359346606,-10.663220041333986,-2.1060706786118075,-1.0987660099508725,-0.3731960383195103,-0.15067477596019435,-1.7069483992358205,-2.251590958174255,0.03941179752912227,-0.00756752617771388,-9.359909040061254e-05
0.7000000000000001,1.0245939520912244,1.6652140271675997,-0.15682906961710358,0.3949691840049958,0.10901235111021336,-0.0006739419430164186,1.210207014612157,0.27646114289519197,1.4478112537863028,0.38603996638359817,0.16510421590303534,-0.008755468929420149,-6.8721547260051645,-0.08938085869244414,-10.410490290012671,-2.161496211878621,-1.1881874170777444,-0.3394125639873278,-0.12773742880239414,-1.6146726600458028,-2.155660522642817,0.05844600944868239,-0.0019973094131516883,-2.711861390793872e-05
0.71,1.0360459382347538,1.6679711963544162,-0.14338290839743906,0.39860727886864344,0.11055987394180179,-0.0007626081375037587,1.1451986143529451,0.27571691868164133,1.3446161219664512,0.363809486364765,0.15475228315884332,-0.00886661944873401,-6.879701334454468,-0.07909109257825254,-10.069382484892992,-2.199017928263199,-1.2575860566600334,-0.3023814051046476,-0.10766047372076619,-1.5343091611608732,-2.050984930834005,0.07970970100921182,0.003143553684289438,3.578138294617252e-05
0.72,1.046848908853927,1.6707219586274966,-0.13093525894734973,0.4020211104718115,0.11199978954360086,-0.0008516518006223189,1.080297061917316,0.27507622730805525,1.2447649450089326,0.3413831603168074,0.1439915601799065,-0.00890436631185602,-6.833896628713027,-0.06779822220375438,-9.66357516239518,-2.2188454803957818,-1.3044233442899724,-0.26348047924521456,-0.09027590153815275,-1.4649246464389702,-1.9406193716176443,0.10251713591456613,0.007826334711993828,9.466908361259073e-05
0.73,1.0570089340620707,1.6734674203029904,-0.11944625699358528,0.4052104617298655,0.11332979944652641,-0.0009403404689433822,1.016002520814365,0.2745461675493881,1.1489001953764442,0.3189351258054014,0.13300099029255452,-0.008868866832106331,-6.736635731674407,-0.056005750160738874,-9.212468507859121,-2.221808993358845,-1.3274654780248356,-0.22407673338473533,-0.07536311717909427,-1.405523849675538,-1.827046080972135,0.12629991040142896,0.012039487589571567,0.00014933856403160625
0.74,1.0665368438786904,1.676208713181262,-0.10887152576831245,0.40817671974298275,0.11454945047944572,-0.0010279694095848692,0.9527909816619724,0.2741292878271455,1.0574731225272838,0.29662580131172234,0.12196510329193144,-0.008762894064148697,-6.591497442375987,-0.044141746008644234,-8.731867124783307,-2.2091224194027355,-1.326811181660972,-0.18543354093830633,-0.06267421827589484,-1.3551079360333658,-1.7122652190837482,0.1505901969701094,0.015785825047324557,0.0001997532672452125
0.75,1.0754478351116759,1.6789469567680593,-0.09916373547305626,0.41092271838360084,0.11566008840771363,-0.0011138849047792091,0.8910991232985346,0.2738243586797232,0.9707790295256193,0.274599864061806,0.11106379282679157,-0.008591549519433994,-6.40346025954533,-0.032555258230666226,-8.234554604188478,-2.1822214397862467,-1.3037900998510592,-0.14863653134562282,-0.05195290939360045,-1.312712746261263,-1.5978718540093808,0.17500642691915774,0.01907970626280475,0.0002459989759855738
0.76,1.0837609575691936,1.6816832282458127,-0.09027386593967542,0.41345257186965473,0.1166647201630116,-0.0011975031326024637,0.8313122457517713,0.2736271477753479,0.8889869533380853,0.2529853486053906,0.100463175529797,-0.00836182278232546,-6.178541254851673,-0.021518369744592283,-7.7307833644771815,-2.142653931632438,-1.2607575920691372,-0.11454440420006273,-0.04294801933570215,-1.2774320432605386,-1.485121807985646,0.19924082223815653,0.021944330304801307,0.0002882454445017576
0.77,1.0914985161093163,1.6844185397684464,-0.08215222035234157,0.41577150670311164,0.11756780289835703,-0.0012783237103171769,0.7737558540122793,0.27353115226335434,0.8121645587333841,0.23189348334569174,0.09030827353454227,-0.008082057771471312,-5.9233998720498455,-0.011231962582721319,-7.228684944953932,-2.0920069194233477,-1.2008217623674697,-0.0837667488760947,-0.035422569767832444,-1.2484302268545888,-1.374986908934175,0.22304873629337507,0.024409217656010517,0.0003267161818194984
0.78,1.0986854267047785,1.6871538223680083,-0.07474923022335828,0.41788569677359655,0.11837498250345041,-0.0013559375942280515,0.7186910595462318,0.2735282599561966,0.7402990128983298,0.21141900704848984,0.08071796050933881,-0.007761388391087468,-5.644947197859105,-0.0018337360226637275,-6.734621557853975,-2.0318577612174593,-1.1275421363516853,-0.056666803795027754,-0.029159318932837075,-1.2249476003027773,-1.2682023584886213,0.24623926841586333,0.02650795541072331,0.0003616651300607441
0.79,1.105348562671132,1.6898899156036098,-0.06801608612894429,0.4198021047237259,0.1190928054814923,-0.0014300295922994911,0.6663135966353325,0.2736093235601495,0.6733144094413981,0.19164079501293718,0.07178229780418866,-0.00740919980714397,-5.349993868873729,0.006592461007961614,-6.253529975823269,-1.963740903605899,-1.0446364394316903,-0.033384096458985546,-0.0239636554578437,-1.2062996219949813,-1.1653130102791747,0.2686656582065193,0.028276280510143144,0.0003933577979177012
0.8,1.1115161223780818,1.692627562013674,-0.06190522800310774,0.4215283314401781,0.11972842660885119,-0.0015003761757766642,0.6167559706949929,0.2737646410064096,0.6110858125836544,0.17262267164521922,0.0635621127358889,-0.0070346583477173055,-5.044679241667574,0.01387715268528459,-5.814120876100282,-1.8889289970781746,-0.9557411546441765,-0.013870280039376404,-0.01969611030586228,-1.1912601210955667,-1.0700139999578746,0.28944223448745665,0.029764430456026357,0.0004212119019781318
0.81,1.1172170677682431,1.6953673992856584,-0.056373171664809915,0.42307239655630985,0.12028933728196735,-0.0015668389746848245,0.570094539016132,0.2739837271984479,0.5532056338297824,0.15440651161317312,0.0560910673116157,-0.0066462798908160335,-4.730968557550828,0.018288798610555955,-5.751859271278801,-1.8071064205582417,-0.8642906616360655,0.002112836538365581,-0.016626680393063583,-1.1710145908397729,-1.0267011184035877,0.2981324330224763,0.03119811401998604,0.00043415466551942306
0.8200000000000001,1.1224809387767023,1.6981098823777776,-0.05141348644077494,0.42444148477648985,0.12078320408721654,-0.0016293482137394674,0.5263871008459049,0.2742483092119131,0.4959685224034974,0.13690882201800042,0.049386680524919714,-0.006250923905464283,-4.416483679581741,0.02212339731321046,-5.718151959935227,-1.735506166599686,-0.7713079709529167,0.01543484141061846,-0.014096423950562664,-1.1535944572544625,-0.9899726605555574,0.30530189677760555,0.03245505431843082,0.00044412394515767623
0.8300000000000001,1.1273371804489658,1.700855414211345,-0.04702258880246652,0.42564182238579906,0.12121768033461017,-0.0016878964877143547,0.4856241672263548,0.27455318335674944,0.4390897638308416,0.12003376093092055,0.04344762473936186,-0.005854827397488731,-4.105430086070527,0.025567945112899493,-5.676408158107645,-1.6736327227649763,-0.6791342657496842,0.026280653345016614,-0.011971317320127144,-1.1397889240324612,-0.9550012491108846,0.3120867933762933,0.03353747492587687,0.00045257215706020234
0.84,1.131814774820362,1.7036043538608854,-0.04319614276657092,0.4266788549747841,0.12160022607168104,-0.0017425317536955488,0.44775943713961885,0.2748939649540382,0.38264460358956015,0.10370325889850371,0.03825457370708786,-0.005463526598119392,-3.801118244012014,0.028562682977340725,-5.627710021048577,-1.619482776766496,-0.589872485429774,0.03482915013350851,-0.010184970481952986,-1.1294901872439855,-0.9218712184080594,0.3184787435876009,0.034463968913073725,0.00045966815460441704
0.85,1.1359419565070843,1.7063570111528994,-0.03992915830335314,0.4275574087323855,0.12193796159707201,-0.0017933492086008801,0.41271816867223093,0.2752657292014108,0.32669844632177775,0.08785537576014095,0.033773552539097085,-0.0050817454905331344,-3.506282669370965,0.031059456484184962,-5.572524247023226,-1.5714419522134673,-0.505187965832237,0.04130553425926009,-0.00867818832240094,-1.1226057717771138,-0.890590619487902,0.3244856323415072,0.03525245860259775,0.0004655832372085781
0.86,1.1397459827016443,1.7091136422672575,-0.03721603079538876,0.4282818218452646,0.12223755599391857,-0.0018404827988681082,0.3804026194559974,0.27566311143581507,0.271312750796438,0.07244131128790768,0.029959439684656263,-0.004713359026722799,-3.2230706573260854,0.033017659953614234,-5.511390649019102,-1.5281935100318726,-0.4263194805642312,0.04595991780631947,-0.007399537734252492,-1.1190424800965861,-0.861179493270542,0.33011109159822455,0.0359202205869323,0.00047046870382077286
0.87,1.1432529571526202,1.7118744461200768,-0.035050588886181906,0.42885605105516605,0.12250514907269673,-0.001884096836137861,0.3506974450975981,0.27608038528192885,0.21654419092068503,0.0574229209901463,0.026759307877815424,-0.004361403726975274,-2.9530685747153447,0.034405890563771115,-5.444661850258758,-1.4886731815253285,-0.35410409977271917,0.04905111085316949,-0.006304388596740457,-1.1187134618494061,-0.8336345832574223,0.3353628057131416,0.03648352053926964,0.0004744655593451404
0.88,1.1464877046129016,1.7146395615981267,-0.03342612495182269,0.4292837581519413,0.1227463038475436,-0.0019243780820464072,0.323474746028133,0.27651154780498866,0.16244639343592177,0.04277070967752667,0.024115477484687398,-0.004028124590854612,-2.697343784434189,0.03519975286097014,-5.3728519670830845,-1.4520168489400334,-0.2890179194126833,0.05083330345749881,-0.005354714379252036,-1.1215297651076714,-0.8079743517168879,0.340242048090304,0.03695764063183732,0.0004776937658601332
0.89,1.1494736911068562,1.7174090655239937,-0.032335442266360426,0.4295683794427186,0.12296598580677788,-0.0019615285477405835,0.2985986493954447,0.2769503925867019,0.10906826854622642,0.02846212907772528,0.02196819592342713,-0.003715046569417632,-2.45650805765496,0.03538404887953268,-5.296210823222763,-1.417534650512298,-0.23122487932311186,0.0515465002969957,-0.004517785879469109,-1.1274113485569257,-0.7841826232255452,0.3447569221587492,0.03735655330235598,0.0004802677755318691
0.9,1.152232983736681,1.7201829714321744,-0.03177087689833081,0.4297131819581574,0.12316856457817107,-0.0019957591727019627,0.27592926298248477,0.27739059081806394,0.056456536802961935,0.014480251543878506,0.02025787713931977,-0.0034230624961379096,-2.2307812910737894,0.03494999797787606,-5.215095933344186,-1.3846679648034073,-0.1806331430174728,0.05140958478025237,-0.003765970993107366,-1.1362777673254312,-0.7622569224449461,0.348911136453423,0.037693071788488464,0.0004822851816421881
0.91,1.1547862439525052,1.722961228994367,-0.03172433073270286,0.4297213085421756,0.12335783345633397,-0.0020272844468480324,0.2553260215824181,0.27782575621926286,0.004654616562794908,0.0008126584018233029,0.018926887816289362,-0.003152527414606964,-2.0200623266675835,0.033895941121614426,-5.129776188476409,-1.3529709926261972,-0.136950536719871,0.050616670639256234,-0.0030757578721419213,-1.1480531080604328,-0.7421826471575977,0.3527101071882179,0.03797874598405403,0.00048383450861006416
0.92,1.1571527477927315,1.725743724101452,-0.03218729624105989,0.42959581406855213,0.12353704233081758,-0.0020563179829291814,0.23665038402262828,0.2782495107084883,-0.04629655083570344,-0.012549447362349564,0.01792088744836138,-0.0029033536081148874,-1.8239952183392054,0.032226283831654136,-5.040499743155332,-1.3220865637542705,-0.09973837226233029,0.04933548750235156,-0.00242719607959425,-1.1626641745853334,-0.7239418057876845,0.3561589906379793,0.03822392845319182,0.00048499409413471926
0.93,1.1593504271597357,1.7285302795200899,-0.03315087957262415,0.4293396945038752,0.12370893990718103,-0.0020830689912469985,0.21976793670041592,0.27865554186378805,-0.09635833315642575,-0.025611956467692924,0.01718975763634509,-0.0026751008317816953,-1.64203080112636,0.02995088087501989,-4.947495477817266,-1.2917291184951658,-0.0684597908786676,0.04770763392907798,-0.0018032958158049417,-1.1800402664720568,-0.7075131807934087,0.3592627160115438,0.03843783135465272,0.0004858331391430266
0.9400000000000001,1.1613959267264349,1.731320656065008,-0.03460582203717374,0.4289559101896507,0.12387582161916635,-0.0021077395759791302,0.20454995666992604,0.279037654491811,-0.14549424645495876,-0.03837843142245268,0.016688171198532723,-0.002467058473213155,-1.4734811541474235,0.02708440873941169,-4.850976059487721,-1.2616708679420192,-0.04252139694967394,0.0458500622030833,-0.0011894907144088035,-1.2001128674047583,-0.6928727384545648,0.36202596089959693,0.0386286003380051,0.0004864126360201842
0.9500000000000001,1.1633046717714846,1.7341145542276748,-0.036542520221161,0.42844740444814866,0.12403958021611694,-0.0021305227534218368,0.1908745045049708,0.2793898162666829,-0.193669818398726,-0.05085057415020281,0.01637585969505929,-0.002278317744270657,-1.317566116895202,0.023645752750214064,-4.751140925772398,-1.231730698851349,-0.02130749701953838,0.043857344117568454,-0.0005731637593688072,-1.2228152981736973,-0.6799940519042862,0.3644531230633807,0.03880339794456532,0.00048678622366778553
0.96,1.1650909429841279,1.7369116162035685,-0.03895104498243685,0.42781711839258896,0.12420175661575132,-0.0021516010850426916,0.17862712126431976,0.27970619758937504,-0.2408524761275849,-0.06302860555596948,0.016217639963438054,-0.002107833162085484,-1.173451754580876,0.019657421618226114,-4.648178848039753,-1.2017653598159317,-0.004206962317334528,0.04180434361352727,5.676524100087146e-05,-1.2480823543308948,-0.6688486813592126,0.36654830124921284,0.038968491014232866,0.00048700097857366385
0.97,1.166767955006846,1.739711428262763,-0.04182115953751251,0.4270680026390933,0.12436358919141698,-0.0021711458194317136,0.16770120227180907,0.2799812059194633,-0.28701145550756607,-0.0749115753495657,0.01618325756656521,-0.001954473438902203,-1.0402811900961773,0.015144996966946466,-4.542270047714622,-1.1716625061326233,0.009366773143725804,0.03974901121245476,0.0007101938036161463,-1.2758499387408913,-0.659406500397068,0.3683152873690098,0.03912933801941387,0.0004870981438447968
0.98,1.1683479361563942,1.742513523411748,-0.04514233681957727,0.4262030264701977,0.12452606018414977,-0.0021893164442634136,0.15799811495481791,0.28020951489848583,-0.332117728206476,-0.08649761688955786,0.01624709927327928,-0.0018170624831699953,-0.9171985474135346,0.010136622737465857,-4.4335879154263775,-1.1413352366383958,0.01996176398113847,0.03773509944686662,0.0013961368584351937,-1.3060546957434551,-0.6516359697268397,0.3697575695398724,0.03929067340489607,0.00048711379770672225
0.99,1.169842207359165,1.7453173842980703,-0.048903776253148144,0.4252251848822079,0.1246899383764241,-0.002206260559873866,0.14942712027707716,0.2803860886322443,-0.37614394335708734,-0.0977841587989795,0.016387819227432335,-0.0016944115610452429,-0.8033669197938206,0.004662537680441467,-4.322300395480056,-1.110717812398578,0.02807869505877869,0.035794670732550826,0.002122977669078257,-1.338633652015083,-0.6455043635598801,0.37087834468838254,0.0394565869602631,0.00048707946367385015
