tonegas/nnodely-applications/joint_friction_estimation/dataset/validation/mpc_mujoco_episode_2.csv
time,q1,q2,q3,q4,q5,q6,dq1,dq2,dq3,dq4,dq5,dq6,ddq1,ddq2,ddq3,ddq4,ddq5,ddq6,tau1,tau2,tau3,tau4,tau5,tau6
0.0,0.0,1.57,-1.57,0.0,0.0,0.0,0.0,0.0,0.0,0.0,0.0,0.0,-10.761327294572276,-0.19666524008663172,4.126983408551483,1.6867988007277397,-1.571629358104481,-1.1261274135421218e-06,-1.5001068671298823,-3.883886046809057,-3.9540651749819498,-0.8727109588284798,-0.13550981326699513,-0.002070346785344758
0.01,-0.001070528043050513,1.5699818622917185,-1.5695892910996545,0.00015749098350612982,-0.0001326405039928176,-1.2682392376520914e-06,-0.1070528043050513,-0.0018137708281430183,0.04107089003455873,0.015749098350612983,-0.013264050399281758,-0.00012682392376520913,-10.638189113704817,-0.07398394208057797,4.093843869241274,1.5633738553238476,-1.3158997041773048,-0.012665123784787014,-1.4910732447523511,-3.8354137798945267,-3.9380536426362283,-0.8694581441901396,-0.13467743107007815,-0.0020565010568375933
0.02,-0.003198512284053465,1.5699578677290007,-1.5687717936136343,0.00046258801016629917,-0.0003819847265494268,-3.852816519501667e-06,-0.21279842410029517,-0.0023994562717747974,0.08174974860201223,0.030509702666016932,-0.02493442225566092,-0.0002584577281849576,-10.501786454707538,0.053126742932039325,4.051259827218752,1.4626855696552479,-1.1552864836598715,-0.01308285800560327,-1.4818564660355023,-3.7911103543474867,-3.922874968299637,-0.8661948240054014,-0.13380751147662598,-0.0020393474485992176
0.03,-0.00636989831776438,1.569940717053703,-1.5675521939834487,0.000907110626916851,-0.0007378111814994746,-7.665339401955307e-06,-0.31713860337109145,-0.0017150675297775515,0.12195996301855894,0.044452261675055185,-0.03558264549500478,-0.000381252288245364,-10.355362701387083,0.18341816801930966,4.000602346512582,1.3788925140435566,-1.0516899582393648,-0.012073257734169118,-1.4725889416368267,-3.7515467878984343,-3.908763418292022,-0.862974389190385,-0.13290729411794683,-0.00201903756314142
0.04,-0.010569838928331108,1.5699434112507449,-1.5659358499715577,0.0014841374755253443,-0.0011933188986226612,-1.262672343818858e-05,-0.41999406105667286,0.00026941970418120804,0.16163440118910102,0.05770268486084932,-0.04555077171231865,-0.0004961384036233274,-10.200799822811806,0.3156999077279591,3.9428200911630835,1.3075359932593003,-0.9821194734442713,-0.011087416473901435,-1.463388835561425,-3.7172786921572856,-3.895940109768204,-0.8598462999153713,-0.1319830586851266,-0.0019957244893872694
0.05,-0.01578280098997092,1.569979136505701,-1.563928728019458,0.002187666346318307,-0.0017437392670411448,-1.8676514176800386e-05,-0.5212962061639812,0.0035725254956145177,0.20071219520996847,0.07035288707929625,-0.05504203684184837,-0.0006049790738611805,-10.03915102782575,0.44882365085780085,3.878543341567675,1.2452166585106532,-0.9326582007487758,-0.01021627072548803,-1.4543572167147962,-3.688844018894923,-3.8846122897442807,-0.8568559889867108,-0.13103992875593648,-0.0019695560571436994
0.06,-0.021992621671041417,1.5700611524647987,-1.5615373647246586,0.00301235465953253,-0.0023854948531763466,-2.5766383592476495e-05,-0.6209820681070496,0.008201595909763312,0.2391363294799318,0.0824688313214223,-0.06417555861352015,-0.000708986941567611,-9.870963644062803,0.5816745733417553,3.808165532679176,1.1893436034621416,-0.8948654454553733,-0.009395083866298393,-1.4455755821185485,-3.6667585579152115,-3.8749718585210458,-0.8540446089942431,-0.13008171032354543,-0.0019406717714874327
0.07,-0.029182533492025,1.57020268316382,-1.5587688461293847,0.00395332130107458,-0.003115688722940678,-3.38543746649163e-05,-0.7189911820983583,0.0141530699021357,0.2768518595273983,0.09409666415420508,-0.07301938697643316,-0.0008087991072439805,-9.696475623209492,0.7131677436190496,3.731907114598471,1.1379431738974919,-0.86361153915459,-0.008568263716593805,-1.4371037374669606,-3.651510028788441,-3.8671934685522125,-0.8514486998716179,-0.12911076057235377,-0.0019092017432610234
0.08,-0.03733517019477396,1.570416810435788,-1.55563079984591,0.005005995341028484,-0.003931793679814222,-4.29011883318341e-05,-0.815263670274896,0.021412727196791694,0.3138046283474687,0.10526740399539038,-0.08161049568735437,-0.0009046813666917798,-9.515735889748036,0.842247966947619,3.6498658516316054,1.089513932146314,-0.8357719563402171,-0.007701884506391643,-1.4289780438289308,-3.6435513373919886,-3.8614324228822823,-0.8490998287845026,-0.12812788665234717,-0.0018752667229941318
0.09,-0.04643256081003866,1.5707163699079767,-1.5521313960619412,0.006166000676345163,-0.004831462615074196,-5.286795013040504e-05,-0.9097390615264701,0.029955947218872993,0.349940378396883,0.11600053353166782,-0.08996689352599743,-0.0009966761798570944,-9.328678838662512,0.9678920105431046,3.562056734204262,1.042916821491131,-0.8094394605685338,-0.006777869336619169,-1.4212100502532659,-3.6432934056046875,-3.8578225328457947,-0.8470242391757625,-0.1271322761048021,-0.00183897878623133
0.1,-0.056456116564837414,1.5711138499052426,-1.5482793542509763,0.007429068310976488,-0.005812412429758232,-6.371491250139685e-05,-1.0023555754798752,0.03974799972659413,0.3852041810964889,0.12630676346313255,-0.09809498146840354,-0.0010846962370991808,-9.135171274081678,1.089112480175004,3.468443897170057,0.9972920747605301,-0.7834489295203753,-0.005788456956490329,-1.413785536217224,-3.6510978881174765,-3.85647405617914,-0.8452425365413444,-0.12612146127638527,-0.0018004424476482017
0.11,-0.06738661362668433,1.5716212937183347,-1.544083953016479,0.00879097001475574,-0.006872352864141756,-7.540073517129575e-05,-1.0930497061846907,0.050744381309202335,0.4195401234497252,0.13619017037792516,-0.10599404343835245,-0.0011685822669898903,-8.935042819692114,1.2049628218724984,3.3689663334178817,0.9519964012638216,-0.7570909005678672,-0.0047325638756428035,-1.406663988032805,-3.6672700366485635,-3.857471813298368,-0.84376943259999,-0.1250913200413218,-0.0017597560940020318
0.12,-0.07920417370015292,1.5722502057907342,-1.5395550409706573,0.010247468638805496,-0.008008942963715793,-8.788212471639521e-05,-1.1817560073468598,0.06289120723994317,0.4528912045821637,0.14564986240497543,-0.11365900995740366,-0.0012481389545099452,-8.728106438588108,1.314543049330977,3.2635587295870065,0.9065555181025271,-0.7299389512991965,-0.003613530565285572,-1.3997785309848942,-3.692051941023119,-3.860873564464693,-0.8426135654180174,-0.12403611470540522,-0.0017170136760415674
0.13,-0.09188824390752315,1.5730114624368208,-1.534703046923518,0.011794281526580122,-0.009219764782346276,-0.00010111370143007049,-1.2684070207370226,0.07612566460866785,0.4851994047139213,0.1546812887774626,-0.12108218186304841,-0.0013231576713675275,-8.514173039544497,1.4170058783829858,3.152168399256931,0.8606282626864203,-0.7017456653683425,-0.0024377189917386133,-1.3930363348916954,-3.7256163571998346,-3.8667087196561205,-0.8417774098168718,-0.12294857024156026,-0.0016723066167801245
0.14,-0.10541757703850366,1.5739152277347401,-1.5295389879622534,0.01342705433466532,-0.010502308062652321,-0.00011504801405339578,-1.35293331309805,0.09037652979193303,0.5164058961264598,0.16327728080851983,-0.12825432803060446,-0.0013934312623325295,-8.293062533294425,1.5115630027973825,3.034769023279147,0.8139794168233347,-0.672379840874676,-0.0012136093657897362,-1.3863195053108608,-3.768061317192788,-3.874977443557797,-0.8412572894572578,-0.12181999209276276,-0.0016257258942634356
0.15,-0.1197702130465155,1.5749708752437521,-1.5240744742549721,0.015141343233957688,-0.011853962121801382,-0.00012963565407255517,-1.4352636008011848,0.10556475090119363,0.5464513707281238,0.1714288899292368,-0.13516540591490608,-0.0014587640019159385,-8.064612722686713,1.5974912820935505,2.911371707946053,0.7664590549048658,-0.6417884216048719,4.8817421462565846e-05,-1.3794864659022013,-3.819405700451272,-3.885650208576231,-0.8410434990288778,-0.12064042273344051,-0.0015773642500323303
0.16,-0.13492346254126075,1.5761869161811357,-1.5183217096312778,0.016932603951611915,-0.01327201266133601,-0.00014482543959049105,-1.5153249494745253,0.1216040937383539,0.5752764623694376,0.17912607176542267,-0.1418050539534628,-0.0015189785517935894,-7.828686815029802,1.6741386392317201,2.7820337249377793,0.7179867500105921,-0.6099731756332716,0.0013385371265872692,-1.3723738295402157,-3.8795859279079448,-3.8986678382534796,-0.8411205418064114,-0.11939883505273047,-0.001527318464832092
0.17,-0.15085389294298698,1.5775709346601865,-1.512293487186145,0.018796186476776056,-0.014753642107422105,-0.000160564649408322,-1.5930430401726223,0.13840184790508844,0.6028222445132675,0.18635825251641422,-0.14816294460860954,-0.0015739209817830946,-7.585179983172623,1.7409294885887612,2.6468651912527146,0.6685393708014864,-0.5769761050167403,0.002643850788652813,-1.364798746696832,-3.9484539170992665,-3.9139420714581274,-0.841467484397848,-0.11808335945953749,-0.0014756916336035582
0.18,-0.16753731790089463,1.5791295305404132,-1.5060031793306787,0.02072733451899602,-0.016295932612087914,-0.00017679929402856617,-1.6683424957907644,0.15585958802266175,0.6290307855466359,0.19311480422199626,-0.15422905046658103,-0.0016234644620244177,-7.334025182341138,1.7973695354459422,2.506033873875411,0.6181415082133928,-0.5428699678382003,0.003952703558812054,-1.356561709331439,-4.025776408929784,-3.9313566641643054,-0.842058426830024,-0.11668154044630058,-0.0014225953639606672
0.19,-0.18494879052308155,1.5808682703755454,-1.499464721878832,0.02272118900059992,-0.017895871151376724,-0.00019347441370433526,-1.741147262218693,0.17387398351321784,0.653845745184679,0.1993854481603897,-0.15999385392888105,-0.001667511967576908,-7.075198299526033,1.8430498091905534,2.359768255861794,0.5668578064521572,-0.5077517473945647,0.005252972955459789,-1.347449777426189,-4.11123574383248,-3.950769030640088,-0.8428630822627449,-0.11518061725625149,-0.0013681518174904757
0.2,-0.2030626009104071,1.5827916468663379,-1.4926925919161853,0.02477279500137968,-0.019550356330665805,-0.00021053439554626318,-1.8113810387325542,0.19233764907925077,0.6772129962646709,0.20516060007797643,-0.16544851792890813,-0.001705998184192793,-6.808722636097913,1.8776498144510945,2.2083589722187176,0.5147866544876081,-0.47173778592453175,0.006532734142308705,-1.337240183333924,-4.20443212797133,-3.972012409842499,-0.8438474567247137,-0.11356782230115223,-0.001312495511629552
0.21,-0.22185227842718966,1.5849030471354388,-1.4857017793470122,0.026877111669421153,-0.021256206604057377,-0.0002279233027490824,-1.8789677516782555,0.2111400269100841,0.6990812569173201,0.2104316668041473,-0.1705850273391573,-0.0017388907202819204,-6.534672684028155,1.900939707960447,2.0521587108637713,0.4620548348037552,-0.43495983687793327,0.007780503258754123,-1.3257042568752253,-4.304887389749829,-3.99489852626442,-0.844974615471973,-0.1118306901437385,-0.0012557748021636728
0.22,-0.2412905990755742,1.5872047300430545,-1.4785077521594565,0.029029024676841254,-0.023010169666203263,-0.00024558520962323163,-1.9438320648384544,0.230168290761566,0.719402718755574,0.21519130074201,-0.1753963062145888,-0.0017661906874149246,-6.25317713856671,1.9127814340145175,1.8915806721837014,0.4088128352337037,-0.39756161614648633,0.008985456373858725,-1.3126116020066934,-4.412050184658124,-4.019220698049898,-0.84620551905702,-0.1099573692282003,-0.0011981529725647883
0.23,-0.2613495982670907,1.5896978126572072,-1.4711264155851738,0.03122336084193964,-0.02480893280098736,-0.0002634645365568032,-2.005899919151647,0.24930826141526458,0.7381336574282784,0.21943361650983872,-0.17987631347840963,-0.0017879326933571559,-5.9644210880373585,1.9131287776457748,1.7270956870143435,0.35523061438826886,-0.3596956307683179,0.010137620322315577,-1.2977344445046173,-4.525302564033535,-4.04475732959562,-0.8474999091410225,-0.10793692815619522,-0.0011398088663436877
0.24,-0.2820005892048175,1.5923822658836055,-1.4635740654580693,0.03345490456648261,-0.026649133984225894,-0.00028150637942682725,-2.0650990937726843,0.2684453226398248,0.7552350127104459,0.22315437245429692,-0.18402011832385362,-0.0018041842870024027,-5.668647329672674,1.9020263214994488,1.5592281044099203,0.3014936769093115,-0.32152018283160544,0.011228031639901381,-1.2808520601375861,-4.643967782378982,-4.071275711818458,-0.8488172216517057,-0.10575964819759973,-0.0010809370120488642
0.25,-0.30321418700387703,1.5952569191501786,-1.455867336195242,0.03571841575368543,-0.028527373544265062,-0.0002996568283993635,-2.121359779905951,0.2874653266573156,0.7706729262827414,0.22635111872028157,-0.1878239560039168,-0.001815044897253628,-5.366156775888598,1.8796073191800418,1.3885505749393565,0.2477993655690902,-0.2831965165648427,0.012248860590478028,-1.26175518495003,-4.767319180247367,-4.098536041493162,-0.8501175032331405,-0.10341729391635092,-0.0010217472069789638
0.26,-0.3249603385884806,1.598319473932793,-1.4480231439301592,0.03800864888297648,-0.03044022618941407,-0.0003178632715375906,-2.17461515846036,0.3062554782614396,0.7844192265082724,0.22902331292910538,-0.1912852645149008,-0.0018206443138227056,-5.05730793429287,1.8460905237052212,1.2156778703861941,0.19435331614885598,-0.24488611614606626,0.013193498571771656,-1.2402503040106168,-4.894589947042903,-4.126295562179767,-0.851362306166371,-0.10090335427196315,-0.0009624635442370153
0.27,-0.34720835831241115,1.601566525804133,-1.4400586254217098,0.04032037292492166,-0.03238425321704013,-0.0003360746791824617,-2.2248019723930557,0.324705187133997,0.7964518508449459,0.23117240419451784,-0.1944027027626063,-0.001821140764487114,-4.742515467949077,1.801776033943768,1.0412598949314282,0.14136605033673,-0.20674818174169474,0.014056608653917113,-1.2161637132951433,-5.024983541835726,-4.1543127237582125,-0.8525155371316098,-0.09821324735337539,-0.0009033228879533107
0.28,-0.369926969159043,1.6049935945895852,-1.4319910734414958,0.042648391786113564,-0.03435601472717405,-0.00035424186567326423,-2.2718610846631826,0.34270687854522053,0.8067551980213926,0.23280188611919045,-0.1971761510133918,-0.0018167186490802565,-4.422247864171062,1.7470402436732677,0.8659740547832255,0.0890497034419635,-0.1689373188240033,0.014834140486694292,-1.1893452510885205,-5.1576845316645095,-4.182351255827081,-0.8535442363580881,-0.09534448293707942,-0.0008445728218713965
0.29,-0.39308434928894465,1.6085951621243662,-1.423837869404233,0.044987564981121525,-0.036352081674159493,-0.0003723177256187036,-2.3157380129901677,0.3601567534781016,0.8153204037262806,0.23391731950079578,-0.19960669469854464,-0.0018075859945439379,-4.097024261762047,1.6823299965977216,0.6905171617851571,0.03761489880948421,-0.13160147533941213,0.015523312188557625,-1.1596716010404182,-5.291869596560703,-4.210184052348634,-0.8544192658336378,-0.09229677833047595,-0.0007864691163918882
0.3,-0.41664818361994055,1.61236471702693,-1.4156164140514504,0.04733282823796223,-0.038369047603251605,-0.0003902574425916662,-2.3563834330995923,0.3769554902563751,0.8221455352782735,0.23452632568407025,-0.201696592909211,-0.0017939716972962601,-3.7674105051785247,1.608156065770411,0.515597051034077,-0.012732209281369755,-0.09488015583521658,0.01612256295334502,-1.1270490785344613,-5.426718449072116,-4.237596770896591,-0.855115888239716,-0.08907212438949036,-0.0007292727774144928
0.31,-0.4405857200480656,1.6162948058363766,-1.4073440570263114,0.04967921375576431,-0.04040353993482849,-0.00040801866878085053,-2.393753642812507,0.3930088809446636,0.8272357025139078,0.23463855178020832,-0.20344923315768823,-0.0017761226189184321,-3.434014509231596,1.5250860870424643,0.3419240926297893,-0.06179269696497869,-0.05890293329609264,0.01663148092743727,-1.091415825175506,-5.561424423318497,-4.264391059438549,-0.8556142220061462,-0.08567480013177829,-0.0006732467561003281
0.32,-0.46486382984963154,1.6203770898072598,-1.3990380261872382,0.05202186984876816,-0.04245223067651977,-0.00042556167476982387,-2.427810980156593,0.4082283970883125,0.830603083907311,0.23426560930038481,-0.2048690741691285,-0.0017543005988973322,-3.0974810284728833,1.4337370832288916,0.17020277321538435,-0.10937740711379718,-0.023788269642622595,0.017050711453521883,-1.05274335240788,-5.695204504095465,-4.290387336332686,-0.8558995621708987,-0.0821113359292272,-0.000618652411190092
0.33,-0.4894490717456749,1.624602406614548,-1.3907153575005167,0.05435607972962966,-0.04451184646246207,-0.00044284946921064976,-2.458524189604339,0.4225316807288213,0.832266868672157,0.2334209880861497,-0.20596157859422956,-0.0017287794440825894,-2.758485938796441,1.3347677187587956,0.0011235140939058752,-0.15530923224666093,0.010357354342316327,0.017381850900727303,-1.011037395114103,-5.827308589339022,-4.31542706453798,-0.8559625613797199,-0.07839042688713761,-0.0005657458250355783
0.34,-0.5143077590617035,1.628960836194835,-1.3823928263280423,0.05667727920703724,-0.04657917783842093,-0.00045984788870208766,-2.485868731602858,0.4358429580287053,0.8322531172474448,0.23211994774075842,-0.20673313759588563,-0.0016998419491437875,-2.4177301600687593,1.2288704237974735,-0.16464512023653488,-0.19942511872641133,0.04344000851049756,0.01762733127447036,-0.966338059605354,-5.957027808255006,-4.339374478218959,-0.8557992701462245,-0.07452279970582154,-0.0005147740810443277
0.35000000000000003,-0.5394060293800109,1.6334417699371222,-1.37408688088711,0.05898107309756203,-0.048651087731082274,-0.0004765256586602508,-2.509827031830747,0.4480933742287386,0.8305945440932123,0.23037938905247932,-0.20719098926613458,-0.0016677769958163148,-2.0759333167385434,1.116763521770682,-0.32646368548841553,-0.24157777156220162,0.07537859875715469,0.017790300381813173,-0.9187192669359279,-6.083701751526597,-4.3621177382275,-0.8554110401954124,-0.07052103722956202,-0.0004659716071440163
0.36,-0.5647099160557447,1.6380339824371044,-1.3658135786062395,0.06126325017896187,-0.05072451905877695,-0.0004928544263782209,-2.530388667573381,0.4592212499982103,0.8273302280870616,0.22821770813998385,-0.20734313276946745,-0.0016328767717970032,-1.7338272886531028,0.9991834869884146,-0.48372847461497126,-0.28163704508909426,0.10610489307076776,0.017874501834544754,-0.8682875231917592,-6.20672450662183,-4.383569511395589,-0.8548042991128211,-0.06639936675187845,-0.0004195566923013115
0.37,-0.5901854209568705,1.6427257050421393,-1.357588526036382,0.06351979654125003,-0.05279650145885342,-0.0005088087678063542,-2.5475504901125823,0.4691722605034928,0.8225052569857556,0.22565463622881576,-0.2071982400076473,-0.0015954341428133351,-1.392149845993074,0.8768774485194114,-0.6358773913751352,-0.31949101130700786,0.1355633173548494,0.01788415846986724,-0.8151800769727967,-6.3255494300781505,-4.403666986492111,-0.8539902084090902,-0.06217341965866782,-0.0003757282794224589
0.38,-0.6157985877963343,1.6475047004389283,-1.3494268229025932,0.06574690722206522,-0.05486415712363549,-0.0005243661698479719,-2.561316683946377,0.47789953967889726,0.8161703133788872,0.22271106808151825,-0.20676556647820613,-0.0015557402041617714,-1.0516383763600368,0.750596041937612,-0.7823950050131459,-0.3550467039935443,0.16371055004699997,0.017823862100012966,-0.7595625136785493,-6.439692628342276,-4.422371356356728,-0.8529842203380423,-0.05785996833167091,-0.0003346631084498075
0.39,-0.6415155754336713,1.652358337570896,-1.3413430107995024,0.06794099604360376,-0.05692470575177468,-0.0005395069901619249,-2.5716987637336945,0.4853637131967529,0.8083812103090786,0.21940888215385435,-0.2060548628139197,-0.0015140820313953003,-0.7130239304817809,0.6210866979647828,-0.9228167340239491,-0.38823054374755017,0.1905149526799481,0.01769847164845717,-0.7016258885118167,-6.5487351541162795,-4.439666810214832,-0.8518055513076104,-0.05347664950131091,-0.0002965132926584272
0.4,-0.6673027305547055,1.6572736662161005,-1.333351026947023,0.07009870359889553,-0.05897546863493403,-0.0005542143965948794,-2.578715512103415,0.49153286452045486,0.7991983852479364,0.2157707555291768,-0.20507628831593458,-0.0014707406432954459,-0.3770256189851306,0.48908743995455634,-1.056732128745118,-0.4189884549688381,0.2159558678058351,0.017513021116834365,-0.6415834823048514,-6.6523239606734315,-4.455559092337268,-0.8504765913194291,-0.0490416809674295,-0.00026140437630066393
0.41000000000000003,-0.6931266591726165,1.6622374906075013,-1.3254641633328708,0.07221690336492918,-0.061013871910838194,-0.0005684742884426274,-2.5823928617911003,0.4963824391400686,0.7886863614152171,0.21181997660336593,-0.2038403275904163,-0.0014259891847748054,-0.044345425210893734,0.35532124675150195,-1.1837872440597939,-0.44728569151905617,0.24002281806336295,0.01727263814084711,-0.5796672787426524,-6.750171685798001,-4.470073692464792,-0.8490222696849802,-0.04457357896114714,-0.00022943390964424556
0.42,-0.7189542964347472,1.6672364415340195,-1.3176950314777462,0.0742927059484795,-0.06303744902271721,-0.0005822752017667332,-2.58276372621307,0.4998950926518261,0.7769131855124504,0.2075802583550317,-0.20235771118790233,-0.001380091332410583,0.28433652258673614,0.22049102167889176,-1.3036861133893978,-0.4731063926622343,0.2627146383257484,0.016982473286953598,-0.5161242633118843,-6.842055361905645,-4.483253739714632,-0.8474693972455222,-0.04009088285634952,-0.00020067055939102372
0.43,-0.7447529742649476,1.6722570464214883,-1.3100555329694656,0.07632346149696144,-0.0650438424320813,-0.0005956082009787359,-2.579867783020042,0.5020604887468786,0.7639498508280653,0.20307555484819395,-0.20063934093640914,-0.0013332999212002704,0.608366185959171,0.08527519322639308,-1.4161913531168397,-0.4964528949081144,0.28403857037130775,0.016647639876583076,-0.4512126440010877,-6.927814168397178,-4.495157674985154,-0.845846004554598,-0.0356118933267056,-0.00017515375595986127
0.44,-0.7704904864200466,1.6772857969557589,-1.302556835825685,0.07830676033081538,-0.06703080463670485,-0.0006084667588547289,-2.5737512155099025,0.5028750534270564,0.7498697143780806,0.19832988338539354,-0.19869622046235497,-0.0012858557875992994,0.9271193288664227,-0.04967604130380035,-1.521123942253515,-0.5173448284362072,0.30400934616437425,0.01627316372928711,-0.38519809061945565,-7.007346356324174,-4.505856777295443,-0.8441806940564271,-0.03115442933377941,-0.00015289386395917563
0.45,-0.7961351505907533,1.6823092138745077,-1.29520935666271,0.08024043187548939,-0.06899619854885605,-0.0006208466270659417,-2.5644664170706735,0.5023416918748874,0.7347479162974949,0.19336715446740188,-0.19653939121511912,-0.001237986821121274,1.24000468494849,-0.18374383111402376,-1.618362235288226,-0.5358180288643384,0.3226482817886023,0.015863941974496698,-0.3183500829911827,-7.080605484104525,-4.5154326172762556,-0.8425020223271612,-0.026735608485673405,-0.00013387284831746174
0.46,-0.8216558672313413,1.6873139086183389,-1.2880227485715297,0.08212254198979715,-0.07093799729041841,-0.0006327456992122868,-2.5520716640587935,0.5004694743831201,0.7186608091180376,0.1882110114307764,-0.1941798741562356,-0.0011899072146345057,1.5464665655750638,-0.3163431599199965,-1.7078402766250074,-0.5519232962611271,0.3399823997672984,0.015424710015592091,-0.250938448327253,-7.147596106574012,-4.523974506505651,-0.8408379260737806,-0.022371654334525558,-0.00011804539627474083
0.47000000000000003,-0.8470221748579367,1.6922866415944313,-1.2810058945326857,0.08395138880315388,-0.0728542834618597,-0.0006441638682301831,-2.5366307626595455,0.4972732976092535,0.7016854038844019,0.18288468133567198,-0.1916286171441282,-0.001141816901789631,1.8459869069688557,-0.44692473063206833,-1.7895454928459658,-0.5657250335471193,0.35604359328847757,0.014960015591462983,-0.18323015547584598,-7.208369058515021,-4.5315770049751904,-0.8392152029517036,-0.018077733134173,-0.00010534044522156135
0.48,-0.872204301610909,1.697214376866218,-1.2741669061396876,0.08572549718687669,-0.07474324794125203,-0.000655102879919497,-2.5182126752972236,0.492773527178661,0.6838988392998097,0.17741083837228175,-0.1888964479392336,-0.0010939011689313932,2.1380867675612976,-0.5749762792841133,-1.8635158443101965,-0.57729979588495,0.3708678420072964,0.014474198925224169,-0.11548641953881872,-7.26301646853317,-4.538337541143578,-0.8376590555090142,-0.01386782152348301,-9.566305861522627e-05
0.49,-0.8971732129314641,1.7020843331395419,-1.2675131273469056,0.087443611994405,-0.07660318826795598,-0.0006655661842007228,-2.496891132055511,0.48699562733239604,0.6653778792782119,0.17181148075282965,-0.1859940326703949,-0.0010463304281225756,2.4223272982566644,-0.7000233577009642,-1.9298365204976078,-0.5867347814268404,0.3844944857304995,0.01397137801536208,-0.047960155553527284,-7.311666630448041,-4.54435419026182,-0.8361927038238361,-0.009754605597761496,-8.889658712052834e-05
0.5,-0.9219006552549313,1.7068840309687365,-1.2610511429125224,0.08910469021204522,-0.07843250666335004,-0.0006755587855757887,-2.472744232346712,0.47996978291947084,0.6461984434383151,0.16610782176402247,-0.18293183953940614,-0.0009992601375065867,2.6983102173929034,-0.8216296296739821,-1.9886362642308666,-0.5941262919811674,0.39696555943020506,0.01345543820092654,0.01910619457396809,-7.354478847979432,-4.549723647395345,-0.8348370697846246,-0.005749410923871306,-8.490504969776915e-05
0.51,-0.9463591956724879,1.7116013361545832,-1.2547867911702664,0.09070789216582589,-0.08022970773829337,-0.000685087094127023,-2.4458540417556702,0.4717305185846691,0.6264351742256,0.16032019537806794,-0.17972010749433262,-0.0009528308551234336,2.965677828750728,-0.9393967291440051,-2.0400834087178437,-0.5995781898971169,0.408325190662735,0.01293002524053044,0.08548245131724294,-7.391638355215407,-4.554539422243626,-0.833610533562598,-0.0018621622693715707,-8.353566938247721e-05
0.52,-0.9705222575585446,1.7162244993497557,-1.2487251807351498,0.09225257193146028,-0.08199339593400895,-0.000694158778250971,-2.4163061886056707,0.46231631951725893,0.6061610435116584,0.1544679765634384,-0.1763688195715583,-0.0009071684123947949,3.224112625328865,-1.052963731196781,-2.0843817085139125,-0.603200374872995,0.4186190585297318,0.012398541282820252,0.15095210468852777,-7.423351400877377,-4.558890273829585,-0.8325287607095004,0.0018986288362286795,-8.46215006562986e-05
0.53,-0.994364152202256,1.7207421919259311,-1.2428707107280301,0.09373826709349012,-0.08372227273990232,-0.0007027826201882625,-2.3841894643711425,0.45176925761753767,0.5854470007119597,0.14856951620298497,-0.17288768058933715,-0.0008623841937291538,3.4733365242322187,-1.1620062876933352,-2.1217660413064205,-0.6051073015649742,0.4278939118265974,0.011864143197216848,0.21531335172232455,-7.449840569418063,-4.56285889469761,-0.8316045965278748,0.005525851105855989,-8.798408922668888e-05
0.54,-1.017860106518384,1.7251435381901292,-1.2372270940910595,0.09516468799668318,-0.08541513372859803,-0.0007109683752792616,-2.3495954316128156,0.440134626419812,0.56436166369706,0.1426420903193065,-0.16928609886957072,-0.0008185755090999082,3.7131097793040366,-1.2662354792492683,-2.1524980521426844,-0.6054165559424849,0.43619714289885536,0.011329742883448457,0.278379785591114,-7.471340397082373,-4.566520846648749,-0.830848022928784,0.009013757844202656,-9.343611032848508e-05
0.55,-1.0409862869448696,1.7294181440660636,-1.231797383560469,0.09653170662795074,-0.08707086544527316,-0.0007187266357481391,-2.3126180426485514,0.42746058759343647,0.5429710530590541,0.1367018631267562,-0.16557317166751334,-0.0007758260468877482,3.94322961834332,-1.3653964341936553,-2.176861805655822,-0.6042475053511076,0.44357641297797556,0.010798009225954752,0.33998076467790844,-7.488093326711285,-4.569943743413072,-0.830266171917749,0.012357911674606783,-0.00010078393795718456
0.56,-1.0637198196619502,1.7335561223794396,-1.2265839998640433,0.09783934526071915,-0.08868844218526181,-0.0007260686996968291,-2.2733532717080567,0.41379783133760273,0.521338369642565,0.13076386327684109,-0.1617576739988651,-0.0007342063948690006,4.1635286510792,-1.4592667632512646,-2.195159505211672,-0.6017200343708957,0.45007932433176734,0.01027137148544588,0.3999614950735483,-7.500346031655822,-4.573186670104577,-0.829863389121124,0.015555112810534434,-0.00010983010438232169
0.5700000000000001,-1.0860388072905596,1.7375481149044267,-1.22158876171741,0.09908776498610253,-0.09026692269094469,-0.0007330064458749274,-2.2318987628609337,0.3991992524987074,0.4995238146633285,0.12484197253833751,-0.15784805056828766,-0.0006937746178098315,4.373873092667505,-1.5476548561472236,-2.2077073309836224,-0.5979533757465045,0.45575313439774945,0.009752023928786047,0.4581828633154039,-7.508346126973753,-4.576299824856011,-0.8296413403566325,0.01860331406650594,-0.00012037561653524469
0.58,-1.1079223422461832,1.7413853113422053,-1.216812917205207,0.10027725424664956,-0.09180544679615504,-0.000739552214683283,-2.188353495562366,0.38371964377786016,0.47758445122031007,0.11894892605470242,-0.153852410521036,-0.000654576880835559,4.574160845461466,-1.6303980832854759,-2.21483144192105,-0.5930650430974378,0.4606445071227583,0.009241931608957588,0.5145210578831823,-7.512339275291566,-4.579324364670541,-0.8295991541276831,0.021501525738779025,-0.0001322221031317823
0.59,-1.1293505169385365,1.7450594654118596,-1.2122571761496024,0.10140821747912276,-0.0933032320437414,-0.0007457186957671785,-2.1428174692353257,0.3674154069654334,0.45557410556044414,0.11309632324732125,-0.149778524758636,-0.0006166481083895576,4.764319479306066,-1.707360942231085,-2.2168641796217954,-0.5871698697193022,0.46479929696078415,0.008742837167601047,0.5688670182090677,-7.512566685431641,-4.582292435194349,-0.8297335930396055,0.024249713344845474,-0.00014517377341971622
0.6,-1.1503044310176105,1.7485629082392915,-1.2079217430888256,0.10248116396294507,-0.09475957029953294,-0.0007515188224609511,-2.095391407907393,0.3503442827431974,0.43354330607767166,0.10729464838222999,-0.14563382557915447,-0.0005800126693772556,4.944304147731419,-1.7784331850563733,-2.2141405053668097,-0.5803791556774289,0.46826236132275056,0.008256268603781036,0.621125748966307,-7.509262994157982,-4.585227362717392,-0.8300392474519078,0.026848691008867873,-0.00015903917503833027
0.61,-1.1707661958730895,1.7518885592316416,-1.203806350511647,0.10349669696082173,-0.09617382438375023,-0.0007569656732590365,-2.0461764855479054,0.3325650992349956,0.41153925771786104,0.10155329978766567,-0.14142540842172957,-0.0005446850798085357,5.114095474279964,-1.843527958793313,-2.2069946951629418,-0.5727999235207317,0.47107739769930745,0.007783547921115241,0.6712155354092911,-7.502654515152098,-4.588143986136093,-0.8305087451486022,0.02930001303329295,-0.0001736327444832613
0.62,-1.1907189365971882,1.755029934623297,-1.1999102920194966,0.10445550322780121,-0.09754542473888003,-0.0007620723804094468,-1.995274072409869,0.3141375391655347,0.38960584921503977,0.09588062669794827,-0.13716003551298017,-0.0005106707150410306,5.273697439894465,-1.902579987363427,-2.1957573116358895,-0.5645342813466403,0.47328680214235774,0.0073258005886081,0.7190670927853033,-7.492957834515075,-4.59104910673633,-0.8311329713846282,0.03160586591978138,-0.00018877614898057498
0.63,-1.210146791620914,1.757981153875339,-1.1962324551155163,0.10535834295483373,-0.09887386615117287,-0.0007668520456542844,-1.942785502372596,0.2951219252042099,0.3677836903980239,0.09028397270325156,-0.1328441412292833,-0.00047796652448376135,5.423135298903768,-1.9555438195039336,-2.1807524660869535,-0.5556788906248507,0.4749315462600485,0.006883965727575214,0.7646226795476172,-7.480378728588988,-4.5939420343486415,-0.8319012943103106,0.0337689628086267,-0.00020429942312468608
0.64,-1.2290349102309768,1.7607369441036065,-1.192771353348764,0.10620604020285622,-0.10015870454120804,-0.0007713176630782987,-1.8888118610062565,0.2755790228267457,0.3461101766752365,0.0847697248022481,-0.12848383900351681,-0.00044656174240142977,5.562453547742082,-2.002392163435658,-2.1622953790131123,-0.546324535090605,0.47605107035097305,0.006458806937089001,0.8078352004752485,-7.465111377563342,-4.5968152095625845,-0.8328017914517644,0.035792442006591506,-0.00022004190740057786
0.65,-1.2473694481693625,1.7632926427018165,-1.1895251575715229,0.10699947387368894,-0.10139955383738354,-0.0007754820489704591,-1.833453793838561,0.25556985982099695,0.3246195777241178,0.07934336708327248,-0.1240849296175502,-0.00041643858921602963,5.691713967187186,-2.043114325371522,-2.140690242896835,-0.5365557861819763,0.4766831907177007,0.006050923652066498,0.8486673220240526,-7.447337847030829,-4.599654883144186,-0.8338214736031369,0.037679770978256116,-0.00023585299869838088
0.66,-1.2651375615103244,1.765644198315749,-1.1864917260977748,0.10773956925465994,-0.1025960829447109,-0.0007793577785550196,-1.7768113340961944,0.23515556139323765,0.30334314737482126,0.07400953809709979,-0.11965291073273537,-0.0003875729584560497,5.810993755647526,-2.077714765479544,-2.116228387105691,-0.5264507598498689,0.4768640195983842,0.005660762921226192,0.8870906184459193,-7.4272278092254,-4.60244183546989,-0.8349465031417124,0.039434656893321485,-0.00025159272517245727
0.67,-1.2823273990005088,1.7677881703127094,-1.1836686335809687,0.10842729016494852,-0.1037480128199096,-0.0007829571294073043,-1.7189837490184392,0.21439719969604049,0.28230925168060417,0.06877209102885884,-0.11519298751986952,-0.0003599350852284838,5.9203837679062135,-2.106211781614689,-2.0891867412839304,-0.5160809591180602,0.47662789647338144,0.005288631485782513,0.9230847635364829,-7.404938475962566,-4.60515212057759,-0.8361624043903865,0.04106096455767442,-0.00026713215935040635
0.68,-1.2989280930374727,1.7697217268776748,-1.181053198458925,0.1090636317232097,-0.10485511366248926,-0.0007862920313351369,-1.6600694036963843,0.19335565649654918,0.2615435122043767,0.06363415582611721,-0.11071008425796634,-0.0003334901927832548,6.019986870765235,-2.1286363280376412,-2.05982659063609,-0.5055111964960215,0.47600732979929816,0.004934708029959989,0.9566367793976426,-7.380614716160684,-4.607757821259035,-0.8374542642100431,0.04256264231354345,-0.0002823536843297146
0.6900000000000001,-1.314929749450239,1.7714426418540001,-1.17864250884275,0.10964961374814086,-0.1059172022302664,-0.0007893740224791752,-1.6001656412766305,0.1720914976325293,0.2410689616175114,0.05859820249311651,-0.10620885677771437,-0.0003081991144038318,6.109916424245634,-2.1450309734513615,-2.0283926139785855,-0.49479959016378494,0.4750329484342153,0.0045990554758694735,0.9877403503930136,-7.35438933211874,-4.610227803412545,-0.8388069214980813,0.04394365627625227,-0.00029715112828607724
0.7000000000000001,-1.3303234362330565,1.7729492904326096,-1.176433446754763,0.11018627479630601,-0.10693413928657788,-0.0007922142113639514,-1.5393686782817528,0.15066485786095263,0.22090620879869183,0.053666104816514695,-0.10169370563114793,-0.0002840188884776179,6.1902948943983525,-2.1554490000159388,-1.9951121933011913,-0.4839976278354463,0.47373346220576806,0.004281633190511558,1.0163952075729374,-7.326383470338769,-4.6125284595895115,-0.8402051446941371,0.04520793308310162,-0.00031142978244334466
0.71,-1.3451011713704473,1.7742406437794882,-1.1744227106474292,0.11067466683474836,-0.10790582718531687,-0.0007948232446157663,-1.4777735137390873,0.1291353346878576,0.201073610733374,0.048839203844235374,-0.09716878987389849,-0.0002609033251814971,6.261252601372326,-2.159953642543466,-1.9601949818230944,-0.4731502922251707,0.4721356311991194,0.00398230898226859,1.0426065862716467,-7.2967071445044205,-4.614624433265609,-0.8416337967488575,0.04635931116381252,-0.00032510631719906034
0.72,-1.359255909878175,1.7753162626772554,-1.172606836160983,0.11111585053970544,-0.10883220759882413,-0.0007972112800532038,-1.4154738507727718,0.10756188977671004,0.18158744864462217,0.04411837049570739,-0.09263804135072662,-0.00023880354374375163,6.322926604172819,-2.1586174648269223,-1.9238327160820257,-0.4622962421519343,0.47026424343571094,0.0037008707627590454,1.066384757337307,-7.265459850168396,-4.616479316822511,-0.8430779872982122,0.04740150040086926,-0.00033810861034653476
0.73,-1.3727815301711694,1.776176290242889,-1.1709822151016773,0.11151089120708524,-0.10971325939261435,-0.0007993879648505129,-1.3525620292994434,0.0860027565633609,0.16246210593055632,0.03950406673798007,-0.08810517937902194,-0.00021766847973091473,6.3754597215221605,-2.151521868015243,-1.8861992564282146,-0.4514680434622207,0.46814210067513073,0.0034370377735088997,1.0877446305384921,-7.232731252685597,-4.618056317524834,-0.8445232120084205,0.048338049930487806,-0.0003503755003574266
0.74,-1.385672819855906,1.776821443770458,-1.169545112645281,0.11186085525526078,-0.11054899664990174,-0.00080136241847272,-1.2891289684736598,0.06451535275689833,0.1437102456396355,0.03499640481755392,-0.08357372572873861,-0.00019744536222071672,6.418999686403831,-2.138756724102931,-1.8474508393624651,-0.4406924441214777,0.465790012104474,0.003190471267846995,1.1067054270815337,-7.198601931892656,-4.619318886914732,-0.8459554792208812,0.049172323738764186,-0.00036185647655916244
0.75,-1.3979254610314369,1.7772530057352105,-1.168291682791479,0.11216680729618023,-0.11133946684791135,-0.000803143220083852,-1.2252641175530739,0.04315619647524777,0.1253429853801769,0.030595204091944612,-0.079047019800961,-0.00017808016111320045,6.453698430225622,-2.1204201259548148,-1.8077265244216432,-0.4299906880185258,0.46322679569762926,0.0029607845642518615,1.1232904168499804,-7.1631441689290964,-4.620231310025799,-0.8473614241394253,0.04990748363055656,-0.00037251131682224846
0.76,-1.4095360151703749,1.7774728139837137,-1.16721798211415,0.11242980774675759,-0.1120847491870215,-0.0008047384001353444,-1.1610554138937934,0.02198082485032856,0.10737006773292146,0.02630004505773681,-0.07452823391101622,-0.00015951800514923397,6.479711491072603,-2.096618243826921,-1.7671488177545571,-0.41937886219268083,0.46046928702684653,0.0027475524008553354,1.1375267149141737,-7.1264227623835685,-4.620759251647616,-0.8487284108713902,0.0505464790883613,-0.0003823096821174586
0.77,-1.4205019076387888,1.7774832511240943,-1.166319981870016,0.11265091094899113,-0.11278495307288008,-0.0008061554358500594,-1.0965892468413994,0.001043714038053048,0.08980002441337896,0.022110320223353203,-0.07002038858585778,-0.0001417035714714962,6.497197539233097,-2.0674652770725035,-1.7258244540986047,-0.4088682723920556,0.45753235530602865,0.002550319528615841,1.1494451310295015,-7.0884958626029375,-4.6208702575649605,-0.8500446226673102,0.05109204349247445,-0.0003912306760602133
0.78,-1.4308214119022988,1.7772872331209102,-1.1655935785438878,0.11283116376423766,-0.11344021675077338,-0.0008074012503279348,-1.031950426351004,-0.019601800318413316,0.07264033261283517,0.018025281524652347,-0.0655263677893305,-0.000124581447787539,6.506318012065125,-2.033083488633918,-1.6838453185625952,-0.3984658420253009,0.45442892643443855,0.0023686084893002057,1.1590800652196285,-7.04941581450413,-4.6205342092677215,-0.8512991407093015,0.05154669613974413,-0.0003992623763672587
0.79,-1.4404936334547866,1.7768881970909127,-1.1650346029225673,0.11297160460453862,-0.11405070609070264,-0.000808482215011733,-0.9672221552487805,-0.03990360299975472,0.055897562132038454,0.014044084030096087,-0.06104893399292615,-0.00010809646837982634,6.507236849325241,-1.9936033090176988,-1.641289489418143,-0.3881745297182855,0.45117001280448576,0.0022019265635624397,1.1664694421021762,-7.00923000056915,-4.619723731096993,-0.8524820117831351,0.051912749474140395,-0.00040640134404085546
0.8,-1.4495184934961456,1.7762900882890063,-1.1646388278014803,0.11307326286183474,-0.11461661352083963,-0.0008094041552648122,-0.9024860041358942,-0.05981088019065228,0.039577512108692085,0.010165825729612103,-0.056590743013698465,-9.219402530791676e-05,6.500120319303363,-1.949163495732724,-1.5982223829867177,-0.37799376082824576,0.4477647496284014,0.0020497718460457115,1.1716546763370934,-6.967981676876829,-4.61841454917777,-0.8535843051405912,0.05219232092633712,-0.00041265211509195653
0.81,-1.457896712376466,1.7754973462681705,-1.1644019744381995,0.11313715869430936,-0.11513815710629105,-0.0008101723588275164,-0.8378218880320273,-0.07927420208358019,0.023685336328091295,0.006389583247462746,-0.05215435854514277,-7.682035627042061e-05,6.485136925493119,-1.899911333641355,-1.5546979816889168,-0.36791986838420243,0.44422043754576634,0.0019116384608015569,1.1746806614439969,-6.925710796033534,-4.6165858018085375,-0.8545981588235746,0.052387348749972903,-0.0004180266787337709
0.8200000000000001,-1.4656297928160469,1.7745148901930154,-1.1643197178752531,0.11316430312795533,-0.11561557976940051,-0.0008107915869336062,-0.7733080439580877,-0.09824560751550802,0.008225656294633198,0.002714443364596721,-0.04774226631094654,-6.19228106089778e-05,6.462457383079093,-1.8460028613355943,-1.5107601263862889,-0.3579465390316905,0.4405425912764862,0.001787020906018899,1.1755957742290386,-6.882454811713187,-4.614220301249654,-0.8555168156853054,0.052499611238022,-0.00042254394523166616
0.8300000000000001,-1.4727200029036924,1.7733481032840348,-1.1643876912609565,0.11315569843075682,-0.11604914864715661,-0.0008112660878833175,-0.709021008764545,-0.11667869089806272,-0.006797338570342948,-0.0008604697198521223,-0.043356887775609476,-4.745009497114344e-05,6.432254654235195,-1.7876031085082595,-1.4664438543015321,-0.34806525966794233,0.4367349941007994,0.0016754175513198355,1.1744518871721485,-6.83824946021478,-4.611304747092828,-0.8563346493117091,0.0525307487028351,-0.00042622920599028107
0.84,-1.4791703588699079,1.7720028163685189,-1.1646014893014842,0.11311233871660621,-0.11643915458065578,-0.000811599612884458,-0.6450355966215559,-0.1345286915515895,-0.021379804052767376,-0.004335971415060265,-0.039000593349916506,-3.3352500114051106e-05,6.394704031103397,-1.7248863293442347,-1.4217767640570536,-0.3382657605597501,0.432799757974184,0.001576333307587774,1.171304381342977,-6.793129515003362,-4.607829891616799,-0.8570471800219719,0.05248228760734687,-0.00042911358799428906
0.85,-1.4849846076268878,1.770485290514479,-1.164956670980053,0.11303521073622673,-0.11678591173098643,-0.0008117954339873183,-0.5814248756979868,-0.1517525854039906,-0.03551816785687187,-0.007712798037948255,-0.034675715033065706,-1.9582110286030515e-05,6.3499832553564675,-1.6580362172156242,-1.376780389734444,-0.328536450848258,0.4287373891108537,0.0014892815000737691,1.1662121527314486,-6.74712951063317,-4.603790657752004,-0.8576510811142429,0.05235566624235192,-0.00043123350439149585
0.86,-1.490167209063558,1.7688021987257967,-1.1654487616799312,0.11292529481293294,-0.11708975731535547,-0.0008118563639528122,-0.5182601436670276,-0.16830917886823993,-0.04920906998781939,-0.010991592329379431,-0.030384558436903516,-6.092996549389991e-06,6.298272663438513,-1.5872460864249478,-1.3314715663378998,-0.3188648424703606,0.42454685890727006,0.001413784990379252,1.1592376052916622,-6.700284432773474,-4.599186210498683,-0.8581441755229836,0.052152261355597175,-0.000432630102807736
0.87,-1.4947233180814057,1.7669606066800958,-1.1660732548470862,0.11278356588202237,-0.11735105145676672,-0.000811784777905807,-0.45561090178475727,-0.18415920457008042,-0.06244931671551067,-0.01417289309105595,-0.026129414141125528,7.158604700527876e-06,6.239755346918228,-1.5127190074025527,-1.2858637696489597,-0.30923795868171133,0.4202256801201507,0.0013493765906886779,1.1504466245018634,-6.652630371285437,-4.594019982875177,-0.8585254230697419,0.05187341515286116,-0.00043334871290082004
0.88,-1.4986587663553383,1.7649679524954796,-1.166825613325686,0.11261099459393586,-0.117570177140081,-0.000811582636637012,-0.3935448273932625,-0.1992654184616144,-0.07523584785998355,-0.01725712880865139,-0.021912568331428423,2.0214126879497814e-05,6.174617317876922,-1.4346678826271395,-1.2399684142090215,-0.2996427235346184,0.41576998825469147,0.0012955988268747998,1.139908525834819,-6.604205133449556,-4.588299657720551,-0.8587948985197622,0.05152046210950647,-0.00043343829468105865
0.89,-1.5019800438033408,1.7628320255181866,-1.1677012704954572,0.11240854844303594,-0.11774754026683551,-0.0008112515114267765,-0.3321277448002533,-0.213592697729301,-0.08756571697712168,-0.020244615089992923,-0.017736312675451643,3.3112521023550005e-05,6.103047669875244,-1.3533154515899843,-1.193796094054214,-0.2900663288751799,0.4111746281647193,0.0012520031024185752,1.1276959732080905,-6.555048814534217,-4.582037106938597,-0.8589537607023052,0.05109475505360382,-0.0004329508892317205
0.9,-1.5046942797491532,1.760560944130305,-1.1686956313341628,0.11217719288591162,-0.11788356980077455,-0.0008107926102727135,-0.27142359458123744,-0.22710813878815733,-0.09943608387054978,-0.023135555712432306,-0.013602953393903598,4.589011540629685e-05,6.025238725790611,-1.2688942143605342,-1.1473577518682663,-0.2804965756696669,0.406433245911078,0.0012181483400541815,1.113884863237685,-6.505204322946037,-4.5752482900483935,-0.8590042130118355,0.050597690009085663,-0.0004319410736353554
0.91,-1.5068092237635224,1.7581631325848093,-1.169804073521294,0.11191789241549889,-0.11797871799563972,-0.000810206805409796,-0.2114944014369237,-0.2397811545495751,-0.11084421871313417,-0.025930047041272424,-0.009514819486517553,5.8580486291754116e-05,5.941386164676946,-1.1816462647137966,-1.1006657634111374,-0.2709221867515357,0.4015383859597925,0.0011935991616993658,1.0985541719448246,-6.454717857227649,-4.567953114195568,-0.8589494556783217,0.05003072931993456,-0.0004304654221311921
0.92,-1.5083332261716877,1.7556472968842116,-1.1710219486906033,0.111631611559983,-0.11803346069638473,-0.0008094946620166876,-0.15240024081652712,-0.25158357005976134,-0.12178751693093473,-0.02862808555158926,-0.00547427007450073,7.121433931084582e-05,5.8516891207528845,-1.0918230253342218,-1.0537349254248347,-0.26133308839879277,0.39648159384147164,0.0011779236800115722,1.0817857614556787,-6.4036393321867315,-4.560175258073337,-0.8587936302754543,0.04939542261449925,-0.0004285819757739147
0.93,-1.5092752182175486,1.7530223997289025,-1.172344583929456,0.11131931577838926,-0.11804829770461346,-0.0008086564680053792,-0.09419920458608652,-0.2624897155309079,-0.1322635238852764,-0.031229578159373626,-0.00148370082287309,8.381940113084048e-05,5.756350248658592,-0.9996848792952419,-1.0065833366962147,-0.2517206585293099,0.3912535244071833,0.00117069098719913,1.0636641451772846,-6.352022751467281,-4.551941962495698,-0.8585417570224785,0.048693425212913075,-0.0004263497231143908
0.9400000000000001,-1.5096446918783386,1.7502976345716117,-1.1737672836123179,0.11098197222793778,-0.11802375319869067,-0.0008076922647925294,-0.036947366078987826,-0.27247651572908604,-0.1422699682861807,-0.03373435504514749,0.0024544505922788167,9.64203212849757e-05,5.655575750211105,-0.9055006937991193,-0.9592331635769218,-0.24207793967901292,0.38584405583323544,0.0011714684173771417,1.0442762109161206,-6.299926523925204,-4.543283790648779,-0.8581996655253302,0.0479265136303255,-0.00042382809465785654
0.9500000000000001,-1.5094516793274693,1.747482398825186,-1.175285331644159,0.11062055038159622,-0.11796037619863933,-0.0008066018789504436,0.019301255086940146,-0.28152357464256617,-0.1518048031841096,-0.036142184634155916,0.006337700005134209,0.00010903858420858339,5.54957535901562,-0.8095472340275074,-0.9117112829793277,-0.23239981539014654,0.38024240951830635,0.0011798186639462305,1.0237109024134712,-6.247413721260283,-4.534234361311279,-0.8577739196921671,0.04709659788412501,-0.00042107647405590997
0.96,-1.5087067320474141,1.7445862662818603,-1.1768939941773373,0.11023602247777006,-0.11785874106561876,-0.000805384954633352,0.07449472800550413,-0.2896132543325759,-0.16086625331784146,-0.038452790382616,0.010163513302056998,0.0001216924317091603,5.438562280430051,-0.7121084668592182,-0.8640497976968715,-0.22268314906331765,0.37443727599646337,0.0011952968531936392,1.0020588607857166,-6.194552274496865,-4.524830058571911,-0.8572717376435658,0.046205730374165616,-0.0004181537291379979
0.97,-1.5074208995989475,1.7416189588132018,-1.178588522852791,0.10982936378767902,-0.11771944802547342,-0.0008040409866703551,0.1285832448466674,-0.2967307468658489,-0.16945286754537842,-0.040665869009104225,0.013929304014534892,0.00013439679629968838,5.322753085511564,-0.6134747561343448,-0.8162864207722033,-0.2129268848513397,0.3684169469380585,0.0012174476464132944,0.9794120283580862,-6.141415107107232,-4.515109721771852,-0.8567009075149338,0.04525611117058859,-0.00041511776597136923
0.98,-1.5056057080576313,1.7385903174307535,-1.180364158603317,0.10940155268963124,-0.11754312370555611,-0.0008025693542106486,0.18151915413161757,-0.3028641382448402,-0.17756357505258377,-0.04278110980477812,0.01763243199173035,0.00014716324597065513,5.202367558672103,-0.5139419530416979,-0.7684647275757479,-0.20313211062190772,0.3621694532545199,0.0012458024757735497,0.955863218346018,-6.088080202843132,-4.505114319555603,-0.856069700114719,0.044250089613327916,-0.00041202510914375984
0.99,-1.5032731381330482,1.735510272797884,-1.1822161360435304,0.10895357054307914,-0.11733042167376494,-0.0008009693547990595,0.23325699245830753,-0.3080044632869619,-0.18519774402134045,-0.04479821465521097,0.021270203179117205,0.00015999994115891092,5.077628499815723,-0.41381038705147366,-0.720634276179233,-0.19330208355420453,0.3556827092215862,0.0012798769976278823,0.9315056547467339,-6.034630606687649,-4.4948866120166855,-0.8553867794536114,0.043190162199677334,-0.00040893051138209905
