tonegas/nnodely-applications/joint_friction_estimation/dataset/validation/mpc_mujoco_episode_9 copy.csv
time,q1,q2,q3,q4,q5,q6,dq1,dq2,dq3,dq4,dq5,dq6,ddq1,ddq2,ddq3,ddq4,ddq5,ddq6,tau1,tau2,tau3,tau4,tau5,tau6
0.0,0.0,1.57,-1.57,0.0,0.0,0.0,0.0,0.0,0.0,0.0,0.0,0.0,13.919251327537316,-18.22121763773049,-0.9698414295130888,0.6359916095672418,2.200674034185454,-4.502430460462392e-06,1.9428739302559679,-13.947086034838094,-7.905801533305939,-1.718272067480851,0.17535189041239038,0.0013068529873455428
0.01,0.0013852647864916311,1.568183548326726,-1.570101141053218,5.482784583013398e-05,0.00018168219140098855,1.890178640479845e-06,0.13852647864916312,-0.18164516732741398,-0.010114105321783456,0.005482784583013398,0.018168219140098855,0.00018901786404798448,13.574906795727767,-17.75707207062704,-1.039643098018125,0.5149729648341577,1.8365529023683393,0.019051617316346636,1.8858612671394797,-13.734630358301342,-7.832332063739052,-1.7035820556364447,0.17103835852920224,0.0012693615062483047
0.02,0.0041203986285465455,1.5645969226343712,-1.5703106745805622,0.00015433943924470552,0.0005219081543823868,5.734272713980682e-06,0.2735133842054914,-0.35866256923546036,-0.0209533527344146,0.009951159341457155,0.034022596298139834,0.0003844094073500837,13.187071625922709,-17.251569476275094,-1.0995551057028798,0.41608656679455436,1.6117964993492464,0.02018086844504552,1.7978077265189754,-13.490046591466097,-7.738566245768975,-1.6841744049847176,0.16474187087379744,0.0012214809688221038
0.03,0.008166127360134782,1.5592905136800395,-1.5706347292008567,0.0002901497129409684,0.001005964193917,1.140392337104672e-05,0.4045728731588235,-0.530640895433171,-0.0324054620294466,0.013581027369626283,0.048405603953461315,0.0005669650657066039,12.758595071696142,-16.704593939992336,-1.145596434438371,0.3359661926729771,1.4757333091842213,0.01977432160725101,1.681698222281865,-13.212339880881572,-7.624827801168003,-1.6601614024447353,0.15657173779378317,0.0011636621050311654
0.04,0.013479410461513063,1.5523188413015414,-1.5710779457263209,0.00045539635218590533,0.0016244924345938045,1.880255986643027e-05,0.5313283101378281,-0.6971672378497982,-0.044321652546411835,0.016524663924493695,0.061852824067680466,0.0007398636495383549,12.29086201507818,-16.116408110002087,-1.1743047367151682,0.27217751497064313,1.3976472568044898,0.020119088579065192,1.5410530374108502,-12.900563414765466,-7.491580572082418,-1.6316935672921884,0.1466470310270937,0.001096194017837882
0.05,0.020013479618950666,1.543740531763116,-1.5716431567424587,0.0006445722449653687,0.0023716149016988356,2.7882038644327615e-05,0.6534069157437602,-0.8578309538425201,-0.056521101613780184,0.018917589277946335,0.07471224671050308,0.0009079478777897343,11.784549451898219,-15.487737650542881,-1.1827381329580149,0.22295049615021867,1.3588189440497587,0.02144261588731844,1.3798660970053573,-12.55388431247654,-7.339438012462432,-1.5989608760646137,0.13509874415228387,0.0010192808326941762
0.06,0.027717850351096137,1.5336182482447933,-1.5723311127487445,0.0008534065891537836,0.0032437790323496347,3.863428883128786e-05,0.7704370732145472,-1.0122283518322694,-0.06879560062857638,0.02088343441884149,0.0872164130650799,0.0010752250186960245,11.240069438417377,-14.819832244707088,-1.1684885655290245,0.1869784929570173,1.3478026419173403,0.023740644572814773,1.2025329692375857,-12.171644997159117,-7.169166669346151,-1.5621923686292858,0.12207197801073107,0.0009331053139019351
0.07,0.036538334085794474,1.5220185685174268,-1.573140257466391,0.001078779071054489,0.004239040939315584,5.108354993830394e-05,0.882048373469834,-1.1599679727366523,-0.08091447176466285,0.022537248190070542,0.09952619069659491,0.0012449261107016075,10.657823694736516,-14.114504468797497,-1.1296988883494343,0.16326379596640095,1.3575724079058062,0.027037200538009287,1.0137643801834475,-11.75342090585927,-6.981684369093019,-1.5216542933062223,0.10772778611957759,0.0008378845918504651
0.08,0.046417066284165726,1.5090118060133695,-1.5740665549688992,0.0013186550226424224,0.005356614066905484,6.528152287555876e-05,0.9878732198371253,-1.3006762504057225,-0.09262975025081288,0.02398759515879334,0.11175731275898997,0.0014197972937254823,10.03834271297703,-13.374147616779785,-1.065078225090918,0.15099935358421845,1.383771874979594,0.03141128694002848,0.8184831089609982,-11.299074984087284,-6.778053995574789,-1.4776470104203772,0.09224440899548704,0.0007339197853760147
0.09,0.057292558774255056,1.4946717725776757,-1.5751033708828148,0.0015720322708065873,0.006596577182165755,8.130476753915304e-05,1.0875492490089333,-1.4340033435693875,-0.10368159139155397,0.025337724816416482,0.12399631152602712,0.0016023244663594285,9.382353448511681,-12.60173241597205,-0.9739114913449605,0.14947953364576705,1.423614985677645,0.03699317659953927,0.6217042034228875,-10.808808301658015,-6.559473649737538,-1.4305008805533812,0.07581769650341387,0.0006216395032589621
0.1,0.06909977970411517,1.4790754832738189,-1.576241409145186,0.001838892675805262,0.00795967496106205,9.925358431598864e-05,1.1807220929860107,-1.559628930385686,-0.11380382623711933,0.026686040499867475,0.13630977788962953,0.00179488167768356,8.690804384847262,-11.800784918085453,-0.8560602064861307,0.15803440920421963,1.4751628689393286,0.0439588081259048,0.42840053036030734,-10.283206690264937,-6.327264421319698,-1.3805714791399109,0.05866057969219535,0.0005016362101962549
0.11,0.08177026159403877,1.4623028054851757,-1.5774687048001814,0.002120153229977899,0.009447167344976914,0.00011925180811549942,1.267048188992361,-1.6772677788643147,-0.1227295654995382,0.0281260554172637,0.14874923839148643,0.0019998223799510776,7.964869460141633,-10.97534657109336,-0.7119527924082085,0.17598321226660119,1.536805669342293,0.05252411280107783,0.2433576422628827,-9.723282003901112,-6.08285668924817,-1.3282344343032249,0.04100151345986004,0.00037469406258095806
0.12,0.0952322364836362,1.4444360563250411,-1.578770672166283,0.0024176131330554736,0.011060696621567959,0.0001414470702010249,1.346197488959742,-1.7866749160134607,-0.1301967366101605,0.029745990307757424,0.1613529276591045,0.0022195262085525484,7.205950135203658,-10.129918965639963,-0.5425635585908175,0.20260342879787885,1.6068386832612305,0.0629367364863338,0.07102369002052988,-9.130506768578625,-5.827775965901063,-1.273880217102701,0.02308187271520025,0.00024180677692829493
0.13,0.10941079706989791,1.4255595538948296,-1.580130206500801,0.002733894535897331,0.012802147549970706,0.00016601111833295043,1.417856058626171,-1.887650243021164,-0.13595343345178554,0.03162814028418573,0.1741450928402748,0.0024564048131925534,6.415696028654347,-9.269395711653782,-0.3493803860175646,0.23711267435496453,1.6830580273574647,0.07546117228351967,-0.08463853520630982,-8.506840490837591,-5.563629039417656,-1.2179091620590228,0.005152344250156218,0.00010418434847373425
0.14,0.12422808416330133,1.4057591292159979,-1.5815278361053935,0.0030723756956935314,0.01467347806440988,0.0001931397375789389,1.4817287093403426,-1.9800424678831767,-0.13976296045926576,0.03384811597962006,0.18713305144391743,0.0027128619245988454,5.5960679248855065,-8.398983969573916,-0.1343617312542591,0.27866105031380783,1.7623245825624778,0.09035182863634716,-0.22028951965169163,-7.854745615951359,-5.292090869093933,-1.1607269263036863,-0.012531588431164184,-3.675212491962123e-05
0.15,0.13960350403854224,1.3851216066993866,-1.5829419207109916,0.0034371161503375363,0.01667649765628807,0.00022305168703026164,1.537541987524092,-2.0637522516611413,-0.1414084605598189,0.0364740454644005,0.20030195918781918,0.002991194945132273,4.749471183218241,-7.524117889236914,0.10011606556616748,0.32633220423688414,1.8400662663606973,0.10780677299785779,-0.333332792312673,-7.177190868919066,-5.014892299490434,-1.1027404978947606,-0.029714924155172323,-0.00017938771673029375
0.16,0.1554539846714945,1.3637342618333614,-1.5843488909851988,0.003832774232963421,0.018812568736375934,0.0002559858633439693,1.5850480632952257,-2.1387344866025058,-0.1406970274207288,0.039565808262588466,0.21360710800878627,0.0032934176313707667,3.878990118285273,-6.650365572660701,0.35132008239823875,0.3791518380283989,1.909718499718215,0.12789341203987492,-0.42200888665629843,-6.4776394696586514,-4.733808208394683,-1.0443547458340214,-0.046149010876643526,-0.00032194268927413405
0.17,0.1716942876904134,1.341684265432549,-1.5857235231262825,0.004264517845274811,0.02108220468161931,0.000292195629980383,1.6240303018918893,-2.204999640081246,-0.13746321410836723,0.043174361231139,0.22696359452433762,0.0036209766636413703,2.988749886503477,-5.78333030397765,0.6162297810774646,0.4361029107615799,1.962153749256645,0.15043780034992782,-0.4854569239214062,-5.760019542031616,-4.450645248688944,-0.9859693809404272,-0.06159780624839597,-0.00046251242353740447
0.18,0.18823740299817857,1.3190581243773394,-1.5870392417270234,0.004737929927173324,0.023484539259073546,0.00033193894716421435,1.654311530776516,-2.2626141055209588,-0.13157186007407629,0.04734120818985131,0.24023345774542357,0.003974331718383137,2.0844134648871058,-4.928545650052983,0.8916130052333688,0.49614717262684316,1.9852362377770136,0.1748747641860342,-0.5237388085345205,-5.028673897398154,-4.167227909676342,-0.9279760772156729,-0.07584433323592606,-0.0005991171150329184
0.19,0.20499506441507553,1.2959411293993723,-1.588268443372644,0.005258910534546688,0.026016649415380108,0.0003754626940334889,1.675766141689698,-2.3116994977967047,-0.12292016456205485,0.05209806073733633,0.253211015630656,0.004352374686927455,1.1737760441148326,-4.0913631375240715,1.174108720767629,0.558252719180409,1.9637618063539,0.20007142701226632,-0.5378228936643219,-4.288286513020335,-3.88538132941517,-0.8707554162696788,-0.08869713249479447,-0.000729759998590549
0.2,0.2218784346540735,1.2724168212093618,-1.5893828327399833,0.005833577888089174,0.028672732301100935,0.0004229795775190011,1.6883370238997977,-2.3524308190010426,-0.11143893673393543,0.05746673535424859,0.26560828857208263,0.004751688348551215,0.2673384801787638,-3.2768307939062655,1.46031632035643,0.6214266143490335,1.8801804525880643,0.22416677492629772,-0.5295259421961402,-3.543783587057617,-3.606909209273821,-0.8146732808968071,-0.0999965023191306,-0.0008524929664076991
0.21,0.23879901129495745,1.2485664871467426,-1.5903537622741313,0.006468171172203559,0.03144317390002031,0.0004746365807046322,1.6920576640883955,-2.3850334062619276,-0.09709295341479317,0.0634593284114385,0.27704415989193754,0.0051657003185631096,-0.6213675565213298,-2.4895644592767567,1.746890901632577,0.6847499620345185,1.7165643171320912,0.24451314447118078,-0.5014141596016581,-2.800209914235233,-3.333565981952368,-0.7600764738022951,-0.10962027178869355,-0.0009654886691380691
0.22,0.2556697942668241,1.2244687011778097,-1.591152565877008,0.007168958177851023,0.03431360458882534,0.0005304754135231668,1.6870782971866642,-2.4097785968932808,-0.07988036028767737,0.07007870056474648,0.2870430688805025,0.005583883281853455,-1.4760187735790733,-1.7335995472497614,2.030641941555065,0.7474100131929591,1.4581150240125962,0.25784311523358183,-0.45666595804467713,-2.0625755232518697,-3.0670202441294045,-0.7072868997753314,-0.11748874063524553,-0.001067117342683758
0.23,0.2724067210216761,1.200198921891935,-1.5917508766484831,0.007942150924422119,0.037264111949582714,0.0005903881943821053,1.6736926754852022,-2.4269779285874535,-0.059831077147512034,0.07731927465710958,0.29505073607573723,0.005991278085893853,-2.278603553687228,-1.0122722839658402,2.3086316206958304,0.808721647370723,1.097931997469927,0.2607727973754579,-0.39890163416825625,-1.3357005140498899,-2.8088180177777335,-0.6565959803627296,-0.12356826542845775,-0.0011560273512780017
0.24,0.2889303127804909,1.1758291600597803,-1.5921209187568293,0.008793832025763131,0.0402688525620079,0.0006540754253101901,1.6523591758814815,-2.436976183215486,-0.037004210834610946,0.08516811013410112,0.30047406124251835,0.006368723092808476,-3.0114444279975974,-0.32809619302459303,2.5782627699463063,0.8681301365680945,0.6418214773783051,0.2506373613464874,-0.3319879235548867,-0.6240462563842316,-2.5603403567552245,-0.6082580986055457,-0.12787277279694548,-0.001231222739354591
0.25,0.30516739247484304,1.1514277276897442,-1.5922357645823362,0.00972989350714254,0.04329633208295602,0.0007210170624466813,1.623707969435214,-2.440143237003605,-0.011484582550685758,0.09360614813794092,0.302747952094812,0.006694163713649122,-3.6597718263762324,0.31729879367668296,2.8373457953541372,0.9251920459180436,0.1110969128738537,0.22643841772147866,-0.25982988804241514,0.06842473177270486,-2.3227692049444615,-0.5624857685351174,-0.13046242468791674,-0.0012921302009764697
0.26,0.32105265741193245,1.1270590743180668,-1.5920695505201996,0.010755988165490457,0.046310558604733654,0.0007904688808564655,1.5885264937089414,-2.4368653371677267,0.01662140621364679,0.10260946583479179,0.30142265217776404,0.006945181840978418,-4.214073796556415,0.9231544370506726,3.084131521723792,0.9795398112055889,-0.4585749740550611,0.18948816251427658,-0.186167033018099,0.7383446234918216,-2.0970660757075033,-0.5194472639100729,-0.13143888590674133,-0.0013386422205808476
0.27,0.336529857260024,1.1027837092300927,-1.5915976484108698,0.011877491722071455,0.04927309518234736,0.0008614930268192993,1.5477199848091547,-2.4275365087974152,0.04719021093297864,0.11215035565809972,0.29625365776137097,0.007102414596283391,-4.671407947808704,1.489483608074185,3.3173015123563,1.0308431526797612,-1.022759739986384,0.14336015680384628,-0.1143935520651137,1.3829727038329893,-1.8839698164221006,-0.4792677471499557,-0.1309372608704408,-0.0013711228785956851
0.28,0.3515523719551884,1.0786581997845266,-1.5907967939521321,0.013099472616935495,0.05214578265215077,0.0009330231653323828,1.5022514695164426,-2.4125509445566222,0.08008544587376251,0.12219808948640393,0.287268746980341,0.007153013851308345,-5.035288626163139,2.0168925892380134,3.5359165078403687,1.078781133123094,-1.5366237192142158,0.09307442628741569,-0.04742125265129129,2.000161391518891,-1.6840144540903426,-0.4420338872099031,-0.12911563932354245,-0.0013903676677476293
0.29,0.3660831018702406,1.0547352285754297,-1.589645177645233,0.014426665924169808,0.05489367640646941,0.0010039538625983295,1.4530729915052238,-2.3922971209096935,0.11516163068991535,0.13271933072343137,0.2747893754318639,0.007093069726594669,-5.314368610335464,2.50636257910569,3.739334705732718,1.1230317556715406,-1.963130434151827,0.04385664434972458,0.012403211235269267,2.588270736448907,-1.497562246865841,-0.4078008633886677,-0.12614392320659135,-0.0013975193580311584
0.3,0.3800937307201987,1.031063688166795,-1.5881225067216407,0.01586344863803922,0.0574876522083381,0.001073235965680593,1.401062884995806,-2.3671540408634826,0.15226709235923452,0.1436782713869411,0.25939758018686865,0.006928210308226365,-5.520509911767848,2.9590378979238836,3.9271191294546233,1.1632770955435134,-2.2784850272873296,2.5119626396730155e-06,0.06332586058332593,3.146058589557406,-1.324843030950554,-0.3765999883814644,-0.12219378254951044,-0.0013939541948235752
0.31,0.3935635409328574,1.0076887926927243,-1.5862100474036356,0.017413815033287663,0.05990623056221859,0.001139958704309529,1.3469810212658682,-2.337489547407071,0.19124593180050148,0.1550366395248444,0.24185783538804906,0.006672273862893598,-5.666839238949951,3.376060557557401,4.098953519026177,1.1992168573226465,-2.473794255499449,-0.0357660733357581,0.10416687428631176,3.672574823921292,-1.1659906709943209,-0.34844527016999727,-0.11743109590518484,-0.0013811604097987498
0.32,0.4064780126616861,0.9846521900457716,-1.5838906558361985,0.019081352230590945,0.06213639471976195,0.00120340497552356,1.2914471728828723,-2.3036602646952584,0.2319391567437161,0.166753719730328,0.22301641575433612,0.006344627121403106,-5.7661657997892615,3.7584703253403307,4.254579783498302,1.2305831553702689,-2.553460489391055,-0.06237888971943484,0.13427094760394492,4.167079306814271,-1.0210704482844568,-0.32333791657620203,-0.11201135507531758,-0.00136063056597206
0.33,0.41882742002896395,0.9619920647214013,-1.5811488037729902,0.020869216986038625,0.06417342846439071,0.001263075207282423,1.2349407367277876,-2.2660125324370393,0.2741852063208426,0.17878647554476798,0.20370337446287673,0.005967023175886293,-5.829906692812476,4.107167957163234,4.393761265370678,1.2571519257063173,-2.531636472207145,-0.08009753436926026,0.15344163442743902,4.628990922481633,-0.8900954408561483,-0.30126862471550836,-0.10607769794910102,-0.0013337818821320983
0.34,0.4306055777781954,0.9397432275522261,-1.577970602484459,0.022780114955064653,0.06601998546419216,0.0013186831502822597,1.1778157749231462,-2.2248837169175277,0.31782012885310856,0.1910897969026029,0.18465569998014422,0.005560794299983662,-5.867509156722373,4.4229255090016055,4.516268980862982,1.2787492383159567,-2.4281085101374833,-0.09003720071597998,0.1618711664079467,5.057864788396374,-0.7730333276700747,-0.2822181076990032,-0.09976077201778154,-0.001301908823843617
0.35000000000000003,0.44180882012312633,0.9179371931850135,-1.5743438260703015,0.024816283443014907,0.06768468505703862,0.0013701315368777113,1.120324234493091,-2.1806034367212472,0.3626776414157479,0.20361684879502542,0.16646995928464636,0.00514483865954515,-5.886278569079985,4.706423503241493,4.6218843818952,1.2952527741450268,-2.2645904607777148,-0.09371391257580353,0.16007247757549672,5.453389524989678,-0.6698067131978249,-0.2661565606129278,-0.0931795589929088,-0.001266164164776411
0.36,0.4524352333365835,0.8966022488056838,-1.5702579337437557,0.026979478223338925,0.06918052221147063,0.001417476622025468,1.0626413213457164,-2.1334944379329746,0.40858923265459585,0.21631947803240192,0.14958371544320145,0.004734508514775672,-5.891491916755161,4.9582974622178675,4.71041163003934,1.306589734912226,-2.0619318114860112,-0.09270724556289522,0.14881621171509507,5.815395534233248,-0.5802902267921943,-0.25304273055926135,-0.08644247186834855,-0.0012275604162223141
0.37,0.4624841234064733,0.8757635185635086,-1.5657040897525418,0.02927096459267136,0.07052331801410716,0.0014608893291292032,1.0048890069889875,-2.0838730242175156,0.45538439912138273,0.22914863693324364,0.13427958026365375,0.004341270710373514,-5.886679331879758,5.1791819679357145,4.781693584932025,1.3127327007368166,-1.8383560680580802,-0.0884543314204147,0.12907309633573055,6.143866883579228,-0.504306960448484,-0.24282307510369527,-0.07964830369078679,-0.001186982785670103
0.38,0.471955679255683,0.855443027935201,-1.560675179278934,0.03169151254117549,0.07173035726493118,0.0015006184252058438,0.9471555849209654,-2.032049062830762,0.5028910473607916,0.24205479485041298,0.1207039250824024,0.003972909607664074,-5.873977455067882,5.369746031998383,4.8356275135373945,1.3136947367362737,-1.6086073638963096,-0.08215196085767085,0.101961085744211,6.438951871450965,-0.4416258679936511,-0.23543128734626967,-0.0728868486857885,-0.0011452063493190632
0.39,0.48085078560845035,0.8356597714500165,-1.555165818731633,0.03424139576016267,0.07281928600999246,0.0015369588301782932,0.8895106352767344,-1.9783256485184533,0.5509360547300965,0.25498832189871773,0.10889287450612774,0.0036340404972449295,-5.8544867089737185,5.53071777495946,4.87217821794877,1.309524637681399,-1.3837782242611434,-0.07473222840438387,0.06869660098337269,6.700969639291234,-0.3919609116124181,-0.23078829654282917,-0.06623918367728905,-0.0011029125273650168
0.4,0.4891709419810439,0.8164297861773768,-1.5491723591314555,0.03692039415621257,0.07380728568670357,0.0015702263195826321,0.8320156372593547,-1.922998527263963,0.5993459600177676,0.26789983960499003,0.09879996767111036,0.0033267489404338888,-5.828591827842814,5.662898971649988,4.8913875712191555,1.3003027784365244,-1.171577919068857,-0.0668805497640017,0.030549528214462884,6.930411885745718,-0.35497214028713286,-0.22880273926538885,-0.05977768866766831,-0.0010607022792213142
0.41000000000000003,0.4969182509744452,0.7977662324064455,-1.5426928816710364,0.03972779954998412,0.07471050425834921,0.001600738638042333,0.7747308993401308,-1.8663553770931334,0.6479477460418999,0.2807405393771551,0.09032185716456419,0.0030512318459700867,-5.796226667957902,5.767171232375568,4.893380305326616,1.2861377097044162,-0.9768367229026347,-0.05907335299554406,-0.011197962146441254,7.12793979806139,-0.3302685208792653,-0.22937183229917568,-0.0535659181858912,-0.0010191052238401545
0.42,0.5040954470624551,0.779679482140315,-1.5357271849116654,0.04266242427370799,0.075543705479213,0.0016288023343242826,0.7177196088009913,-1.8086750266130458,0.6965696759370955,0.29346247237238704,0.08332012208637876,0.002806369628194957,-5.757079135266366,5.84449591966695,4.878366385363616,1.2671634332280135,-0.8020953048204498,-0.05162116469235656,-0.05528842134859202,7.294376871008485,-0.31741216419397644,-0.23238255140040276,-0.04765843156595925,-0.0009785850306806532
0.43,0.5107059447142821,0.7621772154189727,-1.5282767634216772,0.045722612421336926,0.07632009065644092,0.0016547043180089463,0.6610497651826998,-1.7502266721342357,0.7450421489988153,0.3060188147628938,0.07763851772279116,0.0025901983684663635,-5.710740742272718,5.895909747181433,4.8466405311076315,1.2435371932944541,-0.6481815058709068,-0.04470927892968701,-0.1005214715069247,7.430698494535644,-0.3159235343564768,-0.23771301621816016,-0.042100668808539445,-0.0009395420054843925
0.44,0.516753891192021,0.7452645240617043,-1.520344777940816,0.0489062535379377,0.07705124842786538,0.0016787070822355075,0.6047946477738895,-1.6912691357268348,0.7931985480861169,0.31836411166007694,0.0731157771424459,0.0024002764226561182,-5.6568094031231615,5.922517649683218,4.798579504810926,1.2154375996243516,-0.514720051195714,-0.03843248925998921,-0.1457810398794612,7.538019195497688,-0.32528724908576745,-0.2452339906735887,-0.03692893134774218,-0.0009023139676433015
0.45,0.5222442144996813,0.7289440221480794,-1.511936017370519,0.052210798556259576,0.07774719352266572,0.0017010466244127898,0.5490323307660352,-1.6320501913624907,0.8408760570296937,0.33045450183218755,0.06959450948003366,0.0022339542177282337,-5.594955197953932,5.9254841149152195,4.734637744957313,1.1830629179451897,-0.4005518881150353,-0.03282290628641982,-0.1900571521822203,7.617578316125004,-0.34495813452269,-0.25481042285399885,-0.03217050092972882,-0.0008671764375775994
0.46,0.5271826608029755,0.7132159623999632,-1.5030568530469988,0.055633277798986844,0.0784164626629539,0.001721932249136263,0.49384463032942016,-1.5728059748116199,0.8879164323520196,0.3422479242727269,0.06692691402881862,0.002088562472347324,-5.524958278422958,5.906023817276501,4.655341836514683,1.1466294035260098,-0.30405988572774295,-0.027871217993204578,-0.2324621515484848,7.670724769786097,-0.37436726736193715,-0.2663029647078982,-0.027843908224100652,-0.0008343429467759833
0.47000000000000003,0.5315758183855841,0.6980783575521553,-1.4937151858624862,0.059170320867313005,0.07906624310484583,0.0017415476062131905,0.43931575826086056,-1.5137604847807877,0.9341667184512671,0.3537043068326159,0.06497804418919316,0.001961535707692734,-5.446726747642137,5.865392063306129,4.561284237056412,1.106369597580283,-0.22340898465879153,-0.02354233427022101,-0.2722414214141035,7.698901350245117,-0.41292780962162534,-0.279569427650312,-0.02395934665917466,-0.0008039660353847557
0.48,0.5354311270875485,0.6835271057747765,-1.483920386867886,0.06281817823342226,0.07970251593743564,0.0017600524748363766,0.3855308701964384,-1.4551251777378809,0.9794798994600175,0.36478573661092495,0.06362728325898151,0.001850486862318618,-5.360300775590599,5.804875482786196,4.45311650101509,1.0625305359358315,-0.1567141430581721,-0.01978651611496751,-0.30877889015208837,7.703628990895384,-0.46004049303570405,-0.29446614245345715,-0.0205192162723593,-0.0007761392642170828
0.49,0.5387568733998488,0.669556119229623,-1.4736832320350466,0.06657274434761777,0.08033020177898344,0.0017775849401997184,0.3325746312300291,-1.397098654515351,1.0237154832839555,0.37545661141955133,0.0627685841547798,0.0017532465363341908,-5.265847728865002,5.72578302115561,4.331542299883722,1.015371858726244,-0.10215079031308105,-0.016547032721755173,-0.34159776447538176,7.68649117574631,-0.515098680750985,-0.31084920544959577,-0.017518775659266052,-0.000750900366987887
0.5,0.5415621721455101,0.6561574548682024,-1.4630158318737176,0.07042958206407467,0.08095330085624226,0.0017942637176174272,0.2805298745661319,-1.3398664361420607,1.0667400161328962,0.385683771645689,0.06230990772588226,0.0016678777417708716,-5.163651806625656,5.629437429002972,4.197310337280705,0.9651638203240367,-0.058021662189966516,-0.013765240270267487,-0.37035706557291215,7.649118716050266,-0.577492954877932,-0.32857559933208497,-0.014946877307466926,-0.000728235513209266
0.51,0.5438569361045821,0.643321446625086,-1.4519315566063051,0.07438394818217524,0.08157502271432426,0.001810190462680004,0.2294763959072016,-1.2836008243116528,1.1084275267412471,0.3954366118100571,0.0621721858082,0.0015926745062576925,-5.054100654147744,5.517167240058044,4.051207290254082,0.9121852169801237,-0.022791975389999664,-0.011383802486532257,-0.39484462579644963,7.593174993882252,-0.6466152224001629,-0.3475041855534554,-0.012786760820983251,-0.0007080845439279104
0.52,0.5456518351443479,0.6310368382062194,-1.4404449575995124,0.07843081989504484,0.08219790314536127,0.0018254519675592535,0.17948990397658546,-1.2284608418866612,1.1486599006792775,0.4046871712869605,0.062288043103700834,0.0015261504879249502,-4.93767063852637,5.390299246317144,3.894050848249977,0.8567212560373036,0.00489735958492421,-0.009348608980709772,-0.4149672451536672,7.52034175822803,-0.7218623493472449,-0.36749656975553835,-0.01101687963157616,-0.0006903469746291153
0.53,0.5469582464748765,0.6192909157195216,-1.4285716857415578,0.08256492193350057,0.08282390752835744,0.0018401221873693265,0.1306411330528583,-1.1745922486697802,1.1873271857954595,0.413410203845573,0.06260043829961763,0.0014670219810072962,-4.8149118925391425,5.250151456521321,3.7266829028445905,0.799061394690014,0.0262309852444802,-0.00760980692819091,-0.4307387115172963,7.432305536089034,-0.802639348533416,-0.3884178453913452,-0.009611738839254052,-0.0006748885253509508
0.54,0.547788197618149,0.6080696394420877,-1.4163284074384992,0.08678075419248815,0.08345452081379562,0.0018542640704881973,0.08299511432725146,-1.1221276277433883,1.2243278303058533,0.42158322589875813,0.0630613285438176,0.0014141883118870826,-4.686433819489558,5.09802652005945,3.549962927816475,0.739497177607678,0.04222923079963925,-0.006122248363360061,-0.4422663626853333,7.330744711868595,-0.88836215495284,-0.4101372231060764,-0.00854272443925825,-0.0006615479293758877
0.55,0.5481543035938777,0.5973577740640482,-1.403732718884452,0.09107261962832887,0.08409082501427846,0.0018679311864283276,0.0366105975728766,-1.0711865378039458,1.2595688554047215,0.42918654358407204,0.06363042004828422,0.0013667115940130302,-4.552891465637138,4.935205600506397,3.3647615816171985,0.6783201023545153,0.053763147142937395,-0.004845567608269263,-0.44973681920431774,7.217317325942957,-0.978460027173949,-0.43252855489209624,-0.007778907043366694,-0.0006501437817556818
0.56,0.5480696997116761,0.5871390167936958,-1.3908030592387781,0.09543465221871952,0.08473356539786495,0.0018811691570696314,-0.008460388220170555,-1.0218757270352383,1.2929659645673917,0.43620325903906526,0.06427403835864863,0.0013237970641303714,-4.414972974510329,4.762942688212137,3.1719545606562907,0.6158195400632778,0.061571702137082074,-0.003744037397972688,-0.45340145092020384,7.093649644534738,-1.0723776139744228,-0.45547076273554893,-0.0072878060748924455,-0.000640481211421936
0.5700000000000001,0.5475479712334541,0.5773961227522865,-1.377558623318907,0.09986084478333489,0.08538320671751083,0.0018940169040644339,-0.052172847822194335,-0.9742894041409363,1.324443591987102,0.4426192564615365,0.06496413196458875,0.0012847746994802374,-4.273388212466468,4.5824593474905235,2.9724167303775273,0.5522807366633593,0.06627933379837381,-0.0027863038318101108,-0.4535620636245059,6.961325555217618,-1.1695767239973096,-0.4788481816122903,-0.007036103176515204,-0.0006323581909680692
0.58,0.5466030810417192,0.5681110271304748,-1.3640192743903943,0.10434507647092972,0.08603998081797218,0.0019065077286789338,-0.09448901917349226,-0.9285095621811731,1.3539348928512749,0.44842316875948307,0.06567741004613453,0.0012490824614499894,-4.128858576955429,4.3949398996661255,2.7670165606295107,0.48798291737477584,0.06841274270743591,-0.0019450655240813575,-0.45055721014107813,6.82187684371422,-1.2695378331952956,-0.5025508264185096,-0.0069902961438215,-0.0006255713326801424
0.59,0.545249296324651,0.5592649636221546,-1.3502054576061269,0.10888113972884139,0.08670392689099382,0.0019186702414834516,-0.13537847170681538,-0.8846063508320228,1.3813816784267354,0.4536063257911667,0.06639460730216377,0.0012162512804517885,-3.9821079529602477,4.201527047730277,2.5566108914532784,0.4231975143249098,0.06841628678934675,-0.001196737802521941,-0.4447494470598614,6.676774406868445,-1.371761360903068,-0.5264745918601519,-0.007117287050413989,-0.0006199210552936686
0.6,0.5435011151705291,0.5508385786959414,-1.3361381146142564,0.11346276658254191,0.08737492553564298,0.0019305291590252208,-0.17481811541219225,-0.8426384926213164,1.4067342991870508,0.4581626853700514,0.06709986446491534,0.0011858917541769229,-3.8338547581511255,4.003317951243756,2.3420400545570574,0.35818653413713264,0.06666566952777653,-0.0005211258614904457,-0.4365137774864313,6.527420453092203,-1.4757687410288867,-0.5505213935749763,-0.00738490035284876,-0.0006152160412596921
0.61,0.5413731938537301,0.5428120413099031,-1.321838599819532,0.11808365406614364,0.08805272764684945,0.0019421059835236533,-0.21279213167991004,-0.8026537386038282,1.4299514794724406,0.4620887483601734,0.06778021112064699,0.001157682449843256,-3.6848050057621475,3.801360761276988,2.124123374115232,0.2932010792389548,0.06347982716987444,9.88806593344993e-05,-0.42622744424309067,6.3751417349727175,-1.5811033104533712,-0.5745992579022947,-0.007762328659808557,-0.0006112769375990866
0.62,0.538880275492492,0.535165147721506,-1.3073285987453829,0.12273748865927446,0.08873697901680158,0.0019534195801302616,-0.2492918361238105,-0.7646893588397086,1.4510001074149075,0.46538345931308217,0.06842513699521403,0.001131359660660847,-3.5356463108588696,3.596651624672205,1.903655067977966,0.22848003351195523,0.059131053924456056,0.0006775867203147046,-0.41426116881249686,6.221183849206024,-1.6873310325309154,-0.5986223668122562,-0.008220505530844687,-0.0006079392837393269
0.63,0.5360371206647734,0.5278774210920272,-1.292630048904597,0.12741796960124163,0.08942724140013206,0.0019644866646613274,-0.28431548277185437,-0.7287726629478842,1.469854984078593,0.46804809419671844,0.06902623833304743,0.0011067084531065634,-3.38704276703364,3.390132164924304,1.6814005669277758,0.16424891980178913,0.05385348147169666,0.0012267443333116024,-0.40097187022610015,6.066706626983766,-1.7940410697894276,-0.6225110636095779,-0.00873240614855865,-0.0006050556764328258
0.64,0.532858440482332,0.5209282056326755,-1.2777650635451125,0.1321188309696303,0.09012301067006792,0.0019753222131066663,-0.3178680182441393,-0.694921545935164,1.4864985359484446,0.4700861368388677,0.0695769269935862,0.001083554844533876,-3.239630624401518,3.1826874437694763,1.4580932653717644,0.10071893378131058,0.047850068850182836,0.0017557810073969282,-0.38669684581501773,5.912780623972885,-1.900846216633532,-0.6461918241748927,-0.00927327799606505,-0.0006024972045792438
0.65,0.529358832544005,0.5142967550880384,-1.262755858594704,0.13683386242716167,0.09082373258149354,0.0019859398027381086,-0.34996079383269957,-0.6631450544637071,1.5009204950408566,0.471503145753135,0.07007219114256107,0.0010617589631442112,-3.094014704679127,2.9751444034355354,1.23443171198614,0.038086155752456996,0.04129827437560152,0.0022720082204557013,-0.37174935257586267,5.760384703764187,-2.0073832001392327,-0.669597197729516,-0.009820804778463699,-0.0006001542053451043
0.66,0.5255527201164584,0.5079623154008057,-1.2476246830846882,0.1415569285575037,0.09152881655905834,0.0019963518933344628,-0.3806112427546594,-0.6334439687232657,1.5131175510015835,0.47230661303420274,0.07050839775647962,0.0010412090596354337,-2.9507654942857373,2.7682707847467816,1.0110772435351194,-0.023469060755823,0.03435458208880715,0.002780814460489056,-0.3564154938171861,5.610404692838009,-2.113312854908031,-0.692665720426745,-0.010355207759770297,-0.0005979364073802476
0.67,0.5214542948237861,0.5019042014495436,-1.2323937532887426,0.14628198672752987,0.09223764784390982,0.0020065700559222803,-0.409842529267229,-0.6058113951262091,1.52309297959457,0.4725058170026161,0.07088312848514819,0.0010218162587817545,-2.8104168613513525,2.5627745111825,0.7886520595921862,-0.08378252726621582,0.02715804770638941,0.0032858472831009955,-0.34095229041162023,5.463633069402861,-2.218320176417277,-0.7153418044973113,-0.010859289450137756,-0.0005957725372873593
0.68,0.5170774630657512,0.49610186779808435,-1.2170851907690594,0.15100310343001958,0.09294959826063579,0.002016605155500454,-0.43768317580349075,-0.5802333651459288,1.5308562519683173,0.47211167024897016,0.07119504167259635,0.0010035099578173644,-2.67346434701988,2.3593035238329523,0.5677377304022704,-0.1427064914430174,0.01983301732383369,0.003789188287345424,-0.3255867988198615,5.320769633551209,-2.322114256328066,-0.7375756052136668,-0.01131842517585625,-0.0005936094720272254
0.6900000000000001,0.5124357963277031,0.49053497344035135,-1.2017209644789193,0.1557144690767729,0.09366403580557885,0.00202646749345575,-0.4641666738048093,-0.5566894357732999,1.536422629014019,0.4711365646753317,0.07144375449430553,0.0009862337955295903,-2.5403639854004734,2.158446047214946,0.34887412484280933,-0.20010974891873357,0.012491158753877962,0.0042915241410101945,-0.31051612833014336,5.182423092605788,-2.4244281027403876,-0.7593228675866293,-0.011720508499980322,-0.0005914110229429878
0.7000000000000001,0.5075424854928845,0.4851834405676552,-1.1863228370288794,0.16041041122737668,0.09438033320776769,0.002036166914763617,-0.4893310834818585,-0.5351532872696105,1.5398127450039854,0.46959421506037785,0.07162974021888384,0.0009699421307867121,-2.41153160992244,1.9607312613011698,0.1325587405407722,-0.25587760547292904,0.005232931845684519,0.004792315837338301,-0.29590820679331575,5.049113483755936,-2.525018348351225,-0.7805447544621216,-0.012055856738747834,-0.000589156436933364
0.71,0.5024102992196351,0.48002750742621547,-1.1709123151836434,0.1650854062532445,0.0950978755732274,0.0020457128845782426,-0.5132186273249356,-0.5155933141439769,1.5410521845236158,0.4674995025867812,0.07175423654597089,0.0009545969814625549,-2.2873426067041747,1.7666303510426367,-0.080753586183409,-0.3099117005418024,-0.0018513888726433558,0.005289967399919382,-0.2819031465646338,4.921275346446712,-2.6236648497992614,-0.8012076575346211,-0.012317082944145111,-0.0005868386974198583
0.72,0.49705154640164223,0.4750477753704819,-1.1555106046187382,0.1697340894499226,0.09581606719137178,0.002055114538421887,-0.5358752817992873,-0.4979732055733575,1.5401710564905193,0.4648683196678095,0.07181916181443909,0.0009401653843644478,-2.168132077883623,1.5765579012382773,-0.29065061662847547,-0.36212970409885115,-0.00868103809730203,0.005781994285995462,-0.26861506937972623,4.799261549704749,-2.7201701820884163,-0.8212829927232205,-0.012498940704210915,-0.0005844627025934186
0.73,0.49147804268867146,0.4702252502524083,-1.140138568930772,0.17435126362290057,0.09653433755759734,0.002064380709860826,-0.5573503712970788,-0.48225251180735645,1.5372035687966217,0.4617174172977974,0.07182703662255602,0.0009266171438939022,-2.0541953797161887,1.390873601910927,-0.4967623214263135,-0.4124648996703284,-0.015184340520350226,0.006265190869266801,-0.2561342594801393,4.683347674770132,-2.814359032788177,-0.8407469813494081,-0.01259814796071851,-0.0005820433914650713
0.74,0.48570108100797627,0.46554137831790093,-1.1248166928625698,0.1789319061832132,0.09725214664820563,0.0020735199392810273,-0.5776961680695171,-0.4683871934507369,1.5321876068202032,0.45806425603126366,0.07178090906082783,0.0009139229420201369,-1.9457890016689552,1.2098842274246824,-0.6987601991104537,-0.4608656667125166,-0.021298469638929673,0.006735795651071075,-0.24452952748041942,4.573736851051848,-2.9060775016301412,-0.8595804185951718,-0.012613195772091064,-0.0005796038799578039
0.75,0.4797314059927138,0.4609780768090385,-1.1095650496751468,0.1834711747989189,0.09796898947154188,0.0020825404671314354,-0.5969675015262448,-0.45633015088624335,1.525164318742295,0.4539268615705703,0.07168428233362599,0.00090205278504082,-1.8431317537768612,1.0338458514378022,-0.8963563345627519,-0.5072948757214135,-0.02696931620442322,0.007189652281086478,-0.2338506823133017,4.470564943440168,-2.9951923120807162,-0.8777684307882101,-0.012544147573536089,-0.00057717366012263
0.76,0.47357919219310546,0.4565177594942273,-1.094403272572415,0.18796441165707053,0.09868439991194998,0.002091450214770408,-0.6152213799608328,-0.4460317314811227,1.5161777102731666,0.4493236858151646,0.07154104404080938,0.0008909747638972646,-1.746406230235275,0.8629662594075944,-1.0893022311818135,-0.5517292093841686,-0.03215140808517125,0.007622364078817667,-0.22413102426967804,4.373905991219051,-3.0815899424000848,-0.8953002231411697,-0.012392434024103645,-0.0005747869059715319
0.77,0.46725402591872417,0.4521433573681772,-1.0793505300618425,0.1924071463980577,0.09939795388002695,0.0021002567558190692,-0.6325166274381288,-0.4374402126050116,1.5052742510572719,0.44427347409871637,0.07135539680769766,0.0008806541048661232,-1.655760517650527,0.6974075207087339,-1.2773874507464813,-0.5941584227796364,-0.03680783331984194,0.008029439602934785,-0.21538978794025343,4.283777802988344,-3.1651756845386334,-0.9121688196491994,-0.012160648000682926,-0.000572480919783154
0.78,0.4607648905361322,0.44783833477950313,-1.0644255051149831,0.19679509779021953,0.10010927178295324,0.0021089672806863112,-0.6489135382591984,-0.43050225886740323,1.4925024946859415,0.43879513921618296,0.07113179029262966,0.0008710524867241973,-1.571310116631601,0.5372886834358088,-1.4604380944354411,-0.6345845551577538,-0.04091012797421367,0.008406426810194878,-0.20763447916079114,4.200147617848771,-3.245872639925547,-0.9283707969121938,-0.011852343721489965,-0.0005702947433932448
0.79,0.4541201550251192,0.4435867012559722,-1.0496463779758554,0.20112417421744727,0.10081802033163072,0.002117588556678886,-0.6644735511012992,-0.42516335235309255,1.4779127139127843,0.4329076427227734,0.07087485486774736,0.0008621275992574696,-1.4931400455646087,0.3826885565570578,-1.6383151573718928,-0.673021105226991,-0.04443810000750914,0.00874903357053447,-0.20086306438283075,4.122937750312274,-3.323620661735223,-0.9439060136854873,-0.011471843375897654,-0.0005682679502125461
0.8,0.4473275655789866,0.4393730193060925,-1.0350308124524252,0.20539047305616961,0.10152391370626104,0.0021261268858455903,-0.6792589446132576,-0.42136819498796924,1.4615565523430156,0.4266298838722339,0.07058933746303214,0.0008538329166704495,-1.4213070955520088,0.23364854619297537,-1.8109127874888105,-0.7094921811443964,-0.04737956956197087,0.009053232652345478,-0.19506598388216945,4.0520311446556345,-3.398375253552024,-0.9587773379688265,-0.011024054022252809,-0.0005664396257412238
0.81,0.44039424001967536,0.4351824084810905,-1.0205959455168288,0.20959027902071117,0.10222671410815673,0.002134588062428434,-0.6933325559311263,-0.41906108250019897,1.4434866935596466,0.4199805964541556,0.07028004018956847,0.000846117658284393,-1.355842205707107,0.09017551531416082,-1.978156477514615,-0.7440316356118766,-0.0497300147207167,0.009315349770893655,-0.1902279716431039,3.9872767734150805,-3.4701064344808,-0.9729903734143784,-0.010514296907896412,-0.0005648475373300951
0.8200000000000001,0.4333266647870129,0.43100054598359966,-1.0063583800332196,0.2137200615576089,0.10292623173236223,0.0021429773315097974,-0.7067575232662434,-0.41818624974908625,1.4237565483609091,0.412978253689771,0.06995176242055,0.0008389269081363221,-1.2967529283413821,-0.047755360994291805,-2.1400012165671964,-0.7766821956460737,-0.05149211962750411,0.009532133843853097,-0.18632967448987708,3.928494824118375,-3.538797580671001,-0.9865531867699096,-0.00994815078128852,-0.0005635274879749573
0.8300000000000001,0.4261306942529171,0.42681366410887517,-0.9923341804280431,0.2177764713701435,0.1036223242025044,0.0021512993501583214,-0.7195970534095845,-0.41868818747244796,1.402419960517657,0.4056409812534602,0.06960924701421652,0.0008322018648523797,-1.2440259541344332,-0.18019776946014213,-2.296429625289593,-0.8074945957215771,-0.05267522873097652,0.009700809175157588,-0.18334907104578882,3.8754816278850597,-3.6044442529430736,-0.9994760379739954,-0.009331310217899322,-0.0005625128440645239
0.84,0.41881155210596754,0.42260854480136756,-0.9785388711158505,0.22175633615417634,0.10431489551570097,0.0021595581520937527,-0.7319142146949544,-0.4205119307507606,1.3795309312192594,0.39798647840328427,0.06925713131965623,0.0008258801935431426,-1.1976296681748662,-0.30723148325138,-2.4474500957365724,-0.836526722135603,-0.053294716639386785,0.009819109882300836,-0.18126269743024287,3.8280142929421084,-3.667053019745281,-1.011771114389764,-0.00866945947972577,-0.0005618342232308981
0.85,0.41137383454924986,0.4183725116043561,-0.9649874374942164,0.2256566556254587,0.1050038945509338,0.00216775711661887,-0.7437717556717703,-0.4236033197011434,1.355143362163404,0.39003194712823597,0.06889990352328211,0.0008198964525117273,-1.1575167088282634,-0.4289596554770584,-2.5930949544085147,-0.8638427755951863,-0.05337128753348308,0.00988529739672206,-0.18004669136125456,3.785855015184758,-3.7266402840490307,-1.02345227050688,-0.007968161980576469,-0.000561519325726583
0.86,0.40382151505466285,0.4140934192734002,-0.9516943293236145,0.22947459591698405,0.1056893131987394,0.0021758989423107354,-0.755231949458702,-0.42790923309559126,1.3293108170601933,0.3817940291525355,0.06854186478056101,0.0008141825691865404,-1.1236265027251173,-0.5455061963891165,-2.7334186639817233,-0.8895124582129244,-0.052930221237071695,0.009898162350826634,-0.17967766966633042,3.7487550464811696,-3.7832311220375994,-1.0345347742636983,-0.007232765040598447,-0.0005615928909942292
0.87,0.39615795041981344,0.40975964131594333,-0.9386734663119715,0.23320748342276346,0.1063711841731814,0.002183985625729458,-0.7663564634849397,-0.43337779574569,1.3020863011643091,0.37328875057794186,0.06818709744419815,0.0008086683418722722,-1.095887750744915,-0.6570132458106599,-2.8684960764584044,-0.913610190311327,-0.05200058489988901,0.009857012530556264,-0.1801334562971406,3.7164583093354713,-3.8368581405848774,-1.0450350609487067,-0.006468319286324792,-0.000562076760199639
0.88,0.3883858878790268,0.4053600557098353,-0.9259382457287649,0.23685279816169785,0.10704957856874271,0.002192018445194484,-0.7772062540786674,-0.4399585606108038,1.2735220583206484,0.3645314738934405,0.06783943955613243,0.0008032819465026213,-1.0742208416589136,-0.7636387491083266,-2.9984207476957185,-0.9362143616827598,-0.05061442988320752,0.009761648839861858,-0.18139367898601877,3.6887046536854933,-3.8875603595856973,-1.054970495438347,-0.0056795117869342365,-0.0005629900253433937
0.89,0.38050747302768406,0.4008840290431414,-0.9135015518796838,0.2404081667320729,0.10772460322499583,0.0021999979494990367,-0.7878414851342742,-0.4476026666693899,1.2436693849081089,0.3555368570375051,0.06750246562531162,0.0007979504304552566,-1.0585401720251142,-0.8655541419501218,-3.1233033206032377,-0.9574066212319288,-0.04880599299360999,0.009612331402356622,-0.18344025287028526,3.6652327579536035,-3.935382124214724,-1.0643591433226085,-0.0048706118115856845,-0.0005643492460217212
0.9,0.37252425832886293,0.39632139930669125,-0.9013757672797619,0.24387135492368386,0.10839639796073625,0.0022079239512845013,-0.7983214698821132,-0.4562629736450148,1.2125784599921923,0.3463188191610946,0.06717947357404178,0.0007926001785464549,-1.0487563529347421,-0.962942146175412,-3.2432699817440533,-0.9772712082337822,-0.04661091985372123,0.009409737977452926,-0.18625776893157628,3.645782681959015,-3.9803720511818037,-1.0732195512652514,-0.004045427943148045,-0.000566168715840478
0.91,0.36443721198288626,0.3916624575596767,-0.8895727853702754,0.2472402600507776,0.10906513273682737,0.0022157955246784253,-0.8087046345976661,-0.465894174701453,1.180298190948644,0.3368905127093716,0.0668734776091121,0.0007871573393924087,-1.044778286208397,-1.0559946763644736,-3.35846099364988,-0.9958943277596255,-0.044065526139258626,0.00915491684760461,-0.1898338041245572,3.630098083935848,-4.022582012039408,-1.0815705367461885,-0.003207275185689062,-0.0005684607617680356
0.92,0.3562467269536819,0.3868979286775094,-0.8781040246323133,0.250512903064944,0.10973100480347357,0.002223611006711637,-0.8190485029204356,-0.4764528882167305,1.1468760737962047,0.32726430141664337,0.06658720666462022,0.0007815482033211356,-1.046515094555729,-1.144910854145346,-3.469029302861716,-1.0133635721659644,-0.041206109855507655,0.008849236235081381,-0.19415916875671052,3.6179281177034825,-4.0620661556009665,-1.0894309871426413,-0.0023589506511357897,-0.0005712360612227626
0.93,0.34795262996062565,0.3820189513803491,-0.8669804439575591,0.25368742050286397,0.11039423588321977,0.0022313680019701177,-0.8294096993056299,-0.48789772971603296,1.1123580674754165,0.3174517437919966,0.06632310797462018,0.0007756995258481113,-1.0538778919640783,-1.2298951249128285,-3.5751392215408484,-1.0297673898747721,-0.038068324987831303,0.008494332136145255,-0.19922810515954417,3.6090290290471914,-4.0988799705616685,-1.09681966792545,-0.001502716398511246,-0.0005745039633182941
0.9400000000000001,0.3395541902606073,0.3770170577304498,-0.8562125591442488,0.2567620563194893,0.11105506943588912,0.0022390633899031266,-0.8398439700018362,-0.5001893649899265,1.076788481331037,0.30746358166252974,0.06608335526693611,0.0007695387933008836,-1.0667813820974406,-1.311155469454655,-3.6769651784352178,-1.0451946020061555,-0.03468662392637145,0.00809205626665399,-0.20503845006988153,3.603165472645592,-4.133079388485693,-1.1037550395786992,-0.0006402880208461297,-0.000578272802338083
0.9500000000000001,0.331050128062279,0.3718841522769581,-0.8458104603932801,0.25973515365285876,0.1117137680461383,0.0022466933341978882,-0.8504062198328269,-0.5132905453491695,1.0402098750968594,0.29730973333695043,0.06586986102491832,0.0007629944294761507,-1.0851452737030018,-1.3889017009699975,-3.774690533026665,-1.059733966739845,-0.03109377320630946,0.007644425571175173,-0.2115917715031593,3.6001115724966954,-4.164719926443256,-1.1102550826952924,0.00022717237585494036,-0.0005825501930968476
0.96,0.3224386224326967,0.3666124910182357,-0.8357838306858536,0.2626051465624058,0.11237061096854353,0.0022542532936396763,-0.8611505629582296,-0.5271661258722399,1.0026629707426526,0.28699929095470167,0.06568429224052248,0.0007559959441788117,-1.1088955028842626,-1.4633438361106013,-3.8685064447932045,-1.0734737905720895,-0.027320444452080928,0.00715357453107357,-0.21889348931268246,3.5996517498244005,-4.193855867749786,-1.1163371305580712,0.0010990600861034462,-0.0005873432993019756
0.97,0.31371731857577306,0.36119466034435455,-0.8261419649296253,0.2653705517783546,0.11302589185932278,0.0022617380339014625,-0.8721303856923666,-0.5417830673881103,0.9641865756228263,0.2765405215948819,0.06552808907792505,0.0007484740261786108,-1.137965252564683,-1.5346905269542335,-3.95861078767629,-1.0865015848882358,-0.02339488007066537,0.006621711249766182,-0.22695298713391288,3.6015813429745096,-4.220539478479016,-1.1220177083849137,0.0019753298076354755,-0.0005926590672978781
0.98,0.3048833343820821,0.3556235561162933,-0.8168937897649771,0.2680299604957078,0.11367991671811584,0.002269141639746193,-0.8833984193690988,-0.5571104228061213,0.9248175164648244,0.2659408717353206,0.065402485879305,0.0007403605844730879,-1.172295759501704,-1.6031475392151173,-4.045207098012556,-1.098903765485753,-0.019342631271248356,0.006051078086787509,-0.2357837220384857,3.6057070439178376,-4.244820256689433,-1.1273123782958638,0.0028564968302009627,-0.0005985044186186011
0.99,0.29593326617059545,0.3498923630337116,-0.8080478839264567,0.2705820302424635,0.11433300205781956,0.0022764575271747084,-0.895006821148666,-0.573119308258173,0.8845905838520397,0.25520697467557224,0.06530853397037163,0.0007315887428515,-1.2118368987978432,-1.6689162604847252,-4.1285035423396055,-1.1107653918524818,-0.015186364432329347,0.005443917418167743,-0.24540333698183925,3.6118471757518664,-4.266744210615555,-1.1322355889493156,0.003743638398900774,-0.0006048863955582685
