tonegas/nnodely-applications/joint_friction_estimation/dataset/validation/mpc_mujoco_episode_4 copy.csv
time,q1,q2,q3,q4,q5,q6,dq1,dq2,dq3,dq4,dq5,dq6,ddq1,ddq2,ddq3,ddq4,ddq5,ddq6,tau1,tau2,tau3,tau4,tau5,tau6
0.0,0.0,1.57,-1.57,0.0,0.0,0.0,0.0,0.0,0.0,0.0,0.0,0.0,-3.8783296385828874,-4.970414004000068,11.747011825105806,5.1178514877104995,-0.577077173149835,-2.9236921110786795e-06,-0.5403831039421765,-4.826774682448711,-3.596028263132714,-0.72945527587833,-0.04893684462353153,-0.0009193384548716808
0.01,-0.0003858449621825841,1.5695087229243685,-1.5688316380400829,0.00047564994783688697,-4.8495472921273474e-05,-2.2823157805391124e-07,-0.03858449621825841,-0.04912770756314651,0.11683619599171749,0.0475649947836887,-0.0048495472921273475,-2.2823157805391125e-05,-3.8645525768282907,-4.843970653045658,11.755968941130412,4.789193382529259,-0.4895291718171677,-0.0022789470837487613,-0.5403253776909291,-4.7762819897536835,-3.5718336162419018,-0.7235986131802792,-0.04897289731056951,-0.0009151581800118344
0.02,-0.0011558646326055657,1.5685389721721927,-1.5664960357567015,0.0014013718527926522,-0.0001401371677427834,-6.890328802864276e-07,-0.07700196704229817,-0.09697507521756751,0.233560228338147,0.09257219049557652,-0.009164169482150993,-4.6080130223251635e-05,-3.848041763837353,-4.710024449293991,11.748729918059329,4.533593062497459,-0.4366370711701606,-0.0022972173125648254,-0.5389311177756925,-4.721689996750418,-3.545246224984451,-0.7169192454731508,-0.04893228794864293,-0.0009074367931288846
0.03,-0.0023082352743795205,1.5671042339398478,-1.5629953965619967,0.002757156248485413,-0.00027167484996978164,-1.3669586384206123e-06,-0.11523706417739546,-0.14347382323450242,0.3500639194704675,0.1355784395692761,-0.013153768222699824,-6.779257581341846e-05,-3.8298120909099937,-4.569401027278319,11.730347121733612,4.33329478005022,-0.40499153619010997,-0.002080052161658852,-0.5362551173401425,-4.663474858736254,-3.516479289297557,-0.709467126615567,-0.04881698958679564,-0.000896232318429282
0.04,-0.003841033792429456,1.5652186097223901,-1.5583326290122566,0.004527212157546307,-0.00044114812187657614,-2.2513855390895897e-06,-0.15327985180499357,-0.18856242174576263,0.4662767549740163,0.17700559090608933,-0.01694732719067945,-8.844269006689775e-05,-3.8103835602536535,-4.422788280416483,11.704516489166135,4.174690363165876,-0.3864745645319587,-0.0018642219312345887,-0.5323463135650653,-4.602168148810688,-3.485761665148541,-0.7012931721378401,-0.048628073938353084,-0.0008815938509219347
0.05,-0.0057522612222953235,1.56289675904269,-1.5525110757700264,0.0066989317546184,-0.0006473954202331332,-3.3363015887930557e-06,-0.19112274298658677,-0.23218506797000024,0.5821553242230079,0.21717195970720932,-0.0206247298356557,-0.00010849160497034659,-3.789969702611126,-4.270774140756938,11.673867865701625,4.047341089389221,-0.37615521233249183,-0.0016411626026391346,-0.5272467016348084,-4.538352167678991,-3.4533369159259513,-0.6924491839608145,-0.04836565583109998,-0.0008635580422240413
0.06,-0.008039846932455966,1.5601538494746672,-1.545534326053611,0.009262095086567872,-0.000889755160482051,-4.617966081393393e-06,-0.22875857101606428,-0.27429095680228605,0.6976749716415431,0.2563163331949472,-0.024235974024891787,-0.00012816644926003372,-3.7685901589796145,-4.113875805533575,11.640188488810136,3.943224804871452,-0.37102768099180494,-0.0013820616848274625,-0.5209903028832047,-4.4726551493779665,-3.419462556907866,-0.6829877520267225,-0.04802884062138403,-0.000842148272434181
0.07,-0.010701640296803377,1.5570055116783927,-1.537406094583942,0.012208257512922597,-0.0011678830099474315,-6.093226751741804e-06,-0.26617933643474107,-0.31483377962744297,0.8128231469668802,0.2946162426354725,-0.027812784946538043,-0.00014752606703484104,-3.7461377499855955,-3.952562653892713,11.604595031162113,3.8561580904846053,-0.3692501853463135,-0.0010648572265559153,-0.5136021790512535,-4.405745982636049,-3.3844093364605006,-0.6729621198090091,-0.04761567164908123,-0.0008173751973041589
0.08,-0.013735393835319592,1.5534677976425497,-1.528130153956067,0.015530275909213739,-0.0014816393598930933,-7.758499459400165e-06,-0.30337535385162145,-0.35377140358429376,0.92759406278751,0.3322018396291142,-0.03137563499456618,-0.00016652727076583605,-3.722418203315013,-3.7872744578615354,11.567666305191763,3.781353680631323,-0.36968512077261906,-0.0006738703550979164,-0.5050975103231637,-4.3383281313533155,-3.34846042167985,-0.6624259997271453,-0.047123078078746536,-0.0007892380353162016
0.09,-0.01713874016422375,1.5495571406849284,-1.5177103103453575,0.01922193999709718,-0.0018310192289970743,-9.609163064666188e-06,-0.3403346328904158,-0.3910656957621223,1.041984361070952,0.36916640878834417,-0.034937986910398094,-0.00018506636052660229,-3.6971734660150566,-3.618436034233592,11.52954605828144,3.715082169100228,-0.37162114805991564,-0.00019712999850374224,-0.49548077164161686,-4.271132486004741,-3.3119103747303655,-0.6514333248827233,-0.046546825383415986,-0.0007577263150939538
0.1,-0.020909164103987857,1.5452903160303333,-1.5061504147144327,0.023277683117578017,-0.0022161078089542397,-1.1639187848128091e-05,-0.3770423939764109,-0.42668246545950755,1.1559895630924855,0.40557431204808375,-0.038508857995716544,-0.00020300247834619033,-3.670095194111833,-3.446469153844397,11.490023189357006,3.654414046137415,-0.3746052633184327,0.00037554109706450234,-0.48474505424174524,-4.20490892052245,-3.2750638216908645,-0.6400379249737882,-0.04588147199347527,-0.0007228219869857415
0.11,-0.025043970702464502,1.5406844009934018,-1.4934544033774304,0.027692352887456945,-0.0026370515032468557,-1.384088749675071e-05,-0.4134806598476644,-0.46059150369316126,1.269601133700216,0.4414669769878927,-0.042094369429261584,-0.0002201699648622618,-3.6408324141028356,-3.2718022828524003,11.44859507968941,3.597023588204163,-0.3783414182711802,0.0010536790630739645,-0.4728715896259944,-4.140416372942829,-3.2382337301756166,-0.6282931166046097,-0.045120336593003345,-0.0006845018943953474
0.12,-0.029540249583781354,1.5357567339603297,-1.4796263630296578,0.0324610268944595,-0.0030940383292311305,-1.6204731694727827e-05,-0.44962788813168536,-0.4927667033071985,1.3828040347772679,0.4768674007002559,-0.04569868259842748,-0.0002363844197977116,-3.608995792087046,-3.094878551373669,11.404518451756605,3.541040375666313,-0.38262944042427094,0.0018468497737129663,-0.45982954224509615,-4.078411317474915,-3.2017392268893676,-0.6162512014570289,-0.044255481353943575,-0.0006427406433507081
0.13,-0.03439483583738818,1.5305248715023965,-1.4646706162611574,0.03757886221897273,-0.0035872839880531017,-1.8719184453814596e-05,-0.48545862536068257,-0.5231862457933198,1.4955746768500373,0.5117835324513231,-0.049324565882197115,-0.00025144527590867713,-3.5741600098261115,-2.916162211147438,11.356851166540245,3.48493750441774,-0.38732837781569884,0.0027650468134094996,-0.4455761450858867,-4.0196345542886736,-3.1659029030743953,-0.6039628699941185,-0.043277717108525814,-0.0005975139252060516
0.14,-0.03960426755910496,1.5250065430759125,-1.4485918242197295,0.04304097037128085,-0.004117021382699004,-2.1370549575202147e-05,-0.5209431721716782,-0.5518328426483902,1.6078792041427865,0.5462108152308117,-0.05297373946459023,-0.000265136512138755,-3.5358651831576413,-2.7361437446898695,11.304487568489295,3.427448094473867,-0.3923346601210813,0.0038189484822883646,-0.43005725883347024,-3.9647963147938827,-3.131047576664862,-0.5914765138268071,-0.04217663707105931,-0.000548802348695527
0.15,-0.045164740113142116,1.519219602875501,-1.4313951035346755,0.0488423113960416,-0.004683492260073471,-2.414281380322784e-05,-0.5560472554037151,-0.5786940200411625,1.7196720685054088,0.5801341024760748,-0.05664708773744664,-0.0002772264228025692,-3.4936179170384887,-2.555343716880957,11.246189302432322,3.3675036474550026,-0.39756925367762896,0.00502011553279158,-0.413208439586012,-3.914559770980025,-3.0974925106375633,-0.578837457824263,-0.040940686199044014,-0.000496595829916158
0.16,-0.051072057180185995,1.5131819785158986,-1.4130861549115306,0.05497760256842933,-0.005286940196997856,-2.7017483198473765e-05,-0.5907317067043881,-0.6037624359602384,1.830894862314498,0.6135291172387728,-0.06034479369243857,-0.0002874669395245927,-3.446892383642437,-2.374315414923282,11.180612757194515,3.3041892946532165,-0.4029702740981449,0.0063811814085839025,-0.39495660140203304,-3.8695231712287965,-3.065549151188436,-0.5660871391961517,-0.039557273588971036,-0.00044089857774705674
0.17,-0.0573215786791063,1.50691161632484,-1.3936714010259077,0.06144123840037989,-0.005927604480495284,-2.997341073520058e-05,-0.6249521498920305,-0.6270362191058598,1.941475388562283,0.6463635831950558,-0.06406642834974278,-0.00029559275367268157,-3.3951316861317316,-2.193646320602746,11.106332563951284,3.236712104525761,-0.4084888995960778,0.007916069392911229,-0.3752223577359798,-3.830201122049611,-3.03551666855537,-0.5532623151959013,-0.03801293544747255,-0.0003817347148630538
0.18,-0.06390816569118135,1.5004264231346371,-1.373158131642286,0.06822721966810616,-0.006605714632992815,-3.298661411855764e-05,-0.6586587012075047,-0.6485193190202831,2.0513269383621737,0.6785981267726261,-0.06781101524975314,-0.00030132033833570575,-3.3377494631533136,-2.013957433894894,11.021905856649665,3.164379166201499,-0.41408725180187567,0.009640260973522219,-0.353923088688256,-3.796998710904984,-3.007671053125602,-0.5403927573481462,-0.036293552353986236,-0.00031915368427902263
0.19,-0.07082612254835705,1.493744204688399,-1.351554649853173,0.07532909017970255,-0.0073214854522597635,-3.603008298404249e-05,-0.691795685717569,-0.6682218446237957,2.1603481789113084,0.7101870511596393,-0.07157708192669483,-0.0003043468865484847,-3.274132667969687,-1.835904206993634,10.925790883952644,3.0865865465412483,-0.4197374375713334,0.011571136910580537,-0.33097690432164345,-3.7702075861685738,-2.9822746124961528,-0.5275041083838073,-0.03438464075053435,-0.000253238850806085
0.2,-0.07806913636991014,1.4868826005312856,-1.328870427428959,0.08273987996763514,-0.008075112508319097,-3.9073573757110206e-05,-0.7243013821553095,-0.6861604157113558,2.2684222424214164,0.7410789787932601,-0.07536270560593344,-0.00030434907730677197,-3.2036440485150397,-1.660172301744745,10.816486724454169,3.002806464560031,-0.42542118829345554,0.013728399763796584,-0.30630732209933276,-3.7499682648881967,-2.959553842507021,-0.5146129994290201,-0.03227169806159527,-0.00018411250919419424
0.21,-0.0856302143070627,1.4798590158906142,-1.3051162557716574,0.09045205479096098,-0.00886676807421899,-4.208339040859423e-05,-0.7561077937152565,-0.7023584640671444,2.375417165730163,0.7712174823325839,-0.07916555658998908,-0.0003009816651484022,-3.1256270990286072,-1.487478165214763,10.692332418008537,2.9125891160738995,-0.43112980268689505,0.01613459714852994,-0.27984903587571786,-3.7362830447279833,-2.939725574897592,-0.5017342470947654,-0.029940650437584388,-0.0001119473541789062
0.22,-0.09350161900444678,1.4726905503826273,-1.280304412016721,0.09845747093548882,-0.009696597491661754,-4.502214743262716e-05,-0.7871404697384087,-0.7168465507986901,2.481184375493638,0.8005416144527834,-0.08298294174427653,-0.000293875702403293,-3.0394133660517446,-1.3185706731567979,10.551260816594903,2.8155557548419736,-0.4368641735215171,0.01881574438896738,-0.2515546650205088,-3.7290299934183366,-2.923030216978277,-0.48888993767994365,-0.027378399240271425,-3.697914621372388e-05
0.23,-0.10167480302419993,1.465393923272842,-1.2544488643347378,0.1067473334068982,-0.010564715985573833,-4.784851145834251e-05,-0.8173184019753138,-0.729662710978541,2.5855547681983184,0.8289862471409375,-0.08681184939120795,-0.000282636402571535,-2.9486486458588335,-1.1634262439202634,9.907589089309786,2.7162247844685012,-0.4427362123843963,0.021802037831244236,-0.2218896708215617,-3.789257378617931,-2.9784739901052917,-0.49312634817765044,-0.02463801675773098,3.1673486113354194e-05
0.24,-0.11014077031417724,1.4579842451200493,-1.2276125787561722,0.11530972289430075,-0.011471228167223489,-5.051719176352178e-05,-0.8465967289977313,-0.7409678152792596,2.683628557856549,0.8562389487402549,-0.09065121816496555,-0.0002668680305179269,-2.85366610978711,-1.023866006266532,8.862825147158437,2.5867833904205604,-0.4489212269039182,0.025073307662331734,-0.19099113560450384,-3.894666542167159,-3.092827570728023,-0.5112649334718014,-0.021729452016840782,9.46325201293476e-05
0.25,-0.1188901098163319,1.4504749180356025,-1.199897842245951,0.124128067703017,-0.0124162411842105,-5.2981135230879574e-05,-0.8749339502154654,-0.7509327084446851,2.771473651022135,0.8818344808716252,-0.0945013016987013,-0.00024639434673577934,-2.751816009672169,-0.895831772673099,7.781069961521413,2.409068731004748,-0.45553550241318064,0.02859433295701186,-0.15880570746741593,-3.993183021971328,-3.21499495516267,-0.5308142411103329,-0.01863072860897031,0.00015713379976026962
0.26,-0.12791273437805822,1.4428782321150742,-1.1714109004491327,0.13318185415311487,-0.013399862100775862,-5.519274824236977e-05,-0.9022624561726315,-0.7596685920528398,2.8486941796818233,0.9053786450097879,-0.09836209165653616,-0.00022116130114902,-2.6426058534359864,-0.7785153355365629,6.698363657959641,2.192691083662819,-0.4626161108312363,0.03237810793592075,-0.12560653739767938,-4.077472514539731,-3.3391486027224215,-0.5504154646138153,-0.015358623700017428,0.00021901914600589204
0.27,-0.13719783309585937,1.4352054576237119,-1.1422583844163545,0.1424475872379157,-0.014422197889723,-5.710334474379295e-05,-0.9285098717801136,-0.7672774491362283,2.915251603277822,0.9265733084800843,-0.10223357889471384,-0.0001910596501423179,-2.5256903997828313,-0.6712957445912818,5.625842400479838,1.9474980549225602,-0.47016238134475685,0.036460336612830296,-0.09174255338655468,-4.1440612350454415,-3.4629848063475106,-0.5695805004492722,-0.011938018763604768,0.0002796919163903053
0.28,-0.14673383832795764,1.4274669057305545,-1.1125461618921784,0.1518996246911386,-0.015483353457895659,-5.8662304339045076e-05,-0.9536005232098279,-0.7738551893157519,2.971222252417626,0.9452037453222886,-0.1061155568172659,-0.00015589595952521202,-2.4007259153913623,-0.5735518554216207,4.580080681260424,1.6818866918284012,-0.47813466373492197,0.04088135946043775,-0.05761152335314973,-4.189688191409626,-3.583535559430376,-0.5876594822246515,-0.008398813015355309,0.00033862491297028405
0.29,-0.1565083929760706,1.4196719918787275,-1.0823776651419508,0.16151092654809468,-0.016583427008660615,-5.981623195985992e-05,-0.9774554648112977,-0.7794913851826892,3.0168496750227636,0.9611301856956069,-0.11000735507649567,-0.00011539276208148441,-2.2673699277024237,-0.48463940202579714,3.5904397100800214,1.4033776645483638,-0.48644932031275445,0.045683357292446325,-0.023643490619476126,-4.210845813499113,-3.6961298685617314,-0.6035800424656208,-0.004774225606263088,0.00039551248636997944
0.3,-0.16650831802476806,1.4118293064884635,-1.0518509732463341,0.17125380383553293,-0.017722502274289814,-6.050808583278191e-05,-0.9999925048697451,-0.7842685390264083,3.0526691895616693,0.9742877287438242,-0.11390752656291984,-6.91853872921994e-05,-2.12530341090984,-0.4038750286672644,2.7026829168128232,1.119460615898296,-0.4949745047672174,0.05091224331702482,0.009721308059652267,-4.203902117658506,-3.7938667661980623,-0.6157102328656551,-0.0010983827096895243,0.00045037694666940725
0.31,-0.17671958254926132,1.403946694800076,-1.0210542885688143,0.1811007486599501,-0.018900637223014695,-6.0676160640212734e-05,-1.0211264524493262,-0.7882611688387443,3.079668467751993,0.9846944824417179,-0.11781349487248798,-1.6807480743082194e-05,-1.9743436753512653,-0.33060419889623355,1.8497410624284392,0.8384965835579523,-0.5035304420004207,0.05662207848447483,0.04205764234717191,-4.175813179700319,-3.8855576842936026,-0.6262740215658071,0.002587892274242401,0.0005015714889169896
0.32,-0.18712728738239592,1.3960312865361015,-0.9900724326019775,0.19102471922567843,-0.02011785122070034,-6.0253494220471094e-05,-1.0407704833134594,-0.7915408263974444,3.098185596683682,0.9923970565728333,-0.12172139976856432,4.226664197416369e-05,-1.814088671481932,-0.26425981372815727,1.2226458248296133,0.5630787451326373,-0.511894710390278,0.06285047030335078,0.07294250446956135,-4.113074330674513,-3.944454800392857,-0.6287557087598171,0.006258359747764123,0.000551438224864347
0.33,-0.19771562732262857,1.3880896227769017,-0.9589681454349582,0.20100035194235655,-0.02137410469230516,-5.916631464294939e-05,-1.0588339940232632,-0.794166375919982,3.1104287167019313,0.9975632716678131,-0.12562534716048196,0.00010871795775217022,-1.644381138808818,-0.2038601737169616,0.6623514420055017,0.30533906427652613,-0.5197782244201985,0.06967890790421317,0.10208209862529391,-4.031545337968459,-3.992020517614664,-0.6284238568147331,0.00987676849137879,0.0005973521744320098
0.34,-0.20846787772307682,1.3801276783458674,-0.9277975540382523,0.21100405570179775,-0.022669280308966006,-5.733356146340389e-05,-1.0752250400448256,-0.7961944431034343,3.117059139670594,1.0003703759441214,-0.1295175616660845,0.00018327531795455046,-1.4649034632605915,-0.1490116872399376,0.3698243639021508,0.06599280648526673,-0.5268761110964855,0.0771517494823579,0.12915392390497926,-3.920252334355015,-4.000372444131734,-0.6184707739725231,0.013427237979776872,0.0006419753727725146
0.35000000000000003,-0.2193663656744655,1.3721509707019244,-0.8965904953710724,0.22101509650589118,-0.024003155491304343,-5.466504085928128e-05,-1.0898487951388676,-0.7976707643942952,3.120705866717989,1.0011040804093434,-0.1333875182338337,0.0002668520604122605,-1.2753404892128797,-0.09870155261606509,0.21630699447980586,-0.14439954714616587,-0.532814339225193,0.0853732488764922,0.15403513757007511,-3.792755463455885,-3.9868455942693797,-0.6030961015348476,0.01689093732010293,0.0006835212041854441
0.36,-0.23039244169012882,1.3641645988915538,-0.8653630404836085,0.23101574048816867,-0.025375376709538894,-5.1060720773421974e-05,-1.1026076015663324,-0.7986371810370445,3.122745488746391,1.0000643982277475,-0.13722212182345525,0.00036043200858593106,-1.0753870818108724,-0.052577802813808375,0.13155365492653998,-0.3245068100856368,-0.5372159925138127,0.0944203428238756,0.17659197686030195,-3.656125341252568,-3.9610692425358938,-0.5846399005913244,0.02024774223805853,0.0007209110737253006
0.37,-0.24152645283990615,1.3561732487572602,-0.8341243574019395,0.24099099098872226,-0.02678543294309243,-4.641049502130162e-05,-1.1134011149777343,-0.7991350134293712,3.1238683081668954,0.9975250500553601,-0.1410056233553535,0.00046502257521203577,-0.8647530085618809,-0.010599689595056128,0.08194477307784309,-0.4769655781223474,-0.5396659819109848,0.10435500434497365,0.19668817511155579,-3.5137741855247393,-3.9277769165297025,-0.5642617888515257,0.023476604253378545,0.0007535172565639812
0.38,-0.2527477178008161,1.348181185151821,-0.8028800164716317,0.2509282081578281,-0.028232626129426713,-4.0594090595426334e-05,-1.1221264960909976,-0.7992063605439166,3.1244340930307803,0.9937217169105849,-0.14471931863342843,0.0005816404425875281,-0.643169283058382,0.02715731555964342,0.05136490008080594,-0.6055492291510906,-0.5396827147928802,0.11523050043021622,0.21419678686299154,-3.3674151042871983,-3.889331740355122,-0.5425509445876375,0.026555867819771855,0.000780934799164347
0.39,-0.26403450443575627,1.3401922404899713,-0.7716335901172185,0.26081673044057796,-0.0297160370895666,-3.348102597898745e-05,-1.1286786634940154,-0.7988944661849758,3.1246426354413144,0.9888522282749862,-0.1483410960139889,0.0007113064616438884,-0.4103977062114214,0.06058813014584877,0.0309860284197344,-0.7139985955421374,-0.5366961151519511,0.1270918152779722,0.22900778900320504,-3.2180049730610754,-3.8470881018999683,-0.519854641752337,0.029463403504041266,0.0008028610013273648
0.4,-0.27536401083392764,1.3322098033362992,-0.7403875393640562,0.2706475362880972,-0.031234485789999177,-2.4930640012508858e-05,-1.1329506398171383,-0.7982437153672003,3.124605075316229,0.9830805847519214,-0.15184487004325753,0.0008550385966478587,-0.166245100730974,0.08959192382473213,0.01585113270886586,-0.8056476170978693,-0.5300284451271946,0.13997209313050063,0.241031959672116,-3.066096419111727,-3.8018478852783226,-0.496387965092697,0.03217674545884068,0.0008190584529696962
0.41000000000000003,-0.28671235121203076,1.3242368087174854,-0.7091437190506731,0.2804129575843732,-0.032786484875138015,-1.4792249754636599e-05,-1.1348340378103121,-0.7972994618813934,3.1243820313383077,0.9765421296276018,-0.15519990851388413,0.001013839025787226,0.0894175841315821,0.11408772557412282,0.0035214668245198005,-0.8833136642879537,-0.5188754855685916,0.1538866615268377,0.2502039714719043,-2.9120068388874327,-3.7540431590074226,-0.4722774741257562,0.03467329686987422,0.0008293434900265662
0.42,-0.29805454854645475,1.3162757310248072,-0.6779036333466875,0.29010644621728665,-0.034370185412047685,-2.9055231859933758e-06,-1.1342197334423976,-0.7961077692678182,3.124008570398558,0.9693488632913475,-0.15837005369096716,0.0011886726568643223,0.3566299702942896,0.13402221012761312,-0.007047344169468631,-0.9492865481702724,-0.5022880107861182,0.16882476404946606,0.2564854984754006,-2.7559314342048506,-3.7038907968313906,-0.44759811623822154,0.03693055036705399,0.0008335771485032586
0.43,-0.30936453639986006,1.308328579820565,-0.6466685515474797,0.2997223889650528,-0.03598331385543039,1.0898813049119022e-05,-1.130998785340532,-0.794715120424213,3.12350817992078,0.9615942747766191,-0.16131284433827017,0.0013804336235112397,0.6353085424760232,0.14937212247032214,-0.016298275696853604,-1.0053782148356245,-0.47915481317662256,0.18473846010445683,0.25986793481174364,-2.5980083387584587,-3.651503538413133,-0.42239971401244414,0.03892629885970888,0.0008316595991952014
0.44,-0.32061517321063177,1.3003968985394867,-0.6154395621504614,0.3092559629406266,-0.037623099390791725,2.6797772411118574e-05,-1.125063681077173,-0.7931681281078456,3.1228989397018365,0.9533573975573792,-0.16397855353613358,0.0015898959361999553,0.9252021794977052,0.1601437138174316,-0.02448912761059091,-1.0530007046763254,-0.44818935380846137,0.20152820650068748,0.2603746169164012,-2.438348946255351,-3.5969501988120443,-0.3967212966401775,0.04063884885381058,0.0008235287440895417
0.45,-0.3317782733442199,1.2924817659508552,-0.5842176064877276,0.3187030235103325,-0.03928619110019815,4.497421263269897e-05,-1.1163100133588135,-0.7915132588631543,3.1221955662733722,0.9447060569705837,-0.16630917094064313,0.0018176440221580401,1.2258344604671307,0.16637111905367724,-0.03180002680996967,-1.0932470991072816,-0.40792345537668284,0.21902477404465648,0.2580626626314062,-2.277049091296914,-3.540273664054788,-0.37059534313417,0.042047268270704534,0.0008091625046909829
0.46,-0.342824660472047,1.2845838002458734,-0.553003502926067,0.32806001781529803,-0.04096856491189991,6.561399641505334e-05,-1.1046387127827142,-0.7897965704981893,3.121410356166053,0.9356994304965565,-0.16823738117017564,0.002063978378235437,1.5364315315960508,0.16811486263695374,-0.038374662364725656,-1.1269614994704087,-0.35671338745171255,0.23696743636711248,0.2530246632399285,-2.1141948596654503,-3.4814993708963695,-0.3440497692492611,0.043131688391197104,0.000788582113479828
0.47000000000000003,-0.35372425022531373,1.2767031656427639,-0.5217979660731327,0.3373239181829127,-0.04266542118005972,8.890190637719146e-05,-1.089958975326669,-0.7880634603109469,3.1205536852934403,0.9263900367614664,-0.16968562681598098,0.0023287909962138123,1.8558286647973166,0.16546064720701253,-0.04446239680216374,-1.1547937987115957,-0.2927661652355771,0.25497879922184785,0.24539003922619432,-1.9498668568098532,-3.420656879051327,-0.317113060110193,0.04387361819345949,0.0007618549101692006
0.48,-0.3644461711159094,1.26883958140729,-0.49060163525479056,0.3464921705026444,-0.04437107519466846,0.00011501595985184939,-1.0721920890595633,-0.786358423547401,3.1196330818342113,0.9168252319731712,-0.17056540146087384,0.002611405347465793,2.182367146336707,0.15851842886240686,-0.05031994972237372,-1.1772565553755254,-0.21419704452480115,0.27253749159405105,0.23532631320290703,-1.784139015350121,-3.3577689733569147,-0.28981172017325574,0.044256398211677005,0.0007290995682829607
0.49,-0.37495893363551347,1.2609923332647999,-0.4594151029051277,0.3555626534673652,-0.04607884502779305,0.00014411972957130802,-1.0512762519604089,-0.7847248142490073,3.1186532349662848,0.907048296472078,-0.17077698331245933,0.002910376971945864,2.4862150814754136,0.1473793034675025,-1.2772478229522677,-1.1731270544723222,-0.1191290757642296,0.2889519367853737,0.22256130045820133,-1.6182711300196215,-3.4568770084569445,-0.30125699514926896,0.043882586696014664,0.0006792807319706068
0.5,-0.3852333009673769,1.2531601264230843,-0.42835888648030557,0.36453049703023743,-0.04778120806518221,0.0001763473986490244,-1.0274367331863414,-0.783220684171558,3.1056216424822165,0.8967843562872228,-0.1702363037389162,0.0032227669077716367,2.7324260672260734,0.13200955884900534,-5.363568552543031,-1.1703644072181945,-0.008169444096616907,0.3022914965370145,0.2065482425805667,-1.4327803026971047,-3.9397637607532823,-0.4048713477724562,0.04206578927813617,0.0005959944549428205
0.51,-0.3952456275843978,1.2453410265262497,-0.39783468993133175,0.3733794715931994,-0.049470206473865734,0.00021176873016981386,-1.0012326617020904,-0.7819099896834593,3.052419654897383,0.8848974562961948,-0.16889984086835197,0.003542133152078948,2.968692702772095,0.11298680474528702,-8.476326602356389,-1.319327418912792,0.11494100126252871,0.3084876490569344,0.1868447679375861,-1.2134941955308283,-4.297059224480399,-0.4811760320984335,0.039453170964322305,0.0005122391114584133
0.52,-0.4049732984771987,1.2375330660992128,-0.3681492028630984,0.382085005958226,-0.051137058635011,0.0002503626138909827,-0.9727670892800887,-0.7807960427036997,2.96854870682334,0.8705534365026586,-0.16668521611452658,0.0038593883721168877,3.187438496259657,0.09491822813228436,-10.792975843039907,-1.5499939613144385,0.251987027605467,0.30641074630458,0.16500184509209398,-0.9776966024952625,-4.55127304614905,-0.5350925454448796,0.036193749075312774,0.00042930778522612607
0.53,-0.4143954376433308,1.2297345827572508,-0.3395311905010091,0.3906190539325841,-0.05277209282503792,0.0002920041920911935,-0.9422139166132131,-0.779848334196189,2.861801236208928,0.8534047974358115,-0.16350341900269216,0.00416415782002108,3.3812945978665345,0.08080899724496822,-12.459641680120312,-1.8153793999035521,0.40076918790263116,0.29548436903333153,0.14235474360609518,-0.7385031573895493,-4.721392895941417,-0.5706878707149327,0.03243735084928019,0.00034846328320268084
0.54,-0.42349360590082663,1.221944428205003,-0.3121456304304031,0.39895326710631307,-0.054364937606641496,0.0003364571975136321,-0.909816825749582,-0.7790154552247922,2.7385560070605983,0.833421317372896,-0.1592844781603575,0.004445300542243862,3.543547488495835,0.07240024673638971,-13.597056967548154,-2.084883962800035,0.5559803308586466,0.27577849573298163,0.11999325240918338,-0.5052576747666218,-4.823424412151702,-0.591348263807979,0.028330603229506236,0.00027083822800109
0.55,-0.4322524400961588,1.2141620755906783,-0.2861054417670864,0.4070609750578366,-0.05590491467418264,0.00038337381199479026,-0.8758834195332175,-0.778235261432449,2.604018866331669,0.8107707951523572,-0.15399770675411423,0.004691661448115818,3.668691919117666,0.07046120589221448,-14.305382320414568,-2.339361242855496,0.7101476078725781,0.24811662019400993,0.0987517805524416,-0.2841337367134478,-4.870852650571781,-0.5999127875386138,0.024012301742971,0.00019736749414628882
0.56,-0.4406601764478413,1.2063876492901526,-0.2614812524572236,0.41491834219947066,-0.05738157256911958,0.000432304487985858,-0.8407736351682487,-0.7774426300525645,2.462418930986284,0.7857367141634043,-0.14766578949369386,0.004893067599106775,3.7529600769857723,0.07503941844426616,-14.667972837340676,-2.567521350807098,0.8547296880883279,0.21405800694848942,0.07921776402079003,-0.0787883072322346,-4.8750202000692955,-0.5987732325296127,0.01960899595403173,0.0001287517305736523
0.5700000000000001,-0.44870900391609553,1.1986218979675751,-0.23830955448060712,0.42250496903126983,-0.05878528679293702,0.0004827182785257441,-0.8048827468254267,-0.7765751322577495,2.317169797661648,0.7586626831799187,-0.14037142238174474,0.005041379053988614,3.7947009471032533,0.08567285788335427,-14.754333830502835,-2.76335083252642,0.9813113818253185,0.17573307045351472,0.06175475903939988,0.10902014310031621,-4.845441232293695,-0.5899501182305995,0.015231349338830807,6.544763393329312e-05
0.58,-0.456395209300764,1.1908661287243634,-0.2165995228915048,0.42980412847775123,-0.060107843470136285,0.0005340319265660546,-0.768620538466848,-0.7755769243211651,2.1710031589102323,0.7299159446481416,-0.13225566771992664,0.005131364804031047,3.7945178659263217,0.1015668827618195,-14.622460308145513,-2.9242976671384753,1.082737642505444,0.13556453349770736,0.04653559341138064,0.27889345122125464,-4.790065840945031,-0.5751516333075415,0.010971633436347657,7.679888540207549e-06
0.59,-0.4637191009147337,1.1831221172421513,-0.19633871850787535,0.4368027701342092,-0.061342927069576746,0.0005856440334600745,-0.7323891613969669,-0.7744011482211957,2.0260804383629454,0.6998641656457973,-0.12350835994404637,0.005161210689401991,3.7551310459123832,0.12173844653498382,-14.32070977452203,-3.0500232905188653,1.1539989517004923,0.09594229335960947,0.03358078805929637,0.43135226327741716,-4.715505000409215,-0.5558203114285399,0.006902536735947947,-4.453094300564659e-05
0.6,-0.47068472600996114,1.175392006030535,-0.17749785150711836,0.44349138256223325,-0.062486450103334465,0.0006369696230907537,-0.6965625095227449,-0.7730111211616357,1.8840867000756991,0.6688612428024031,-0.11435230337577207,0.00513255896306792,3.6809971123904996,0.14512989436599424,-13.88932127134478,-3.1415664856512677,1.1927237252377114,0.05892996255745242,0.022797896504044297,0.5674911868793967,-4.627223662232218,-0.5331708133252051,0.0030772910400069364,-9.133067440199671e-05
0.61,-0.47729942173645534,1.16767820023643,-0.16003475084582797,0.44986377298231967,-0.06353669106284779,0.0006874705899223729,-0.6614695726494221,-0.7713805794104873,1.7463100661290405,0.6372390420086417,-0.10502409595133297,0.00505009668316192,3.5777682931610317,0.17069491933708014,-13.36166484778847,-3.200798471635501,1.1992268114269364,0.02606391931882035,0.014018257314034402,0.6887213115837186,-4.52970756625067,-0.5082211922020827,-0.00046904542493174644,-0.00013298982533291976
0.62,-0.48357325501881054,1.1599832680142348,-0.14389765966030021,0.45591680217180014,-0.06449423915007835,0.0007366787053010918,-0.6273833282355229,-0.7694932222195412,1.6137091185527754,0.6053029189480497,-0.09575480872305639,0.004920811537871887,3.451695992667373,0.19745963868763475,-12.765283517633195,-3.2300767497109604,1.1761659909041549,-0.0017286687698634395,0.007028739871406099,0.7965865842664872,-4.426607977279749,-0.4818193131398709,-0.0037174317718426933,-0.0001698631025803961
0.63,-0.4895184112472455,1.152309850256317,-0.1290279576017874,0.4616500979003768,-0.06536177283174552,0.000784209585158855,-0.5945156228434968,-0.7673417757917954,1.4869702058512815,0.5733295728576694,-0.08675336816671725,0.0047530879857763195,3.3090756319718277,0.22456213779076942,-12.122772972841066,-3.2320287872085274,1.127933322876175,-0.024102017069727033,0.001597200440325023,0.8926394648477619,-4.320867573639016,-0.45466558745152574,-0.006662159828938001,-0.0002023536966422886
0.64,-0.49514858626740854,1.1446605825931597,-0.115362395890627,0.4670657609807052,-0.06614371820020726,0.0008297677396263085,-0.5630175020163032,-0.7649267663157284,1.3665561711160399,0.5415663080328356,-0.07819453684617458,0.004555815446745346,3.1558009291654296,0.2512741058531746,-11.452531791257616,-3.209416264989496,1.0599363472539407,-0.04118720881808313,-0.002508622483302145,0.9783620878775092,-4.2148299961508515,-0.4273328151534549,-0.00930798114846425,-0.00023088442006731025
0.65,-0.5004784241251742,1.137038031023571,-0.10283491861058842,0.47216807243343834,-0.06684584047722916,0.0008731441121418776,-0.5329837857765612,-0.7622551569588789,1.2527477280038575,0.5102311452733141,-0.07021222770219021,0.004337637251556909,2.997059623098201,0.2770082827278245,-10.769405733135653,-3.1650466402685886,0.9779082516799928,-0.053451735589344906,-0.00550828196695264,1.0551209175515204,-4.1103350505529574,-0.40028366880790117,-0.011667328981974465,-0.0002558762192652267
0.66,-0.505523028293799,1.1294446413355206,-0.09137813360098077,0.47696320711262036,-0.06747481904800307,0.0009142081947605596,-0.5044604168624887,-0.7593389688050429,1.145678500960766,0.479513467918202,-0.06289785707739072,0.004106408261868204,2.8371705196590775,0.30131532202787836,-10.085243221740749,-3.1017112270100817,0.8873429435533609,-0.06155819258196704,-0.00760090977217808,1.1241450132552457,-4.008801194111523,-0.3738861748624098,-0.013757833806677937,-0.00027773349553831064
0.67,-0.5102975599653043,1.12188270161169,-0.08092448767593077,0.4814589574504202,-0.06803784652144328,0.0009528969204304669,-0.4774531671505275,-0.7561939723830587,1.0453645925049992,0.4495750337799863,-0.05630274734402073,0.003868872566990732,2.6795400230432556,0.32387336558419716,-9.409374791968482,-3.0221380120077335,0.793100456059968,-0.06624493891139283,-0.008961472729312109,1.186520154507261,-3.9112967105539433,-0.3484274389826143,-0.015600242229383384,-0.0002968350575726184
0.68,-0.514816925481147,1.1143543165457017,-0.07140719344353061,0.48566447008261915,-0.06854227933177598,0.0009892022526824804,-0.4519365515842699,-0.7528385065988127,0.9517294232400165,0.42055126321989217,-0.05044328103327068,0.003630533225201341,2.5267061324658515,0.3444731642165552,-8.749026351434498,-2.9289533905003395,0.6991852295306487,-0.06823873646691458,-0.009739874819685532,1.243192993908168,-3.8186008130499527,-0.32412579345432463,-0.017216773431420536,-0.0003135293319476075
0.6900000000000001,-0.5190955469210998,1.1068613919772747,-0.06276094846661619,0.4895899975755944,-0.06899535452449218,0.0010231589176564028,-0.4278621439952789,-0.7492924568426893,0.8646244976914421,0.3925527492975255,-0.04530751927162018,0.0033956664973922484,2.380436976876849,0.36300103702828995,-8.109674152176373,-2.824650525275615,0.608671647749874,-0.06819968555888734,-0.010061929089203177,1.2949810208960684,-3.7312557920323406,-0.30114150498085995,-0.018629892961863563,-0.00032813254950686614
0.7000000000000001,-0.5231472051523504,1.0994056279335904,-0.05492248173884161,0.49324666704972714,-0.06940397663771404,0.0010548332146792059,-0.4051658231250517,-0.745576404368422,0.7838466727774578,0.3656669474132753,-0.04086221132218636,0.003167429702280305,2.241855741915863,0.3794214026315236,-7.495349133011543,-2.71156376323356,0.5237381655219211,-0.06669320645973542,-0.01003142625793526,1.3425854347577997,-3.6496113602783833,-0.27958619064465096,-0.019861451777690258,-0.00034092886617599947
0.71,-0.5269849426413975,1.0919885184873297,-0.047830957437222744,0.4966462670718863,-0.06977457087031977,0.0010843133999269578,-0.38377374890471144,-0.7417109446260621,0.7091524301618866,0.3399600022159177,-0.03705942326057338,0.0029480185247751896,2.11157107036587,0.393760095103268,-6.908897372808062,-2.5918491966071784,0.4457699755052408,-0.06418175773814516,-0.009732733897893562,1.3866050098163865,-3.5738622525566353,-0.259531076713739,-0.02093212451369757,-0.0003521716501783394
0.72,-0.5306210132554231,1.0846113568616065,-0.04142826157235722,0.4998010537396648,-0.07011299402866106,0.0011117018059644608,-0.36360706140255683,-0.7377161625723193,0.6402695864865526,0.31547866677784975,-0.03384231583412911,0.0027388406037503112,1.9897993716257583,0.4060892330176339,-6.352197015105875,-2.4674715029348313,0.3754958191924056,-0.06102920744323104,-0.009233544639712328,1.4275496041273688,-3.5040793031576216,-0.24101405580414814,-0.0218610777746626,-0.0003620853728716853
0.73,-0.5340668673801676,1.0772752443873814,-0.03565919286420845,0.5027235764311387,-0.07042449257191685,0.0011371086413769652,-0.3445854124744482,-0.7336112474225076,0.5769068708148772,0.2922522691473941,-0.031149854325579835,0.002540683541250428,1.8764712312255272,0.4165140406848654,-5.826392651059689,-2.340196455667508,0.313133208478243,-0.057512116644919065,-0.008587505096105622,1.465854128845773,-3.44024210385891,-0.22404732496669816,-0.02266582783337488,-0.00037086814845977605
0.74,-0.5373331624056429,1.069981102136618,-0.03047158088548682,0.5054265230989209,-0.07071369675826034,0.0011606472903700233,-0.3266295025475254,-0.7294142250763613,0.5187611978721627,0.27029466677821923,-0.02892041863434903,0.002353864899305808,1.771310780502611,0.42516192346331605,-5.333467467103788,-2.211584315646048,0.25852506864171887,-0.05383384962528148,-0.00783592087250732,1.5019286765002868,-3.382445490749185,-0.20866510145040085,-0.023362730727118836,-0.0003787037623369788
0.75,-0.5404297913264751,1.0627296847056067,-0.025816486100888054,0.5079225801756655,-0.070984640977447,0.001182430858681571,-0.30966289208322095,-0.7251417431011165,0.46550947845987684,0.24960570767445645,-0.02709442191866683,0.00217835683115479,1.673008306205371,0.4321764520677934,-5.01687028107766,-2.0823722728000185,0.21125952819781724,-0.05013907505807902,-0.0069390415067305585,1.5400317363612004,-3.349213851204575,-0.19912818981101688,-0.024019666490451567,-0.00038671722594191423
0.76,-0.5433660099553277,1.055521640465106,-0.02166231321075021,0.5102238656630487,-0.07124082519346382,0.001202567705149667,-0.2936218628852632,-0.7208044240500733,0.4154172890137843,0.23012854873831626,-0.02561842160168167,0.0020136846468095998,1.581293307610993,0.4381559895187381,-4.792935082369926,-1.959003970260186,0.1704463301414556,-0.046550162792754035,-0.005968990199202037,1.57817856851847,-3.329818765694613,-0.1929610428168293,-0.024628270490072702,-0.00039451778670928847
0.77,-0.5461504618878606,1.0483575435735681,-0.017986603089146406,0.5123416758413707,-0.07148526951896486,0.001221161043993843,-0.2784451932533016,-0.7164096891537883,0.3675710121603805,0.21178101783219794,-0.02444443255010426,0.0018593338844175855,1.4962756880348789,0.44342305016221867,-4.539952449857653,-1.8443110923946904,0.13534689909578945,-0.04311766059925892,-0.005008537585810897,1.613190295251565,-3.308452910433058,-0.18652981127999446,-0.02515703099379067,-0.00040140921764017317
0.78,-0.548791166348291,1.0412378857331228,-0.01476406997109768,0.5142866715262728,-0.07172055140190592,0.0012383100513734578,-0.2640704460430267,-0.7119657840445311,0.32225331180487266,0.19449956849021205,-0.023528188294106384,0.0017149007379614833,1.4175310883603767,0.44789584836953683,-4.263840929751294,-1.736074535709566,0.10548012612729052,-0.03985678509001933,-0.004067945388853522,1.6453446789773525,-3.2856718967868823,-0.179967458636615,-0.025612810786286643,-0.00040750636439965446
0.79,-0.5512955581030176,1.0341630703806293,-0.011967175712716306,0.5160690452071283,-0.07194884663120694,0.00125410937581551,-0.2504391754726557,-0.7074815352493604,0.2796894258381373,0.17823736808554802,-0.02282952293010315,0.001579932444205218,1.3446129908143183,0.45151676555792547,-3.9765681806747444,-1.6326257866853506,0.0803311981695014,-0.0367871795705732,-0.0031504815226864238,1.675100445765225,-3.2628313369206126,-0.17358979583071735,-0.02600476799495104,-0.00041296432863514995
0.8,-0.5536705292022283,1.0271334113078177,-0.00956730105540399,0.5176986204433836,-0.07217197293225762,0.0012686485551394583,-0.23749710992107173,-0.7029659072811514,0.23998746573123153,0.16295752362553023,-0.0223126301050681,0.0014539179323948298,1.2771183542480427,0.4542727532170097,-3.6686014946935948,-1.5330063265858556,0.05936549872336805,-0.03392074651157184,-0.002269378490179755,1.7023248678565057,-3.238518667458895,-0.16707644281897788,-0.026334143708113333,-0.00041777743624276677
0.81,-0.5559224661711029,1.0201491283923576,-0.00753380445357892,0.5191849664489746,-0.0723914304218274,0.0012820119970416274,-0.2251936968874563,-0.6984282915460048,0.20334966018250708,0.1486346005591004,-0.02194574895697846,0.0013363441902169125,1.2146402725122134,0.45612195388718746,-3.342637698895451,-1.4360644230628363,0.04209539776821791,-0.03125733544521392,-0.0014283124884186538,1.7272284803777933,-3.212891400649759,-0.16046762096023515,-0.026605817087444812,-0.00042201739824712024
0.8200000000000001,-0.5580572876330611,1.0132103447073082,-0.005834283233337042,0.5205374863112159,-0.0726084402671643,0.001294278953966008,-0.2134821461958195,-0.6938783685049509,0.16995212202418772,0.13525198622412923,-0.021700984533690203,0.0012266956924380636,1.1567961792263453,0.45703637339683434,-2.99959657626244,-1.3409268902433675,0.0280604137549475,-0.02879251665229976,-0.0006299774844340106,1.7499788653249055,-3.1858817581074,-0.15375076575459878,-0.026823792967100277,-0.00042573754100322923
0.8300000000000001,-0.5600804795680375,1.0063170843580218,-0.004434660938922422,0.5217654878413682,-0.07282398050231896,0.0013055236274957718,-0.20231919349764746,-0.6893260349286391,0.13996222944146208,0.12280015301523753,-0.02155402351546539,0.001124467352976366,1.1031918140487798,0.4569941041640698,-2.6639614466222294,-1.2468624924730278,0.016837967074410987,-0.026517680526888743,0.00013902233754791576,1.7714118310047768,-3.160483555467046,-0.14761248671323432,-0.027000989013148343,-0.0004291593551305746
0.84,-0.5619971319245994,0.9994692789623536,-0.0033015930882022565,0.522878160032871,-0.07303882273644845,0.001315814940735853,-0.19166523565619412,-0.6847805395668192,0.11330678507201652,0.11126721915027758,-0.02148422341294867,0.0010291313240081209,1.0534786357367232,0.45605934615361626,-2.3314028323986995,-1.1541168714682097,0.007998030909330045,-0.024425893440661817,0.0008757692412438324,1.7915575576005351,-3.1360044863911525,-0.14189010334984492,-0.027140159158003305,-0.00043229434855102485
0.85,-0.5638119706148071,0.992666772394325,-0.002402042139860296,0.523884567360288,-0.073253563699446,0.0013252168568100144,-0.18148386902076805,-0.6802506568028661,0.08995509483419604,0.10064073274169655,-0.02147409629975425,0.0009401916074161461,1.0073481970966578,0.4542791213736952,-1.9910525681471973,-1.0627521626436502,0.001172852308667538,-0.022503881486402477,0.0015741892465733608,1.810255612669402,-3.1108979999634645,-0.1362248992916209,-0.027240828164715163,-0.0004350978385863828
0.86,-0.5655293857544741,0.9859093216406396,-0.0017022086186680632,0.524793682497929,-0.07346865091749159,0.0013337889054968576,-0.17174151396669807,-0.6757450753685385,0.0699833521192233,0.09091151376409737,-0.02150872180455987,0.0008572048686843305,0.9645046112203597,0.4516609351746494,-1.6677046876098562,-0.9724293071307475,-0.003936050967973392,-0.020736007022601033,0.0022514842654632466,1.8283481551109075,-3.0882247268710357,-0.13131202850195497,-0.027315677137011454,-0.00043778236460726366
0.87,-0.5671534591369993,0.9791966062368036,-0.0011699688628612947,0.5256143286339214,-0.07368440955665159,0.0013415860735163073,-0.16240733825252926,-0.6712715403835969,0.05322397558067684,0.08206461359923949,-0.021575863916000092,0.000779716801944959,0.9246789248964213,0.44829716997876984,-1.3787091720027103,-0.8837181687979503,-0.007638609266227725,-0.019113302023545664,0.0029212747741441634,1.8464673519806853,-3.0701383790101486,-0.12763275090056028,-0.027375506881104072,-0.00044051141990515946
0.88,-0.568687989079159,0.9725282430900655,-0.0007765837537960123,0.5263550706400995,-0.07390106828835093,0.0013486587663236991,-0.15345299421596076,-0.6668363146738134,0.03933851090652825,0.0740742006177991,-0.021665873169933552,0.0007072692807391822,0.8876238285085316,0.44433285093586805,-1.0916271525735635,-0.797690212031624,-0.010231964462703913,-0.017626710648637745,0.0035653302898303874,1.863827593334505,-3.052379430271798,-0.12419798792509434,-0.027411817531923476,-0.00044307576140158763
0.89,-0.5701365128994896,0.9659037889965143,-0.0004935115513067643,0.527024237246675,-0.07411877508965951,0.0013550537198024591,-0.14485238203306777,-0.6624454093551208,0.0283072202489248,0.06691666065755367,-0.021770680130859282,0.0006394953478760054,0.8531189893431655,0.43979158283618275,-0.8502999412810301,-0.7141206851307755,-0.01189967698420985,-0.016258196286469295,0.004214380138410438,1.881785647434338,-3.040517980205569,-0.12227019888521376,-0.027444554349174567,-0.0004458205515197
0.9,-0.5715023276378044,0.9593227582562878,-0.00029671976232689744,0.5276297874822763,-0.07433761870098146,0.0013608135624763077,-0.13658147383147293,-0.6581030740226484,0.01967917889798669,0.06055502356013073,-0.021884361132195128,0.000575984267384863,0.8209560556805864,0.43484555833954885,-0.6616935717896931,-0.6343230866952081,-0.012886026364685554,-0.015004277739718686,0.004876075599322615,1.9006497668102456,-3.0354482311976185,-0.12203388815923319,-0.027480754530343324,-0.0004488281738820463
0.91,-0.5727885092779545,0.952784641375461,-0.0001673750787010061,0.5281791749314956,-0.07455764728385382,0.0013659769083868318,-0.12861816401501447,-0.653811688082676,0.012934468362589135,0.054938744921927525,-0.0220028582872362,0.0005163345910524111,0.7909470384648968,0.42967793241930313,-0.4548076263651235,-0.5596357714378122,-0.013403044924467339,-0.013857107363673182,0.0055073425417815364,1.9185007945314687,-3.0279819398359518,-0.12136969239173258,-0.027495963457902423,-0.00045159923231804947
0.92,-0.5739979295545391,0.9462888977525125,-8.48638247377669e-05,0.5286794812207815,-0.07477887073079356,0.0013705799777407844,-0.1209420276584592,-0.6495743622948594,0.00825112539632392,0.050030628928583815,-0.02212234469397434,0.0004603069353952702,0.762927654875405,0.42421491812441264,-0.3543561772227886,-0.48872847627526994,-0.013483158925684885,-0.012793768235974667,0.006190378761175631,1.9389437176472821,-3.0341553333653075,-0.12393312757608309,-0.027541115039691578,-0.00045505766618246285
0.93,-0.5751332723089125,0.9398349924176929,-3.905545095118053e-05,0.5291370953084058,-0.07500128592623476,0.001374654643493765,-0.11353427543733904,-0.6453905334819579,0.0045808373786586365,0.045761408762430775,-0.022241519544119043,0.00040746657529803945,0.7301388971634052,0.45318050550903055,-3.0021979063772557,-0.4278526520253818,-0.010454527039054029,-0.011846906710140548,0.008420454330172435,2.0405824714045515,-3.397706658631248,-0.20805188085303866,-0.02868159399057706,-0.00047784742848994654
0.9400000000000001,-0.5761977089945448,0.9334267485224013,-0.0002902180046993185,0.5295480147054177,-0.0752251521398221,0.0013781833391053701,-0.10644366856322324,-0.64082438952916,-0.02511625537481379,0.04109193970118748,-0.022386621358734347,0.0003528695611605304,0.7110455299771148,0.4224617201678166,1.6763466865399053,-0.4599307062313547,-0.019252491458936025,-0.011416672989770893,0.006349670963480497,1.9267154319456752,-2.8158081777132304,-0.07612540439423944,-0.02696388809017428,-0.000449250551146983
0.9500000000000001,-0.5771930183421418,0.9270594806967958,-0.000378219627721981,0.5299257559837961,-0.07545023579591083,0.001381272671060273,-0.09953093475969463,-0.6367267825605469,-0.00880016230226625,0.03777412783783902,-0.022508365608873256,0.0003089331954902844,0.6888166074677323,0.41010792339810553,1.1394107521782133,-0.32964221810779737,-0.013627186957400488,-0.00980116225860983,0.007379501336554902,1.9634094954796637,-2.9004615756698637,-0.09725487351016288,-0.027177890266711503,-0.0004566801505229716
0.96,-0.5781213458947981,0.9207322278045419,-0.00035542059025357134,0.5302795453830376,-0.07567626222234315,0.0013839451261542684,-0.09283275526563921,-0.6327252892253922,0.002279903746840964,0.035378939924142525,-0.022602642643232317,0.00026724550939955465,0.6677248059617105,0.4005126432167127,0.6589106674307902,-0.23763132285922195,-0.010633142863320455,-0.009054493556447607,0.008375007688380337,1.9988807794336247,-2.978910734684198,-0.11684964317903873,-0.027392764350620376,-0.00046382102750212406
0.97,-0.5789847240803453,0.9144442597871941,-0.0002687647400498078,0.5306155488747625,-0.07590312409920055,0.001386211408792671,-0.08633781855471118,-0.6287968017347737,0.008665585020376355,0.03360034917248749,-0.02268618768574033,0.00022662826384024993,0.6477727078758175,0.39321329472963856,0.2236897500131158,-0.1760924450471601,-0.009389004446258176,-0.008468460510655862,0.00934201510496224,2.0332533246550715,-3.0524665476734523,-0.13523346614521195,-0.027608325370905892,-0.00047073290768493326
0.98,-0.5797850733435781,0.9081950405720862,-0.00016084913650432322,0.5309374965793021,-0.07613082198348127,0.0013880811151469642,-0.08003492632327641,-0.6249219215107876,0.010791560354548459,0.03219477045396704,-0.022769788428071282,0.00018697063542931995,0.6289339137201565,0.3878419160471529,-0.27156520536169193,-0.13879631574766893,-0.009282623938763418,-0.007933464845376381,0.010346761053172563,2.0693417736229014,-3.134683045136426,-0.155520033608661,-0.027864061461992176,-0.00047816198146392056
0.99,-0.5805242062023254,0.9019842319791459,-8.026184744839924e-05,0.5312468468837184,-0.07635944131066968,0.001389562338556367,-0.07391328587472451,-0.6210808592940369,0.008058728905592397,0.03093503044162952,-0.02286193271884204,0.00014812234094027118,0.60754078474628,0.4359295384886776,-1.1293002208914054,-0.14541058064507517,-0.007454267500361045,-0.00746505950979115,0.011456508962281743,2.121149144476059,-3.2670063780218985,-0.18708338869706703,-0.028278345166762135,-0.00048810344394874857
