tonegas/nnodely-applications/joint_friction_estimation/dataset/validation/mpc_mujoco_episode_1.csv
time,q1,q2,q3,q4,q5,q6,dq1,dq2,dq3,dq4,dq5,dq6,ddq1,ddq2,ddq3,ddq4,ddq5,ddq6,tau1,tau2,tau3,tau4,tau5,tau6
0.0,0.0,1.57,-1.57,0.0,0.0,0.0,0.0,0.0,0.0,0.0,0.0,0.0,-0.4406533991073869,2.602995151638005,12.05753250592798,4.78301376821932,-0.06361202794349774,-4.0474443077087585e-06,-0.061154714957631785,-0.9510235090252626,-2.222641692957452,-0.4494092594078226,-0.005462022909887453,-0.00023639764026533652
0.01,-4.3830106904667355e-05,1.5702636953384397,-1.5687990192573165,0.00044677867941883277,-5.415202713775003e-06,1.915299070209542e-07,-0.0043830106904667356,0.02636953384396781,0.12009807426836357,0.044677867941883276,-0.0005415202713775003,1.915299070209542e-05,-0.4395206545377095,2.6183737971274668,12.001285235789943,4.463623833001932,-0.05408530930747757,0.001917596705939495,-0.061464217566950856,-0.9738066843624305,-2.2293583375141726,-0.45050338113139243,-0.0054859074212008484,-0.00023697667293786512
0.02,-0.00013134491513227894,1.5707927781606015,-1.5664045127956348,0.0013151301198639543,-1.566283626906431e-05,5.897319215414005e-07,-0.008751480822761157,0.05290828221617866,0.23945064616816852,0.08683514404451216,-0.0010247633555289304,3.982020145204463e-05,-0.4380405316055454,2.6331931278339336,11.92351183972654,4.209006598929157,-0.048193842410321874,0.002078822157060678,-0.06198005176249528,-1.0137962283377644,-2.238975591010153,-0.4517213484475927,-0.005523510806427815,-0.0002373563717010762
0.03,-0.0002623779503376228,1.5715888228869384,-1.5628255949363654,0.002584739936621328,-3.037899290767985e-05,1.1847098609840124e-06,-0.013103303520534387,0.07960447263369783,0.35789178592693127,0.12696098167573738,-0.0014716156638615542,5.9497793944261195e-05,-0.4363220079642058,2.646607825034948,11.828789989062521,4.002832570755061,-0.04445808659875272,0.0019987599208206586,-0.0626905063940846,-1.070814171387061,-2.2514993886745933,-0.45306155123427516,-0.005573722732630802,-0.00023752916190195343
0.04,-0.00043674721678955855,1.572653215623308,-1.558072699913225,0.004238944113246832,-4.932846997086695e-05,1.9648861112292526e-06,-0.01743692664519358,0.10643927363697107,0.47528950231402867,0.1654204176625504,-0.0018949477063187105,7.801762502452403e-05,-0.43441808927864495,2.6579223947956434,11.720480491913268,3.832639630697898,-0.04197744926192515,0.0019114753573876708,-0.06357956705415635,-1.1446457108960177,-2.2669091169653792,-0.4545123235093953,-0.005635043065840349,-0.00023748007889789542
0.05,-0.0006542572519390149,1.5739870953109305,-1.5521573363164363,0.006263781353340133,-7.23503083246641e-05,2.920334464507582e-06,-0.021751003514945633,0.1333879687622466,0.591536359678884,0.20248372400933007,-0.0023021838353797144,9.554483532783292e-05,-0.43234671707179023,2.666560904540244,11.60100220978525,3.6889188175954573,-0.04020983973388681,0.001850123296623707,-0.06462692061461532,-1.2350304655083053,-2.2851562087498865,-0.45605199728852264,-0.005705601679566311,-0.00023718639532401128
0.06,-0.0009146989594094347,1.5755913043632666,-1.5450919143526927,0.008647269386740035,-9.932507582812743e-05,4.0429800593600016e-06,-0.02604417074704199,0.16042090523359698,0.7065421963743546,0.23834880333999017,-0.0026974767503463327,0.000112264559485242,-0.430103641896039,2.6720445321287234,11.472044764321055,3.564414363589016,-0.0388317169143102,0.0018161541786936297,-0.06580791617253152,-1.3416535716007068,-2.3061630178070716,-0.4576490111853919,-0.005783177425903037,-0.00023661784321521727
0.07,-0.0012178480052121943,1.577466347131302,-1.5368896296338528,0.011378851990286834,-0.00013015534772013889,5.326328855140871e-06,-0.030314904580275956,0.18750427680354148,0.8202284718839838,0.27315826035467994,-0.0030830271892011464,0.00012833487957808698,-0.42767039756469827,2.673974914795381,11.334733516085564,3.453588299953708,-0.03765231391526713,0.0018061215949640719,-0.06709351394722503,-1.464136642277123,-2.3298219117962784,-0.4592620831551787,-0.0058652181026723794,-0.00023573718223261406
0.08,-0.001563462267925185,1.5796123549784467,-1.527564390829929,0.014448976041758871,-0.0001647541931559903,6.765157842978811e-06,-0.034561426271299066,0.2146007847144585,0.9325238803923702,0.30701240514720374,-0.0034598845435851434,0.00014388289878379396,-0.4250193155166246,2.6720218214135976,11.189758070281774,3.3522116000711364,-0.03656150803234359,0.001816111983139912,-0.06845025237871151,-1.6020286672547357,-2.355994539611118,-0.4608404517761553,-0.0059488629341075405,-0.00023450098597425331
0.09,-0.001951278657346739,1.5820290570725892,-1.517130781281585,0.017848767578419855,-0.0002030385222033705,8.355238110045451e-06,-0.038781638942155396,0.2416702094142547,1.0433609548344018,0.3399791536660982,-0.0038284329047380194,0.00015900802670666404,-0.4221167627060668,2.665914028324942,11.037472866281881,3.2570525107521604,-0.03549818046789821,0.001842546648515464,-0.06984026315323644,-1.7547970270862332,-2.384511277467912,-0.462324196349845,-0.00603096884278823,-0.00023286058371854978
0.1,-0.0023810095114934,1.5847157562427363,-1.505604046774188,0.02156978324016753,-0.0002449253864958506,1.009310081462485e-05,-0.04297308541466611,0.26866991701470233,1.1526734507397123,0.3721015661747675,-0.004188686429248007,0.0001737862704579399,-0.4189253214814808,2.6554325611750453,10.877976487909443,3.16563944085906,-0.034430987818167225,0.0018823414081519108,-0.07122136384898045,-1.921818824329335,-2.415170864496949,-0.4636446435186067,-0.006108141605713293,-0.00023076312467287664
0.11,-0.0028523387204518256,1.5876713094230244,-1.4930001032759272,0.02560381915708136,-0.00029033007589052346,1.1975843787429194e-05,-0.047132920895842555,0.29555531802879736,1.2603943498260686,0.40340359169138323,-0.004540468939467286,0.0001882742972804344,-0.41540534372260257,2.640405664482722,10.71117475579485,3.0760809761077184,-0.0333466407819869,0.0019329283391664731,-0.07254725732440127,-2.1023727756441697,-2.44774025544789,-0.46472486925989376,-0.006176772796056913,-0.00022815274673922074
0.12,-0.003364917690070498,1.5908941123329565,-1.47933555965848,0.029942763690544785,-0.0003391653061949649,1.4000973745301373e-05,-0.05125789696186722,0.3222802909932181,1.366454361744722,0.43389445334634236,-0.004883523030444141,0.00020251299578721794,-0.4115161362874581,2.6207050124935365,10.536831459935343,2.9869296136798056,-0.032242723432829745,0.0019922391528790495,-0.07376786554792678,-2.295631934315525,-2.4819547260310877,-0.465480304752107,-0.006233083210129503,-0.00022497183703106542
0.13,-0.00391836123808756,1.5943820881311386,-1.4646277513427801,0.03457848376403278,-0.00039134106663671635,1.6166278790029827e-05,-0.05534435480170617,0.34879757981820825,1.470780831570002,0.46357200734879955,-0.005217576044175147,0.0002165305044728455,-0.4072169275869509,2.5962427890295197,10.354609653587058,2.8970789163307913,-0.031123261845362293,0.0020586759416962863,-0.07482982286514098,-2.500657530623566,-2.5175182713668898,-0.46581945388144363,-0.006273173249287555,-0.00022116237166982074
0.14,-0.0045122435034706705,1.5981326798393396,-1.448894781516804,0.03950273706139218,-0.00044676486126774424,1.8469726321650473e-05,-0.059388226538311086,0.3750591708200928,1.5732969825976018,0.49242532973593955,-0.0055423794631027905,0.00023034475316206478,-0.4024676996594341,2.5669693508041336,10.164105702430883,2.8056861776468622,-0.029995961916738922,0.002131077883680055,-0.07567714943155317,-2.7163942269168633,-2.554104340061669,-0.4656447288954385,-0.006293080461840947,-0.0002166673199910472
0.15,-0.005146093942474584,1.6021428463710583,-1.4321555671129622,0.04470710430946705,-0.000505342178854043,2.0909382191333505e-05,-0.06338504390039126,0.4010166531718709,1.6739214403841813,0.5204367248074864,-0.00585773175862988,0.0002439655869683033,-0.3972299303776669,2.53287125515871,9.964877718164793,2.7121145284688666,-0.0288704655366534,0.002208687018040445,-0.07625211951291272,-2.9416670846531896,-2.591356946084581,-0.4648534089265345,-0.006288844148397825,-0.00021143209454279246
0.16,-0.005819393479758432,1.6064090620190663,-1.4144298871532583,0.05018293733828008,-0.0005669770869043735,2.3483347637137676e-05,-0.06732995372838482,0.4266215648008103,1.7725679959703808,0.5475833028813031,-0.006163490805033056,0.0002573965445804172,-0.39146726653382147,2.4939694846700466,9.756469563530072,2.6158898251862723,-0.027757232968417478,0.002291114118355697,-0.0764963314941251,-3.1751805316190778,-2.628892198628301,-0.4633387239459107,-0.006256576598753633,-0.0002054060240432078
0.17,-0.006531570878383194,1.6109273192636189,-1.3957384314051298,0.055921319732981145,-0.000631572882951321,2.6189711195707983e-05,-0.07121773986247619,0.45182572445524694,1.8691455748128554,0.573838239470106,-0.006459579604694738,0.00027063635585703073,-0.3851461344898862,2.4503177415463306,9.538431255919786,2.516668741611227,-0.026666814845074827,0.0023783049281387303,-0.07635197680408254,-3.4155195996250964,-2.6663002884159774,-0.46099106463925016,-0.006192540167417911,-0.00019854382257459985
0.18,-0.0072819993877814,1.615693134760345,-1.376102847568062,0.06191303773945177,-0.0006990327593973086,2.9026513333231557e-05,-0.07504285093982058,0.47658154967260624,1.9635583837067836,0.5991718006470625,-0.0067459876445987695,0.00028368021375235725,-0.3782362871912148,2.4020007172995137,9.310336264836646,2.414215313501078,-0.025609370442718937,0.0024705068452393064,-0.07576329378229146,-3.6611536791495904,-2.7031479722155605,-0.4576993179420256,-0.0060932290209536055,-0.00019080702577684865
0.19,-0.008069993723401645,1.620701558356813,-1.355545785457825,0.06814855972221849,-0.0007692604528061546,3.19917219875989e-05,-0.07879943356202457,0.5008423596467946,2.0557062110236926,0.6235521982766722,-0.007022769340884589,0.00029652086543673463,-0.37071128251443386,2.349132270903405,9.071795750144627,2.308383817090615,-0.024594344624232045,0.002568236194309126,-0.07467818020685252,-3.910443021988996,-2.7389816237298934,-0.4533523331227995,-0.0059554540221880385,-0.00018216536645612556
0.2,-0.008894807425498369,1.6259471849715592,-1.3340909369111817,0.07461802294570125,-0.0008421608578221805,3.508321757225537e-05,-0.08248137020967242,0.5245626614746176,2.1454848546643195,0.6469463223482751,-0.007290040501602592,0.00030914955846564676,-0.36254888737796137,2.291853476349691,8.822468769772438,2.19910634415972,-0.023630249036002082,0.002672246341080875,-0.07304992546594029,-4.161648264686908,-2.7733310304890484,-0.4478405499691705,-0.005776428884162445,-0.00017259807653855017
0.21,-0.009755630637529659,1.6314241691509657,-1.3117630704953436,0.08131122678923483,-0.0009176405919394072,3.8298786279316977e-05,-0.08608232120312899,0.5476984179406361,2.232786641583821,0.6693203843533582,-0.00754797341172267,0.00032155687070616117,-0.35373132849742234,2.2303299786034367,8.562134746456636,2.0863827220854496,-0.022724512163518007,0.0027834970000628623,-0.07083899629689888,-4.412934588036201,-2.8057047317043073,-0.4410554744173363,-0.005553854104955713,-0.00016209383715217983
0.22,-0.010651588329549249,1.6371262420797048,-1.2885880540292614,0.088217632057162,-0.0009956085013009064,4.1636120362432436e-05,-0.0895957692019591,0.5702072928739247,2.3175016466082203,0.6906405267927168,-0.007796790936149918,0.00033373340831154594,-0.34424569232920793,2.1647512432191687,8.290523582675865,1.9702801568350843,-0.02188337846101196,0.0029031221456286005,-0.06801486926963198,-4.662410187002529,-2.835619083467896,-0.4328975023195979,-0.005286001618734612,-0.00015065501035939772
0.23,-0.011581739007144869,1.6430467308812156,-1.2645928814553757,0.09532636535711878,-0.0010759761002747698,4.5092825801063126e-05,-0.09301506775956198,0.5920488801510809,2.399517257388563,0.7108733299956772,-0.008036759897386331,0.0003456705438630689,-0.3340838579026296,2.095325945567956,8.007538458703035,1.8509175017985982,-0.02111183200933109,0.003032412860722644,-0.06455772561388105,-4.908115100474578,-2.862573429860284,-0.42327027760541536,-0.004971786939028255,-0.00013829439121850948
0.24,-0.01254507389971343,1.6491785798675547,-1.239805682469373,0.10262622865871814,-0.0011586579392514663,4.866643513197958e-05,-0.09633348925685624,0.613184898633917,2.4787198986002617,0.7299863301599359,-0.008268183897669645,0.00035736093309164527,-0.3232426400092467,2.0222806221401206,7.7131315179539435,1.728470261709127,-0.020413544538397277,0.0031727776383956297,-0.060460047146486964,-5.148058799027706,-2.8860729347102954,-0.4120867868238902,-0.0046108378105540835,-0.00012503801179944448
0.25,-0.013540516643119917,1.655514373534905,-1.2142557269774907,0.11010571369278095,-0.0012435718960154493,5.23544258208238e-05,-0.09954427434064862,0.6335793667350332,2.554995549188242,0.7479485034062815,-0.0084913956763983,0.00036879906888442177,-0.3117237842900423,1.9458569971753072,7.407271552511169,1.6031659921716894,-0.019790828348970724,0.0033257278562058845,-0.0557279683124014,-5.380245647640122,-2.9056391131891166,-0.39927232216100567,-0.00420355059684072,-0.00011092600956577497
0.26,-0.014566923456902412,1.662046361024973,-1.1879734275652787,0.11775302066084471,-0.0013306393864810314,5.615424387204486e-05,-0.1026406813782495,0.6531987490067914,2.628229941221198,0.7647306968063764,-0.00870674904655821,0.0003799818051221055,-0.2995352362019571,1.8663170189246776,7.088954477529422,1.4752958551845552,-0.019244599051469358,0.0034928570367349643,-0.05038256953543251,-5.602800957844877,-2.92095311040653,-0.3848003793542405,-0.0037511573145012867,-9.603095393206999e-05
0.27,-0.015623083943390265,1.6687664821021186,-1.1609904364336034,0.1255560765255176,-0.001419785492778595,6.006333750097882e-05,-0.10561604864878515,0.6720121077145799,2.698299113167525,0.7803055864672869,-0.008914610629756365,0.0003909093628933965,-0.28668517326513726,1.7839013952391296,6.76056013112621,1.3450775046071222,-0.018774292710613594,0.0036758541174884973,-0.0444595395167979,-5.813525250121985,-2.9312606034951054,-0.3685453143420044,-0.0032556563764131216,-8.037759968103803e-05
0.28,-0.01670772191285726,1.67566639257261,-1.1333394127021916,0.13350256706748573,-0.001510938996221575,6.407917337970357e-05,-0.1084637969466997,0.6899910470491438,2.7651023731411866,0.7946490541968136,-0.009115350344297984,0.00040158358787247515,-0.27341626030491273,1.7001126154778934,6.273667697734898,1.2157512330101703,-0.018379066637921104,0.0038762833891080595,-0.03805196855003787,-6.0247416003416205,-2.9567096634922674,-0.35557914434924914,-0.002723932430535961,-6.678363828073992e-05
0.29,-0.01781951961445227,1.6827375484620484,-1.1050684906381194,0.14157935980333738,-0.0016040327786383942,6.820008454028164e-05,-0.11117977015950094,0.7071155889438282,2.827092206407213,0.8076792735851657,-0.009309378241681928,0.00041209111605780606,-0.259981447265335,1.6156760499750173,5.522394403262149,1.081746290629905,-0.01805831119525969,0.004101095096868956,-0.03128640669866262,-6.240700184247521,-3.012004959736779,-0.3497107352490152,-0.0021650516092492295,-5.741527364659389e-05
0.3,-0.01895714292652919,1.6899712425872064,-1.0762516657689614,0.14977150026453273,-0.0016990045048502344,7.242544750140948e-05,-0.113762331207692,0.7233694125158063,2.881682486915813,0.8192140461195356,-0.009497172621184016,0.00042253629611278397,-0.24607816550829364,1.5280575950566961,4.783891045770544,0.9265774797912751,-0.01780914863654237,0.004347794741838551,-0.0242257260336635,-6.429541685806295,-3.0591650644485093,-0.34178298563877846,-0.0015807115339627627,-4.751806953864711e-05
0.31,-0.020119211102767126,1.69735848515709,-1.0469618431508552,0.15806247641267532,-0.001795796140223117,7.675344193554392e-05,-0.11620681762379359,0.7387242569883519,2.92898226181063,0.8290976148142597,-0.009679163537288265,0.00043279944341344446,-0.2317084644904495,1.4377585665070016,4.074048726203829,0.7566976632652924,-0.01762208520426145,0.004594663750606853,-0.016973406582803517,-6.588744713214064,-3.095540935729819,-0.3312636792065691,-0.0009770735841769618,-3.690772858642831e-05
0.32,-0.021304297011525978,1.704890055685189,-1.0172692437013384,0.16643481048013475,-0.0018943533498328665,8.118104798047057e-05,-0.11850859087588525,0.7531570528098845,2.9692599449516663,0.8372334067459432,-0.009855720960974939,0.0004427606044926644,-0.21688208482268503,1.3453263980570813,3.4030315863235066,0.5781230200310414,-0.017484068137130326,0.004842375819497258,-0.009638454308268957,-6.717132951815342,-3.119374145932313,-0.31783359896203417,-0.0003607166650354894,-2.5501812441808014e-05
0.33,-0.02251092814539415,1.712556556813883,-0.9872403714973217,0.17487058350241183,-0.0019946246421250597,8.570439006090162e-05,-0.12066311338681719,0.7666501128694055,3.00288722040167,0.8435773022277072,-0.010027129229219334,0.00045233420804310454,-0.20160929320403698,1.251288568874327,2.7817009335039526,0.39609876323034676,-0.017378957472128254,0.005095019879609863,-0.0023306772172224446,-6.814203776792712,-3.1289189509425404,-0.3011694231824532,0.00026167437640595625,-1.320214785115905e-05
0.34,-0.023737587684523206,1.7203484664250461,-0.956936916764016,0.18335190170710125,-0.002096560289860835,9.031908613464586e-05,-0.12266595391290559,0.7791909611163255,3.030345473330569,0.8481318204689425,-0.010193564773577517,0.00046146960737442386,-0.18590035213359926,1.1561519398490265,2.2255043214445633,0.21527156617248178,-0.017287970555457943,0.005356746879654928,0.0048436169028665405,-6.8798470283037885,-3.1218907208080093,-0.28080460245797106,0.0008835918318493468,1.8155927825534398e-07
0.35000000000000003,-0.02498271555977641,1.7282561892398207,-0.9264142130562925,0.19186133842392977,-0.002200111051675823,9.502054704184694e-05,-0.12451278752532033,0.790772281477452,3.05227037077236,0.8509436716828519,-0.010355076181498843,0.000470146090720108,-0.1697779541519256,1.0604726627453318,1.7157894387821442,0.040174238474873114,-0.017190102967444276,0.005631396950944001,0.011783293250980757,-6.916908416592055,-3.1008056166627496,-0.2574389513359784,0.00149842173419673,1.4235325044244086e-05
0.36,-0.02624471078040676,1.7362701005467915,-0.8957230308134088,0.20038218759240828,-0.002305226781820925,9.980439142930684e-05,-0.12619952206303525,0.8013911306970856,3.0691182242883723,0.85208491684785,-0.010511573014510183,0.00047838443874599,-0.1532413182145199,0.9645701587483698,1.2960945193511102,-0.12694386558051507,-0.017062382729331693,0.005923288280665101,0.0183968451858185,-6.9243050166323314,-3.059721003575155,-0.22969610642209984,0.0021005624841147074,2.9662710577208105e-05
0.37,-0.027521931389388722,1.7443805900409362,-0.8649052989715595,0.20889886015374437,-0.0024118547736653993,0.00010466650578981581,-0.1277220608981963,0.8110489494144669,3.081773184184926,0.8516672561336095,-0.010662799184447435,0.000486211436050897,-0.13631300185016407,0.8689685409494927,0.9258661387460762,-0.28189799650656866,-0.0168794946334323,0.006234234236143027,0.024606007122499163,-6.906969742146421,-3.004299167047969,-0.19901319887201313,0.0026843618477307624,4.569299271892374e-05
0.38,-0.028812696806409258,1.7525780947836664,-0.8339980458632781,0.21739699953520775,-0.002519938092967603,0.00010960348191904443,-0.1290765417020534,0.8197504742730215,3.0907253108281467,0.8498139381463381,-0.010808331930220362,0.0004936976129228613,-0.11899583454359118,0.7739016919777225,0.6380579268646286,-0.42376890242289833,-0.016614743748729066,0.0065685550832778605,0.030341010084832032,-6.865162023928405,-2.930218333269957,-0.16439490475208052,0.003245160189249681,6.285538030434026e-05
0.39,-0.030115288164485016,1.7608531307846258,-0.8030301631565475,0.225863714701347,-0.0026294136386010177,0.00011461264203146711,-0.13025913580757584,0.8275036000959423,3.096788270673061,0.8466715166139243,-0.010947554563341469,0.000500916011242269,-0.10129758957506833,0.6796937750430475,0.4170692505715543,-0.5502002487010215,-0.016238703549820432,0.00692729400804349,0.03554968991574903,-6.802336920024219,-2.839832320705582,-0.12644953685333477,0.003778860619620547,8.08461610213847e-05
0.4,-0.031427949183778094,1.7691963160499762,-0.7720239165364702,0.2342876814229382,-0.0027402101105956063,0.00011969226452697912,-0.13126610192930782,0.8343185265350476,3.1006246620077387,0.8423966721591202,-0.011079647199458854,0.0005079622495512001,-0.08322463175385919,0.5865577355804146,0.24610940686787236,-0.6602064243685424,-0.015719986661681062,0.007312926882271205,0.04018983572358285,-6.721565169548026,-2.7357347825274054,-0.0858442142744886,0.004281721861929232,9.933791539195085e-05
0.41000000000000003,-0.03274888691503518,1.7775983838426754,-0.7409965827534862,0.2426591328336132,-0.0028522458571126038,0.000124841749506196,-0.13209377312570858,0.8402067792699284,3.102733378298391,0.837145141067499,-0.011203574651699754,0.0005149484979216894,-0.06478087153244295,0.4946083979122464,0.11284319169021373,-0.7538977022343958,-0.01502468499959389,0.00772657897084005,0.04422841656718834,-6.6252707776383195,-2.6199650232506997,-0.043113490532390594,0.004750345173404652,0.00011807934687951192
0.42,-0.03407627224725836,1.7860501889729588,-0.7099616578019109,0.2509697880514095,-0.0029654265432909432,0.00013006168091304305,-0.13273853322231802,0.8451805130283286,3.103492495157534,0.8310655217796333,-0.011318068617833953,0.0005219931406847031,-0.045968042587964074,0.4038950675312886,0.0076432839426882615,-0.8319851657742368,-0.014115626396728587,0.008167565898741555,0.047641782149078625,-6.515423813498131,-2.4942256616655643,0.0012889131284431754,0.005181674816178929,0.00013686753417320696
0.43,-0.03540824021150412,1.794542709314021,-0.6789298041058132,0.2592127484256837,-0.0030796425913960897,0.00013535381516216477,-0.13319679642457663,0.8492520341062103,3.103185369609776,0.8242960374274215,-0.011421604810514656,0.0005292134249121726,-0.026786354001119003,0.31442365539045175,-0.077317442429041,-0.895487421004437,-0.012951706252048334,0.008633592976426178,0.05041559286522373,-6.393652309594923,-2.359993449965912,0.0469638383609726,0.005572991487693754,0.00015553361911985276
0.44,-0.036742890149573354,1.8030670441717336,-0.647909623676513,0.2673823796030679,-0.003194766347210687,0.00014072102073752832,-0.13346499380692325,0.8524334857712587,3.102018042930026,0.8169631177384192,-0.011512375581459748,0.0005367205575363549,-0.007238171997934662,0.226181746983154,-0.15809124074061948,-0.945520765741983,-0.011487308136142897,0.009120850757629362,0.052544182807840456,-6.261540120853035,-2.219884398234811,0.09323512531634474,0.00592171717622072,0.0001737665661564743
0.45,-0.03807828612122856,1.8116144094313915,-0.6169092395873719,0.27547414961444483,-0.003310648995585427,0.00014616721044355364,-0.1335395971655207,0.854736525965802,3.100038408914102,0.8091770011376958,-0.011588264837473961,0.0005446189706025307,0.01267494526220696,0.1391165207810588,-0.24071353664526268,-0.9836704981438997,-0.009672282788073323,0.009623820183198892,0.054028874097094746,-6.120051139334781,-2.075168786353214,0.1397463754533116,0.006225517401617613,0.00019142732375042023
0.46,-0.039412457250964504,1.8201761321780965,-0.5859368978451618,0.2834844777180149,-0.0034271171207825805,0.0001516971914223276,-0.13341711297359474,0.856172274670495,3.0972341742210086,0.8010328103570055,-0.011646812519715366,0.0005529980978773951,0.032945217235679294,0.053191119951637104,-0.3340778291005537,-1.0113484121706806,-0.007451167653282298,0.010134599250099519,0.0548791755284854,-5.970046801721398,-1.9275104985251679,0.18604559715618885,0.006482255718493448,0.00020833113223853582
0.47000000000000003,-0.040743398721906215,1.8287436466743006,-0.5550018492364951,0.2914105853049993,-0.003543968944417695,0.0001573164963355155,-0.13309414709417147,0.856751449620418,3.093504860866671,0.7926107586984399,-0.011685182363511432,0.0005619304913187916,0.05352786875816963,-0.03154145797493276,-0.46878559880082993,-1.0296293609114187,-0.004763490924325542,0.010643093337050352,0.05510937574568141,-5.81245419209954,-1.7815367177613293,0.23096155913233868,0.006689355298972552,0.00022391940880893744
0.48,-0.042069076465576775,1.8373084958568242,-0.5241173617942945,0.2992502803957852,-0.0036609704943780363,0.00016303125456040968,-0.1325677743670558,0.8564849182523646,3.0884487442200674,0.7839695090785889,-0.011700154996034162,0.0005714758224894177,0.07419757644436724,-0.11464535561164155,-0.7627778966508314,-1.0387186659876815,-0.0015452195406687463,0.011136196996954173,0.054723375378707126,-5.648298789235896,-1.6537769749829507,0.27043090126849967,0.006841021128532422,0.0002361212595107628
0.49,-0.04338744971297796,1.8458623587924607,-0.49331231032223677,0.30700144210033137,-0.003777852779874861,0.0001688482808751747,-0.13183732474011872,0.8553862935636573,3.0805051472057685,0.7751161704546138,-0.011688228549682463,0.0005817026314765019,0.09498631872750919,-0.19650111982367136,-1.1337102109441728,-1.0465583015101392,0.0022551709270667297,0.01159444362939624,0.053736560148581025,-5.475306536952938,-1.5338172187831045,0.30679311138024695,0.0069348825224426775,0.00024621510685753176
0.5,-0.044696468133505765,1.8543970389981264,-0.4626231313319159,0.31466175136303487,-0.0038943075565058146,0.00017477412038703022,-0.1309018420527803,0.8534680205665626,3.0689178990320856,0.76603092627035,-0.01164547766309537,0.0005925839511855525,0.11593572264876122,-0.27719549236245117,-1.516119281233556,-1.056101201277079,0.006699529886116273,0.011988658210109804,0.05219432177030245,-5.293306090660898,-1.4134030484646336,0.3419325585619275,0.006971058054287392,0.0002552620497482656
0.51,-0.045994068097174344,1.8629044708210156,-0.43208740612771696,0.3222287350174252,-0.004009982418029645,0.00018081428918217282,-0.12975999636685812,0.8507431822889305,3.0535725204198925,0.7566983654390356,-0.011567486152383077,0.0006040168795142595,0.13265254837107526,-0.34765733845872443,-5.313615562336867,-1.0195021166862066,0.011906404688910993,0.012293468066678748,0.049880761870731094,-5.100470391440152,-1.7537582918635632,0.26496746292639445,0.006850914605632019,0.00020522205792720066
0.52,-0.04727860598539506,1.8713772692227997,-0.402078154323665,0.32968956940657745,-0.0041245175052728586,0.00018698291842306994,-0.12845378882207148,0.8472798401784134,3.000925180405194,0.7460834389152238,-0.011453508724321356,0.0006168629240897124,0.14901641896597265,-0.41876183539063194,-8.38843495557809,-1.1271987217979067,0.017417429425857334,0.012390503217981075,0.046576856483091164,-4.863842145794598,-2.002633960150841,0.20544049280638998,0.00660666131987607,0.00016369634541334724
0.53,-0.048548475557300276,1.879808273561844,-0.37289806425485417,0.33702285036805185,-0.004237526702745722,0.00019328125088782327,-0.12698695719052153,0.8431004339044238,2.918009006881085,0.7333280961474401,-0.011300919747286371,0.0006298332464753336,0.16501307217428965,-0.48680118376391585,-10.675347287891315,-1.3222787764570114,0.023370756328103176,0.01207092693186218,0.042616655208826675,-4.603585533929355,-2.1508448441526684,0.166196927392608,0.006264956136923737,0.00013253733437475692
0.54,-0.049802109270952404,1.8881908369047513,-0.34477277943551826,0.3442033624053744,-0.004348587346911742,0.00019969779288041037,-0.12536337136521283,0.8382563342907394,2.812528481933592,0.7180512037322588,-0.011106064416601964,0.0006416541992587085,0.18039029153447114,-0.5487318089815523,-12.319471165825508,-1.5561677610421008,0.0297650168726159,0.011359381391907064,0.038303268237341,-4.336859619526825,-2.2177148107698494,0.14341351309039552,0.005849822258118878,0.00011006738012938241
0.55,-0.051038003283347406,1.8965190423844263,-0.3178649187385286,0.3512053536707064,-0.004457242149575962,0.0002062118471258723,-0.12358940123950024,0.8328205479675008,2.6907860696989627,0.7001991265331963,-0.010865480266422048,0.0006514054245461939,0.19489382388679563,-0.6027038533622698,-13.44049623503682,-1.7971765748710666,0.036466935836162034,0.010321893560558904,0.03387699441504244,-4.076074258159775,-2.2194581865012193,0.13393496842691938,0.0053830344186728335,9.488763569605671e-05
0.56,-0.05225474268816625,1.904787824045497,-0.29228568889004514,0.3580045814630949,-0.004563010144650099,0.00021279654065285908,-0.12167394048188446,0.8268781661070767,2.557922984848351,0.6799227792388504,-0.010576799507413746,0.0006584693526986775,0.20827735790175297,-0.6477961744585959,-14.13756073563342,-2.025473388155973,0.043254702382960475,0.009027826214660806,0.029519544972123633,-3.8296501529133247,-2.169665777812045,0.13514213248997486,0.004883864696594636,8.581479354170815e-05
0.5700000000000001,-0.053451025858393675,1.91299301361008,-0.2681045399870592,0.3645795042664574,-0.004665403785675467,0.00021942111319916795,-0.11962831702274244,0.8205189564582862,2.4181148902985976,0.6574922803362527,-0.010239364102536756,0.0006624572546308861,0.22031523728775823,-0.6837919097027754,-14.49305676876357,-2.2294059690898465,0.049856261734848445,0.007546622788085822,0.02536071997277242,-3.6028164886481298,-2.079704231780995,0.14485219668948646,0.004368929977453503,8.183608501440836e-05
0.58,-0.05462568654221392,1.9211313314995075,-0.2453572171518188,0.3709118941058008,-0.004763949524096896,0.00022605267728355893,-0.11746606838202422,0.8138317889427684,2.274732283524039,0.6332389839343364,-0.009854573842142934,0.0006631564084390974,0.23081562026819916,-0.7109886255354319,-14.575613584640061,-2.402851318500282,0.05598468185625613,0.005947537835645056,0.021486375876859986,-3.3983576613417816,-1.959048768778511,0.1612418852346555,0.003852152051117202,8.207722213666931e-05
0.59,-0.055777712365187714,1.929200337766713,-0.22405248664323568,0.37698706541104715,-0.004858209322385467,0.00023265763578184532,-0.11520258229737927,0.8069006267205439,2.130473050858311,0.6075171305246364,-0.00942597982885705,0.0006604958498286379,0.2396319860580987,-0.7300389022994114,-14.44245500099362,-2.5433368412746233,0.061369920234852354,0.0042980970495878346,0.01794673115440599,-3.217264318114671,-1.8155637637686628,0.1827872553745366,0.0033448224609735405,8.577940803136558e-05
0.6,-0.0569062586060526,1.937198356170113,-0.20417775775348798,0.3827938584564296,-0.004947800771336548,0.00023920286728672653,-0.1128546240864887,0.7998018403399941,1.9874728889747701,0.5806793045382471,-0.008959144895108115,0.0006545231504881203,0.2466712939863606,-0.7418185800918156,-14.141281656004933,-2.6507322120569157,0.06578513242027584,0.002661413024789283,0.014764315273726406,-3.059272214006966,-1.6557416227790727,0.20821569898230474,0.0028557545536466236,9.228260259083851e-05
0.61,-0.058010656491543945,1.9451243823506676,-0.18570377845904815,0.3883244725868662,-0.005032413864462633,0.00024565672822792194,-0.11043978854913487,0.7926026180554646,1.8473979294439833,0.5530614130436591,-0.008461309312608465,0.0006453860941195423,0.25189774317748437,-0.747320576147638,-13.711792349289441,-2.7263559230217354,0.06906558627315756,0.0010931577216370947,0.01194111594450694,-2.9232896579901118,-1.484907577197518,0.2364670294202884,0.0023915011833040628,0.0001010130117664025
0.62,-0.05909041572564907,1.952977984923612,-0.16858854973937065,0.39357421342950066,-0.0051118230319591295,0.0002519898821824775,-0.10797592341051254,0.7853602572944375,1.7115228719677509,0.5249740842634492,-0.007940916749649618,0.0006333153954555582,0.25533184601860676,-0.7475722857316449,-13.186929998483318,-2.772377109289515,0.07111895716973943,-0.0003610408959009437,0.009464689747577913,-2.807723905301674,-1.3073960548897579,0.2666614378111161,0.0019566159319747366,0.00011147335342940982
0.63,-0.060145221448855604,1.9607592062803771,-0.1527805781127714,0.39854119632596374,-0.0051858936897781075,0.00025817594915220787,-0.10548057232065323,0.7781221356765256,1.580797162659926,0.4966982896463066,-0.007407065781897826,0.0006186066969730351,0.25704525784003224,-0.7435743291815889,-12.593915487996012,-2.791422991203902,0.07192690881121244,-0.001667250714237456,0.007313161372897392,-2.710721284043456,-1.1267029277559373,0.2980727330396022,0.0015539371451321247,0.00012323489468274012
0.64,-0.06117492623944637,1.9684684680562217,-0.13822156625645965,0.40322603303861476,-0.005254583222206578,0.00026419196583895145,-0.10297047905907669,0.7709261775844495,1.4559011856311754,0.46848367126510165,-0.006868953242847007,0.0006016016686743562,0.25715235712005463,-0.7362580462919244,-11.955115781421087,-2.786326142684171,0.07153902436985676,-0.0028037118579939957,0.005459147573929979,-2.6303369932249057,-0.9456169969918875,0.3301057245492092,0.0011848767466330395,0.0001359305900819208
0.65,-0.062179538070245725,1.9761064846008054,-0.12484862605734703,0.40763151855944196,-0.005317936895203709,0.00027001865598624646,-0.10046118307993582,0.7638016544583729,1.3372940199112608,0.44054855208271987,-0.006335367299713052,0.0005826690147295,0.25579986411910627,-0.7264588451605155,-11.288780100051937,-2.759964577887512,0.07006103193352592,-0.0037601920884680062,0.003872710528902414,-2.564649722114925,-0.766333428556367,0.36227692163345143,0.0008496991768442362,0.00014924890031774068
0.66,-0.06315920529784652,1.9836741864263074,-0.11259608596003216,0.41176232814997454,-0.005376079623390873,0.00027564052180807213,-0.09796672276007941,0.7567701825502059,1.2252540097314875,0.41308095905325753,-0.005814272818716443,0.0005621865821825668,0.2531558141570094,-0.714902385698176,-10.609668875606822,-2.715162048872969,0.0676396977280251,-0.004536471938786146,0.002523480621469155,-2.5118344455194945,-0.5905514030297208,0.39419794380147605,0.0005477794991243826,0.0001629280515895263
0.67,-0.06411419979196044,1.9911726545151516,-0.10139695423197893,0.41562473046751985,-0.0054292047540521575,0.00028104577882279494,-0.09549944941139146,0.7498468088844158,1.1199131728053224,0.38624023175452926,-0.005312513066128413,0.0005405257014722835,0.24939901877031537,-0.7022006445833565,-9.929593620309396,-2.654626652643632,0.06444672650442787,-0.005140303038788208,0.0013820997524701065,-2.470204561134624,-0.41955790865665343,0.42556119516240226,0.0002778334053433186,0.0001767506219530571
0.68,-0.06504489923470581,1.9986030655410834,-0.09118409117383781,0.4192263199751881,-0.005477561092012408,0.0002862261642952408,-0.09306994427453737,0.7430411025931793,1.0212863058141117,0.3601589507668271,-0.004835633796025021,0.0005180385472445883,0.24470983935245524,-0.6888551466408226,-9.257881576668488,-2.5809135211839482,0.060663614980224836,-0.005585182905803787,0.00042113115464255017,-2.4382323204467684,-0.25429939413509905,0.4561274574021838,3.811521668565333e-05,0.00019053841639182756
0.6900000000000001,-0.06595176946803988,2.0059666474704785,-0.08189113599193203,0.4225757702106175,-0.005521439302854879,0.0002911766529638086,-0.09068702333340671,0.7363581929395043,0.9292955181905782,0.3349450235429358,-0.0043878210842471,0.0004950488668567764,0.23926275220509624,-0.6752650025881094,-8.60177568792637,-2.4964026782122417,0.05646881201849255,-0.005888226140122299,-0.0003844332171592865,-2.414554490287064,-0.09544277571169779,0.48571513860221144,-0.00017341717667651953,0.00020414764013650374
0.7000000000000001,-0.06683534757786369,2.013264644631626,-0.0734532277268208,0.42568260850450207,-0.005561158646092498,0.00029589511311540144,-0.08835781098238145,0.7297997161147118,0.8437908265111236,0.31068382938845845,-0.003971934323761965,0.00047184601515928555,0.23322086915709525,-0.6617378119537181,-7.96677856154056,-2.403286645854216,0.05202790748630294,-0.006068319804707234,-0.001056956323062314,-2.3979684460373973,0.056572836027527496,0.5141909604620969,-0.0003589693070903192,0.0002174643947627475
0.71,-0.0676962262060793,2.0204982911291838,-0.06580755413485304,0.42855701213518327,-0.005597054753866788,0.000300381932435453,-0.0860878628215616,0.7233646497558138,0.7645673591967763,0.28744036306812026,-0.0035896107774290296,0.0004486819320051584,0.22673233488057548,-0.6485019170707067,-7.356947610933572,-2.303564601714349,0.04748701915138494,-0.006144658072608222,-0.0016161402761355906,-2.387422481793222,0.20149247034187812,0.5414619045993403,-0.0005208064060263982,0.00023040052444053737
0.72,-0.06853503939915248,2.027668791399729,-0.05889375761637267,0.4312096255182018,-0.005629468926508472,0.00030463963769244214,-0.0838813193073177,0.7170500270545309,0.6913796518480363,0.26526133830185317,-0.003241417264168325,0.00042577052569890933,0.21992836408324354,-0.635718893947831,-6.7751474583924365,-2.1990412134850317,0.04296913849310258,-0.006135675543674113,-0.002079140710834125,-2.382003008585716,0.33920861049049245,0.5674682675038536,-0.0006611754207181816,0.00024288983373854244
0.73,-0.06935245014673169,2.0347773067160206,-0.0526542230744343,0.43365139776543676,-0.005658739194008076,0.00030867252637272434,-0.08174107475792176,0.7108515316291627,0.6239534541938372,0.24417722472349654,-0.002927026749960491,0.0004032888680282203,0.21292260214761444,-0.6234955135564425,-6.223265112866949,-2.0913290178174684,0.03857294786309431,-0.006058346947486637,-0.002460758458653943,-2.3809204549214984,0.4697304998698144,0.5921776874839998,-0.0007822488484160619,0.00025488468395701324
0.74,-0.07014913964219643,2.0418249465213667,-0.04703426891981302,0.4358934397554743,-0.005685193209689589,0.00031248632271240194,-0.07966894954647413,0.7047639805345857,0.5619954154621281,0.22420419900374985,-0.002645401568151259,0.00038137963396775795,0.20581147539560743,-0.6118946922267537,-5.702392623176762,-1.9818536083503346,0.03437351492680098,-0.005927792588512726,-0.0027736704771934993,-2.383495057083041,0.5931585896726446,0.6155800286255393,-0.0008860864639787679,0.0002663529663497319
0.75,-0.07092579820859944,2.048812763586219,-0.0419822592336806,0.43794689970954365,-0.005709142905918827,0.00031608786568638445,-0.07766585664030104,0.6987817064852144,0.5052009686132424,0.20534599540693393,-0.0023949696229238174,0.0003601542973982497,0.1986752221277713,-0.6009451723753357,-5.212980613858444,-1.8718610951595682,0.03042427062191396,-0.005757119053830917,-0.0030286737641563974,-2.3891432917312754,0.7096634833657993,0.6376830435470175,-0.000974611251145937,0.00027727545277161236
0.76,-0.0716831177746908,2.055741752107487,-0.0374496522319417,0.4398228561564559,-0.0057308807503859095,0.00031948483262757575,-0.07573195660913608,0.6928988521268111,0.45326070017388975,0.18759564469122322,-0.0021737844467081915,0.0003396966941191332,0.1915793344761718,-0.5906498327990589,-4.754971624812845,-1.7624272543391086,0.026759745428498082,-0.0055574273048857314,-0.003234925114815747,-2.3973652293231336,0.8194680412793082,0.6585085639422142,-0.001049596456913216,0.000287643420877472
0.77,-0.0724217857520906,2.0626128480055943,-0.03339099818632658,0.4415322270793887,-0.0057506773895306664,0.000322685499284678,-0.07386679773998044,0.6871095898106995,0.4058654045615126,0.1709370922932856,-0.001979663914475685,0.0003200666657102289,0.1845762183732109,-0.580992644551322,-4.327904758172185,-1.654468292073771,0.02339863886707651,-0.005337929700171884,-0.0034001662880064907,-2.4077333089387993,0.9228336287412992,0.6780894982064875,-0.0011126606541596517,0.0002974567163930538
0.78,-0.07314248014841689,2.069426930800307,-0.02976389713564094,0.4430856939899646,-0.005768780444717164,0.0003256985351369006,-0.07206943963262843,0.6814082794712859,0.3627101050685636,0.15534669105759089,-0.001810305518649833,0.0003013035852222579,0.17770691321303,-0.5719443759523527,-3.9310060359831835,-1.548752438671709,0.020346910896579605,-0.0051061299461799825,-0.0035309283654872954,-2.4198823005043573,1.020048517732965,0.6964672138288018,-0.0011652688162420428,0.00030672204185514397
0.79,-0.07384586574894157,2.0761848265636136,-0.0265289253143727,0.4444936396440498,-0.00578541422846737,0.0003285328315543662,-0.07033856005246908,0.6757895763306414,0.32349718212682416,0.1407945654085198,-0.0016633783750205507,0.0002834296417465589,0.17100272136191616,-0.5634671327369247,-3.5632686804676537,-1.4459116321715317,0.01760068397318191,-0.0048680317439544485,-0.003632714694372889,-2.4335003679781044,1.1114178147727243,0.7136891924733565,-0.001208737700926469,0.0003154514231373245
0.8,-0.07453259121047524,2.082887311556672,-0.02364953823264232,0.4457660981330657,-0.00580078016472734,0.0003311973597550556,-0.0686725461533677,0.6702484993058164,0.287938708173038,0.12724584890159307,-0.0015365936259969229,0.0002664528200689379,0.16448671421233868,-0.5555178858282256,-3.2235494298233403,-1.3464536129520868,0.015148827614182916,-0.004628352449497719,-0.0037101604824058268,-2.448320512165215,1.1972513729967527,0.7298061518872117,-0.0012442450237166748,0.0003236604276735613
0.81,-0.07520328692456284,2.0895351162587184,-0.021091959918016653,0.4469127159819651,-0.005815057722933598,0.0003337010552465489,-0.06706957140875962,0.6647804702046182,0.25575783146256675,0.11466178488993489,-0.0014277558206257908,0.0002503695491493354,0.15817533895099486,-0.5480512383035279,-2.910504221922819,-1.250778360248252,0.01297515353812424,-0.004390727205114575,-0.0037671671431486844,-2.4641170304461353,1.2778728575107463,0.7448740513195482,-0.0012728354358224492,0.0003313689483553085
0.8200000000000001,-0.07585856349789687,2.0961289295145455,-0.018825052052389348,0.4479427231163403,-0.005828405702995278,0.00033605272508362133,-0.06552765733340316,0.6593813255827201,0.2266907865627305,0.10300071343752198,-0.0013347980061680369,0.0002351669837072394,0.15207940359630473,-0.5410215299075816,-2.622746015986335,-1.1591838661553044,0.0110602623675485,-0.004157898149791506,-0.0038070214428586767,-2.480696829436516,1.353599901961728,0.7589493665888829,-0.0012954339656208495,0.0003385985383061821
0.8300000000000001,-0.07649901075849318,2.102669402661871,-0.0168201785369859,0.4488649126221484,-0.005840963739091626,0.00033826097513130383,-0.06404472605963166,0.6540473147325538,0.20048735154034497,0.09221895058080849,-0.001255803609634752,0.0002208250047682516,0.14620507028800542,-0.5343841377024964,-2.358964423840623,-1.0718788059230215,0.009382985457848516,-0.003931875400610796,-0.003832496103812899,-2.497892227943688,1.4247289940598282,0.7720854173847861,-0.0013128602030113411,0.0003453702994140409
0.84,-0.07712519719514999,2.1091571535618674,-0.015051077289591595,0.4496876277818079,-0.005852853919608265,0.00034033415444204436,-0.06261864366568094,0.6487750899996457,0.17691012473943035,0.08227151596595038,-0.001189018051663939,0.00020731793107405498,0.1405553408196775,-0.5280964586874012,-2.1174771301616704,-0.9890056288455238,0.007921460823729604,-0.00371407843316357,-0.0038459308188742137,-2.5155695122935575,1.4915950375009042,0.7843460862652746,-0.00132582340881381,0.00035171185486477385
0.85,-0.07773766968939734,2.115592770296894,-0.013493695253753702,0.45041875612168714,-0.005864182437828346,0.0003422803131461944,-0.06124724942473594,0.6435616735026903,0.15573820358378931,0.07311283398792819,-0.0011328518220080808,0.00019461587041500532,0.13512917262305846,-0.522118764639411,-1.8977482506060552,-0.9106160239399959,0.00665408831478332,-0.0035054646592654337,-0.003849303680117035,-2.5335854446074633,1.554372821019573,0.795759468771412,-0.0013349814633463303,0.0003576330564474966
0.86,-0.07833695362927903,2.1219768149629172,-0.012126135801094614,0.4510657268418407,-0.0058750412317266345,0.000344107174189175,-0.05992839398816915,0.6384044666023154,0.13675594526590887,0.06469707201535599,-0.0010858793898288368,0.00018268610429805895,0.12992018812981926,-0.516409974335085,-1.702351056135021,-0.8367032247110036,0.005559890929527692,-0.003306601959229827,-0.0038443406816265234,-2.551731110303476,1.6128161139229882,0.8062566956785507,-0.0013410330268242654,0.00036309390751341054
0.87,-0.07892355353331304,2.128309828614625,-0.01092891160768071,0.4516355015474874,-0.00588550961966449,0.00034582211736447737,-0.058659990403401335,0.6333013651707998,0.11972241934139034,0.05697747056466741,-0.001046838793785629,0.0001714943175302367,0.12479093771036291,-0.5108577499783954,-1.6643195334798409,-0.7657570875275246,0.004621122504947787,-0.003117707806299802,-0.0038334522492319417,-2.566296979455988,1.6494640583504772,0.8117569030144484,-0.0013493016591983788,0.00036596205430757423
0.88,-0.07949796642419217,2.1345923865630225,-0.00989801803591358,0.452134202630985,-0.005895657928200351,0.00034743233014433445,-0.057441289087912885,0.6282557948397186,0.10308935717671316,0.04987010834976385,-0.001014830853586027,0.00016102127798570988,0.11981848907551988,-0.5050133877256046,-1.6594532501967496,-0.7041841113796439,0.003785908063242638,-0.002937051744054814,-0.0038231341214247407,-2.580465464823471,1.6804140403023227,0.8159812950511994,-0.0013573094477652976,0.0003681766048566153
0.89,-0.08006067432397286,2.140825099236131,-0.009032746538230347,0.4525670390594081,-0.005905548965511454,0.00034894442816814976,-0.05627078997806865,0.6232712673108143,0.08652714976832318,0.04328364284230514,-0.0009891037311102568,0.0001512098023815308,0.11502617937323809,-0.4988368413354401,-1.6466223215236941,-0.6521162407713654,0.0030375237053064733,-0.0027680505410927203,-0.003814889136958924,-2.595313875454658,1.7110865295013338,0.820190426279845,-0.001364086909889568,0.000370394255834112
0.9,-0.0806121419743167,2.147008602513124,-0.008331641497041194,0.4529384493310289,-0.005915238573050317,0.00035036436494734235,-0.055146765034383045,0.6183503276993123,0.07011050411891534,0.037141027162078795,-0.0009689607538862858,0.00014199367791925793,0.11040224914713262,-0.492408842911578,-1.6319203428178475,-0.6076950308529998,0.002370472316697996,-0.002611292225149109,-0.0038086838584511953,-2.6106777919768374,1.740765764301507,0.8242223950388449,-0.0013698922196626127,0.0003725296325539192
0.91,-0.081152817971353,2.1531435525755587,-0.007793092300260599,0.45325223513450236,-0.005924776226474028,0.00035169751514533594,-0.054067599703630086,0.6134950062434783,0.053854919678059485,0.03137858034734724,-0.0009537653423711521,0.00013331501979935872,0.10593795592228013,-0.4857826144156941,-1.6170170111605242,-0.5696182210982874,0.0017776932880660332,-0.002465655391642535,-0.0038046839018710467,-2.6265056265990983,1.7692964934293862,0.8280441785738805,-0.0013748807035153909,0.0003745646152404687
0.92,-0.08168313560632649,2.159230621787833,-0.007415492582758293,0.45351166475716687,-0.00593420565015799,0.00035294875431861057,-0.05303176349734935,0.6087069212274422,0.03775997175023056,0.025942962266448835,-0.0009429423683961092,0.0001251239173274641,0.10163136462648459,-0.47900171745465164,-1.5956061357641522,-0.5369360045017104,0.001251914914893234,-0.002330066327299013,-0.003803070220267762,-2.6429596671910023,1.7975635534358934,0.8318644378663537,-0.0013789283832597913,0.0003766073015677855
0.93,-0.08220351304301678,2.1652704927463318,-0.007196616658024937,0.45371957670156726,-0.005943565296499889,0.0003541225161423051,-0.05203774366902796,0.6039870958498507,0.021887592473335646,0.02079119444003788,-0.0009359646341900058,0.00011737618236945512,0.09747253337343668,-0.47212297439542883,-1.5726336334653679,-0.5085078802082577,0.0007879227333163624,-0.0022037025173485547,-0.003803778797229446,-2.6598999572054276,1.8249790229582106,0.8355491458320385,-0.0013822462071959717,0.0003785868785103841
0.9400000000000001,-0.0827143542738997,2.171263854852031,-0.007134101463249388,0.4538784572102723,-0.005952888870868801,0.000355222862447535,-0.05108412308829262,0.5993362105699138,0.006251519477554854,0.015888050870506657,-0.0009323574368911176,0.0001100346305229836,0.09345529366285926,-0.4651818238351198,-1.5477779736721533,-0.4836023231245963,0.00037961459172766374,-0.002085620170498348,-0.0038069023171195954,-2.6773241754999417,1.851632786241715,0.8391209246253992,-0.0013848978315186469,0.0003805143506717033
0.9500000000000001,-0.08321604970901782,2.1772114010619537,-0.007225412184119184,0.4539905030769644,-0.0059622058139871,0.00035625353212149336,-0.05016954351181176,0.594754620992268,-0.009131072086979596,0.011204586669208823,-0.000931694311829938,0.00010306696739583962,0.08957356666134486,-0.4582105737483883,-1.5210484663674346,-0.46158918254293146,2.1478861797357557e-05,-0.001975097688847488,-0.0038125001388270214,-2.695220488662947,1.8775681204546029,0.8425912341563346,-0.0013869490829279654,0.00038239493060066227
0.96,-0.08370897675610207,2.183113825018191,-0.007467840786572214,0.4540576746789947,-0.005971541741255894,0.0003572179821614556,-0.04929270470842542,0.5902423956237586,-0.024242860245303068,0.006717160203026591,-0.0009335927268794167,9.644500399622184e-05,0.08582150135036007,-0.4512377572373047,-1.492551154010053,-0.44193764445943096,-0.0002915088498941197,-0.0018715027908578485,-0.0038206124731884196,-2.713573683047932,1.9028124190121585,0.8459674972512838,-0.00138846336287905,0.0003842317592449541
0.97,-0.08419350037866342,2.188971818538653,-0.007858514432041313,0.45408174027902437,-0.005980918842743521,0.0003581194228455668,-0.04845236225613544,0.5857993520461768,-0.03906736454690985,0.002406560002962759,-0.0009377101487627177,9.014406841111938e-05,0.08219350940977804,-0.44428826477479116,-1.4624217711690033,-0.4242046164938542,-0.0005639298743628819,-0.0017742719943197316,-0.0038312655993505093,-2.732367007851705,1.927386329272392,0.8492552412693224,-0.0013895005708177881,0.00038602702543146715
0.98,-0.08466997362876634,2.194786069437726,-0.008394407141688105,0.45406431282483395,-0.005990356246516344,0.00035896084782426464,-0.04764732501029151,0.5814250899072926,-0.0535892709646793,-0.0017427454190406299,-0.0009437403772823283,8.414249786978742e-05,0.07868426176379888,-0.43738366270097906,-1.4308163863379473,-0.4080220241523751,-0.000799953823057406,-0.0016829019568659898,-0.0038444744254415722,-2.7515825159431255,1.9513053501066735,0.8524584939930813,-0.0013901173720840348,0.0003877821736079762
0.99,-0.08513873815489735,2.2005572596468497,-0.009072353741972832,0.4540068803524142,-0.005999870348071796,0.00035974505984417906,-0.046876452613101326,0.5771190209123825,-0.06779466002847273,-0.005743247241972371,-0.0009514101555451966,7.842120199143881e-05,0.07528863295927522,-0.43054249610210493,-1.397962255005324,-0.39308511718179107,-0.0010033693361712163,-0.0015969418406013847,-0.0038602448115759385,-2.7711997875732592,1.9745734361983747,0.8555783178772715,-0.0013903695021109258,0.000389497139393701
