tonegas/nnodely-applications/joint_friction_estimation/dataset/validation/mpc_mujoco_episode_0.csv
time,q1,q2,q3,q4,q5,q6,dq1,dq2,dq3,dq4,dq5,dq6,ddq1,ddq2,ddq3,ddq4,ddq5,ddq6,tau1,tau2,tau3,tau4,tau5,tau6
0.0,0.0,1.57,-1.57,0.0,0.0,0.0,0.0,0.0,0.0,0.0,0.0,0.0,-7.290882901480553,-9.14848847087541,11.596838196757158,5.312816124912791,-1.1037791972523863,-2.0065739585461984e-06,-1.0163833943037108,-6.960797268885544,-4.3503736022995625,-0.8830620777492364,-0.09207027188727945,-0.001531402621031291
0.01,-0.0007254202089693072,1.569092228512347,-1.5688475197631373,0.0004925103129402498,-9.228278663194907e-05,-6.631853525487009e-07,-0.07254202089693072,-0.09077714876530239,0.11524802368627772,0.04925103129402498,-0.009228278663194906,-6.631853525487009e-05,-7.254624963093576,-8.973416298523183,11.597081729067241,4.961016230067216,-0.9367129480890455,-0.00664484705040902,-1.0125214981856447,-6.88551811398257,-4.317629282480905,-0.8754289980644288,-0.09189859716275574,-0.0015234333091335012
0.02,-0.0021720808745691973,1.567294343249666,-1.5665446418797766,0.0014500708221829141,-0.00026662238565169823,-2.0156979558828895e-06,-0.14466606655998898,-0.1797885262681069,0.2302877883360781,0.09575605092426642,-0.017433959901974917,-0.00013525126033341885,-7.211206057872438,-8.786306610258032,11.580511609169822,4.686611490554776,-0.8366761455211034,-0.0069210291878336605,-1.002552066140682,-6.796132679278986,-4.278713665320547,-0.8661799368820329,-0.09136413587277756,-0.0015075774735348775
0.03,-0.004335312554886651,1.564625133075699,-1.5630945588541976,0.002851123198924043,-0.0005168620639490677,-4.0190971522040215e-06,-0.2163231680317454,-0.26692101739668944,0.3450083025579008,0.1401052376741129,-0.02502396782973694,-0.0002003399196321132,-7.1622922933119355,-8.5877248988832,11.552653619134428,4.47096248473364,-0.7783718761036269,-0.006524857009191365,-0.9867467377939364,-6.693084000625131,-4.233909024182798,-0.8553906236559382,-0.09047683525032311,-0.0014840237966319873
0.04,-0.007210033840537916,1.5611044773988665,-1.5585011561821807,0.004678594453743055,-0.0008393874840423664,-6.644928786977323e-06,-0.28747212856512655,-0.35206556768324715,0.4593402672016912,0.1827471254819012,-0.03225254200932987,-0.00026258316347733013,-7.108627549153547,-8.378098144433196,11.517601035625427,4.299773877178618,-0.7464772107393358,-0.00618365402111376,-0.9654260281570959,-6.576884614029267,-4.183530084194635,-0.8431430991549255,-0.08924714896354004,-0.0014529626385426514
0.05,-0.01079077257834827,1.5567533156680664,-1.5527687071750684,0.006918810264859038,-0.0012321983366521416,-9.877892513117905e-06,-0.3580738737810352,-0.4351161730800087,0.5732449007112178,0.22402158111159842,-0.03928108526097752,-0.0003232963726140581,-7.050396422201077,-8.15776384354447,11.478316328562268,4.162074976309015,-0.7316639896446802,-0.005914221803864805,-0.9389547886754345,-6.448120872790073,-4.12792636279431,-0.8295264672720524,-0.087685990833199,-0.001414584713902307
0.06,-0.015071652612591281,1.551593622964718,-1.5459016565792802,0.009560660100107806,-0.00169434114061177,-1.3711314141282861e-05,-0.42808800342430126,-0.5159692703348322,0.6867050595788113,0.26418498352487674,-0.04621428039596285,-0.0003833421628164957,-6.987441287594426,-7.927009217279748,11.436863048544515,4.049431783349291,-0.7282223047239924,-0.005656878302453094,-0.9077375780729341,-6.307457319645369,-4.067484640214614,-0.8146375717277996,-0.08580472398639488,-0.001369082795248779
0.07,-0.02004635923044672,1.5456483884485481,-1.537904475410806,0.012594954081261961,-0.0022255602394889032,-1.8143393728053625e-05,-0.497470661785544,-0.5945234516169808,0.799718116847415,0.3034293981154154,-0.05312190988771331,-0.0004432079586770765,-6.919392548133721,-7.686103321836993,11.394583722623864,3.9553408184304555,-0.7326276908904568,-0.005358622623350406,-0.8722136873623776,-6.155640696067319,-4.002631361376847,-0.7985815721513091,-0.08361515642743673,-0.0013166546534519553
0.08,-0.02570809123539302,1.5389415939606153,-1.5287815735460772,0.01601392545530651,-0.002826080553592903,-2.3174710116144227e-05,-0.5661732004946298,-0.6706794487932813,0.9122901864728734,0.3418971374044547,-0.06005203141039999,-0.0005031316388090601,-6.845747072788995,-7.4353238890169395,11.352236390246707,3.8747639018946973,-0.742673853806096,-0.004977110064467105,-0.832851683521603,-5.993503142309174,-3.9338347580279005,-0.781472383806842,-0.08112952667491155,-0.0012575063549792364
0.09,-0.032049504428993666,1.531498190491576,-1.5185372597530518,0.019810843296384415,-0.0034964696995263772,-2.8806562988767295e-05,-0.634141319360065,-0.7443403469039048,1.0244313793025388,0.37969178410779053,-0.06703891459334738,-0.0005631852872623066,-6.7659156762434085,-7.174980102981927,11.31009968813976,3.8037718650619077,-0.7569460948401883,-0.004475988144331922,-0.7901434182695721,-5.821964124733694,-3.8616064747021284,-0.763432939613838,-0.07836047054134128,-0.0011918555103620813
0.1,-0.03906264940372459,1.5233440705373964,-1.5071757412223912,0.023979708368810634,-0.004237547644263025,-3.5039795103072115e-05,-0.7013144974730924,-0.8154119954179695,1.1361518530660488,0.4168865072426219,-0.07410779447366476,-0.000623323211430482,-6.679252121842895,-6.905432087516769,11.26805423577917,3.739272347473669,-0.7745003725402668,-0.0038210430799772155,-0.7445975109018192,-5.642030622396947,-3.7865024828373106,-0.7445952309998658,-0.07532096484348334,-0.0011199343092825145
0.11,-0.04673890543116522,1.514506034623974,-1.4947011564343824,0.028515011492042615,-0.005050324480928847,-4.187386641490677e-05,-0.7676256027440623,-0.8838035913422386,1.2474584788008731,0.45353031232319824,-0.08127768366658217,-0.0006834071311834655,-6.58507116556095,-6.627107570817874,11.22564638814364,3.6788024922465574,-0.7946666003060336,-0.0029777596012294794,-0.6967323669714728,-5.454795114442106,-3.7091230738839087,-0.7251000849671876,-0.07202424718359575,-0.0010419922989721143
0.12,-0.05506891157094011,1.5050117505115104,-1.481117636502016,0.03341153869712967,-0.005935954424902647,-4.9306043013031334e-05,-0.8330006139774895,-0.9494284112463709,1.35835199323665,0.48965272050870545,-0.08856299439738002,-0.0007432176598124562,-6.482660208536656,-6.340515973368014,11.182139107968895,3.620371756599054,-0.8169270645333384,-0.0019098904399506011,-0.6470688419566997,-5.261430936204539,-3.6301117351033874,-0.7050966383416123,-0.06848371364615942,-0.0009582989238465889
0.13,-0.06404249574816277,1.4948897038068938,-1.4664293910651438,0.038664211288292664,-0.0068956986768633315,-5.733062056343536e-05,-0.8973584177222655,-1.0122046704616647,1.4688245436872238,0.5252672591162991,-0.0959744251960684,-0.0008024577550404022,-6.371287370368757,-6.046260004411022,11.136553680123187,3.5623434692230127,-0.8408403285971566,-0.0005786903944882127,-0.5961227019962789,-5.06318461841156,-3.5501527320433124,-0.684741476504835,-0.06471279865726853,-0.0008691458757504337
0.14,-0.0736486023450989,1.48416913893075,-1.4506408154539647,0.0442679518838521,-0.007930892559234877,-6.593813660160381e-05,-0.9606106596936125,-1.072056487614366,1.5788575611179148,0.5603740595559434,-0.10351938823715456,-0.000860751603816845,-6.250207748325837,-5.745044739184098,11.08770517149778,3.5033464018118075,-0.8659927684549764,0.0010573939939995114,-0.5443970715644206,-4.861364894936919,-3.469967251464543,-0.6641974132592718,-0.06072484349112414,-0.000774849320601469
0.15,-0.08387521876350532,1.4728799896141576,-1.433756616255563,0.05021756980870812,-0.009042914015281771,-7.511454741255074e-05,-1.0226616418406411,-1.1289149316592537,1.6884199198401608,0.5949617924856015,-0.11120214560468944,-0.0009176410810946933,-6.118668999413182,-5.4376840740704635,11.03423385805886,3.44220964718075,-0.891967024459241,0.003042691794257202,-0.4923750889203622,-4.657328166159939,-3.390308001559146,-0.6436319015348231,-0.05653296199350284,-0.0006757520753931611
0.16,-0.09470930140002684,1.4610527983440342,-1.415781952658563,0.05650766099989586,-0.010233151596921912,-8.484035896332556e-05,-1.083408263652152,-1.182719127012327,1.7974663596999971,0.6290091191187741,-0.11902375816401409,-0.0009725811550774821,-5.9759169998012815,-5.125104417993131,10.974634164245309,3.3779156432531643,-0.9183209894586639,0.005423985634909201,-0.44051301221700834,-4.452460352709899,-3.3119522363911282,-0.623215084574088,-0.052149913966888846,-0.0005722258132578445
0.17,-0.10613670151523609,1.4487186244383579,-1.3967225910742918,0.06313251898387973,-0.011502970719737203,-9.50897107427917e-05,-1.1427400115209252,-1.233417390567643,1.9059361584271362,0.6624857983983867,-0.12698191228152914,-0.0010249351779466136,-5.8212020975626375,-4.8083454879406595,10.907281528214305,3.309567350313312,-0.9445735907334196,0.008249919892928226,-0.38923403029231646,-4.24815533248986,-3.2356933311675746,-0.603117539241988,-0.047587998252715744,-0.0004646733815245842
0.18,-0.11814209155295846,1.4359089407103443,-1.3765850706409801,0.07008605457334938,-0.012853677390438393,-0.00010582941839072874,-1.2005390037722379,-1.2809683728013683,2.0137520433311638,0.6953535589469646,-0.13507066707011894,-0.001073970764793704,-5.653786330210004,-4.488558216633648,10.830453583013156,3.2363664388117996,-0.9701952275966192,0.011570141023846237,-0.33892303154871367,-4.045790874040796,-3.162331634933836,-0.5835079137519263,-0.042858978954577326,-0.00035353137129642885
0.19,-0.13070889257190463,1.4226555189579337,-1.3553768776967867,0.07736172275438861,-0.014286478909281,-0.00011701798680818231,-1.2566801018946154,-1.3253421752410408,2.1208192944193303,0.7275668181039237,-0.1432801518842607,-0.0011188568417453565,-5.472951503262738,-4.166996161173876,10.74245124227862,3.1575995856421883,-0.9946016569600751,0.01543416438437406,-0.2899225250994636,-3.8466863548621166,-3.092649485784322,-0.5645467395680525,-0.03797404986916797,-0.00023927111817221783
0.2,-0.14381920354281166,1.4089903052087136,-1.3331066175306705,0.08495245646651721,-0.015802441271892564,-0.00012860461032027275,-1.3110310970907044,-1.3665213749220155,2.2270260166116236,0.7590733712128594,-0.15159623626115667,-0.0011586623512090432,-5.278009531342577,-3.8450139091992557,10.64138399156766,3.072637486136319,-1.0171508376918332,0.019889985351378314,-0.24253010456330337,-3.652110117224389,-3.0274336300832427,-0.5463920994044704,-0.03294388542851154,-0.00012240565959609835
0.21,-0.15745373349365,1.3949452847683252,-1.3097842043076606,0.0928506059490593,-0.017402443186969256,-0.0001405281817186523,-1.3634529950838332,-1.404502044038845,2.332241322300981,0.7898149482542095,-0.160000191507669,-0.0011923571398379561,-5.068312963790126,-3.5240485458393045,10.525448226426908,2.980922853758834,-1.037142234374116,0.024982370569382573,-0.19699721624547084,-3.463209244823624,-2.9674261952772154,-0.5291877545893144,-0.02777872270357088,-3.488634635652357e-06
0.22,-0.1715917375079346,1.3805523390743635,-1.2854210421614545,0.10104788443746773,-0.019087126780384985,-0.00015271633646763387,-1.4138004014284598,-1.4392945693961827,2.4363162146206254,0.8197278488408419,-0.16846835934157292,-0.001218815474898155,-4.843280132084843,-3.2056609337890967,10.391048414600618,2.8819893436261417,-1.0538193571858905,0.030750931897800093,-0.15353096639567398,-3.281240778626704,-2.9135852379507865,-0.513127946977682,-0.022488793920599923,0.00011685017778366729
0.23,-0.18621095903427923,1.3658430893044708,-1.2600303803483401,0.10953531068786662,-0.020856845306786536,-0.00016508457320721858,-1.461922152634463,-1.4709249769892734,2.53906618131143,0.8487426250398887,-0.17697185264015508,-0.0012368236739584708,-4.603093674700543,-2.893889991599953,10.151319680718181,2.7759077577111206,-1.0664098364792665,0.03722743963100439,-0.11235812839645043,-3.1182280415979213,-2.878774111957557,-0.5013436236900874,-0.017097050248452178,0.00023652698353967286
0.24,-0.20128764745128694,1.350848452716805,-1.2336357802136941,0.11830270934979739,-0.022711613549964735,-0.00017753608545589903,-1.5076688417007718,-1.4994636587665955,2.6394600134646002,0.8767398661930776,-0.18547682431781995,-0.0012451512248680464,-4.353834170868163,-2.6085141171394537,9.157417895222467,2.6626340363478,-1.0743935267486364,0.044407982332480334,-0.07414505394215748,-3.0549048542488997,-2.9563335042975503,-0.5168230800522353,-0.011727049424579084,0.00034394710508400133
0.25,-0.2167971568959693,1.3355963690405734,-1.2063343812130018,0.1273349747776909,-0.024651103229302196,-0.00018996713496819003,-1.5509509444682337,-1.5252083676231625,2.7301399000692292,0.9032265427893512,-0.19394896793374616,-0.0012431049512291,-4.091670469079663,-2.3369771669444797,8.116944324363331,2.497798806651385,-1.0770731104967304,0.052060370656414,-0.03851309545396725,-2.993412474827392,-3.047277712601808,-0.5352353973960193,-0.006309176830297435,0.0004481609314709816
0.26,-0.2327135673017318,1.3201134320739651,-1.1782282354859872,0.13661274141036667,-0.02667458201851966,-0.0002022665037100742,-1.5916410405762493,-1.5482936966608303,2.8106145727014713,0.9277766632675778,-0.20234787892174638,-0.0012299368741884179,-3.816715944827446,-2.0786912535659057,7.065698320832432,2.2911207392781954,-1.073690818558136,0.06014192373870664,-0.005678843389286481,-2.9271565686088814,-3.1460466262821067,-0.5552486732862429,-0.0008733548555734799,0.0005485320731795393
0.27,-0.24900969434749903,1.3044249601549822,-1.1494207586952243,0.1461133526065233,-0.028780866586352958,-0.0002143150361742963,-1.6296127045767248,-1.568847191898294,2.880747679076291,0.9500611196156636,-0.21062845678332975,-0.0012048532464222098,-3.5293553557222683,-1.8334259996789075,6.019321565854281,2.0524887800460547,-1.0633742469129182,0.06859373425272475,0.024120723919254405,-2.8527666155625337,-3.249909574625146,-0.5762299718314039,0.004542298714796195,0.000644144055031147
0.28,-0.26565712549681336,1.2885550202744764,-1.1200151424850953,0.15581172437270507,-0.03096827000105857,-0.0002259855125632263,-1.6647431149314307,-1.5869939880505721,2.9405616210129053,0.9698371766181769,-0.21874034147056118,-0.0011670476388929987,-3.2301212279966753,-1.6009374515513888,4.999912992567017,1.7906071627081168,-1.0451504537426821,0.07733049479935161,0.0506580924672278,-2.766909271062168,-3.355261134682107,-0.5973316171693663,0.009896133148918289,0.0007342066269353345
0.29,-0.2826262699589754,1.2725264562684349,-1.0901121417620812,0.16568115028177355,-0.033234543434229526,-0.0002371427775990979,-1.6969144462162036,-1.602856400604155,2.9903000723014155,0.9869425909068468,-0.22662734331709541,-0.0011157265035871605,-2.9197950209155494,-1.3810819948755453,4.012625659633991,1.513627550817855,-1.0179680312542576,0.08624040588466064,0.07372359118669464,-2.6686676477796603,-3.4608766795820602,-0.6182915481197933,0.01514148593212987,0.0008177685301995188
0.3,-0.29988643256838304,1.2563608991287067,-1.059809517760858,0.17569396654288805,-0.035576814061114855,-0.00024764439061377563,-1.726016260940764,-1.6165557139728168,3.030262400122329,1.0012816261114486,-0.23422706268853277,-0.0010501613014677735,-2.5992991078846606,-1.173631656414071,3.0839264561598494,1.2281857999770232,-0.9807331341054013,0.09517594344271069,0.09314845557688956,-2.5557222168264966,-3.56260759679298,-0.6381263042176938,0.020232895606250995,0.0008942494765082241
0.31,-0.3174059011230005,1.2400787951518806,-1.029199407321224,0.18582221359669626,-0.037991519889522485,-0.0002573414593220164,-1.7519468554617426,-1.6282103976826217,3.0610110439633806,1.0128247053808226,-0.24147058284076311,-0.0009697068708240769,-2.2697277333768824,-0.9782560395124016,2.282899602319114,0.940854577948568,-0.9323484773163475,0.10396350560140011,0.10881714111670482,-2.423285384449008,-3.650381840906336,-0.6543877124459612,0.025131965758340008,0.0009637797069492588
0.32,-0.33515205048401553,1.2236994601182771,-0.9983615239512871,0.19603851639266223,-0.040474342619341366,-0.0002660790723805208,-1.7746149361015047,-1.6379335033603448,3.0837883369936927,1.021630279596598,-0.24828227298188818,-0.0008737613058504398,-1.9325791246230288,-0.7946587448356673,1.553690432387389,0.6604846712647099,-0.8717641158034022,0.11242787251494549,0.12068307821189883,-2.277907154376399,-3.731389634336206,-0.6688575887394959,0.029789551931016067,0.001025158682116019
0.33,-0.3530914863368395,1.2072410766785562,-0.9673685545572153,0.20631646825999067,-0.043020147184146054,-0.00027369868707165625,-1.7939435852823997,-1.645838343972101,3.099296939407179,1.0277951867328452,-0.2545804564804685,-0.0007619614691135427,-1.5892903342150082,-0.6224978549819156,1.0265282502172173,0.3906516534099582,-0.7981016628863804,0.12033370237003775,0.12877420441123333,-2.1120039794722314,-3.7872352590411715,-0.6770373350166131,0.034186174178856915,0.001079545989539718
0.34,-0.3711901839900422,1.1907207727177103,-0.9362733919093119,0.2166315842301759,-0.045622923243059055,-0.00028003833110044446,-1.8098697653202727,-1.6520303960845877,3.1095162647903374,1.031511597018523,-0.2602776058913003,-0.0006339644028788205,-1.2417157214645502,-0.4612524008584654,0.5643686122642121,0.14085436413492491,-0.7106575849498595,0.12750192290234844,0.13322881321087782,-1.9385013728465799,-3.836281729630219,-0.6834145910621672,0.03827707230289433,0.0011253195063881723
0.35000000000000003,-0.3894136686768993,1.174154609290113,-0.9051224731215276,0.2269613162886642,-0.048275747574892544,-0.00028493693541971766,-1.8223484686857079,-1.656616342759733,3.1150918787784283,1.0329732058488312,-0.26528243318334876,-0.0004898604319273193,-0.891691463763209,-0.3108162722312589,0.3180758898437366,-0.08893962607145811,-0.6091292535675521,0.13366242428858088,0.134218333262417,-1.7500119951469029,-3.8574954967355657,-0.682844444646225,0.04206216694517762,0.0011640889576859416
0.36,-0.40772719669003465,1.1575576424099792,-0.8739410055553267,0.23728580979210498,-0.05097075655351409,-0.00028823482575984457,-1.8313528013135323,-1.6596966880133697,3.1181467566200936,1.0324493503440786,-0.26950089786215453,-0.0003297890340126931,-0.5411646872896826,-0.17058747404202257,0.18812559130292347,-0.2914146584643453,-0.4935250331017469,0.13865590268122788,0.13204725053717375,-1.5562716990337433,-3.864089519980024,-0.6785229653115197,0.04552098731368691,0.001195128222004665
0.37,-0.42609594883180546,1.1409439357950486,-0.8427426553007697,0.24758795389895033,-0.05369914870000626,-0.00028977798423752824,-1.8368752141770803,-1.661370661493054,3.1198350254557012,1.030214410684534,-0.27283921464921745,-0.00015431584776836902,-0.19215529202363102,-0.0404226350451452,0.11620552657562766,-0.4661671612552861,-0.36438689108293043,0.14227697583058552,0.12704535272315803,-1.3625899602451743,-3.863853944867151,-0.6723282359165814,0.04863869108429189,0.0012180859245440108
0.38,-0.44448523383720684,1.1243265510748828,-0.8115352499383987,0.25785311219289875,-0.056451219180411315,-0.00028942282082088864,-1.8389285005401372,-1.6617384720165784,3.120740536237113,1.0265158293948404,-0.2752070480405051,3.551634166395847e-05,0.15328547559485564,0.0796223795172828,0.07376110691042995,-0.6159185893842383,-0.22279363708891506,0.14432940111439213,0.11955375953082092,-1.171502511310888,-3.8605868356214548,-0.6651704405794602,0.05140549708893431,0.0012328890834048002
0.39,-0.46286069767964233,1.1077175326272874,-0.7803235892631268,0.26806876343092945,-0.059216427245081034,-0.00028704075178382233,-1.8375463842435462,-1.6609018447595392,3.1211660675271777,1.0215651238030714,-0.2765208064669719,0.0002382069037066287,0.49312169941117684,0.18945108834686192,0.046705719434579185,-0.7442615318843206,-0.07034554561035988,0.1446535229254312,0.1099195377047715,-0.9842173234575601,-3.856113746348087,-0.6574831148980245,0.053815477508858664,0.0012396157164965406
0.4,-0.48118853386847904,1.0911278947934182,-0.7491108453884816,0.2782241482193396,-0.06198349733616835,-0.0002825224768318697,-1.8327836188836684,-1.6589637833869244,3.121274387464523,1.0155384788410153,-0.2767070091087312,0.0004518274951952669,0.8253832781454661,0.2889966729166804,0.028000051733842818,-0.8547226336156094,0.09086599769543247,0.14314147678439196,0.09849091791614031,-0.8012890140270681,-3.85127578657742,-0.6494631610859314,0.05586592359806038,0.0012384343810317884
0.41000000000000003,-0.49943568923927123,1.0745676147422465,-0.7178992725649361,0.288309956534455,-0.06474055361330719,-0.0002757818733098353,-1.8247155370792214,-1.6560280051171632,3.1211572823545475,1.008580831511541,-0.2757056277138839,0.0006740603522034382,1.1482176228464365,0.3782504079313539,0.01407842835002679,-0.9504223624851167,0.25831091221995717,0.1397468909563248,0.08561279667940533,-0.6229350548034445,-3.8464118414525017,-0.6411878921659508,0.05755696630765643,0.0012295740809323788
0.42,-0.5175700593792959,1.0580456321263405,-0.6866905744672154,0.29831806454240717,-0.06747528613985934,-0.0002667593917459212,-1.8134370140024665,-1.6521982615906072,3.1208698097720804,1.0008108007952128,-0.27347325265521477,0.0009022481563914094,1.459939888377781,0.4572702996989703,0.0030964502366874203,-1.0339935011560348,0.42909738961010513,0.13448995440708253,0.07162263007921617,-0.4491883361608979,-3.841600423494229,-0.632673729553657,0.05889128987197704,0.0012133072407377863
0.43,-0.535560667778906,1.0415698556373345,-0.6554861000821143,0.30824131835924035,-0.07017514515719976,-0.0002554248182704602,-1.7990608399610108,-1.6475776489006064,3.120447438510115,0.99232538168332,-0.26998590173404163,0.0011334573475461009,1.7590789679187135,0.5261801988384729,-0.005932595769739812,-1.1076047213750335,0.6000717729930898,0.12745779843791322,0.05684685101182507,-0.27997323062860435,-3.836783350564044,-0.6239062499800874,0.059873867369935635,0.00118993833270602
0.44,-0.5533778231063899,1.0251471760577713,-0.6242869529619716,0.3180733586899114,-0.0728275579787014,-0.0002417792724737679,-1.7817155327483962,-1.6422679579563184,3.119914712014275,0.9832040330671016,-0.26524128215016335,0.0013645545796692308,2.044418445643464,0.5851643617589031,-0.013514673404369792,-1.1730207561906958,0.7679365067313748,0.11880030642685285,0.04159797711170411,-0.11514462077659157,-3.8318238591478813,-0.6148543608255362,0.06051171105615053,0.001159795249508455
0.45,-0.5709932495085241,1.0087834851662367,-0.5930940511491286,0.32780847981480943,-0.0754201612686338,-0.00022585633028653995,-1.7615426402134216,-1.6363690891534661,3.1192901812842972,0.9735121124898046,-0.2592603289932397,0.0015922942187227955,2.3150230822618263,0.6344601587526729,-0.020133300868659693,-1.2316621210336507,0.9293792309493707,0.10872188596152177,0.026172276874323885,0.04548443698515567,-3.8265751505714354,-0.605486892592727,0.060813489477352475,0.001123219818330305
0.46,-0.5883801863844592,0.9924836996877539,-0.5619081831110679,0.33744151620300994,-0.07794104011812711,-0.0002077222055564205,-1.738693687593505,-1.629978547848292,3.118586803806064,0.9633036388200515,-0.25208788494933065,0.0018134124730119455,2.5702660190168714,0.6743491566719643,-0.02646089485486544,-1.2846766016968394,1.0812040008038464,0.09746985470403535,0.010848499745165482,0.20213134132159483,-3.820915140670578,-0.595781078906211,0.06078917383141191,0.0010805590534581201
0.47000000000000003,-0.6055134542675368,0.9762517894239532,-0.53073008086002,0.34696775025514304,-0.080378964429493,-0.00018747497189756468,-1.7133267883077539,-1.6231910263800617,3.117810225104789,0.9526234052133071,-0.24379243113658836,0.0020247233658855822,2.809818260113676,0.705148211728408,-0.04147229560770643,-1.3329855001524222,1.2204567541590716,0.08532072299254945,-0.004111113954783349,0.35497499638595914,-3.815847245738743,-0.5859859689572988,0.06044674868793515,0.0010321010677727036
0.48,-0.6223694874163751,0.9600908073687318,-0.4995613078402851,0.3563828039044885,-0.08272361415004359,-0.0001652430912087735,-1.6856033148838312,-1.6160982055221451,3.116877301973496,0.9415053649345455,-0.23446497205505953,0.0022231880688791178,3.0336454653421745,0.7271918583144307,-0.07176797639872373,-1.3776585867530677,1.3445201994439273,0.07255980950379137,-0.018466810807634723,0.5043637765375928,-3.8120718076364466,-0.5762827941465062,0.05979393519044586,0.0009781249142535571
0.49,-0.6389263334980445,0.9440029227543928,-0.46840491467825407,0.3656825297759829,-0.08496578378920283,-0.00014118308324969982,-1.655684608166945,-1.6087884614338983,3.115639316203098,0.9299725871494385,-0.22421696391592402,0.0024060007959073666,3.2360827781549917,0.7413712025726283,-0.3056330317485493,-1.4164617189295303,1.451241717474395,0.059471795554765894,-0.032163198730554336,0.6505609319374402,-3.8346471544753604,-0.5726454540314803,0.058746973475408075,0.0009181950498600763
0.5,-0.6551641965568351,0.9279894853932966,-0.4372839430891704,0.3748624470270215,-0.08709760324307009,-0.00011548070224317782,-1.6237863058790607,-1.6013437361096186,3.1120971589083672,0.9179917251038552,-0.21318194538672577,0.0025702381006522004,3.3147326409689857,0.7565027991152159,-4.531081152775727,-1.4000539069730014,1.538948343952042,0.04621581095600891,-0.04759096122070121,0.8037715947881676,-4.390623874922253,-0.6954209296027691,0.05544955938807794,0.0008377527252860745
0.51,-0.6710753857404136,0.9120515031000284,-0.4066137104252485,0.3839069023496319,-0.08911360641742794,-8.844159820257687e-05,-1.5911189183578427,-1.5937982293268305,3.06702326639219,0.9044455322610376,-0.2016003174357857,0.0027039104040600943,3.3714754707234293,0.7648542202056421,-7.845899781344471,-1.5482848252935248,1.5938617985959747,0.030673714586763268,-0.06359374413476011,0.9860553268298637,-4.829972663257956,-0.7919145450655816,0.051585701125004935,0.0007488420293535966
0.52,-0.6866544291530663,0.8961896514239617,-0.37672077069623816,0.39279060205266514,-0.09101054527080772,-6.0385972897240104e-05,-1.5579043412652693,-1.5861851676066727,2.9892939729010366,0.8883699703033285,-0.18969388533797782,0.002805562530533677,3.4070635964240776,0.7712535815945937,-10.327624824674157,-1.790653667560182,1.6185341720943538,0.01480821159659973,-0.07935987248589059,1.1829690325510818,-5.161182405152008,-0.8640031048605504,0.04728352943195853,0.000654095783307674
0.53,-0.7018979723660862,0.8804046410784372,-0.3478501756283475,0.4014839095089379,-0.09278723687054884,-3.162301861644127e-05,-1.5243543213019861,-1.5785010345524497,2.8870595067890616,0.8693307456272793,-0.1776691599741117,0.0028762954280798832,3.4227674152267067,0.7789839653374581,-12.128970512788332,-2.075600731733939,1.6153671097375317,-0.0003575514511902078,-0.09416091917558632,1.3830733322955309,-5.403472451459761,-0.9160096049112383,0.0426438757979342,0.0005556687212583075
0.54,-0.716804630842028,0.8646974476061122,-0.32018023829431663,0.40995636431032495,-0.09444442493350722,-2.4415141656104404e-06,-1.4906658475941803,-1.5707193472324976,2.7669937334030887,0.8472454801387054,-0.165718806295838,0.0029181504450830832,3.4205170617295404,0.789974509365783,-13.37602594022747,-2.3690282750682243,1.5869901925765022,-0.01416551403416344,-0.1074315838351948,1.5781880968744846,-5.573062109769951,-0.9515389202656974,0.03776586504266559,0.000455484324174356
0.55,-0.7313747823092279,0.8490694324207498,-0.29383477333514413,0.4181789269636672,-0.09598461213607096,2.6895967663220067e-05,-1.457015146719995,-1.5628015185362427,2.634546495917248,0.822256265334226,-0.15401872025637436,0.0029337481828830506,3.4026395293171934,0.8051159398917863,-14.1733219083515,-2.6491101864012023,1.536531478790918,-0.02619577429941433,-0.11877300197691354,1.762919411530302,-5.683639274794579,-0.9736202587590375,0.03274404499171822,0.00035520713127700935
0.56,-0.745610324502635,0.8335223813262177,-0.26889328212854546,0.4261253377436123,-0.09741184732449741,5.615695114010158e-05,-1.42355421934071,-1.554705109453217,2.4941491206598685,0.7946410779945083,-0.14272351884264584,0.002926098347688151,3.371633811517577,0.8245334993153938,-14.607791872438304,-2.902518881740235,1.46761300337701,-0.03623086315498103,-0.12794363443648274,1.9341015994829192,-5.74674171946876,-0.9848126883330034,0.027665609478475402,0.0002562346019910519
0.5700000000000001,-0.7595144202447779,0.8180584833041548,-0.24539945071897187,0.43377287057151603,-0.09873147081172012,8.514118799516986e-05,-1.390409574214288,-1.5463898022062905,2.349383140957358,0.7647532827903771,-0.13196234872227117,0.0028984236855068277,3.3299900666779463,0.847819627206314,-14.751877168063452,-3.121727246065845,1.3841841082320763,-0.044222720534140336,-0.13484084616599398,2.0902517045443223,-5.772071853776854,-0.9872846285667025,0.022608285680643266,0.000159704299065914
0.58,-0.773091247411554,0.8026802691110413,-0.2233682505055649,0.44110268137280617,-0.09994983213393197,0.000113681097722682,-1.3576827166776073,-1.5378214193113449,2.203120021340696,0.7329810801290132,-0.12183613222118361,0.0028539909727512123,3.2800557830619432,0.8742281312415133,-14.665983212423665,-3.303111626312898,1.2902843972657636,-0.050253798245762926,-0.13947697851672494,2.231087456294694,-5.767760902189009,-0.9828751098080045,0.01763906139621424,6.651153948732089e-05
0.59,-0.7863457664606565,0.7873905259978806,-0.20279187262867165,0.44809988994937594,-0.10107399926246415,0.00014164073011195725,-1.3254519049102502,-1.5289743113160679,2.0576377876893273,0.6997208576569781,-0.11241671285321736,0.0027959632389275256,3.22394755955694,0.9028313901789936,-14.400445864472397,-3.4456398426645123,1.1898039885284595,-0.05449645125925828,-0.1419534120220298,2.3571297464611565,-5.74059376203066,-0.9731421912797734,0.012813708015853024,-2.2666782891933698e-05
0.6,-0.7992835134971128,0.7721922016818108,-0.18364468232781558,0.4547534905122093,-0.10211147797903834,0.00016891357732894472,-1.2937747036456284,-1.5198324316069818,1.9147190300856078,0.6653600562833378,-0.10374787165741921,0.0027272847216987476,3.1635032019294225,0.932642536969159,-13.9971276910818,-3.5499769784072157,1.086284109589701,-0.057175562717688866,-0.14243533372189357,2.46939234795947,-5.696202428325803,-0.9594022345374955,0.008176951866351772,-0.00010734551815415477
0.61,-0.8119104227770673,0.7570883076347459,-0.16588734565227226,0.4610561548899104,-0.10306995672107586,0.00019541960861725122,-1.2626909279954501,-1.5103894047064867,1.775733667554334,0.6302664377701094,-0.09584787420375109,0.0026506031288306506,3.10026633224134,0.9627053722727673,-13.49073260984743,-3.6178824186680174,0.9827790320855556,-0.05853767905232621,-0.14112902066380398,2.56915144177266,-5.639233544168864,-0.942762549985815,0.0037631161549867287,-0.00018720404638837524
0.62,-0.82423267936544,0.7420818289143085,-0.14947025494457275,0.467003970920562,-0.1039570873353963,0.00022110188455234491,-1.232225658837271,-1.500647872043737,1.6417090707699509,0.5947816030651609,-0.08871306143204483,0.002568227593509368,3.035494814641145,0.9921556452943177,-12.909903286410499,-3.6518050031937648,0.8817832094534787,-0.05882798502806175,-0.13826263362443592,2.657782774073003,-5.573494073838004,-0.9241491192233677,-0.0004029343589025264,-0.0002620600284491246
0.63,-0.8362566004252463,0.727175645248564,-0.13433635931252425,0.47259614407047074,-0.10478030712651494,0.00024592305156515264,-1.2023921059806306,-1.4906183665744523,1.5133895632048504,0.5592173149908731,-0.0823219791118641,0.0024821167012807725,2.9701847264520227,1.020258043258926,-12.278147639105152,-3.654609867963913,0.785216192644854,-0.05827492123808353,-0.13407087334948353,2.736652941803108,-5.502078072922656,-0.9043305381915359,-0.004304685451097488,-0.0003318450135393197
0.64,-0.8479885422424676,0.712372465973017,-0.12042349024335666,0.477834680844972,-0.1055467031841214,0.000269861943545976,-1.1731941817221223,-1.4803179275547111,1.3912869069167584,0.523853677450127,-0.07663960576064703,0.0023938891980823363,2.9051028669924173,1.046423597134252,-11.614627730516409,-3.629391231821046,0.694452063188537,-0.057081322511570054,-0.12878340394159682,2.807051965590487,-5.42747687488798,-0.8839389502763817,-0.007932808283551862,-0.00039658237887754547
0.65,-0.8594348294177602,0.697674779741541,-0.10766625943502776,0.4827240664742653,-0.10626291663770016,0.0002929104428080353,-1.1446287175292615,-1.4697686231475886,1.2757230808328899,0.4889385629293297,-0.07162134535787525,0.0023048499262059356,2.840822425037028,1.0702121997241072,-10.934835142087872,-3.5793407981541705,0.6103785429023216,-0.05542057239457199,-0.12261667325100155,2.8701559736097426,-5.351674600210955,-0.8634884905488859,-0.011284011667256226,-0.0004563678028966848
0.66,-0.8706017024977994,0.6830848186883143,-0.09599759501798379,0.48727094549348654,-0.10693508230577353,0.00031507068781806664,-1.1166873080039221,-1.458996105322676,1.1668664417043972,0.4546879019221266,-0.06721656680733805,0.002216024501003135,2.7777580605766192,1.0913245914766105,-10.251170671072389,-3.50765244465018,0.533472150994194,-0.05343626595444695,-0.11576862100039893,2.927010854593884,-5.2762306313595175,-0.8433916027807011,-0.014359960291836796,-0.0005113522973516999
0.67,-0.8814952804994279,0.668604535868987,-0.08534997307132743,0.49148381135774605,-0.10756879806710916,0.00033635266434881055,-1.089357800162851,-1.4480282819327188,1.064762194665636,0.4212865864259504,-0.06337157613356258,0.002128197653074393,2.7161980797407748,1.1095875962235928,-9.573442035994768,-3.4174513597069165,0.4638784466597907,-0.05124408314158302,-0.10841572267956774,2.9785297625232845,-5.202350521918526,-0.8239734911001002,-0.017166287388739356,-0.0005617277112920365
0.68,-0.8921215351547509,0.654235594298452,-0.0756563933416187,0.49537270958036805,-0.10816911796281892,0.00035677218052802823,-1.0626254655322984,-1.4368941570535014,0.9693579729708728,0.38888982226220076,-0.060031989570975886,0.0020419516179217695,2.65633249800074,1.1249356930922618,-8.909290544171832,-3.311740608910693,0.4014895091495225,-0.048934867280620686,-0.10071183679343612,3.0254991662761936,-5.130946677964711,-0.8054849070279408,-0.019711715717815128,-0.0006077145487614101
0.6900000000000001,-0.9024862741674168,0.63997936566187,-0.06685114111469563,0.498948957702579,-0.1087405632968918,0.00037634920287026084,-1.0364739012665833,-1.4256228636582096,0.8805252226923065,0.35762481222109643,-0.057144533407288825,0.0019577022342232636,2.598276584800589,1.137391289727056,-8.264555911768364,-3.193361035424182,0.3460137251515427,-0.04657819481255743,-0.09278837824642423,3.068589650055308,-5.062690046827527,-0.7881134373420273,-0.022007290757267456,-0.0006495518989456951
0.7000000000000001,-0.9125951312467382,0.6258369367366345,-0.058870371118144894,0.5022248844874838,-0.1092871466147976,0.00039510651709997573,-1.010885707932142,-1.4142428925235417,0.7980769996550738,0.32759267849048096,-0.05465833179058001,0.0018757314229714888,2.5420900034288763,1.1470453875466138,-7.643587139752472,-3.064962039973892,0.29703534701455814,-0.04422597086339275,-0.08475541237925094,3.108368866652632,-4.998053942033355,-0.7719934349589174,-0.024065723414670233,-0.0006874892543510139
0.71,-0.9224535611324957,0.6118091216632509,-0.05165254402962105,0.5052135899689973,-0.10981240422568475,0.0004130686716618429,-0.9858429885757436,-1.4027815073383703,0.7217827088523844,0.29887054815134884,-0.052525761088715255,0.0017962154561867183,2.487791957937625,1.1540397479899935,-7.049506560393302,-2.928981619752097,0.2540630529621548,-0.04191577629355692,-0.07670333987913021,3.145314957444389,-4.9373510516670525,-0.7572147252208821,-0.02590083565790296,-0.0007217799846058321
0.72,-0.932066838216133,0.5978964783900752,-0.04513874156254877,0.5079287273249713,-0.11031943376333038,0.00043026116087176955,-0.9613277083637347,-1.3912643273175649,0.6513802467072283,0.27151373559739805,-0.05070295376456329,0.0017192489209926665,2.4353728992077093,1.1585511988632988,-6.484433541910941,-2.7876344217439186,0.21656791675952358,-0.0396738275869879,-0.06870491463553395,3.179829418758838,-4.880764594766597,-0.7438302140171582,-0.027527100354418785,-0.0007526762372745159
0.73,-0.9414400576949044,0.5840993278491061,-0.03927288213662696,0.5103843069629046,-0.1108109340697787,0.0004467098068049215,-0.9373219478771354,-1.3797150540969105,0.5865859425921804,0.24555796379332884,-0.04915003064483191,0.0016448645933151902,2.384803406378522,1.1607783509405298,-5.949670429615271,-2.6429067349319713,0.18401188167855764,-0.03751750051979652,-0.06081740063013076,3.2122487688040122,-4.8283740702994615,-0.7318624196503711,-0.028959263769383806,-0.0007804250425280658
0.74,-0.9505781384618123,0.5704177746647117,-0.03400185543195698,0.5125945227109975,-0.11128924538475365,0.0004624403029586672,-0.9138080766907941,-1.3681553184394493,0.5271026704669979,0.2210215748092906,-0.047831131497496016,0.0015730496153745733,2.336040667008688,1.1609308047265932,-5.445872213729102,-2.496557140033957,0.1558681697474329,-0.03545742211273328,-0.05308472715017787,3.242855220569775,-4.780178481409521,-0.7213095238321666,-0.03021204990163638,-0.000805265449989686
0.75,-0.9594858271576661,0.5568517284455513,-0.02927559253174788,0.5145735995510213,-0.1117563884166319,0.00047747788697352823,-0.8907688695853748,-1.3566046219160388,0.47262629002091,0.19790768400238848,-0.04671430318782439,0.0015037584014861,2.289033236541892,1.1592206724248457,-4.973184727143952,-2.3501224193486614,0.1316350724523765,-0.03349917156540494,-0.04553954633041145,3.271885774133878,-4.736115162014608,-0.7121504575555611,-0.03129992760557129,-0.0008274265080107936
0.76,-0.9681677029682096,0.543400924929164,-0.02504708527224639,0.5163356619661003,-0.11221410134828813,0.0004918471146073213,-0.8681875810543536,-1.3450803516387306,0.4228507259501493,0.17620624150789044,-0.04577129316562428,0.0014369227633793031,2.2437231221129585,1.155856824811643,-4.5315891861619475,-2.204926200756205,0.11084459169931637,-0.031644634007479855,-0.03820508773021471,3.2995463309691715,-4.696105157058897,-0.7043560599201647,-0.03223706870855236,-0.000847126450876356
0.77,-0.9766281830034549,0.530064946580022,-0.02127238872187763,0.5178946210045856,-0.11266387426177374,0.0005055717051690095,-0.846048003524525,-1.3335978349142041,0.377469655036876,0.15589590384854052,-0.04497729134856032,0.0013724590561688221,2.200042414332205,1.151044081811284,-4.121896659024635,-2.0620941858212376,0.09306657300830445,-0.029893135037941665,-0.031096741577479936,3.3260435218969633,-4.660183228747297,-0.6979194624429041,-0.03303778424642539,-0.0008645742818799651
0.78,-0.984871528629856,0.516843242938307,-0.01791070466719731,0.519264075320651,-0.11310698096402078,0.0005186744128942322,-0.8243345626401198,-1.3221703641715052,0.3361684054680319,0.13694543160653724,-0.04431067022470316,0.001310270772522266,2.1572462780243895,1.145341974572237,-3.8690057644922367,-1.9219580119161748,0.07792305878966488,-0.028242583754638506,-0.02419967821980587,3.3550620221878993,-4.644502226282045,-0.6965116214999026,-0.033790282865034924,-0.0008802504933680668
0.79,-0.9929019196921172,0.5037352269216429,-0.014936669404326315,0.5204568471142585,-0.11354454043349928,0.0005311733264231276,-0.8030391062261125,-1.3108016016664095,0.29740352628709965,0.11927717936075405,-0.04375594694785051,0.0012498913528895404,2.1157399328363726,1.139113058072897,-3.6405427562517936,-1.7901655922051791,0.06467344980691936,-0.026729925433604862,-0.01755638359636591,3.3830424344468044,-4.632086584166789,-0.6961959520459898,-0.0344439008862555,-0.0008942498285977354
0.8,-1.0007234127156865,0.49074026547474675,-0.012327351162203484,0.5214849631362901,-0.11397753280864313,0.0005430854276160887,-0.7821493023569277,-1.299496144689609,0.26093182421228306,0.10281160220315726,-0.04329923751438488,0.001191210119296117,2.075651943671888,1.1323817151250375,-3.4013984495677874,-1.6666594255604892,0.0531134259536048,-0.025314534203384698,-0.011177005889185937,3.4090949310186773,-4.6183178064565364,-0.695901400680834,-0.03498722909708117,-0.0009066425401713837
0.81,-1.0083399276168912,0.4778576700405598,-0.010058796023978982,0.5223597816686152,-0.1144068053344173,0.0005544281105312682,-0.7616514901204527,-1.2882595434186954,0.22685551382245012,0.08748185323251137,-0.04292725257741696,0.0011342682915179536,2.036976241875659,1.1251171211783502,-3.1504449940454258,-1.5500559381555936,0.04315161262981393,-0.023975000217711484,-0.00506039136993322,3.4332769873390974,-4.602921086119244,-0.6955593636667832,-0.03542452608246156,-0.0009175063480863809
0.8200000000000001,-1.015755248078679,0.46508669334328906,-0.008105912095297005,0.5230921138874225,-0.11483307990199092,0.0005652193160387767,-0.74153204617878,-1.2770976697270755,0.1952883928681978,0.0732332218807362,-0.04262745675736235,0.001079120550750846,1.9996863125950612,1.1172915502305663,-2.8959333918677554,-1.4391365491989614,0.034682219129231084,-0.022703878229433316,0.0008015389549888008,3.455910361352367,-4.586844453767979,-0.6953797727571824,-0.035765598859681176,-0.0009269366659459148
0.8300000000000001,-1.0229730240208066,0.4524265296710025,-0.006443276868997952,0.5236922985655594,-0.11525696403882962,0.0005754771898290658,-0.7217775942127694,-1.2660163672286555,0.1662635226299052,0.060018467813692696,-0.04238841368387078,0.001025787379028905,1.9637537411732047,1.1089049164286535,-2.6399416724450413,-1.3331578814876428,0.02756614042450345,-0.021498971981461334,0.006416207404934093,3.4771433064969615,-4.570260292093966,-0.6953914759328503,-0.036017425959257277,-0.0009350220598052115
0.84,-1.029996774183586,0.43987631569489993,-0.0050453390250146555,0.524170257972931,-0.11567896233274216,0.0005852198859567725,-0.7023750162779483,-1.2550213976102542,0.13979378439832962,0.047795940737165116,-0.04219982939125389,0.0009742696127706617,1.9291453339113096,1.0999648540771776,-2.3775364763468527,-1.231557884608394,0.02166289590283821,-0.020356971908040755,0.011788825761976998,3.4969242614225315,-4.552442894112446,-0.6954164284096066,-0.03618276389789276,-0.0009418308506979728
0.85,-1.0368298891258099,0.42743512962804076,-0.003885931172294471,0.5245355628894459,-0.11609948588861756,0.0005944656206361826,-0.6833114942223928,-1.2441186066859187,0.11594078527201848,0.03653049165148221,-0.04205235558753965,0.00092457346794102,1.8958248584681427,1.090460067642923,-2.113088787064397,-1.1336885497826783,0.01685554630015418,-0.019272251386709183,0.016930697337320194,3.515461016703004,-4.5338696807167995,-0.6955518722251008,-0.03626940760472587,-0.0009474441336814573
0.86,-1.0434756346273968,0.4151019917657913,-0.0029386975505714293,0.5247974724744954,-0.11651886263020131,0.0006032324883679138,-0.6645745501586987,-1.2333137862249455,0.09472336217230415,0.026190958504941568,-0.04193767415837544,0.0008766867731731247,1.8637520289343685,1.080395738519578,-1.849774077996242,-1.0391466762307955,0.013020382238738692,-0.018242030761518757,0.021853383308824234,3.532925494050528,-4.514879244652511,-0.6958606400653093,-0.03628479499865475,-0.000951943311634132
0.87,-1.049937155483253,0.40287586616914106,-0.002177404995072573,0.5249649575156308,-0.1169373475979269,0.000611538298741515,-0.6461520855856263,-1.2226125596650272,0.07612925554988564,0.01674850411353635,-0.04184849677255965,0.0008305810373601193,1.83288222599214,1.0697886163881176,-1.5988733579663106,-0.9476923994288038,0.010035460040006883,-0.017263766489732157,0.026572942204594566,3.5497153575831986,-4.496874895593584,-0.696646450792608,-0.036241598449894,-0.0009554315397523264
0.88,-1.0562174798049448,0.3907556662335731,-0.0015770517989688463,0.5250466814760716,-0.11735513524216112,0.0006194001898680195,-0.6280324321691804,-1.2120199935567952,0.06003531961037265,0.008172396044080711,-0.04177876442342241,0.000786189112650451,1.8031478504399105,1.0587151812853453,-1.354192033023287,-0.8594687374590961,0.0077599095526074136,-0.016337785921039183,0.03109491931270543,3.565731943690978,-4.479023913529851,-0.6976976325342352,-0.03614250103000617,-0.0009579783234815176
0.89,-1.0623195254339546,0.37874025996156163,-0.001113258908419585,0.5250510100679198,-0.11777236800721198,0.0006268347649782803,-0.6102045629009676,-1.2015406272011453,0.04637928905492613,0.0004328591848182014,-0.04172327650508537,0.0007434575110260788,1.7745075491265685,1.0472023275194928,-1.1207791918691379,-0.7744103979602497,0.0060914534990600955,-0.015459356829153004,0.03543234279584702,3.5811857751121865,-4.461944428617633,-0.6991357498360878,-0.035996270243720464,-0.0009596705749328074
0.9,-1.068246103894222,0.36682847432628973,-0.0007627663834615617,0.5249859992355222,-0.11818914533074475,0.0006338579606558366,-0.5926578460267236,-1.191178563527188,0.03504925249580233,-0.0065010832397484316,-0.041677732353275994,0.0007023195677556262,1.7469165681737502,1.0352939061422828,-0.9144531809773234,-0.6926236528562133,0.004925738705179372,-0.01462687452295941,0.03960275091951939,3.596586727881586,-4.447668352531928,-0.7014029697768482,-0.035818668304388686,-0.0009606236158552425
0.91,-1.073999924782766,0.3550191049637675,-0.000504989798584776,0.5248593308818748,-0.11860553569437206,0.0006404845620815063,-0.5753820888544112,-1.1809369362522224,0.025777658487678573,-0.012666835364748764,-0.04163903636273098,0.000662660142566967,1.7203173940538763,1.0230969206535763,-0.7219275180069165,-0.6147129652025085,0.004127782082363141,-0.01384292122149211,0.04360807049456573,3.61161582937498,-4.434492758692739,-0.7040835358726611,-0.03560818118834218,-0.0009608985110323423
0.92,-1.0795836011500488,0.3433109217629934,-0.0003207154742636176,0.5246783080033112,-0.11902158244945116,0.0006467285874246527,-0.5583676367282818,-1.1708183200774083,0.018427432432115833,-0.018102287856353365,-0.041604675507910624,0.0006244025343146381,1.694663201764695,1.0106581643105232,-0.5573375105525091,-0.5407277606959799,0.0036280236226728935,-0.013101318225052339,0.04746286983164012,3.6267214810795796,-4.424246328271986,-0.7075733077198787,-0.03537891401406632,-0.0009605978670208307
0.93,-1.0849996541199298,0.3317026783159016,-0.0001934911160801556,0.52444980110028,-0.11943731289282886,0.0006526029354475137,-0.5416052969881018,-1.1608243447091753,0.012722435818346199,-0.022850690303112174,-0.041573044337770246,0.0005874348022861001,1.6699037716373353,0.9980718923024943,-0.41779855291299006,-0.4711824155869262,0.00332438378807004,-0.012403793627028481,0.0511726648491826,3.641864531490274,-4.416586323056546,-0.7117684035492434,-0.03513500483651081,-0.0009597974228836312
0.9400000000000001,-1.0902505176793258,0.3201931199065316,-0.00010934392007043777,0.5241802145753834,-0.11985274463626368,0.0006581194744941926,-0.5250863559395894,-1.1509558409370015,0.008414719600971782,-0.026958652489660624,-0.04154317434348184,0.0005516539046678956,1.6459912783302344,0.9854152795784059,-0.2954541530757383,-0.4063982399709457,0.003143803309065496,-0.011747765876472638,0.05474000738437663,3.6568580003836444,-4.4105219541211635,-0.7164194377451796,-0.03487660860257652,-0.0009585522840777117
0.9500000000000001,-1.0953385432132217,0.30878098819855504,-5.600893366815791e-05,0.5238754869583441,-0.12026788855272408,0.0006632893424244706,-0.5088025533895913,-1.141213170797654,0.005333498640227986,-0.030472761703937482,-0.041514391646040684,0.0005169867930277916,1.6228772896194938,0.97273751200206,-0.22174953015271998,-0.3463558162805762,0.0030499836472384634,-0.011128533518129258,0.058183037972570704,3.6726213138936386,-4.410146915495219,-0.7224419436823156,-0.03462788553294185,-0.0009569875304183215
0.96,-1.1002660044836134,0.2974650369942888,-2.60221244631424e-05,0.5235409824623126,-0.1206827604026564,0.000668122042478596,-0.492746127039189,-1.1315951204266252,0.0029986809205015505,-0.03345044960314252,-0.0414871849932315,0.00048327000541254,1.677176152356248,1.5842013418593295,-6.62026650817023,-0.364274227454926,0.025772332616402327,-0.010643844928792667,0.0712470742804605,3.938092586359655,-5.268780539325456,-0.9226157324820567,-0.038523160206893954,-0.0009911769883366155
0.97,-1.105027572668863,0.2863080127167698,-0.0006490394896472999,0.5231530918149753,-0.12109750360902426,0.0006724358210834117,-0.4761568185249497,-1.1157024277518974,-0.06230173651841575,-0.0387890647337374,-0.041474320636786556,0.0004313778604815788,1.5729042520152405,0.9687046322134976,1.9915136524814105,-0.4444096779449609,-0.021896645948187854,-0.011906225117907399,0.06360179983940631,3.6443079040242603,-4.153416989176629,-0.6738895469066543,-0.033203800848928884,-0.0009553491682755941
0.98,-1.1096334662039515,0.27524594680237624,-0.0010780477345404388,0.5227348545311967,-0.12151306983640267,0.0006764812131462033,-0.4605893535088468,-1.1062065914393582,-0.0429008244893139,-0.041823728377851324,-0.04155662273784171,0.0004045392062791606,1.5533662261222072,0.9457045455582735,1.7304623126404097,-0.29764857520630317,-0.008461491600365578,-0.009020150738118238,0.06684159547864574,3.666898345834456,-4.1896469650490396,-0.6894149877381097,-0.03294612019495607,-0.0009510892954016963
0.99,-1.1140856170276332,0.2642767390565568,-0.0013381988906794253,0.522297825449136,-0.12192864357310942,0.00068028743456846,-0.44521508236815877,-1.096920774581942,-0.026015115613898635,-0.04370290820606549,-0.0415573736706756,0.0003806221422256662,1.5336844372751621,0.9260450595980346,1.3799868900533645,-0.18055348754192524,-2.702900142134701e-05,-0.008289967809655518,0.06993211954138515,3.6918880738206177,-4.237953006068567,-0.7074707014876693,-0.03277632331614448,-0.0009471919345031337
