tonegas/nnodely-applications/joint_friction_estimation/dataset/validation/mpc_mujoco_episode_9.csv
time,q1,q2,q3,q4,q5,q6,dq1,dq2,dq3,dq4,dq5,dq6,ddq1,ddq2,ddq3,ddq4,ddq5,ddq6,tau1,tau2,tau3,tau4,tau5,tau6
0.0,0.0,1.57,-1.57,0.0,0.0,0.0,0.0,0.0,0.0,0.0,0.0,0.0,-2.713081455193813,-5.60262065585541,4.495277328886401,2.15790404028065,-0.40513969045451503,-2.4381543024531993e-06,-0.3780963995928561,-6.537771059728843,-4.842144334555902,-1.0486367231167082,-0.03429060437143537,-0.0009158321011274722
0.01,-0.00026992295029781225,1.569443171270557,-1.5695538981874164,0.00019987403526621915,-3.4007460506493285e-05,-2.337445999018417e-07,-0.026992295029781226,-0.05568287294429905,0.04461018125836394,0.019987403526621914,-0.003400746050649328,-2.337445999018417e-05,-2.679656372925706,-5.517233741330959,4.470596027204456,2.002693597782869,-0.3403352965250708,-0.0023424868650097075,-0.3744005563823652,-6.504467870071706,-4.830568416643904,-1.0461563943255336,-0.033999352965716795,-0.0009108489165635559
0.02,-0.0008062330489538269,1.5683381032932424,-1.568665017324849,0.0005873443441434989,-9.798390958288473e-05,-7.080019550307292e-07,-0.053631009865601466,-0.11050679773145519,0.08888808625672599,0.038747030887727976,-0.006397644907639144,-4.7425735512888754e-05,-2.6427654738855417,-5.427638421069984,4.437869493939097,1.8798231359324782,-0.3002790797412267,-0.002423142984544935,-0.3690481725997183,-6.4633612927801,-4.816807984681548,-1.0431802811422926,-0.03360477918949974,-0.0009042322979728502
0.03,-0.0016051340261697775,1.5666937779911205,-1.5673372487252224,0.0011525942380660244,-0.00018938635416914897,-1.406912244100722e-06,-0.07989009772159507,-0.16443253021218993,0.13277685996267233,0.05652498939225255,-0.009140244458626424,-6.989102890699927e-05,-2.6032412580629942,-5.334267781376298,4.399417438240305,1.7815491963072605,-0.27543172264912563,-0.0022821552750560414,-0.36212567042930666,-6.414678483286274,-4.800971147412577,-1.0397351860880417,-0.033111276790626615,-0.0008960610902406039
0.04,-0.0026626186830837704,1.5645195330342874,-1.565574876858629,0.0018876805374662712,-0.0003065922186125947,-2.3184957113347226e-06,-0.10574846569139926,-0.21742449568332017,0.1762371866593298,0.07350862994002468,-0.011720586444344577,-9.115834672340006e-05,-2.561580263469902,-5.237489108908301,4.3569887711216575,1.7019768082208033,-0.26003202180413965,-0.0021828405636177273,-0.35372920512081746,-6.358654864673972,-4.783169712207433,-1.035848692096889,-0.03252349918586304,-0.0008864145244177751
0.05,-0.003974498303096793,1.5618250301571541,-1.56338244759815,0.002786086334075507,-0.0004485511612250313,-3.435738235852015e-06,-0.1311879620013023,-0.26945028771332874,0.21924292604792214,0.08984057966092358,-0.014195894261243663,-0.00011172425245172923,-2.5180782438012734,-5.137620140045064,4.311894647969435,1.6366195251671125,-0.25058880107420123,-0.002134930432997617,-0.3439632920985221,-6.295533401783392,-4.763518873922882,-1.0315491251049764,-0.031846305438971094,-0.0008753721317956568
0.06,-0.005536420075454351,1.5586202272398584,-1.5607646699755489,0.0038423805655655634,-0.0006145737317621542,-4.754985122606815e-06,-0.15619217723575582,-0.3204802917295763,0.2617777622600964,0.10562942314900567,-0.016602257053712287,-0.0001319246886754799,-2.472911084720774,-5.034941238324794,4.265110211799785,1.5820627788285917,-0.2449804706100096,-0.0021215109822434464,-0.33293956017752835,-6.225563964035823,-4.742136906313863,-1.0268655025408975,-0.03108472413808779,-0.0008630138300484165
0.07,-0.007343877404023389,1.5549153532219817,-1.5577263437085487,0.0050519588273985234,-0.0008042026834498035,-6.274655169682869e-06,-0.18074573285690373,-0.37048740178765943,0.30383262670001304,0.12095782618329595,-0.018962895168764933,-0.00015196700470760548,-2.4261833133666095,-4.929704537049846,4.217352316434146,1.5357070576892276,-0.24191296190288547,-0.0021289713752632444,-0.32077557050849154,-6.149002756934007,-4.7191448582257305,-1.0218274721953406,-0.030243927137892767,-0.0008494200503393811
0.08,-0.009392216020859613,1.5507208851508811,-1.5542723065884638,0.006410845926573196,-0.001017134242047596,-7.994437502873714e-06,-0.20483386168362244,-0.419446807110054,0.3454037120084755,0.13588870991746727,-0.021293155859779242,-0.00017197823331908447,-2.377957210185298,-4.822140810351568,4.169138896050255,1.4955721935291035,-0.2405925012224266,-0.002148541735676579,-0.30759367076241584,-6.066111803462477,-4.694666253868465,-1.0164652441435522,-0.02932920861853396,-0.0008346718452925472
0.09,-0.011676637654621465,1.5460475268417504,-1.5504073972114092,0.007915545326701936,-0.001253169576404015,-9.914815545339262e-06,-0.22844216337618517,-0.46733583091307396,0.3864909377054556,0.150469940012874,-0.023603533435641904,-0.00019203780424655482,-2.3282702953795376,-4.7124646354437765,4.120834329897236,1.460148316768954,-0.24052778703943467,-0.002174689939329122,-0.2935198705897043,-5.977158458471306,-4.668826795139044,-1.0108095173009264,-0.02834596688260713,-0.0008188509559710201
0.1,-0.01419220230316157,1.540906188757856,-1.5461364295996984,0.009562924178784495,-0.0015121845223769284,-1.2036786899763242e-05,-0.25155646485401045,-0.5141338083894534,0.42709676117108614,0.16473788520825586,-0.02590149459729133,-0.00021219713544239793,-2.277145844453138,-4.600878263517385,4.072684129291275,1.4282824200840438,-0.24141023736319234,-0.0022037822456695277,-0.27868273351091877,-5.8824149412831135,-4.641754063517187,-1.0048914015383066,-0.027299687426255395,-0.0008020398336327594
0.11,-0.016933829739864844,1.5353079688185827,-1.5414641770703805,0.011350125335901217,-0.0017941103255443283,-1.4361695619355996e-05,-0.27416274367032745,-0.5598219939273124,0.4672252529317916,0.17872011571167234,-0.02819258031673999,-0.00023249087195927553,-2.224599226039298,-4.487574510773986,4.024841489895406,1.3990920749292062,-0.24304136883188754,-0.0022332309281272167,-0.26321228545187525,-5.782157873957476,-4.613577219096503,-0.9987423359009232,-0.02619592645417125,-0.0007843216191500167
0.12,-0.01989630063226695,1.529264133918214,-1.536395363324841,0.013274499811343904,-0.002098921015060805,-1.6891126836855524e-05,-0.2962470892402105,-0.6043834900368624,0.5068813745539523,0.19243744754426867,-0.030481068951647688,-0.00025294312174995283,-2.1706417419528896,-4.372738903161014,3.9773876518276534,1.371899843428078,-0.2452886373541432,-0.002260982106431886,-0.24723894296706858,-5.676667814730331,-4.584426694589922,-0.9923940032609422,-0.025040294371784826,-0.0007657800851729427
0.13,-0.02307425750201505,1.522786101995771,-1.5309346592027047,0.01533355471045852,-0.0024266247408982187,-1.9626834368955093e-05,-0.3177956869748101,-0.6478031922443228,0.5460704122136429,0.20590548991146157,-0.03277037258374137,-0.00027357075320995686,-2.1152829825777486,-4.256551250640418,3.9303475506522467,1.346183457240133,-0.2480584643693664,-0.0022852130433934636,-0.23089246581157186,-5.566228778054011,-4.554433882533393,-0.9858782416256873,-0.02383843899995469,-0.0007464995461982354
0.14,-0.02646220566708473,1.5158854245402094,-1.5250866838998907,0.017524912862973745,-0.002777257445708225,-2.257068422274362e-05,-0.3387948165069681,-0.6900677455561568,0.5847975302814016,0.21913581525152237,-0.035063270481000657,-0.00029438498537885275,-2.058532310783146,-4.139186783830277,3.883701890861071,1.321538004256459,-0.2512796344110395,-0.0023041544709077044,-0.21430093946478174,-5.451127734384373,-4.52373081433477,-0.9792269522830236,-0.022596028384702555,-0.0007265647410143013
0.15,-0.030054514256209156,1.508573769449103,-1.5188560097213082,0.019846281293706365,-0.0031508778700293804,-2.572460417016303e-05,-0.3592308589124426,-0.731165509110628,0.6230674178582416,0.2321368430732622,-0.03736204243211553,-0.00031539199474194066,-2.000399847486404,-4.020816953714405,3.8373965047340546,1.2976472573428774,-0.2548929440159302,-0.00231598687245671,-0.19758979376378585,-5.331654084410386,-4.492449830240199,-0.9724720049677451,-0.02131873315416264,-0.0007060606911440674
0.16,-0.03384541735722586,1.500862904185084,-1.5122471696437796,0.022295426363146634,-0.0035475632682790055,-2.9090533771445373e-05,-0.3790903101016709,-0.771086526401891,0.6608840077528603,0.24491450694402697,-0.03966853982496249,-0.00033659296012823417,-1.940897187740042,-3.9016099710200045,3.7913496541150615,1.27426196137917,-0.2588446105132114,-0.0023187805170756803,-0.18088086411317555,-5.208099103823933,-4.460723239701129,-0.9656451402625685,-0.02001220842757162,-0.0006850725381450094
0.17,-0.037829015346806515,1.492764679194619,-1.5052646671199563,0.024870153937335545,-0.003967405441321513,-3.267037165622046e-05,-0.39835979895806495,-0.8098224990465072,0.6982502523823333,0.25747275741889114,-0.0419842173042508,-0.0003579837884775089,-1.880037989478312,-3.7817311437655987,3.745457775735434,1.2511834152959707,-0.2630819345591515,-0.0023104616804388023,-0.16429150187012165,-5.080755356011568,-4.42868297201472,-0.958777869494228,-0.018682075318096972,-0.000663685362033111
0.18,-0.04199927644358004,1.4842910115695234,-1.4979129876711763,0.027568293348167777,-0.004410506828944721,-3.646591825262865e-05,-0.4170261096773529,-0.8473667625095697,0.7351679448780112,0.2698139410832231,-0.04431013876232071,-0.0003795546596408192,-1.8178385247792996,-3.6613430578749444,3.6996000508957576,1.2282510826342792,-0.2675503074739254,-0.002288795125942489,-0.1479337404883344,-4.949916071238816,-4.396460217476508,-0.9519013724423321,-0.017333902098671236,-0.0006419839826774577
0.19,-0.04635003852684268,1.475453868944004,-1.4901966119055086,0.030387684210908355,-0.004876976488400906,-4.0478812933116264e-05,-0.43507620832626304,-0.8837142625519359,0.7716375765667777,0.2819390862740577,-0.04664696594561852,-0.0004012894680487617,-1.754318251802472,-3.540605635514982,3.6536420888162326,1.2053332665982617,-0.27219101748640284,-0.002251377530380294,-0.13191352385378602,-4.815874492011716,-4.364185059627115,-0.9450463932413116,-0.01597318512097532,-0.0006200527457395108
0.2,-0.05087501126695939,1.4662652536297323,-1.482120029663603,0.03332616539824733,-0.005366925835216335,-4.47104649844999e-05,-0.45249727401167156,-0.9188615314271752,0.807658224190556,0.2938481187338976,-0.048994934681542895,-0.00042316520513836417,-1.6895004460353424,-3.4196760981086562,3.607438943106459,1.1823201159361605,-0.27693953099955415,-0.0021956393671087593,-0.11633000296326027,-4.67892318535235,-4.331986099494992,-0.9382431349204734,-0.014605329593938567,-0.0005979752945722196
0.21,-0.05556777862001848,1.4567371869990722,-1.4736877550447194,0.03638156564710927,-0.005880464053136814,-4.916197806692339e-05,-0.4692767353059088,-0.9528066630659977,0.843227461888362,0.30554002488619386,-0.05135382179204782,-0.00044515130824234866,-1.6234129169863236,-3.2987088551703527,3.5608376274718623,1.1591184033373172,-0.28172406228252544,-0.002118854503148082,-0.1012749066871538,-4.539353323724085,-4.299990073035574,-0.9315211530913426,-0.013235630340431737,-0.0005758343294174124
0.22,-0.06042180174753521,1.4468816941325562,-1.4649043421025112,0.039551695408980986,-0.006417693099610512,-5.3834067995630705e-05,-0.4854023127516733,-0.9855492866516061,0.8783412942208134,0.3170129761871716,-0.053722904647369826,-0.0004672089928707313,-1.5560888278070086,-3.1778553357369566,3.513679256033984,1.1356476514782359,-0.2864643317073723,-0.0020181578708355907,-0.08683199182546192,-4.397453937291696,-4.268321463244143,-0.9249092493531286,-0.011869252659666079,-0.0005537113552194074
0.23,-0.06543042243146362,1.4367107887513322,-1.455774401027887,0.04283433965683836,-0.006978702246780187,-5.872697381789064e-05,-0.5008620683928405,-1.0170905381224022,0.9129941074624235,0.3282644247857376,-0.05610091471696751,-0.0004892905822259933,-1.4875676284988693,-3.0572637758672867,3.4658009025256433,1.1118372832978172,-0.2910704694447359,-0.0018905722787575518,-0.07307657701854164,-4.2535111411008755,-4.237102108675078,-0.9184353650446871,-0.010511213428469116,-0.0005316864193897067
0.24,-0.07058686706501185,1.4262364584588634,-1.4463026146569344,0.046227251439529916,-0.00756356210888969,-6.384036229975588e-05,-0.5156444633548243,-1.0474330292468896,0.9471786370952658,0.33929117826915534,-0.0584859862109503,-0.0005113388481865244,-1.4178961070399232,-2.93707897318805,3.417037248828031,1.0876245501996347,-0.29544206090823,-0.0017330458715040242,-0.06007516432346088,-4.107807341608392,-4.206450810333792,-0.9121264760235102,-0.009166362577368675,-0.0005098378409000247
0.25,-0.0758842513103243,1.4154706503188086,-1.4364937551572918,0.049728146033553994,-0.008172318117535392,-6.917322610553682e-05,-0.529738424531244,-1.0765808140054873,0.9808859499642679,0.35008945940240754,-0.060875600864570244,-0.0005332863805780944,-1.347129556069305,-2.817442017571355,3.3672220751079243,1.062953050453972,-0.29946735964780125,-0.0015425019797133954,-0.04788515142696681,-3.9606204277812878,-4.1764829391183955,-0.9060084891979217,-0.007839365077613765,-0.00048824193214320826
0.26,-0.08131558552450441,1.4044252567979105,-1.4263527007578736,0.05333469558698493,-0.008804983417895231,-7.472377616080882e-05,-0.543133421418011,-1.1045393520898092,1.0141054399418163,0.3606549553430933,-0.06326653003598395,-0.0005550550055272,-1.2753330450831035,-2.698490005590249,3.3161896298720395,1.0377716945236104,-0.30302271714390017,-0.001315903168497612,-0.036554636554294695,-3.8122229527050155,-4.14731004617529,-0.9001061415769019,-0.006534683573331536,-0.00046697271508395636
0.27,-0.08687378106513532,1.393112102103959,-1.415884452395574,0.0570445241842273,-0.009461531173140613,-8.048932894656533e-05,-0.5558195540630916,-1.1313154693951524,1.046824836229944,0.37098285972423733,-0.0656547755245382,-0.0005765552785756505,-1.2025827790225758,-2.5803557452969432,3.263775907556763,1.0120340077681442,-0.30597229928009906,-0.001050331148107042,-0.02612231716763952,-3.662881312287034,-4.119039478694949,-0.8944429026320192,-0.005256561789495467,-0.00044610163332831705
0.28,-0.09255165759472452,1.381542928949569,-1.405094150159307,0.06085520328586045,-0.010141886281622516,-8.646618978289436e-05,-0.5677876529589195,-1.1569173154389947,1.079030223626689,0.38106791016331487,-0.06803551084819033,-0.0005976860836329032,-1.1289675134630903,-2.463167457022347,3.2098198530596154,0.9856976865567413,-0.3081681769657676,-0.000743083834699565,-0.016617482548151735,-3.5128549282057606,-4.091774003809511,-0.8890408807870516,-0.0040090088419002835,-0.0004256972618811953
0.29,-0.09834195150954327,1.369729385772678,-1.3939870894171253,0.06476424751701386,-0.01084591653287404,-9.264953352693002e-05,-0.5790293914818749,-1.1813543176891073,1.1107060742181694,0.39090442311534035,-0.07040302512515248,-0.0006183343744035659,-1.054589984334847,-2.347048475244275,3.1541645063131916,0.9587243431863008,-0.3094508931206237,-0.0003917901862291462,-0.008060099339214921,-3.3623954427268963,-4.06561144336131,-0.8839207348625676,-0.0027957845706056833,-0.0004058250165452149
0.3,-0.10423732562120515,1.3576830144443688,-1.3825687365166854,0.06876911079195468,-0.011573423254548812,-9.903328452950876e-05,-0.5895374111661883,-1.2046371328309216,1.141835290043984,0.40048632749408175,-0.07275067216747715,-0.0006383751002578741,-0.9795682964714587,-2.232116956067052,3.0966580951532503,0.9310793896931067,-0.3096506187855139,5.45753776265423e-06,-0.00046098811329339795,-3.2117459333815614,-4.040644322388937,-0.8791015913043447,-0.0016203860140587938,-0.0003865468651539637
0.31,-0.11023038021796544,1.3454152384939075,-1.370844743953367,0.0728671827729846,-0.012324131533450602,-0.00010560999816127812,-0.5993054596760287,-1.2267775950461208,1.172399256331829,0.4098071981029926,-0.07507082789017894,-0.0006576713631769361,-0.9040372008484195,-2.1184855944707337,3.03715508102741,0.9027320217564707,-0.30858901545812456,0.0004499558239635104,0.006177911975971673,-3.061140155767718,-4.016959534223553,-0.8746009680157018,-0.00048603513803714346,-0.0003679210431381995
0.32,-0.11631366562596943,1.3329373518797678,-1.3588209649042027,0.07705578566917731,-0.013097680129835398,-0.00011237074671916077,-0.6083285408003982,-1.2477886614139795,1.202377904916435,0.4188602896192724,-0.07735485963847963,-0.000676074855788265,-0.8281491760675859,-2.0062613551936077,2.9755171592546605,0.8736552723573787,-0.30608191619000236,0.0009422297401471824,0.011863194369666152,-2.910801822892008,-3.994638025101075,-0.8704347055941126,0.0006043320677386922,-0.00035000177630258337
0.33,-0.1224796963773416,1.3202605083339238,-1.346503467029655,0.08133217138558366,-0.013893611244816435,-0.00011930501303885663,-0.6166030751372175,-1.2676843545844056,1.2317497874547754,0.4276385716406338,-0.07959311149810357,-0.0006934266319695857,-0.7520752168018482,-1.895545220896261,2.9116142134186767,0.8438261112785543,-0.3019429214363747,0.0014818661307222092,0.016609556962806304,-2.760943929509886,-3.9737545011740294,-0.866616906741633,0.0016480750115954144,-0.00033283901414378784
0.34,-0.12872096707094333,1.3073957113048484,-1.3338985454493606,0.0856935190367784,-0.014711360345101432,-0.0001264005956418492,-0.6241270693601731,-1.2864797029075412,1.2604921580294408,0.43613476511947413,-0.08177491002849965,-0.0007095582602992562,-0.6760052222783332,-1.7864319611038844,2.8453252218981424,0.8132255714865941,-0.29598797398820365,0.002067348157866633,0.020439300407828626,-2.611768129845711,-3.954377160748293,-0.863159884576178,0.002642856323630335,-0.0003164781775610962
0.35000000000000003,-0.13502996998184374,1.2943538045224525,-1.3210127348023664,0.09013693284039992,-0.015550246295948367,-0.00013364352970067486,-0.6309002910900425,-1.3041906782395811,1.2885810646994218,0.4443413803621521,-0.08388859508469351,-0.0007242934058825669,-0.6001478735229082,-1.6790099253098825,2.7765391133950668,0.7818388872836612,-0.288040927921589,0.0026959015872664305,0.023381759492223084,-2.4634641768755707,-3.9365674544738822,-0.8600741205167157,0.0035866479592128533,-0.00030095992537848006
0.36,-0.14139921443634934,1.2811454632056687,-1.3078528203072086,0.09465944040693539,-0.016409462099942373,-0.00014101802847203901,-0.63692444545056,-1.3208341316783745,1.315991449515775,0.45225075665354597,-0.0859215803994005,-0.0007374498771364153,-0.5247298912523694,-1.573360863571122,2.705155567572422,0.7496556321748313,-0.2779400580243332,0.0033633655374040172,0.025472675053352545,-2.316209431041787,-3.9203798760823934,-0.8573682323489948,0.0044777354540572745,-0.00028631994467937254
0.37,-0.14782124792057566,1.267781185930511,-1.2944258477424884,0.09925799144166524,-0.01728806658301837,-0.00014850645007385123,-0.6422033484226306,-1.3364277275157632,1.3426972564720199,0.45985510347298497,-0.08786044830759983,-0.0007488421601812219,-0.44999457910212776,-1.4695597778474316,2.6310857564078076,0.7166698469045985,-0.2655453693854446,0.00406410209855404,0.02675351469231546,-2.1701684458205723,-3.9058617860880642,-0.8550489530006906,0.00531472019664242,-0.00027258877050279426
0.38,-0.1542886788323936,1.2542712871732506,-1.2807391322744115,0.10392945687359173,-0.018184977406398104,-0.00015608929451695064,-0.6467430911817956,-1.3509898757260301,1.3686715468076869,0.4671465431926498,-0.08969108233797334,-0.0007582844443099403,-0.3761995809320898,-1.3676748073039584,2.554253021672132,0.6828801502378035,-0.25074646558009883,0.0047909599776040784,0.027270751311258293,-2.025492637002208,-3.8930532706497556,-0.8531211204640681,0.006096519579812205,-0.0002597916408978696
0.39,-0.1607942007202957,1.240625890539836,-1.2668002660641013,0.10867062842449665,-0.0190989658094883,-0.00016374523569228866,-0.6505521887902111,-1.3645396633414741,1.3938866210310188,0.4741171550904922,-0.09139884030901943,-0.0007655941175338008,-0.3036138169018972,-1.2677671506831383,2.474593483887892,0.648289826924545,-0.23347062566689103,0.005535306610172434,0.02707510921813,-1.8823200418390538,-3.881987037531087,-0.8515876792024649,0.006822364893977067,-0.0002479483936051501
0.4,-0.16733061778035752,1.2268549226888756,-1.2526171245943531,0.11347821862914029,-0.020028653499657243,-0.00017145119251309055,-0.653641706006181,-1.3770967850960354,1.4183141469748166,0.48075902046436425,-0.0929687690168945,-0.0007705956820801893,-0.23251361006825433,-1.1698910286950082,2.392056578258895,0.6129068889607892,-0.21369063644544728,0.006287140664250415,0.02622078820398077,-1.740775173380849,-3.8726883507925836,-0.8504496932633041,0.007491796832101497,-0.0002370734106424819
0.41000000000000003,-0.17389087130703235,1.2129681079514214,-1.238197871662855,0.11834886131514645,-0.020972512095562713,-0.0001791824425849926,-0.6560253526674829,-1.3886814737454327,1.4419252931498219,0.48706426860061597,-0.09438585959054702,-0.000773125007190205,-0.16317807087997388,-1.0740936890999635,2.3066055133151155,0.57674410779918,-0.1914318418067632,0.007035292287205765,0.02476467657498012,-1.6009689743338442,-3.8651750055054723,-0.8497063711964129,0.00810465849436921,-0.00022717561673476198
0.42,-0.18046806671894686,1.1989749636464593,-1.223550962996713,0.12327911254842298,-0.021928865497289493,-0.00018691278061185203,-0.6577195411914519,-1.3993144304962166,1.4646908666141936,0.4930251233276537,-0.09563534017267813,-0.0007730338026859444,-0.09588386672381578,-0.980415456736327,2.2182176483808873,0.5398190165174936,-0.1667778219564604,0.00776771195295535,0.0227655645771975,-1.462998873645199,-3.859457343393755,-0.8493551027434634,0.00866108581046922,-0.00021825853676777762
0.43,-0.18705550071185834,1.1848847960865088,-1.2086851484513437,0.1282654520471356,-0.022895895496076412,-0.00019461472225387586,-0.6587433992911489,-1.4090167559950622,1.4865814545369331,0.4986339498712612,-0.09670299987869173,-0.0007701941642023847,-0.030899561614266435,-0.888889830140177,2.1268847864221536,0.5021538821459544,-0.13987411734967065,0.008471840701198705,0.020283369939054607,-1.326948947722176,-3.85553830989344,-0.8493915071243285,0.009161495341491018,-0.00021032041621802105
0.44,-0.1936466880326547,1.17070669726309,-1.1936094727653577,0.13330428506436248,-0.023871650847775653,-0.0002022597523839536,-0.6591187320796371,-1.417809882341889,1.5075675685986025,0.5038833017226866,-0.09757553516992393,-0.0007645030130077743,0.03152023966589927,-0.7995436255951965,2.0326133793635934,0.46377564927744697,-0.11092947675396045,0.009135045827644378,0.017378387318909075,-1.192890186747164,-3.853413552671218,-0.8498094926017449,0.009606569481898102,-0.00020335440680208338
0.45,-0.2002353873259351,1.156449542197147,-1.1783332748519042,0.13839194473667057,-0.024854059918660156,-0.00020981861471758027,-0.6588699293280398,-1.4257155065942868,1.527619791345347,0.5087659672308098,-0.0982409070884502,-0.000755886233362665,0.09114067491609264,-0.7123971684323284,1.9354246435858058,0.4247158567110034,-0.08021423989843404,0.009745097745262304,0.014110573226030668,-1.0608808649540724,-3.853071561177828,-0.8506013268602779,0.009997239153827423,-0.00019734881744116139
0.46,-0.20681562548304225,1.142121986934901,-1.1628661856159757,0.1435246948930146,-0.02584094687379139,-0.00021726163773459214,-0.6580238157107141,-1.4327555262246037,1.5467089235928464,0.5132750156344019,-0.09868869551312323,-0.000744302301701187,0.14775205437895544,-0.6274645301951439,1.8353545840231766,0.3850105291574133,-0.04805565668313294,0.01029065715353869,0.010538877430553623,-0.9309670120094578,-3.8544938463334866,-0.8517577175930034,0.010334664168100704,-0.00019228742814270708
0.47000000000000003,-0.213381719926145,1.1277324671651654,-1.1472181242963158,0.1486987333155913,-0.0268300512237247,-0.00022455908980534154,-0.6566094443102733,-1.438951976973579,1.5648061319659952,0.5174038422576711,-0.09891043499333098,-0.0007297452070749408,0.20117466690749966,-0.5447538089507842,1.7324539260984655,0.34470004593871195,-0.014830180182305974,0.010761737967734997,0.006720630954665956,-0.8031829808284798,-3.857655158966614,-0.853267902553963,0.010620211514109433,-0.00018814986171379695
0.48,-0.21992829828926985,1.1132891974300183,-1.1313992933397323,0.15391019544159104,-0.027819050384247524,-0.00023168155463266577,-0.654657836312485,-1.4443269735147082,1.5818830956583456,0.5211462125999741,-0.09889991605228238,-0.0007122464827324225,0.2512627263743874,-0.4642674486361976,1.6267879556413694,0.3038289882059466,0.01904697623574203,0.011150111605385093,0.0027109994296367484,-0.677552105300802,-3.862523745165325,-0.8551197482106541,0.010855431927942905,-0.00018491200553369277
0.49,-0.2264503150143002,1.0988001708970039,-1.1154201718247032,0.15915515849216358,-0.028805584747347176,-0.00023860031667474738,-0.6522016725030354,-1.4489026533014486,1.597912151502904,0.5244963050572532,-0.09865343630996515,-0.0006918762042081608,0.2979072761489263,-0.38600259198934095,1.5184362679500545,0.2624459655207856,0.05313448771011764,0.011449622372094514,-0.0014374910717099634,-0.5540874395690716,-3.869061636267658,-0.8572998560228674,0.011042035167661472,-0.0001825464731500259
0.5,-0.23294306446101765,1.084273159657848,-1.099291507460074,0.16442964601233429,-0.029787284621712658,-0.00024528774525581676,-0.6492749446717446,-1.4527011239155765,1.6128664364629148,0.5274487520170706,-0.09816998743654837,-0.0006687428581069371,0.3410379368265522,-0.30995146043415855,1.4074924282290793,0.22060342185927917,0.08697904767321052,0.011656391559327933,-0.005675350608501474,-0.4327925687662786,-3.877224970823864,-0.859793675285629,0.011181864489272508,-0.00018102309344626902
0.51,-0.23940219023228526,1.069715715516138,-1.0830243071932968,0.16972963280304068,-0.03076179828931616,-0.00025171766569855465,-0.6459125771267626,-1.4557444141710065,1.6267200266777109,0.5299986790706398,-0.09745136676035028,-0.0006429920442737891,0.3806234554592706,-0.2361017533754214,1.2940635467424462,0.17835742032519208,0.12013012873444762,0.011768898246644788,-0.009956441454847267,-0.3136624795579073,-3.886964345523677,-0.8625856214075913,0.01127687086036001,-0.0001803094137541731
0.52,-0.24582369053272174,1.055135171224582,-1.0666298264709544,0.17505105022388256,-0.03172682035068661,-0.00025786570607435976,-0.6421500300436466,-1.4580544291556061,1.6394480722342486,0.5321417420841882,-0.09650220613704476,-0.0006148040375805111,0.41667108545970144,-0.1644370587986158,1.1782697731002554,0.13576740526914088,0.15215448471987525,0.011787936320816095,-0.01423821313666164,-0.1966844775267481,-3.8982251918016733,-0.8656591984534345,0.011329087465745152,-0.00018037120269422574
0.53,-0.2522039195046895,1.040538642131412,-1.0501195572021638,0.18038979184257653,-0.03268011950205572,-0.000263709609059889,-0.638022897196779,-1.4596529093169948,1.6510269268790678,0.5338741618693961,-0.09532991513691122,-0.0005843902985529231,0.4492248885091121,-0.09493726691619209,1.0602437150986732,0.0928959402125229,0.1826495507452044,0.01171645817714162,-0.018481858196039425,-0.08183913745119782,-3.910948174619746,-0.8689971247598367,0.01134060504865091,-0.00018117293878631768
0.54,-0.2585395846115488,1.0259330281952064,-1.0335052144827903,0.1857417194044786,-0.03361956490545915,-0.00026922949985010885,-0.6335665106859278,-1.4605613936205712,1.6614342719373532,0.5351927561902067,-0.09394454034034345,-0.0005519890790219863,0.47836309864328663,-0.02757897886295393,0.9401297883929898,0.04980842007974795,0.2112550213731803,0.011559324524863496,-0.022652392641593674,0.03089872808718505,-3.9250696097789475,-0.8725814604383069,0.011313548591925623,-0.00018267827196210534
0.55,-0.26482774025749595,1.01132501632788,-1.0167987221451456,0.1911026690929117,-0.03454315037676576,-0.0002744081030009128,-0.6288155645947137,-1.4608011867326463,1.6706492337644785,0.5360949688433132,-0.0923585471306611,-0.0005178603150803917,0.5041947220501709,0.037664096904158874,0.8180835039730104,0.006572756737341479,0.23766206627562902,0.011322985693084542,-0.02671866695974897,0.14155909654236876,-3.9405218960312434,-0.8763937356022866,0.01125005577988954,-0.00018485044692970168
0.56,-0.27106577793934133,0.9967210830267597,-1.000012197203948,0.19646845804845464,-0.03544901572116623,-0.0002792309033139019,-0.6238037681845376,-1.4603933301120355,1.678652494119761,0.5365788955542936,-0.09058653444004752,-0.00048228003129891303,0.5268555639811028,0.1008207668736085,0.6942707008921107,-0.036740962289185664,0.2616198529601159,0.011015122417458417,-0.030653315110602333,0.250175774265182,-3.957233958240446,-0.880415078197511,0.01115225759746641,-0.00018765267972036746
0.5700000000000001,-0.2772514133130998,0.9821274972584325,-0.9831579332747402,0.20183489111288314,-0.03633546468228135,-0.0002836862482687521,-0.6185635373758469,-1.459358576832711,1.6854263929207796,0.5366433064428494,-0.08864489611151176,-0.00044553449548501606,0.5465038781374806,0.16192199857898082,0.5688667319795282,-0.08006084089383991,0.2829392610830308,0.010644273448542602,-0.03443265004550912,0.3567854603698272,-3.975131697872997,-0.8846263403699287,0.011022261326124015,-0.00019104848147302245
0.58,-0.28338267062381833,0.9675503235593295,-0.9662483830456584,0.2071977677611885,-0.037200979128937904,-0.000287765391889661,-0.61312573107185,-1.4577173699103003,1.690955022908179,0.5362876648305377,-0.08655144466565595,-0.00040791436209089383,0.5633158264484174,0.22100059435930688,0.4420556103514929,-0.12331356493538093,0.3014938701536294,0.010219474057729161,-0.03803651493246604,0.46142684863622674,-3.994138447175666,-0.8890082223710832,0.010862136093126811,-0.00019500192635505824
0.59,-0.2894578649890565,0.9529954253206524,-0.9492961398874177,0.2125528891831234,-0.03804422927102681,-0.00029146248215154816,-0.6075194365238168,-1.4554898238677063,1.695224315824075,0.53551214219349,-0.08432501420889035,-0.00036970902618871696,0.5774809211131227,0.2780908952458104,0.31402912445398296,-0.16642481258507202,0.3172184655803252,0.009749924588831893,-0.04144809946756258,0.5641397792223306,-4.0141754235095775,-0.8935413930732351,0.010673901028881423,-0.00019947786325776983
0.6,-0.2954755830450501,0.9384684682281494,-0.9323139186896102,0.21789606547413296,-0.03886407986119302,-0.0002947744959650775,-0.601771805599362,-1.4526957092502935,1.6982221197807432,0.5343176291009567,-0.08198505901662091,-0.0003312013813529371,0.5891975988440972,0.3332285161407821,0.1849859291651193,-0.2093196796062627,0.3301054275971085,0.00924470239014677,-0.04465373042697422,0.6649644504628905,-4.035162180450654,-0.8982066062428739,0.010459515993022618,-0.000204442073356124
0.61,-0.3014346624615292,0.9239749238302641,-0.9153145360139183,0.22322312289440355,-0.03965959249223707,-0.00029770112734001396,-0.5959079416479096,-1.4493544397885287,1.6999382675691928,0.5327057420270579,-0.07955126310440462,-0.0002926631374936402,0.5986690517767093,0.3864501122905227,0.05513062018661169,-0.2519231136997076,0.34019944089676835,0.008712524776822356,-0.04764264503995155,0.7639406993614706,-4.057017052428754,-0.9029848117993714,0.010220874748234474,-0.00020986137764823887
0.62,-0.30733417080929887,0.9095200732112184,-0.8983108896566321,0.22852991115416615,-0.040430024232968924,-0.0003002446354635772,-0.5899508347769641,-1.4454850619045678,1.7003646357286213,0.5306788259762604,-0.07704317407318546,-0.00025435081235632064,0.6060994124671074,0.43779317607663915,-0.07532720139780752,-0.29416035135143953,0.3475909924541154,0.008161565551569522,-0.050406754920404834,0.8611073576094944,-4.079657589856458,-0.9078572613639078,0.009959800394859938,-0.00021570370010942457
0.63,-0.31317338422763824,0.8951090107485444,-0.8813159377139628,0.2338123106833728,-0.04117482295232709,-0.00030240966013223334,-0.58392134183394,-1.4411062462673954,1.6994951942669319,0.5282399529206642,-0.07447987193581707,-0.00021650246686561722,0.6116903633616981,0.4872958623828966,-0.20617386789314357,-0.3359573502629809,0.35240911744137327,0.007599323551718953,-0.052940407270366224,0.9565016881542088,-4.103000981889768,-0.9128056074815156,0.009678042830672046,-0.00022193809308284268
0.64,-0.31895176629029637,0.8807466479373761,-0.8643426772440727,0.23906623984443925,-0.04189361975997689,-0.0003042030122609971,-0.5778382062658103,-1.4362362811168337,1.6973260469890088,0.5253929161066446,-0.07187968076497925,-0.0001793352128763767,0.6156382153354026,0.5349968402457028,-0.3371925809660987,-0.3772412104276772,0.35481381673135926,0.0070325387422826985,-0.055240148947729675,1.050158905543743,-4.1269644641650975,-0.9178119959759299,0.00937727796879102,-0.0002285347320050437
0.65,-0.32466894741331587,0.8664377172663961,-0.847404122619543,0.2442876620479119,-0.04258621904089886,-0.00030563344710867043,-0.5717181123019514,-1.4308930670980078,1.6938554624529694,0.5221422203472669,-0.0692599280921976,-0.00014304348476733243,0.6181314763261921,0.5809351681539319,-0.4681643390667073,-0.417940577199166,0.3549885132434245,0.006467149575706932,-0.05730449784906798,1.142111781550417,-4.151465709068282,-0.9228591509727904,0.009059108431449688,-0.00023546488658881992
0.66,-0.33032470508877065,0.852186776132669,-0.8305132836631945,0.24947259273264158,-0.04325258658329231,-0.0003067114274617494,-0.5655757675454768,-1.4250941133727044,1.6890838956348422,0.5184930684729654,-0.06663675423934477,-0.00010779803530789668,0.6193489104456394,0.6251501902032179,-0.5988688508957369,-0.4579860202689543,0.35313284680486157,0.005908284471481409,-0.059133724958494144,1.2323903359515913,-4.176423196311987,-0.927930452202034,0.00872506543608096,-0.0002427008752385249
0.67,-0.33591894516893894,0.8379982107846617,-0.8136831436588045,0.25461710617428285,-0.04389283629661126,-0.0003074488833846237,-0.5594240080168297,-1.4188565348007274,1.68301400043901,0.5144513441641266,-0.06402497133189468,-7.374559228742701e-05,0.6194580706816887,0.6676814503035124,-0.7290854298637071,-0.49731038321609744,0.3494560355894234,0.005360280162906274,-0.060729649402542336,1.321021610860357,-4.201756561827124,-0.9330100042651881,0.008376611600467302,-0.00025021600884798874
0.68,-0.3414516843680498,0.8238762402845486,-0.7969266373263538,0.2597173420886243,-0.044507215993878725,-0.00030785897434153583,-0.5532739199110873,-1.4121970500113077,1.6756506332450614,0.5100235914341452,-0.06143796972674672,-4.100909569121477e-05,0.6186142746578281,0.70856862175058,-0.8585938648211342,-0.5358490992004543,0.34417096234324673,0.004826720089492828,-0.062095447960389266,1.4080295256669824,-4.227386923212303,-0.9380826976280975,0.008015144412710524,-0.00025798452932122493
0.6900000000000001,-0.34692303409549147,0.8098249204824418,-0.78025662884904,0.26476951199931464,-0.04509609267422314,-0.0003079558585950484,-0.5471349727441679,-1.405131980210685,1.66700084773138,0.5052169910690357,-0.058887668034441315,-9.688425351260439e-06,0.6169599828815012,0.7478514496714476,-0.9871752626773355,-0.5735404693418089,0.33748907970212194,0.004310486752809317,-0.06323547972564095,1.4934348084902032,-4.253237180231744,-0.9431342611743765,0.007642000136872551,-0.00026598154724708346
0.7000000000000001,-0.3523331856866082,0.7958481479964795,-0.7636858900364232,0.26976990534290785,-0.04565993769252125,-0.00030775447384750527,-0.5410151591116725,-1.397677248596235,1.657073881261689,0.5000393343593219,-0.05638450182981106,2.0138474754312495e-05,0.6146245323229761,0.785569704109385,-1.1146128588687922,-0.6103259013237534,0.32961617361581763,0.0038138228930185425,-0.06415512600549234,1.5772549990521105,-4.279232289106364,-0.9481513062295485,0.007258457953879362,-0.0002741829822239983
0.71,-0.3576823970557296,0.7819496641937855,-0.7472270787047959,0.2747148952877229,-0.04619931214748453,-0.00030727033216639384,-0.5349211369121383,-1.3898483802693957,1.6458811331627294,0.4944989944815064,-0.05393744549632742,4.841416811114172e-05,0.6117241746805153,0.8217631418004924,-1.2406927919909634,-0.6461501067434621,0.32074897860085994,0.003338397253483838,-0.06486064507104541,1.6595045170842313,-4.30529950960303,-0.9531213620400141,0.006865744167602755,-0.0002825655084276584
0.72,-0.3629709807612004,0.7681330591681976,-0.7308927173522042,0.2796009442467233,-0.04671485276132509,-0.00030651933136165,-0.5288583705470821,-1.3816605025587874,1.6334361352591649,0.48860489590004086,-0.05155406138405589,7.51000804743879e-05,0.6083623678701403,0.8564714749904938,-1.3652048392793819,-0.6809612566484335,0.3110726035669742,0.0028853716876900415,-0.06535904102790298,1.7401947897432597,-4.331368624191599,-0.9580329027642246,0.006465036336280236,-0.00029110650718387624
0.73,-0.36819929344385893,0.7544017757113857,-0.7146951722015493,0.2844246090683917,-0.04720725846644877,-0.000305517584189767,-0.522831268265854,-1.3731283456811973,1.6197545150654855,0.482366482166837,-0.0492405705123681,0.00010017471718829963,0.6046302706303672,0.889734345932188,-1.4879431100139167,-0.7147110955491134,0.3007587018592296,0.0024554670979527737,-0.0656579458436074,1.8193344310578679,-4.35737212880618,-0.9628753661050422,0.006057467218353507,-0.0002997840275791982
0.74,-0.37336772657831785,0.7407591132745703,-0.698646632680909,0.28918254589333664,-0.047677277859895686,-0.00030428126606518946,-0.5168433134458935,-1.364266243681536,1.6048539520640364,0.4757936824944947,-0.04700193934469136,0.0001236318124577524,0.600607393142437,0.9215913059769901,-1.608706694319662,-0.7473550149693695,0.2899643029426202,0.0020490264651884943,-0.06576551343070436,1.8969294661350344,-4.383245395012867,-0.9676391637814218,0.005644128448530331,-0.0003085767555253136
0.75,-0.37847669846000903,0.7272082319185343,-0.6827590914056767,0.2938715146680577,-0.048125697636232694,-0.00030282648137171806,-0.5108971881691166,-1.3550881356036022,1.5887541275232258,0.4688968774721057,-0.044841977633700424,0.0001454784693471406,0.596362360743043,0.9520817984236863,-1.7273002652581337,-0.7788520882596499,0.2788312145526918,0.001666073791702194,-0.06569032462339455,1.9729835927156374,-4.408926803648801,-0.9723156841034921,0.005226073883861177,-0.00031746399119513533
0.76,-0.38352664733961933,0.7137521562500168,-0.6670443247223729,0.2984883833108529,-0.04855333206541119,-0.00030116914798737496,-0.50499488796103,-1.345607566851764,1.571476668330387,0.46168686427952255,-0.042763442917849316,0.0001657333384343119,0.5919537527067911,0.9812451445077092,-1.84353463252575,-0.8091650689874097,0.2674859017156812,0.001306368213150777,-0.06544130188487762,2.0474984726730514,-4.434357850252951,-0.9768972869768973,0.004804322580597597,-0.00032642563436393435
0.77,-0.38851802560957094,0.7003937793429196,-0.6515138738690761,0.3030301315282317,-0.0489610135443067,-0.00029932489926182447,-0.49913782699515996,-1.335837690709719,1.5530450853296793,0.4541748217378794,-0.04076814788955128,0.00018442487255504976,0.5874309833207527,1.0091205321016141,-1.957227246506454,-0.838260355714544,0.2560397513960674,0.0009694529455247514,-0.06502763262615122,2.120474046181871,-4.459483222855202,-0.9813772917191964,0.004379861380496151,-0.0003354421769085583
0.78,-0.3934512949438779,0.6871358666430528,-0.6361790268024076,0.3074938542833476,-0.04934958421938155,-0.0002973090024072367,-0.49332693343070055,-1.3257912699866754,1.5334847066668509,0.4463722755115869,-0.038857067507484855,0.0002015896854587802,0.5828351977573519,1.0357470068530383,-2.068202651856958,-0.8661079263804279,0.24458963733349603,0.000654698955713795,-0.06445870009178341,2.191908861532775,-4.484250852923658,-0.9857499581223773,0.003953647100136392,-0.00034449470153014353
0.79,-0.3983269222923646,0.6739810598554138,-0.6210508007359107,0.3118767649208541,-0.04971988865294936,-0.00029513629207162057,-0.4875627348486683,-1.3154806787639026,1.512822606649692,0.4382910637506529,-0.037030443356780865,0.00021727103356160868,0.5782001603406896,1.0611634656087998,-2.176292890225958,-0.8926812458474283,0.23321870772350273,0.0003613434603303711,-0.06374402086280605,2.26180041391912,-4.508611940488211,-0.9900104612406002,0.003526608328921343,-0.00035356488565585785
0.8,-0.40314537663222877,0.6609318808132542,-0.6061399254295534,0.31617619795517915,-0.05007276748642221,-0.0002928211177459451,-0.4818454339864145,-1.30491790421596,1.4910875306357296,0.42994330343250525,-0.035287883347285165,0.00023151743256754584,0.5735531175296973,1.08540865206293,-2.281337852124135,-0.9179571504206878,0.22199732779310166,8.85234934398238e-05,-0.06289318813232726,2.3301454869553093,-4.5325209546587075,-0.9941548604205858,0.0030996468509746494,-0.0003626350094298326
0.81,-0.4079071263837154,0.6479907353284403,-0.5914568272649806,0.320389611531481,-0.050409052040085625,-0.00029037730360055174,-0.4761749751486659,-1.2941145484813847,1.4683098164572779,0.42134135763018166,-0.03362845536634102,0.00024438141453933873,0.568915622202745,1.108521154626171,-2.3831855783635225,-0.9419157133421141,0.2109841192442682,-0.00016469516160219633,-0.06191582001868755,2.3969404911913124,-4.555935610936636,-0.9981800631233693,0.002673638713423925,-0.00037168796670889094
0.8200000000000001,-0.4126126374017415,0.6351599170228656,-0.5770116141360951,0.32451458957047424,-0.050729559779688564,-0.00028781811934104336,-0.47055110180260906,-1.2830818305574723,1.4445213128885452,0.4124978038993241,-0.03205077396029395,0.0002559184259508404,0.5643043095659913,1.130539406541444,-2.4816925118711692,-0.964540095362362,0.20022704837932925,-0.00039929327514354185,-0.06082151228874212,2.462181794445595,-4.578816826878281,-1.0020837841101478,0.002249434968855304,-0.00038070727802284697
0.8300000000000001,-0.4172623714612645,0.6224416111409317,-0.5628140611795921,0.32854884360988,-0.05103509057474393,-0.00028515626070708657,-0.4649734059523036,-1.2718305881933896,1.4197552956503057,0.40342540394057763,-0.030553079505536627,0.00026618586339567744,0.5597316182042922,1.1515016882696434,-2.576723701048236,-0.985816384539695,0.18976452405687821,-0.0006162773500756336,-0.05961979496638314,2.5258660393755936,-4.601128657803662,-1.005864500581746,0.00182786212332452,-0.0003896771045315302
0.84,-0.42185678516067504,0.6098378983433768,-0.5488735973652434,0.33249021435645265,-0.05132642367121281,-0.000282403838300476,-0.459441369941055,-1.260371279755485,1.3940463814348707,0.39413707465726366,-0.029133309646887897,0.00027524224066105974,0.5552064524607496,1.171446132141869,-2.668152956192586,-1.0057334293722677,0.1796264751659642,-0.0008166622584510619,-0.05832009239622536,2.587990444325486,-4.622838214358335,-1.00952140387082,0.0014097223234825684,-0.0003985822621023651
0.85,-0.42639632917423415,0.5973507584829908,-0.5351992929610635,0.33633667296336606,-0.051604315301541484,-0.00027957237351189655,-0.45395440135590887,-1.2487139860385996,1.367430440417993,0.3846458606913389,-0.027789163032867534,0.00028314647885794366,0.5507347845012762,1.1904107292203332,-2.755862960828609,-1.024282669258123,0.16983538488353966,-0.0010014569654646643,-0.05693168641793607,2.6485530841218856,-4.643915563824051,-1.0130543482886023,0.000995793317361094,-0.0004074082347359404
0.86,-0.430881447791355,0.5849820743630136,-0.5217998478840126,0.34008632204820916,-0.05186949685724431,-0.0002766728004123918,-0.44851186171208673,-1.236868411997717,1.3399445077050953,0.37496490848431113,-0.026518155570282653,0.00028995730995047325,0.5463201961392609,1.208433338235441,-2.8397453400896153,-1.0414579660897623,0.16040726552351514,-0.0011716529612024185,-0.05546368238223425,2.7075531481162356,-4.664333617139087,-1.0164637977240782,0.0005868282233830499,-0.0004161411866767466
0.87,-0.43531257868717654,0.5727336354792574,-0.5086835809426415,0.34373739646695584,-0.05212267355286187,-0.0002737154725791931,-0.4431130895821508,-1.2248438883756256,1.3116266941371013,0.3651074418746691,-0.025317669561755844,0.00029573278331986995,0.541964361814955,1.225551696370092,-2.9197006885732075,-1.057255440530743,0.15135256329066582,-0.0013282150746871113,-0.05392497780489188,2.7649911733865213,-4.684068003630401,-1.0197507705834268,0.0001835551414075471,-0.0004247679726575388
0.88,-0.43969015287527036,0.5606071417472109,-0.4958584199740772,0.3472882638590576,-0.05236452351473218,-0.00027071017393199935,-0.43775741880938007,-1.2126493732046466,1.2825160968564322,0.3550867392101766,-0.024184996187031006,0.000300529864719375,0.5376674750995861,1.2418034315531477,-2.9956385603436866,-1.0716733161845973,0.14267698676776625,-0.0014720743346773868,-0.05232423351033358,2.8208692516003913,-4.703096935478155,-1.0229167836418536,-0.00021332336174975436,-0.00043327614583526153
0.89,-0.4440145947993799,0.5486042072155708,-0.48333189287401107,0.35073742497828597,-0.052595697233227816,-0.0002676661327607764,-0.4324441924109507,-1.200293453164014,1.2526527100066112,0.3449161119228363,-0.023117371849564184,0.0003044041171222942,0.5334286217793726,1.2572260758030325,-3.067477423974133,-1.0847117744752595,0.134382256568233,-0.0016041226106972561,-0.05066984716210054,2.875191208597934,-4.7214010639295605,-1.0259637953591747,-0.0006031308617155017,-0.0004416539630815729
0.9,-0.4482863225267503,0.5367263637677775,-0.4711111195149134,0.35408351382315584,-0.0528168173226385,-0.00026459203822758876,-0.42717277273704346,-1.187784344779331,1.2220773359097643,0.33460888448698756,-0.02211200894106866,0.0003074094533187655,0.5292461030206408,1.271857079036949,-3.135144585712271,-1.0963728226051668,0.12646677637897907,-0.0017252087629562318,-0.048969929114143065,2.927962756268169,-4.738963329254904,-1.0288941491852728,-0.0009852177524551598,-0.0004498903873900244
0.91,-0.45250574801084387,0.5249750648132107,-0.45920280454455975,0.35732529757973075,-0.05302847853848527,-0.0002614960587204666,-0.42194254840935297,-1.1751298954566805,1.190831497035366,0.32417837565749136,-0.02116612158467693,0.0003095979507122163,0.5251177123704668,1.2857338226373443,-3.1985760840115476,-1.1066601764550814,0.1189262277050919,-0.0018361360762384482,-0.04723228054536298,2.979191616762942,-4.755768806395054,-1.0317105173524408,-0.0013589619626734513,-0.00045797508725364534
0.92,-0.4566732773960291,0.5133516889696964,-0.4476132310541478,0.3604616763883885,-0.053231248007563195,-0.00025838586152590566,-0.41675293851851963,-1.162337584351428,1.158957349041197,0.31363788086577354,-0.020276946907792505,0.00031101971945609404,0.5210409704487522,1.2988936319506226,-3.257716558784042,-1.1155791597702098,0.11175409211908369,-0.0019376607692079828,-0.045464373860808226,3.028887619511506,-4.771804548188753,-1.0344158456193409,-0.0017237696893090482,-0.0004658984329504224
0.93,-0.46078931134119067,0.5018575437388919,-0.43634825510280706,0.36349168294475737,-0.05342566563129609,-0.0002552686333674433,-0.41160339451615974,-1.1494145230804527,1.1264975951340712,0.30300065563688633,-0.019441762373289668,0.0003117228158462366,0.517013321173053,1.3113737867919537,-3.3125190988137043,-1.1231366204186681,0.10494210581387942,-0.0020304914007713837,-0.043673335357219546,3.077062771865645,-4.787059427990975,-1.0370132993963568,-0.0020790761273810536,-0.00047365148974948897
0.9400000000000001,-0.46485424534313546,0.49049386917592924,-0.4254133010831694,0.3664144819435684,-0.05361224462796078,-0.00025215110143066404,-0.40649340019448205,-1.136367456296266,1.0934954019637693,0.29227989988110187,-0.018657899666468827,0.00031175319367792717,0.5130322932567792,1.3232115289461213,-3.3629450707980206,-1.1293408639721108,0.09848065185601781,-0.002115289010739929,-0.041865930159015685,3.1237313045173276,-4.801523983402413,-1.0395062116451954,-0.0024243461781322073,-0.0004812260081176045
0.9500000000000001,-0.46886847004419224,0.4792618415544083,-0.4148133579108763,0.369229369372656,-0.05379147218394408,-0.00024903955455989144,-0.4014224701056766,-1.1232027621520912,1.059994317229307,0.28148874290875897,-0.017922755598330196,0.0003111546870772611,0.5090956305596603,1.3344440656015542,-3.408963933475212,-1.1342016043211558,0.092359095819976,-0.002192667854474528,-0.040048549434032854,3.168909693089226,-4.8151902627267384,-1.0418980329071816,-0.002759075120067647,-0.0004886144110638246
0.96,-0.47283237151154056,0.46816257702742736,-0.4045529760194508,0.3719357716628279,-0.053963810188402656,-0.00024593986436902046,-0.3963901467348311,-1.1099264526980972,1.0260381891425503,0.27064022901719004,-0.017233800445857633,0.00030996901908710126,0.505201394666922,1.3451085676293915,-3.450553040230833,-1.137729930540175,0.08656607052659707,-0.00226319661239488,-0.038227199897127896,3.2126166575029913,-4.828051675658216,-1.0441922837753688,-0.003082789230065412,-0.0004958097788102789
0.97,-0.47674633147858414,0.4571971352848238,-0.3946362651408429,0.37453324469786065,-0.054129696029493767,-0.00024285750605890612,-0.39139599670435643,-1.0965441742603557,0.9916710878607882,0.2597473035032744,-0.016588584109111192,0.0003082358310114346,0.5013480428466546,1.3552421616319286,-3.487697433464553,-1.139938288768084,0.08108971547387817,-0.002327399958014287,-0.03640749560480542,3.2548731408838814,-4.8401028495794876,-1.0463925100857911,-0.003395046344196989,-0.0005028058310188532
0.98,-0.4806107275411334,0.4463665232061709,-0.3850668928511663,0.37702147268750147,-0.0542895434337387,-0.00023979757877676743,-0.3864396062549247,-1.0830612078652946,0.9569372289676578,0.2488227989640835,-0.0159847404244932,0.00030599272821386984,0.4975344842959485,1.3648819147327844,-3.52038963383658,-1.14084047747936,0.07591787628707514,-0.0023857604022383683,-0.03459465203598477,3.2957022698652136,-4.85133949271957,-1.0485022410633928,-0.0036954363502124878,-0.0005095969068378188
0.99,-0.48442593330331096,0.4356716985083399,-0.37584808386065366,0.37940026690510886,-0.05444374333308528,-0.0002367648253900747,-0.3815205762177571,-1.0694824697830978,0.9218808990512624,0.237879421760742,-0.015419989934657544,0.00030327533866927355,0.4937601173453533,1.374064811170783,-3.54862942729966,-1.1404516542066947,0.07103826917058359,-0.0024387203298045224,-0.032793482443504544,3.335129298216375,-4.861758265287021,-1.0505249506187562,-0.003983581605789897,-0.0005161779430592293
