tonegas/nnodely-applications/joint_friction_estimation/dataset/validation/mpc_mujoco_episode_7 copy.csv
time,q1,q2,q3,q4,q5,q6,dq1,dq2,dq3,dq4,dq5,dq6,ddq1,ddq2,ddq3,ddq4,ddq5,ddq6,tau1,tau2,tau3,tau4,tau5,tau6
0.0,0.0,1.57,-1.57,0.0,0.0,0.0,0.0,0.0,0.0,0.0,0.0,0.0,-13.526699946771929,15.100844559203166,14.548268579161828,5.04495788789643,-1.8660053308617464,-2.4153941815541202e-06,-1.8843329549722667,5.82492436291928,0.35289263940246673,0.09371958211621445,-0.16970907020682433,-0.0019706792047491785
0.01,-0.0013452477714819377,1.5715102667273928,-1.5685482262115351,0.00047505132080351585,-0.00016006740903384795,-1.3831400603447452e-06,-0.13452477714819377,0.15102667273928136,0.14517737884649928,0.047505132080351585,-0.016006740903384796,-0.00013831400603447452,-13.497705467778431,14.981475257968984,14.178048397697836,4.602800508800968,-1.5731358869074867,-0.013613560999695906,-1.9077668089549604,5.655322417478776,0.27412227792467725,0.07551763045158388,-0.1710939204743077,-0.00198273772462474
0.02,-0.004031912080783521,1.5745189515977627,-1.5656834382466864,0.0013884866611666084,-0.00046221592592913944,-4.2081429285212745e-06,-0.2686664309301583,0.3008684870369882,0.2864787964848706,0.09134353403630925,-0.030214851689529143,-0.00028250028681765294,-13.438821976243004,14.833599125554437,13.747608612845298,4.218624585103612,-1.3845985901528906,-0.013493120659006763,-1.95410344216921,5.406829950401925,0.18305278204905573,0.05610069294140496,-0.1736871401471725,-0.0019881025936812676
0.03,-0.008053620247864289,1.5790112834488164,-1.5614498686490064,0.002707767258780541,-0.0008945499964710679,-8.370698629767093e-06,-0.40217081670807686,0.44923318510537724,0.42335695976801524,0.13192805976139327,-0.04323340705419284,-0.0004162555701245818,-13.351059045050798,14.653065718999422,13.261496078911915,3.8752758395392277,-1.2531636378670754,-0.011254173340280893,-2.0219218665579404,5.080883831094795,0.07952913255676997,0.0354257744515627,-0.1773320310446641,-0.0019855280999291304
0.04,-0.013401391457107954,1.5849691704701732,-1.5558968962184614,0.004403180765035066,-0.001448417094826447,-1.3757044136948159e-05,-0.5347771209243666,0.5957887021356796,0.5552972430545061,0.1695413506254525,-0.05538670983553793,-0.0005386345507181067,-13.233937822432976,14.43633022450882,12.723549261217038,3.5600112202264,-1.1509025373918789,-0.008518465408547726,-2.10943335497594,4.679764864485211,-0.036235122286668364,0.013540831172740964,-0.18182758907505314,-0.0019735398462852644
0.05,-0.020063486195268838,1.5923708592826133,-1.5490787603598277,0.006446878878940283,-0.0021167252919089487,-2.0254098113526963e-05,-0.6662094738160883,0.7401688812440247,0.6818135858633614,0.20436981139052168,-0.06683081970825015,-0.0006497053976578804,-13.086192343466136,14.180505357169007,12.137263783480925,3.263522991666619,-1.0617173433492368,-0.005517387654701444,-2.214434614127789,4.206677263586277,-0.16364501292042544,-0.009416733511782072,-0.18693428024646444,-0.0019504915487470527
0.06,-0.028025217219826364,1.6011906571928243,-1.5410542868416717,0.008812180214460386,-0.0028929782161599416,-2.7744948547533333e-05,-0.7961731024557525,0.8819797910210895,0.8024473518156123,0.2365301335520103,-0.07762529242509927,-0.0007490850434006368,-12.906245197367209,13.883412671081203,11.506071204645764,2.979178648342753,-0.9767854792079618,-0.0023514550955345825,-2.3342625860013784,3.6658032196681063,-0.30172072907387104,-0.03322398429957807,-0.1923809250845991,-0.0019146617430311876
0.07,-0.037268754068765064,1.6113987233634897,-1.531886602490701,0.011473080726688095,-0.0037707524279481167,-3.6106498132395924e-05,-0.9243536848938704,1.0208066170665475,0.9167684350970814,0.26609005122277085,-0.08777742117881751,-0.0008361549584862593,-12.692538353706194,13.543624655482352,10.83354213012429,2.702429572236582,-0.8917414427994288,0.0008625180580992264,-2.4657624502056366,3.062324697712426,-0.4491063787439451,-0.05757933422353945,-0.19787281965554837,-0.0018643717570511638
0.08,-0.0477729444269729,1.622960933549396,-1.5216428226656489,0.01440392682010262,-0.004743446850393537,-4.5209903129607775e-05,-1.0504190358207837,1.156221018590641,1.0243779825052173,0.2930846093414525,-0.09726944224454201,-0.000910340499721185,-12.443766851024629,13.160491521180273,10.12352335774819,2.4303481481866527,-0.8049133030505189,0.003999568101083817,-2.6052795561256255,2.402406737341611,-0.6040929074496391,-0.08211269961437317,-0.20310107125368515,-0.0017981118737660678
0.09,-0.05951316961276625,1.6358388213962172,-1.5103937009788484,0.01757921589307165,-0.005804197543703048,-5.4922665759842526e-05,-1.1740225185793352,1.287788784682117,1.1249121686800394,0.31752890729690303,-0.10607506933095118,-0.000971276263023475,-12.159042658706618,12.734148789980699,9.380217640010866,2.1612621001137597,-0.7162064012009566,0.006946692643531982,-2.7486842391185173,1.693139024074565,-0.764656220778861,-0.10639896603083931,-0.2077529699597791,-0.001714665363544183
0.1,-0.07246124679091553,1.6499895972888379,-1.498213235719935,0.02097349630059368,-0.006945890085745695,-6.51114280018718e-05,-1.2948077178149286,1.4150775892620597,1.2180465258913513,0.33942804075220306,-0.1141692542042646,-0.001018876224202927,-11.838004088216403,12.265503767906079,8.608214065771474,1.8944625012502527,-0.6263895645173889,0.009615907065002816,-2.8914356815178346,0.9424352071324806,-0.9285104729958706,-0.12997450883767714,-0.2115230679598066,-0.0016132215566560938
0.11,-0.08658538655767355,1.665366243559001,-1.4851782317942248,0.024561344152995976,-0.008161225997137292,-7.564484753409503e-05,-1.4124139766758008,1.5376646270163121,1.3035003925710007,0.35878478524022944,-0.1215335911391597,-0.001053341953222322,-11.480879764110137,11.756200730573674,7.812476854428844,1.6299679835631409,-0.5366367769904556,0.01194969399068313,-3.028687263483871,0.1588922329416711,-1.0931753229789982,-0.1523562182656486,-0.21412451115015024,-0.0014934702422815162
0.12,-0.10185021094951732,1.6819176826865345,-1.4713678207009075,0.028317398489169008,-0.009442814962703909,-8.63961925015232e-05,-1.526482439184377,1.6551439127533525,1.38104110933172,0.3756054336173033,-0.1281588965566617,-0.0010751344967428178,-11.088513079115211,11.208565773566521,6.998300320362283,1.368332357101039,-0.4482352903364841,0.013920753828350563,-3.155431456752419,-0.6483855159746401,-1.2560548581548536,-0.17306221889211426,-0.21530007321158912,-0.0013556708847754376
0.13,-0.11821683358187095,1.6995890130625382,-1.4568629441170253,0.0322164395366176,-0.01078327458127469,-9.724546983523523e-05,-1.636662263235363,1.7671330376003644,1.4504876583882151,0.3899041047448586,-0.13404596185707812,-0.0010849277333712026,-10.662353549403784,10.625535887895698,6.171237667553331,1.11048632321679,-0.36240520579129054,0.01552806098641657,-3.2666780129916893,-1.4699889569754667,-1.4145244590031267,-0.19163318000434426,-0.2148323160241219,-0.001200691835097316
0.14,-0.1356430006929471,1.7183218052831015,-1.4417458090077309,0.03623349726687204,-0.012175326091441417,-0.00010808102132919398,-1.742616711107615,1.8732792220563415,1.5117135109294466,0.40170577302544436,-0.13920515101667272,-0.001083555149395875,-10.204417811321482,10.010571110473972,5.337011201189199,0.8576067426927807,-0.2801954383054692,0.01679095188754065,-3.357654350092451,-2.2964267911103313,-1.5660220576452804,-0.20765316665668432,-0.2125522614794132,-0.0010300162768892632
0.15,-0.1540832890616427,1.7380544502369044,-1.42609932384368,0.040343979494231824,-0.013611879160913883,-0.0001188005981118662,-1.8440288368695612,1.9732644953802856,1.5646485164050719,0.4110482227359782,-0.14365530694724657,-0.0010719576782672212,-9.717229195891912,9.367559364724912,4.501411091331272,0.6110085712642643,-0.2024324074178665,0.017742599630504508,-3.4240147502993956,-3.118354461116602,-1.7081381025582578,-0.22076862387546003,-0.20834609904290993,-0.0008457144230136241
0.16,-0.17348935475155836,1.7587225495101508,-1.4100065264991084,0.04452381046764684,-0.015086102089712838,-0.00012931196892995294,-1.940606568991564,2.0668099273246447,1.6092797344571586,0.41798309734150163,-0.14742229287989547,-0.001051137081808674,-9.203739632655587,8.70071429488208,3.670189294313891,0.3720561149261137,-0.12970490728622508,0.01842383759842292,-3.4620421671293458,-3.926800321587808,-1.8386998675253783,-0.2307044356938147,-0.2021594989095055,-0.0006503832756762467
0.17,-0.19381022492635266,1.7802593379280762,-1.3935500147751736,0.0487495723921456,-0.016591476064039788,-0.00013953313967524238,-2.032087017479431,2.15367884179253,1.645651172393471,0.42257619244987543,-0.1505373974326949,-0.0010221170745289452,-8.667240667426386,8.014471671424602,2.8489544833299956,0.1420910369442261,-0.06237292953910156,0.01887792271035993,-3.4688267216424147,-4.713377440102173,-1.9558451464544786,-0.23727600847235875,-0.1939992909751134,-0.00044705779643785365
0.18,-0.21499262391007407,1.8025961279078695,-1.3768113903069736,0.05299864363958008,-0.018121833663953413,-0.00014939226788277167,-2.1182398983721407,2.233678997979325,1.6738624468199865,0.4249071247434482,-0.15303575999136257,-0.0009859128207529298,-8.111269083333406,7.313387975600313,2.043072918263981,-0.07762483854315505,-0.0005913390792997575,0.01914651801929912,-3.442406356364695,-5.470471261207651,-2.0580812840844835,-0.2403966451577022,-0.18393243292448827,-0.0002390991732491765
0.19,-0.23698132411892597,1.8256627655158075,-1.3598707259552716,0.05724932861091572,-0.019671382847193733,-0.00015882735215447952,-2.198870020885191,2.3066637607938065,1.6940664351701988,0.4250684971335641,-0.15495491832403213,-0.0009435084271707849,-7.539512201127862,6.602044556550987,1.257579178646127,-0.2859535349990061,0.05565837887885294,0.019266940168528368,-3.3818582866297975,-6.191394919096446,-2.144326447461901,-0.24007980776655002,-0.17208237299895318,-3.006734027991367e-05
0.2,-0.2597195124390975,1.849388088679335,-1.3428060657505496,0.06148097531363767,-0.021234718233712153,-0.00016778576693625517,-2.2738188320171537,2.3725323163527454,1.7064660204722066,0.4231646702721948,-0.1563335386518419,-0.0008958414781775647,-6.955716931500067,5.884959796048739,0.497099673161836,-0.4819131460152075,0.1065332275361186,0.01927056278569106,-3.2873341820097637,-6.870506332498333,-2.213931339074742,-0.23643624957432033,-0.15862307724698083,0.00017641426809544532
0.21,-0.2831491629769734,1.873700378806454,-1.3256929651446756,0.0656740777273805,-0.022806821804963236,-0.00017622370094054146,-2.3429650537875903,2.4312290127118947,1.7113100605874068,0.4193102413742826,-0.1572103571251082,-0.0008437934004286284,-6.363606046505648,5.166511405928871,-0.23420919573259535,-0.6646995767281609,0.1522940994000237,0.019182181623144334,-3.160037061837405,-7.503283566178778,-2.2666808851367852,-0.22966636427438253,-0.14377113422910376,0.00037679354799603846
0.22,-0.30721140780757406,1.8985277980785937,-1.308604077834275,0.06981036094887899,-0.02438305519543469,-0.00018410554488152575,-2.4062244830600625,2.4827419272139775,1.70888873104007,0.4136283221498495,-0.1576233390471454,-0.00078818439409843,-5.766804023775426,4.4508699582497,-0.9327072443924012,-0.8336990540773952,0.19327370175466285,0.019020115658011427,-3.002142878958595,-8.086357694961158,-2.3027768491099163,-0.2200484413895974,-0.12777644769774932,0.0005677164491093428
0.23,-0.3318468982859762,1.9237988058065192,-1.2916087938387215,0.07387284793210014,-0.025959145662156218,-0.0001914032623934926,-2.4635490478402122,2.527100772792535,1.6995283995553487,0.4062486983221144,-0.15760904667215292,-0.0007297717511966861,-5.168773956990305,3.741944267991621,-1.5953009625381434,-0.9884926326626162,0.2298483127464621,0.01879682249941883,-2.816674245992241,-8.617504806843652,-2.322803530079583,-0.20792377426980607,-0.11091208273314472,0.0007461389321146468
0.24,-0.35699615057971756,1.949442548423628,-1.2747729319258403,0.07784590736711025,-0.02753116762777731,-0.00019809576774549364,-2.514925229374138,2.5643742617108756,1.6835861912881163,0.39730594350101056,-0.15720219656210946,-0.0006692505352001031,-4.572766099902969,3.0433388012025,-2.2194587683285967,-1.1288539037483485,0.2624139830639507,0.018519831824672872,-2.6073371807669123,-9.095600887090242,-2.327679671515978,-0.19367972977219497,-0.09346383740203044,0.0009094189713888806
0.25,-0.3825998702352025,1.9753892188924447,-1.2581584879479293,0.08171528286874662,-0.02909552144779794,-0.00020416832553977804,-2.5603719655484922,2.594667046881673,1.661444397791091,0.386937550163636,-0.15643538200206303,-0.0006072557794284393,-3.9818681868557144,2.3583499510453056,-2.803214629893704,-1.2547418364983827,0.29136834950013224,0.018192835312422995,-2.3783577206412216,-9.520534597399719,-2.318597424992725,-0.1777314565516305,-0.0757213968625826,0.0010553808290975596
0.26,-0.4085992607188155,2.001570385174997,-1.2418234394647767,0.08546810408157517,-0.030648910896651067,-0.00020961197738635854,-2.5999390483613025,2.6181166282552293,1.6335048483152619,0.37528212128285443,-0.15533894488531258,-0.0005443651846580496,-3.398626898045999,1.689834681456425,-3.345146986550735,-1.3662856600945492,0.31708998276288014,0.017816850557675346,-2.1341931909141563,-9.893149148071302,-2.2969698275549453,-0.16050617962217095,-0.057963799856509214,0.0011823763753661515
0.27,-0.43493627821614733,2.0279192747047285,-1.2258216046297128,0.08909288116612196,-0.032188320165812044,-0.00021442301403175914,-2.6337017497331816,2.6348889529731596,1.6001834835063962,0.36247770845467964,-0.15394092691609748,-0.0004811036645400587,-2.825526507662021,1.0403741036511016,-3.844370599302673,-1.4637726793590886,0.3399392737757214,0.01739111983031827,-1.8794658084576974,-10.215053041686446,-2.264347661604183,-0.1424242797551638,-0.040458367903863306,0.0012892762735677416
0.28,-0.4615538802415497,2.0543710311808967,-1.2102025544455608,0.09257948363997136,-0.033710991479807516,-0.0002186024713611682,-2.6617602025402376,2.6451756476168007,1.561905018415197,0.3486602473849395,-0.1522671313995471,-0.0004179457329409054,-2.264666917430655,0.4121563278113792,-4.300496448030307,-1.5476281846809172,0.36024101245799756,0.016914291007876003,-1.6187033286524457,-10.488537059444505,-2.2223666022364688,-0.12388670969056503,-0.023449254826406873,0.001375482704987884
0.29,-0.4883962359960529,2.0808629320404797,-1.1950115744616707,0.09591910553694678,-0.035214403981556036,-0.0002221556623628762,-2.6842355754503244,2.649190085958285,1.5190979983889987,0.33396218969754243,-0.15034125017485206,-0.0003553191001707993,-1.7177334444119268,-0.192998742826305,-4.713594718967301,-1.6183958554301636,0.37828224936275134,0.016385059355127463,-1.3561725206402986,-10.716431713786521,-2.1726863096273403,-0.10526315081115477,-0.007151659208471335,0.001440901673566044
0.3,-0.5154088954213573,2.1073345691031324,-1.1802896722115057,0.09910421869753616,-0.0366962541428461,-0.00022509174423806705,-2.7012659425304313,2.6471637062652973,1.4721902250165084,0.31851131605893784,-0.14818501612900645,-0.0002936081875190871,-1.1864335281969818,-0.7735781183521943,-5.08415612076957,-1.6767187258723162,0.39431742492132926,0.01580275278821569,-1.0958711842466369,-10.90195661001284,-2.116934427134616,-0.08688273981106846,0.008245700676568227,0.0014858876825678505
0.31,-0.5425389603804395,2.133727998521204,-1.166073626507586,0.10212851594303564,-0.03815443829066137,-0.00022742329574742488,-2.7130064959082207,2.639342941807147,1.4216045703919797,0.3024297245499478,-0.14581841478152674,-0.00023315515093578235,-0.671839822821784,-1.3284362467935078,-5.413038349687596,-1.7233170622839538,0.4085539117257557,0.015167997752056406,-0.8412505681615741,-11.048625682171577,-2.0566686719346756,-0.06902889388476913,0.022592484909427436,0.0015112091996455131
0.32,-0.5697351925786256,2.1599878540282593,-1.1523960732912972,0.10498684628622931,-0.03958703709291437,-0.00022916593497880817,-2.7196232198186108,2.6259855507055576,1.3677553216288705,0.2858330343193674,-0.14325988022530015,-0.00017426392313832888,-0.17486293766762886,-1.856716456626419,-5.701422836604331,-1.758969835470488,0.4211675121943923,0.01448262709388587,-0.5952785190460553,-11.160109262306758,-1.9933398824194424,-0.05193622948129284,0.035770832367608266,0.0015179678448531222
0.33,-0.5969481052422114,2.1860614313359346,-1.1392856236897424,0.10767514389360726,-0.040992301949077325,-0.00023033795175571723,-2.7212912663585773,2.607357730767503,1.3110449601554868,0.268829760737794,-0.1405264856162959,-0.00011720167769090612,0.3038430379447898,-2.3578424483647584,-5.950765015330553,-1.784495909791385,0.43230058265366156,0.01375002358802735,-0.3603788413718101,-11.240139233670774,-1.9282686705730945,-0.03579024980260878,0.04769648775653387,0.0015075338548476598
0.34,-0.6241300291499826,2.2118987445478115,-1.1267670093236783,0.11019035261060049,-0.04236864329176765,-0.00023095995702393147,-2.718192390777117,2.5837313211876913,1.251861436606415,0.2515208716993228,-0.13763413426903223,-6.220052682142247e-05,0.7638587816425657,-2.831492703983671,-6.162746739113202,-1.8007369016584036,0.4420658257319592,0.01297504576465569,-0.13842891774164232,-11.292422446996168,-1.8626303752452684,-0.020729164781898207,0.05831721003548729,0.0014814763435862278
0.35000000000000003,-0.6512351551780056,2.237452557159267,-1.1148612501167674,0.11253034769788052,-0.04371462063353042,-0.00023105454844093542,-2.710512602802294,2.555381261145539,1.1905759206910955,0.23399950872800318,-0.13459773417627668,-9.459141700396668e-06,1.2049770159867994,-3.277574129997533,-6.339230563199103,-1.808541739610149,0.4505505849343274,0.01216388168449345,0.06921994932425635,-11.320569417323751,-1.7974481396722375,-0.006847394517304262,0.06761035488729261,0.001441495985678155
0.36,-0.678219555618357,2.26267839028669,-1.1035858400433676,0.11469385627275033,-0.04502893414515117,-0.00023064599157765568,-2.6984400440351406,2.522583312742308,1.1275410073399885,0.21635085748698157,-0.1314313511620753,4.085568632797467e-05,1.6271793261555059,-3.696195644164602,-6.482216655747876,-1.808753091054001,0.4578213862326299,0.011323823531983024,0.2617046253228147,-11.32803800831671,-1.7335928914854597,0.005799722873788049,0.07557985787714161,0.0013893626363675566
0.37,-0.7050411865813443,2.2875345107731335,-1.0929549465154915,0.11668037777884947,-0.04631041752221783,-0.0002297599167448918,-2.682163096298727,2.4856120486443554,1.063089352787616,0.19865215060991337,-0.12814833770666617,8.860748327638572e-05,2.0306129646004063,-4.087642278439319,-6.593802897880056,-1.8021957358491463,0.463928503274742,0.010462984504258976,0.4385998593359573,-11.318091199292951,-1.6717888610824263,0.017190477202078225,0.08225283412030887,0.001326859733358875
0.38,-0.7316598737944542,2.3119819017640526,-1.082979619429151,0.11849010562785643,-0.04755803188334469,-0.00022842303199574438,-2.6618687213109915,2.4447390990918905,0.9975327086340466,0.18097278490069613,-0.12476143611268597,0.0001336884749147438,2.4155680496571477,-4.452350241883081,-6.676148551117903,-1.7896668939737879,0.4689103577988778,0.009589982709088396,0.5998604970333739,-11.29376760160297,-1.612623251716981,0.02733099629631036,0.08767598984600646,0.0012557366734473755
0.39,-0.7580372840738664,2.3359842182491968,-1.0736680062477355,0.12012385097553467,-0.048770860444198774,-0.00022666285323979095,-2.6377410279412237,2.4002316485144304,0.9311613181415515,0.1633745347678241,-0.12128285608540833,0.0001760178755953447,2.7824555415762378,-4.790883271185722,-6.731441710456622,-1.7719284540715279,0.4727976032525092,0.008713615368190375,0.7457604726990293,-11.257863129865429,-1.5565587466986965,0.036249465349325605,0.09191201443825948,0.0011776697602407685
0.4,-0.7841368846683053,2.359507729936552,-1.0650255698792837,0.12158296941710518,-0.049948103723781896,-0.0002245074526162709,-2.6099600594438983,2.3523511687355056,0.8642436368451837,0.145911844157051,-0.11772432795831214,0.00021554006235200557,3.1317863041330294,-5.103910495272839,-6.7618706246596405,-1.7497010014042864,0.47561677695573223,0.007842543624483889,0.8768321051619757,-11.212922115569208,-1.5039476782112167,0.04399062704878437,0.09503609049828275,0.0010942318062012036
0.41000000000000003,-0.8099238925678491,2.3825212536715643,-1.057055306491783,0.12286929121816768,-0.0510890750608413,-0.00022198522631575082,-2.5787007899543792,2.3013523735012567,0.7970263387500647,0.1286321801062506,-0.11409713370594067,0.00025222263005200793,3.464151467699872,-5.392185954562668,-6.769598851779013,-1.7236595070201126,0.4773934419061394,0.0069850046087516215,0.9938084037167054,-11.161236147245983,-1.455046861671183,0.05061075970962392,0.09713262736338761,0.0010068700589829
0.42,-0.835365215741318,2.4049960774483417,-1.0497579607945584,0.12398505554077639,-0.0521931962464065,-0.00021912468292778622,-2.5441323173468797,2.2474823776777417,0.7297345697224566,0.11157643226087144,-0.11041211855651914,0.00028605433879645996,3.7802042224790746,-5.6565298441264416,-6.756744126429868,-1.6944305139103193,0.4781547722260058,0.006148563538190155,1.097570291692439,-11.104849003563453,-1.41003229616212,0.05617326129517064,0.09829229271479692,0.0009168918126190101
0.43,-0.8604293881237639,2.4269058778861825,-1.04313223668522,0.1249328489823424,-0.053259993111014994,-0.00021595425314870672,-2.5064172382446013,2.1909800437840996,0.6625724109338477,0.09477934415660075,-0.10667968646085,0.0003170429779079505,4.080643098951196,-5.897811492303138,-6.725360744515807,-1.662590639622831,0.4779315656958474,0.005339914449760563,1.1890999339849317,-11.045566186036906,-1.369013127059798,0.06074490663321763,0.0986093890212314,0.0008254568536520972
0.44,-0.8850865000275614,2.4482266328704543,-1.0371750015134238,0.12571554861940615,-0.05428909094010743,-0.0002125021213410852,-2.46571119037975,2.1320754984271826,0.5957235171796245,0.07826996370637344,-0.10290978290924314,0.00034521318076215267,4.366196738043422,-6.116934041040333,-6.677425219044718,-1.6286662070115412,0.4767596922814512,0.0045647343435524235,1.269440743519601,-10.984967733006647,-1.3320444483895182,0.06439279533531306,0.09817959753101779,0.0007335757702498457
0.45,-0.9093081255021258,2.4689365308859914,-1.031881482539648,0.12633626963982175,-0.05528020962647829,-0.00020879607902731456,-2.4221625474564368,2.0709898015537243,0.5293518973775775,0.06207210204155983,-0.09911186863708615,0.0003706042313770651,4.6376101137695365,-6.314820760063819,-6.6148249252070945,-1.593133814336575,0.4746810087164839,0.0038275919321553165,1.3396641540473535,-10.92442318690622,-1.2991386813426846,0.06718196953279232,0.09709809275680753,0.0006421131048642415
0.46,-0.9330672480223707,2.4890158784072662,-1.0272454544657528,0.1267983175556545,-0.0562331585029638,-0.00020486339995845216,-2.375912252024488,2.0079347521274835,0.46360280738952053,0.0462047915832723,-0.095294887648551,0.0003932679068862392,4.895632143128886,-6.49240290255006,-6.5393494317458725,-1.5564216614324806,0.4717437857311175,0.0031319091580757075,1.4008428825199555,-10.865107778041097,-1.2702753974176786,0.06917365311827484,0.0954580149269586,0.0005517943429764042
0.47000000000000003,-0.9563381857474629,2.508447006555004,-1.0232594171821772,0.12710514491468655,-0.05714783083043501,-0.00020073073595765678,-2.327093772509218,1.9431128147737553,0.39860372835756375,0.03068273590320514,-0.09146723274712096,0.00041326640007953734,5.141004599312271,-6.650608993908233,-6.452684206545807,-1.518911458909777,0.46800270633576346,0.0024799712347074454,1.4540301535945588,-10.808019069747825,-1.2454095587465934,0.07042404658579132,0.09334927647040475,0.00046321578691138463
0.48,-0.9790965174611539,2.5272141780852895,-1.019914763113338,0.12726031236998278,-0.05802419794466791,-0.0001964240323221442,-2.2758331713690976,1.8767171530285498,0.33446540688390725,0.015516745529623446,-0.08763671142329073,0.0004306703635512586,5.374452232799241,-6.790355436265486,-6.35640638516528,-1.4809407611112881,0.46351850081417467,0.0018729791814084962,1.5002442058961922,-10.753993475242066,-1.2244782255844358,0.07098360225254641,0.09085767084358173,0.00037685645070824797
0.49,-1.0013190101841272,2.54530349564543,-1.0172019337482392,0.12726745392328262,-0.05886230309013023,-0.00019196846120062203,-2.222249272297324,1.8089317560140816,0.27128293650989316,0.0007141553299834947,-0.08381051454623166,0.0004455571121522171,5.59667399927571,-6.9125383080702605,-6.2519822997530055,-1.44280557972208,0.45835728704778944,0.0013111377229537702,1.5404573262247028,-10.703722202028063,-1.2074058344728353,0.07089670191933517,0.08806424738257515,0.000293091217453619
0.5,-1.0229835493379917,2.5627028121112065,-1.0151105651183707,0.12713024612762408,-0.05966225498881416,-0.00018738837105998623,-2.166453915386459,1.7399316465776204,0.20913686298685666,-0.013720779565854126,-0.07999518986839342,0.00045800901406357994,5.808335292312153,-7.018026239805259,-6.140766480675034,-1.4047631525795055,0.45258968412037603,0.0007937708173240132,1.575588645344352,-10.657766304083898,-1.1941081839022676,0.07020166120897847,0.08504491381347454,0.00021220461424456788
0.51,-1.0440690722399002,2.579401643712503,-1.0136296221312089,0.12685238101599494,-0.06042422120788399,-0.00018270725012647324,-2.108552290190844,1.6698831601296633,0.1480942987161857,-0.02778651116291298,-0.07619662190698287,0.0004681120933513004,6.010061081514259,-7.107654252176717,-6.024001862716942,-1.3670347604899185,0.44628976343796367,0.0003194570801323682,1.606499960066988,-10.616570625474125,-1.1844952813546106,0.06893099038398759,0.08187022802668206,0.0001344046741287677
0.52,-1.064555505616017,2.5953910865581213,-1.0127475217869852,0.12643754251430495,-0.06114842140125491,-0.0001779477015361737,-2.048643337611668,1.5989442845617987,0.08821003442235581,-0.041483850168999345,-0.07242001933709241,0.0004759548590299538,6.202429862654641,-7.182218451513311,-5.902820950625624,-1.3298085030999083,0.4395338956803201,-0.00011382236303014714,1.6339939060283681,-10.580476503006071,-1.178473210300219,0.06711184907475459,0.0786053422027381,5.9836463105684295e-05
0.53,-1.084423707740656,2.6106637370849675,-1.0124522454012153,0.12588938609693745,-0.0618351205076076,-0.00017313142785903383,-1.9868202124638912,1.5272650526846057,0.029527638577008783,-0.05481564173674916,-0.06866991063526891,0.0004816273677139886,6.385968334522524,-7.242471487776696,-5.778247723961577,-1.2932419625396179,0.4323995445099875,-0.0005085304088767728,1.658813881567591,-10.549733162131963,-1.1759451716006943,0.0647666409829793,0.07531006491351769,-1.1405050453145707e-05
0.54,-1.1036554157350373,2.6252136168807523,-1.0127314400282998,0.1252115214499701,-0.062484621991223344,-0.00016827922266515025,-1.9231707994381428,1.4549879795784595,-0.027919462708455134,-0.06778646469673338,-0.064950148361574,0.0004852205193883584,6.5611467274099065,-7.289118692988483,-5.6512000878847175,-1.2574647002726742,0.424964049842842,-0.000867420936685459,1.6816452059348488,-10.524507791920584,-1.1768118438943147,0.061913703443053136,0.07203901002913612,-7.926301923582023e-05
0.55,-1.1222331984942813,2.6390361022615307,-1.0135725093350394,0.12440749791933163,-0.06309726121291707,-0.00016341096687672325,-1.8577782759243897,1.3822485380778529,-0.0841069306739641,-0.08040235306384728,-0.06126392216937346,0.00048682557884270107,6.728374719897556,-7.322814831531266,-5.522492703914759,-1.2225805481050074,0.4173034352821894,-0.001193391362397378,1.703117077744896,-10.504894324059823,-1.1809711944338377,0.05856805513383001,0.06884180482659628,-0.00014370779425362988
0.56,-1.1401404156522972,2.652127858924534,-1.014962694209877,0.12348079253726973,-0.06367339901678737,-0.00015854562778593533,-1.7907217158016016,1.3091756663003145,-0.1390184874837716,-0.09267053820618924,-0.057613780387029245,0.0004865339090787928,6.8879978935962445,-7.344161408287937,-5.392840062361575,-1.1886696684509417,0.4094912665314858,-0.001489345017262167,1.7238049774933704,-10.490920969889421,-1.1883178574778195,0.05474217283731303,0.06576333338112937,-0.00020472715588157531
0.5700000000000001,-1.1573611829403578,2.664486781941291,-1.0168891434169167,0.12243480043924523,-0.06421341561501154,-0.00015370125880923786,-1.7220767288060765,1.2358923016757026,-0.1926449207039685,-0.10459920980244958,-0.05400165982241751,0.00048443689766974765,7.040294689458574,-7.353704495577819,-5.2628596856082055,-1.1557903716606432,0.4015975806617966,-0.0017580667484220491,1.7442332282512905,-10.48255659057497,-1.1987421831722458,0.05044677470196268,0.06284399495007446,-0.00026231775030750794
0.58,-1.1738803442449626,2.676111941304548,-1.019338974615994,0.12127282750356501,-0.0647177048479564,-0.00014889499828373744,-1.6519161304604677,1.162515936325723,-0.24498311990772942,-0.11619729356802216,-0.05042892329448654,0.00048062605255004104,7.185473843953539,-7.351933055015408,-5.13307537840881,-1.1239806895257338,0.3936879002399962,-0.0020021142936132996,1.7648774899990347,-10.479715990631743,-1.2121290469183421,0.04569159287500868,0.060119960513441914,-0.0003164777463852583
0.59,-1.1896834506226468,2.6870035331934012,-1.0222993260740232,0.11999808506667056,-0.06518666889084476,-0.00014414306588209406,-1.5803106377684144,1.0891591888852812,-0.2960351458029096,-0.12747424368944424,-0.046896404288836055,0.0004751932401643377,7.323672298527415,-7.339277745429767,-5.003920467601585,-1.093259713965228,0.38582234169211915,-0.0022237272922076556,1.7861670151883424,-10.482264235710325,-1.2283564981484714,0.04048612260251355,0.057623413843848545,-0.00036720070157449596
0.6,-1.2047567464821585,2.6971628370728844,-1.0257573993911324,0.11861368658708066,-0.06562071347142558,-0.0001394607555204653,-1.507329585951173,1.0159303879483101,-0.34580733171093264,-0.13843984795899097,-0.0434044580580809,0.00046823103616287385,7.454953591079133,-7.316110222508268,-4.875740998861854,-1.063628718530527,0.37805482389085654,-0.0024247551504128495,1.8084865365258909,-10.490020103190975,-1.2472943185591947,0.03484033800759245,0.05538276640851568,-0.0004144706081302724
0.61,-1.219087163096366,2.7065921786955434,-1.0297004935602596,0.11712264614972755,-0.06602024365576463,-0.00013486242395114055,-1.4330416614207533,0.9429341622659039,-0.39430941691270854,-0.1491040437353114,-0.039953018433904634,0.0004598331569324748,7.57930675332063,-7.282742949508333,-4.748798882126701,-1.0350720877531643,0.37043238075686347,-0.002606604437362936,1.832177693646523,-10.502758779745198,-1.2688025532684493,0.02876536684139741,0.05342283805415882,-0.0004582580803800132
0.62,-1.2326623195558677,2.7152948990218677,-1.0341160306733002,0.11552787871911811,-0.06638566025154383,-0.00013036147455985033,-1.3575156459501765,0.8702720326324257,-0.4415537113040469,-0.15947674306094306,-0.03654165957792016,0.0004500949391290232,7.696645752479541,-7.239429550798928,-4.623274999829139,-1.007558085626659,0.3629945805276087,-0.0027702060436647358,1.8575399345702104,-10.52021392438346,-1.2927300739661858,0.022274117683597217,0.05176499781021919,-0.0004985176392015644
0.63,-1.2454705312220766,2.723275329022651,-1.0389915735828443,0.11383220206378342,-0.06671735687019673,-0.00012597033622018672,-1.2808211666208993,0.7980430000783519,-0.4875542909544093,-0.16956766553346914,-0.033169661865290176,0.00043911383396636025,7.806809529358802,-7.18636575070341,-4.499272312784999,-0.98103949970508,0.35577305404833837,-0.0029160019048970476,1.8848308520257793,-10.542079219146226,-1.3189132306592328,0.015381853492745567,0.050427261299732344,-0.0005351860491506695
0.64,-1.2575008256781794,2.7305387702682915,-1.0443148358280505,0.11203834028533939,-0.06701571768082379,-0.00012170043738655862,-1.2030294456102875,0.72634412456405,-0.5323262245206142,-0.17938617784440256,-0.029836081062706216,0.0004269898833628094,7.909562696735917,-7.12369094859715,-4.376819017113446,-0.9554542014384744,0.3487911347985708,-0.0030439507661732534,1.914265935303799,-10.568009532806233,-1.347174647696254,0.00810670522713619,0.049424343211203134,-0.0005681816656190658
0.65,-1.2687429661106193,2.7370914811468787,-1.0500736841381444,0.11014892889274867,-0.06728111588008745,-0.00011756217592603367,-1.12421404324398,0.655271087858715,-0.5758848310093885,-0.18894113925907122,-0.02653981992636608,0.00041382614605249557,8.004596971828427,-7.0514904869173325,-4.255871821499563,-0.9307256664365973,0.3420636140971638,-0.0031535521045871207,1.9460177366313511,-10.597621825818443,-1.377322219930045,0.00047011863522633535,0.04876766510295116,-0.0005974047525719721
0.66,-1.2791874819806308,2.7429406684840894,-1.0562561338389762,0.10816652136572733,-0.06751391289312442,-0.0001135648854907648,-1.0444515870011524,0.5849187337210494,-0.6182449700831735,-0.19824075270213432,-0.02327970130369727,0.00039972904352688574,8.091533423358428,-6.969798671088973,-4.136319426917899,-0.9067635003180996,0.3355966157980248,-0.003243887034493742,1.980214468374169,-10.630495927173113,-1.4091483655919215,-0.007502773582340583,0.048465320525217986,-0.0006227387345596708
0.67,-1.288825706764174,2.748094484263154,-1.0628503375082867,0.10609359715046089,-0.0677144583108673,-0.00010971679950967304,-0.9638224783543096,0.5153815779064798,-0.6594203669310502,-0.2072924215266432,-0.020054541774287695,0.0003848085981091759,8.169925616864072,-6.8786025987655695,-4.017986300065061,-0.8834640165546475,0.3293875955530048,-0.003313674699251923,2.0169380647269355,-10.666175315493206,-1.4424295931209627,-0.015782863040096295,0.04852200109044952,-0.0006440523486835879
0.68,-1.2976498224490354,2.7525620270626465,-1.069844567254728,0.10393257102577627,-0.06788309055898899,-0.00010602501412327486,-0.8824115684861328,0.44675427994923406,-0.6994229746441348,-0.21610261246846235,-0.016863224812169182,0.00036917853863981885,8.239263740564338,-6.777846849691614,-3.900636836597421,-0.8607109121457803,0.32342547014307854,-0.0033613423363436645,2.056221759798879,-10.704168037239711,-1.476926439177833,-0.024336870102873914,0.04893888872411778,-0.0006612026620118725
0.6900000000000001,-1.3056529103800214,2.756353347744159,-1.0772271910347224,0.101685803768677,-0.06802013828295385,-0.00010249545159170427,-0.8003087930986067,0.37913206815123557,-0.7382623779994257,-0.22467672570992703,-0.013704772396486813,0.00035295625315705844,8.298979787562532,-6.667439076440833,-3.7839800102432744,-0.8383760849133992,0.31769088227027,-0.0033851069117090127,2.098047253743778,-10.743947893689631,-1.5123838337303779,-0.03312725192663141,0.04971352089962866,-0.0006740389167219157
0.7000000000000001,-1.312829007937681,2.75947945883219,-1.0849866434699131,0.09935561403484815,-0.06812592242240782,-9.913282586635986e-05,-0.7176097557659503,0.3126111088030751,-0.7759452435190776,-0.23301897338288496,-0.010578413945396778,0.00033626257253444145,8.34845385785579,-6.547256519959202,-3.667674598412943,-0.8163206325500312,0.3121566054009719,-0.0033830658854898665,2.1423415601466647,-10.784956024791088,-1.5485319447890822,-0.04211222483510238,0.05083963719779074,-0.0006824071583093126
0.71,-1.3191731704240892,2.7619523469363694,-1.0931113916857054,0.09694429135268348,-0.06820075893645516,-9.594061212315537e-05,-0.6344162486408258,0.2472888104179734,-0.8124748215792295,-0.24113226821646658,-0.007483651404733453,0.0003192213743204497,8.387021625066007,-6.417153452125346,-3.5513350636391365,-0.7943960681710607,0.30678809164162857,-0.0033532944008682897,2.1889736512771885,-10.826603011392832,-1.5850875495001922,-0.05124591148508861,0.05230701701269559,-0.0006861555910719981
0.72,-1.3246815374127432,2.763784987473685,-1.1015898967570592,0.09445411010905809,-0.06824496212940907,-9.292102210450211e-05,-0.5508366988653931,0.1832640537315338,-0.847850507135386,-0.24901812436253973,-0.004420319295391575,0.0003019590018653251,8.413982987841257,-6.276969520593907,-3.4345381528004655,-0.7724457799366711,0.3015441631468363,-0.0032939459110536973,2.237751042718337,-10.868271607020493,-1.621755969361793,-0.060478622278843985,0.05410131961139707,-0.0006851405895332071
0.73,-1.3293514027010371,2.76499136085829,-1.1104105714195505,0.09188734438211256,-0.06825884851459642,-9.007498710289563e-05,-0.4669865288293887,0.12063733846053781,-0.8820674662491174,-0.25667657269455363,-0.001388638518734726,0.00028460350016064784,8.428611894654491,-6.1265389394941625,-3.3168302526285007,-0.7503067533268748,0.29637784422808977,-0.003203353069963999,2.288416484572454,-10.90932019573579,-1.658233594931959,-0.06975727864681958,0.05620393898540614,-0.0006792332745939966
0.74,-1.3331812868862314,2.765586469241996,-1.119561734779379,0.08924628345155194,-0.06824274114204307,-8.74021503384556e-05,-0.38298841851941756,0.05951083837057725,-0.9151163359828417,-0.2641060930560612,0.001610737255335313,0.0002672836764440034,8.430167293808625,-5.965700433978459,-3.1977355108018912,-0.7278115640033924,0.2912373271994966,-0.003080125543923007,2.340644951835514,-10.949087053221893,-1.6942110093464988,-0.07902598305929126,0.0585918869312725,-0.0006683265394401142
0.75,-1.3361710114729757,2.765586352813135,-1.1290315648325628,0.08653324779137819,-0.06819697430473011,-8.490087033436098e-05,-0.29897245867441913,-1.1642886097000538e-05,-0.9469830053183977,-0.2713035660173745,0.0045766837312950885,0.0002501280004094619,8.417905118859968,-5.794307808410698,-3.0767646977227887,-0.7047906370488057,0.2860670602398514,-0.0029232413911057797,2.394041150126655,-10.986895463868064,-1.7293767002870404,-0.088226736889778,0.06123771847494969,-0.0006523423833941306
0.76,-1.3383217733164663,2.7650081045990547,-1.1388080496775732,0.08375060532469841,-0.06812189852800499,-8.256823667962967e-05,-0.21507618434905812,-0.057824821408051515,-0.977648484501027,-0.2782642466679774,0.007507577672512736,0.00023326336547313086,8.39109117487746,-5.612240968798506,-2.9534247459576886,-0.681074755176045,0.280808940356458,-0.002732128688375912,2.4481377729087357,-11.022059717353898,-1.7634213270456804,-0.09730030256547534,0.06410951401078345,-0.0006312393832388736
0.77,-1.3396362181146875,2.763869882671871,-1.148878938373318,0.08090078769652055,-0.06801788573810064,-8.040009929159809e-05,-0.13144447982212404,-0.11382219271838684,-1.0070888695744835,-0.28498176281778637,0.01040127899043552,0.00021681373880315824,8.349014744900815,-5.419417191898333,-2.827228863861886,-0.6564977846827507,0.2754035892158413,-0.00250673432010573,2.5023947604816947,-11.05389197449097,-1.796042483641228,-0.10618720089041511,0.06717093225965129,-0.0006050201026874633
0.78,-1.3401185115905279,2.7621909186321782,-1.1592316924516382,0.07798630629956485,-0.06788533449901142,-7.839111195831296e-05,-0.04822934758403187,-0.1678964039692573,-1.0352754078320245,-0.29144813969557076,0.013255123908921055,0.0002008987333285134,8.29100269096218,-5.215802398500216,-2.697707079000856,-0.63089957414115,0.26979168446670343,-0.002247577154803393,2.556199817015958,-11.081709954699935,-1.8269498715061299,-0.11482882818607726,0.07038134726788124,-0.0005737382136534999
0.79,-1.33977440695439,2.7599915212446198,-1.1698534391362174,0.07500976777139251,-0.06772467520262523,-7.653479056342635e-05,0.034410463613785386,-0.21993973875585027,-1.0621746684579356,-0.2976538528172346,0.016065929638618973,0.0001856321394886601,8.21643378268199,-5.001422159115021,-2.5644170278357974,-0.6041289677921835,0.2639153146178046,-0.001955783329851357,2.6088704373087803,-11.104845357733678,-1.8558707673581472,-0.12316867121578975,0.07369608109236093,-0.0005375050800888297
0.8,-1.3386113072143864,2.7572930741255295,-1.180730927344147,0.071973888669827,-0.06753637509539327,-7.482358598610983e-05,0.1163099740003622,-0.26984471190902287,-1.0877488207929629,-0.3035879101565515,0.018830010723196487,0.0001711204577316522,8.124752951441128,-4.776372138984213,-2.4269547731390633,-0.5760468640955541,0.25771932190368574,-0.0016331019789443957,2.659657677523658,-11.12265289174613,-1.8825556450585825,-0.1311535910787276,0.07706674149940335,-0.0004964955388788831
0.81,-1.3366383209078545,2.7541180264384075,-1.1918504875488116,0.06888150902883107,-0.06732094302622424,-7.324897124119546e-05,0.19729863065317993,-0.31750476871218997,-1.1119560204664474,-0.30923796409959264,0.02154320691690367,0.000157461474491436,8.015485142087517,-4.540827678147819,-2.2849654021316548,-0.546529240683638,0.2511525952407183,-0.001281900470866404,2.7077518720149785,-11.134519740531008,-1.9067837863155688,-0.13873514078237437,0.08044167093624133,-0.00045095260509172945
0.8200000000000001,-1.3338663098673773,2.7504898756388965,-1.2031979965604491,0.06573560449960641,-0.0670789338048957,-7.180154199729635e-05,0.2772011040477286,-0.36281507995110074,-1.1347509011637567,-0.3145904529224657,0.02420092213285377,0.0001447429243899101,7.888248419384744,-4.295052202971639,-2.13815313861667,-0.5154700607510723,0.24416927465785676,-0.0009051390178738128,2.7522904501812855,-11.139875266927731,-1.9283686959023632,-0.14587087548597033,0.08376650925381397,-0.0004011908330382472
0.8300000000000001,-1.330307927708251,2.746433141427167,-1.2147588482317269,0.06253929679233129,-0.06681095206812346,-7.047112920060374e-05,0.3558382159126367,-0.4056734211729664,-1.1560851671277772,-0.31963077072751245,0.02679817367722352,0.00013304127966926095,7.742765984779378,-4.039404179196045,-1.9862906932811253,-0.4827839732738415,0.23672982967510592,-0.0005063254073269796,2.7923679427555386,-11.138200719314806,-1.9471631244854044,-0.15252560993194186,0.08698486826224981,-0.0003475980819624741
0.84,-1.325977647832612,2.7419733302108305,-1.22651793101907,0.059295862152941504,-0.06651765556140701,-6.924692215784097e-05,0.43302798756389443,-0.4459811216336725,-1.175908278734299,-0.32434346393897856,0.029329650671644864,0.00012242070427627818,7.578876771688312,-3.774342343643366,-1.829227579177271,-0.4484087207935836,0.2288019771466736,-8.945142006977491e-05,2.8270481867856514,-11.12903868600457,-1.963063497869313,-0.1586725748154493,0.09003911133864874,-0.0002906354669326549
0.85,-1.3208917798869653,2.737136889553006,-1.238459613226598,0.05600873763661587,-0.0661997577586014,-6.811760010942754e-05,0.5085867945646634,-0.4836440657824493,-1.1941682207527984,-0.32871245163256396,0.03178978028056162,0.00011293220484134255,7.396544314692233,-3.50042899180491,-1.666897134826777,-0.4123071739304649,0.22036140900365098,0.0003410866780768629,2.8553786448496026,-11.112002030166973,-1.9760135567897248,-0.1642944231988084,0.09287122618864367,-0.00023083532197268667
0.86,-1.3150684737819698,2.7319511522739823,-1.2505677366299235,0.05268152497468844,-0.06585802975742529,-6.707147006801477e-05,0.5823306104995586,-0.5185737279023793,-1.2108123403325493,-0.33272126619274256,0.0341728001176113,0.00010461300414127656,7.195863629159682,-3.218331150357585,-1.4993220252797137,-0.3744689212336958,0.21139230700845957,0.0007805805035274727,2.876406650258259,-11.08678203713201,-1.9860070271315942,-0.16938403987631664,0.09542377374515637,-0.00016879706296590158
0.87,-1.3085277105819277,2.7264442700858824,-1.2628256190245615,0.049317991873733306,-0.06549330140723238,-6.609660851911232e-05,0.6540763200041955,-0.5506882188099698,-1.2257882394637993,-0.33635331009551367,0.03647283501929114,9.748615489024505e-05,6.977065891403221,-2.928819525172707,-1.3266180308689108,-0.33491135602689504,0.20188762970971652,0.0012241111845328057,2.889197280971848,-11.053155517411186,-1.9930891667864823,-0.1739451110182745,0.09764089136069269,-0.00010518091057563187
0.88,-1.3012912797911549,2.7206451368617355,-1.2752160660722622,0.04592207063336324,-0.06510646164467032,-6.518100448637053e-05,0.7236430790772863,-0.5799133224146993,-1.2390447047700792,-0.33959212403700645,0.03868397625620507,9.156040327417932e-05,6.740520773134554,-2.6327651838149344,-1.1489959826275542,-0.2936802179243685,0.19184916586490885,0.001666656299881053,2.8928524567418723,-11.010990632642146,-1.9973570717145943,-0.17799241848300656,0.09946932422047235,-4.069951545155176e-05
0.89,-1.2933827427989022,2.714583301866541,-1.2877213926331474,0.042497854021371365,-0.06469845803257432,-6.431270145676843e-05,0.7908536992252646,-0.6061834995194815,-1.2505326560885188,-0.3424216611991873,0.04080036120959993,8.683030296020996e-05,6.486736354713222,-2.3311340036220813,-0.9667617600120497,-0.25084956487188936,0.18128735812229735,0.0021031980419525254,2.886530753517547,-10.960251247175865,-1.9989586688003984,-0.1815518327029203,0.10085945557320325,2.389238457319052e-05
0.9,-1.2848273824867051,2.7082888735011177,-1.3003234535777919,0.03904958839952612,-0.06427029551680898,-6.347993573811813e-05,0.8555360312197067,-0.6294428365423367,-1.2602060944644389,-0.3448265621845247,0.042816251576533806,8.327657186503109e-05,6.216356615983824,-2.0249789886633422,-0.7803143278477536,-0.20652117088004918,0.17022091016745833,0.0025288286119865555,2.8694673437659293,-10.90099965365082,-1.9980903747009804,-0.18465998964742603,0.1017663042140161,8.781005742436449e-05
0.91,-1.2756521392444837,2.701792414322519,-1.3130036838774914,0.03558166414878423,-0.06382303443401705,-6.267126897600619e-05,0.9175243242221435,-0.6496459178598603,-1.2680230299699595,-0.34679242507418906,0.04472610827919312,8.086667621119302e-05,5.93015657766659,-1.715430627618617,-0.5901418521455275,-0.1608233640743757,0.15867619924420495,0.0029388491496505076,2.8409934082199486,-10.833397574345769,-1.9949934553692326,-0.18736365047803347,0.10215045687421308,0.00015025231825263353
0.92,-1.2658855338769983,2.6951248283007168,-1.3257431475791701,0.03209860349706177,-0.06335778781965608,-6.187571277884005e-05,0.9766605367485358,-0.6667586021802441,-1.2739463701678708,-0.34830606517224555,0.046524661436096446,7.955561971661416e-05,5.629035236664768,-1.4036855265553756,-0.39681599543833324,-0.11390933822547922,0.14668652342857413,0.0033288589811487773,2.8005543300506495,-10.757705398493275,-1.9899491771185969,-0.1897187564198573,0.10197890391265418,0.00021041614371881473
0.93,-1.2555575781033033,2.6883172414439156,-1.3385225950898056,0.028605045904217617,-0.06287571807971015,-6.108284367423935e-05,1.032795577369504,-0.6807586856801071,-1.2779447510635609,-0.34935575928441537,0.04820697399459274,7.928691046006995e-05,5.31400650194426,-1.0909936028067213,-0.20098454854672831,-0.06595498762003382,0.13429121882209927,0.0036948325970397114,2.7477259814604222,-10.674279675812848,-1.9832728935873494,-0.19178920525310067,0.1012257490081798,0.0002675119238714684
0.9400000000000001,-1.244699673552287,2.6814008770690285,-1.3513225280295185,0.025105731205931736,-0.06237803310059834,-6.028290693184595e-05,1.0857904551016182,-0.6916364374887161,-1.2799932939712804,-0.34993146982858814,0.04976849791118138,7.999367423934e-05,4.986188391026606,-0.7786441664065005,-0.003362604562251237,-0.017156329224773836,0.12153468561094272,0.004033182532145879,2.6822284480850684,-10.583568944898543,-1.9753072604022532,-0.19364538880678664,0.09987276736380693,0.00032077887560082245
0.9500000000000001,-1.2333445003318795,2.674406927105468,-1.3641232707674382,0.021605480759310552,-0.06186598187977431,-5.946690811960442e-05,1.1355173220407648,-0.6993949963560881,-1.280074273791967,-0.3500250446621184,0.051205122082403354,8.159988122415336e-05,4.646790788500918,-0.4679512423110818,0.19527747974538423,0.032273413026155384,0.10846536355944636,0.004340807055899953,2.603936608782287,-10.486108028530035,-1.9664148076950612,-0.19536254207010303,0.09790979209109625,0.00036950012265174063
0.96,-1.2215258963938738,2.6673664208968315,-1.3769050476340683,0.018109176867222694,-0.0613408497642037,-5.862669159703839e-05,1.1818603938005783,-0.7040506208636343,-1.278177686662998,-0.34963038920878564,0.05251321155706034,8.402165225660321e-05,4.297102096015967,-0.16023849923780262,0.39411706138012237,0.08210697963310931,0.09513469694075027,0.004615122387050197,2.5128870951094413,-10.382510973623505,-1.956970127424372,-0.1970189632765911,0.09533491469299271,0.0004130169516420222
0.97,-1.2092787290277345,2.6603100930049712,-1.3896480647109286,0.014621740784787665,-0.0608039533853733,-5.775500547460412e-05,1.2247167366139236,-0.7056327891860231,-1.2743017076860315,-0.3487436082435029,0.05368963788304072,8.716861224342712e-05,3.9384751174783883,0.1431758505129126,0.5923028368455493,0.13210641675734025,0.08159612633016522,0.004854079841419223,2.4092812911256765,-10.273462849168606,-1.9473519460149156,-0.19869416997776712,0.09215449257416389,0.00045074178157370175
0.98,-1.1966387598937824,2.6532682515244668,-1.4023325950344359,0.011148109629678625,-0.06025663537793936,-5.6845552870552306e-05,1.2639969133952105,-0.7041841480504464,-1.2684530323507137,-0.347363115510904,0.05473180074339347,9.094526040518102e-05,3.572312523665772,0.4409938305433407,0.7889588204164097,0.1820265012610509,0.06790414033463321,0.005056168958906704,2.293484192661002,-10.159710639658021,-1.9379353523874676,-0.20046705833460596,0.08838296388991232,0.00048216943448674965
0.99,-1.183642505048705,2.646270648384141,-1.414939066016756,0.007693212527867035,-0.05970025896491079,-5.5893029565868676e-05,1.2996254845077517,-0.699760314032603,-1.260647098232018,-0.345489710181159,0.05563764130285771,9.5252330468363e-05,3.2000522290003235,0.7319518358578591,0.9831983851073189,0.23161816667572133,0.05411341461760699,0.005220408117970976,2.1660191170471417,-10.04205348360344,-1.9290844372532312,-0.20241413149749835,0.08404247740134775,0.0005068863642681048
