tonegas/nnodely-applications/joint_friction_estimation/dataset/validation/mpc_mujoco_episode_8 copy.csv
time,q1,q2,q3,q4,q5,q6,dq1,dq2,dq3,dq4,dq5,dq6,ddq1,ddq2,ddq3,ddq4,ddq5,ddq6,tau1,tau2,tau3,tau4,tau5,tau6
0.0,0.0,1.57,-1.57,0.0,0.0,0.0,0.0,0.0,0.0,0.0,0.0,0.0,-7.778935976956088,8.4367625849889,9.213447026030146,3.2645798176173955,-1.0987571992309242,-2.6690447274546614e-06,-1.0839277452068594,1.4431356631102163,-1.6473127366887392,-0.35970121938425526,-0.09766623591800763,-0.0013283460631917108
0.01,-0.0007737137087688339,1.5708441596563953,-1.5690808361381483,0.000306975414996775,-9.361145015258751e-05,-7.916662779530959e-07,-0.07737137087688338,0.08441596563953054,0.09191638618518376,0.0306975414996775,-0.00936114501525875,-7.916662779530959e-05,-7.728274671592464,8.28908293334554,9.012873610118067,3.000125933153228,-0.9229609913349677,-0.00784448106652924,-1.08826490374332,1.313014338254594,-1.7043801563513172,-0.3724524814955251,-0.09782188226680072,-0.001332007406797189
0.02,-0.0023155351185984033,1.5725178063414924,-1.5672637177862596,0.0008991794671497047,-0.000269957592370788,-2.405334362992817e-06,-0.15418214098295696,0.16736466850971077,0.18171183518887907,0.05922040521529297,-0.017634614221820045,-0.00016136680850397213,-7.66575321509652,8.129191368671608,8.785858875896137,2.7767427933778777,-0.8111411506525315,-0.007910261650167172,-1.0999802019558436,1.1501068822882141,-1.767242517533914,-0.38580608310551157,-0.09837236383023401,-0.0013332372408495167
0.03,-0.004618923710418366,1.5750050046853261,-1.5645721577517329,0.0017578926859737813,-0.0005219566429175381,-4.783080421977259e-06,-0.23033885918199626,0.24871983438337342,0.26915600345267193,0.08587132188240765,-0.02519990505467501,-0.00023777460589844427,-7.593129873526978,7.9565952225161425,8.536119955256424,2.5836118025445103,-0.7360335173153132,-0.006918718272372892,-1.1185383190271572,0.955824058745856,-1.8356861150598363,-0.39972759383252165,-0.09927179120855117,-0.0013317381831739095
0.04,-0.00767648327245902,1.5782885172380086,-1.5610316816500116,0.002866605487595951,-0.0008446800765578496,-7.867669696584711e-06,-0.3057559562040654,0.3283512552682428,0.3540476101721316,0.11087128016221696,-0.03227234336403115,-0.00030845892746074525,-7.511204770843147,7.77097454871468,8.266634436991357,2.4125964900032173,-0.6813553126482148,-0.005775220029653028,-1.1433298484396874,0.7317386026542989,-1.9094184719960312,-0.41416273312220386,-0.10046546533585168,-0.0013271750300502948
0.05,-0.01147998291597083,1.5823497801652338,-1.5566695920770117,0.004210405201548536,-0.0012343717010454673,-1.1607749383236655e-05,-0.3803499643511809,0.40612629272251566,0.4362089572999789,0.13437997139525854,-0.03896916244876177,-0.0003740079686651943,-7.420200680514564,7.572163330481466,7.979835644999714,2.257612483110009,-0.6374719006822289,-0.004561036550691178,-1.173670563762584,0.47958237550207716,-1.988071343092506,-0.4290387182375861,-0.10189128713642512,-0.0013191761308991696
0.06,-0.016020343643793587,1.5871688926395189,-1.5515147725448166,0.00577551934092585,-0.001687868197850326,-1.5954072409218504e-05,-0.45403607278227565,0.48191124742850217,0.5154819532195092,0.15651141393773135,-0.045349649680485875,-0.0004346323025981847,-7.320003596219152,7.360137170074884,7.677763019342587,2.114143054552848,-0.5987879948884824,-0.0032741872616597334,-1.2088001245673083,0.2012427386782507,-2.071204139338995,-0.44426572891592886,-0.10348117802243204,-0.001307345778287323
0.07,-0.021287605456637278,1.592724619102781,-1.5455975196148959,0.007548978275417067,-0.0022022638484653443,-2.0856707775659002e-05,-0.5267261812843689,0.5555726463262285,0.5917252929920755,0.17734589344912172,-0.051439565061501824,-0.0004902635366440501,-7.210317108766356,7.135004990723069,7.362177163391291,1.9788687187928957,-0.5621624606831901,-0.0019243744555907938,-1.2478815147757085,-0.10124274993014648,-2.1583080623114768,-0.45973855330094615,-0.10516254402402285,-0.0012912821240133163
0.08,-0.027270884850504423,1.59899440387532,-1.5389493943836172,0.00951836918438711,-0.0027747237523713104,-2.6263794721118353e-05,-0.5983279393867145,0.6269784772539077,0.6648125231278609,0.19693909089700432,-0.05724599039059662,-0.0005407086945459351,-7.090763668865078,6.897003002272806,7.034647201814568,1.849384274101162,-0.5259410616964786,-0.0005353671633070434,-1.29000229774882,-0.42569399711100075,-2.248811166502278,-0.4753384559272247,-0.106859798263828,-0.0012705974386804974
0.09,-0.03395832939916693,1.6059543977367305,-1.531603086616209,0.011671659815886883,-0.0034023871479618296,-3.212132909227487e-05,-0.668744454866251,0.6959993861410504,0.7346307767408367,0.21532906314997724,-0.0627663395590519,-0.0005857534371156516,-6.960952810571253,6.64648969020708,6.696616362474156,1.7239825227913244,-0.48936391741718666,0.0008623111269958628,-1.3341785671135438,-0.7697988832756044,-2.3420845035365137,-0.49093528855484436,-0.10849594111878388,-0.0012449387731108823
0.1,-0.041337074137906396,1.6135794961497656,-1.5235922865218405,0.013997075635710173,-0.004082325068115717,-3.837353752065418e-05,-0.7378744738739466,0.7625098413034989,0.8010800094368434,0.23254158198232908,-0.0679937920153888,-0.0006252208428379315,-6.8205283820534985,6.383940968150565,6.3494503580534225,1.601488726709249,-0.45220072036985925,0.002237251558499853,-1.379362252281122,-1.1311269172346536,-2.4374494327957392,-0.5063898451663351,-0.1099941847358411,-0.0012140077456318894
0.11,-0.049393203182782605,1.621843388771805,-1.5149515605143953,0.016483017792753213,-0.00481153029897445,-4.496354679721947e-05,-0.8056129044876206,0.8263892622039312,0.8640726007445174,0.24859421570430412,-0.07292052308587323,-0.0006590009276565291,-6.6692018572075575,6.109944852529458,5.994472067805939,1.4811336166290872,-0.41452488157543854,0.003560872527538894,-1.4244521818379932,-1.5071461916216062,-2.5341861322098493,-0.5215564483334204,-0.11127959721274033,-0.0011775785363259757
0.12,-0.05811171913224464,1.6307186198186454,-1.505716228391986,0.01911801224126448,-0.005586925980002326,-5.1834166480688724e-05,-0.8718515949462037,0.8875231046840524,0.9235332122409248,0.26349944485112664,-0.07753956810278761,-0.000687061968346925,-6.506775918226328,5.825195304093105,5.632985324575314,1.3624556811206432,-0.37657293859985685,0.004809491793299259,-1.468309047264567,-1.8952435666301475,-2.6315432498676055,-0.536285731632109,-0.11228073410241107,-0.001135513391270263
0.13,-0.06747652213718633,1.6401766587378317,-1.4959222402427477,0.021890682569945787,-0.006405384313914393,-5.892867457264454e-05,-0.9364803004941691,0.9458038919186239,0.9793988149238326,0.2772670328681306,-0.08184583339120663,-0.0007094508091955811,-6.3331606837825305,5.530484963474427,5.266289958023494,1.2452256838569369,-0.33865678892207995,0.00596524777724694,-1.509774110704835,-2.2927478935448713,-2.7287485926124955,-0.550427572188783,-0.11293121753335109,-0.0010877750800625057
0.14,-0.07747039998399506,1.6501879805199855,-1.485606052094628,0.024789740761822433,-0.007263750030267387,-6.619154212031057e-05,-0.9993877846808726,1.0011321782153828,1.0316188148119854,0.2899058191876646,-0.08583657163529941,-0.0007262867547666032,-6.148384021912461,5.226696686430999,4.8956898605222445,1.1293880679003792,-0.30110908693174565,0.00701623141414176,-1.5476912199088875,-2.6969558970159,-2.825020666102601,-0.5638341096454333,-0.11317121985788232,-0.0010344358821246617
0.15,-0.08807503006424779,1.6607221548429765,-1.4748044998993823,0.027803991378257023,-0.008158865238793316,-7.356906234974205e-05,-1.0604630080252728,1.0534174322990864,1.080155219524557,0.3014250616434592,-0.08951152085259294,-0.000737752022943148,-5.952596849237817,4.914793876420653,4.5224955075963145,1.0150152101438472,-0.26424980531270137,0.007956094627456167,-1.580931422157966,-3.105160198395027,-2.9195808236790244,-0.5763627767258053,-0.11294880727609952,-0.0009756828034197553
0.16,-0.09927099367823224,1.6717479431133964,-1.4635546719000423,0.030922345625042896,-0.009087593580695982,-8.100986926660707e-05,-1.119596361398445,1.1025788270419878,1.1249827999340052,0.3118354246785873,-0.09287283419026655,-0.0007440806916865018,-5.7460740669978945,4.595809701686998,4.148022127821092,0.9022714852039861,-0.22836654730938122,0.008783336201208858,-1.6084192373600492,-3.514678834871963,-3.0116657280444104,-0.587879257569357,-0.11222110038384006,-0.000911818861509695
0.17,-0.11103780272912091,1.6832334023507824,-1.4518937797934313,0.03413384249427932,-0.010046842414830507,-8.846534316289188e-05,-1.1766809050888674,1.1485459237386146,1.1660892106611132,0.3211496869236427,-0.09592488341345254,-0.000745547389628481,-5.529211681290193,4.270835353287414,3.7735845356053863,0.7913848559313195,-0.19370394142860903,0.009500417957330143,-1.6291594738197723,-3.9228855304825045,-3.1005397900605054,-0.5982602852561669,-0.11095521277099488,-0.0008432604215205613
0.18,-0.12335393851049355,1.69514599475865,-1.439859029377649,0.0374276747405512,-0.01103358232625858,-9.588990834991329e-05,-1.2316135781372637,1.1912592407867644,1.2034750415782278,0.32938322462718767,-0.09867399114280728,-0.000742456518702141,-5.302520628072837,3.9410075527930144,3.400489498831141,0.6826242822770858,-0.16045910145490438,0.010112825933008107,-1.6422633635090107,-4.327239909541142,-3.185507225482409,-0.6073961899307876,-0.10912893544892685,-0.0007705307143658275
0.19,-0.13619690197584589,1.7074527017473946,-1.4274874915788431,0.040793217887609944,-0.012044863616219766,-0.0001032412331270587,-1.2842963465352324,1.230670698874455,1.2371537798805836,0.33655431470587427,-0.10112812899611863,-0.0007351324777145408,-5.0666178282298615,3.6074955545527816,3.030026398702475,0.5762816738292216,-0.12878114051176226,0.010628159252106695,-1.6469727667787946,-4.725316814778033,-3.2659233654327178,-0.6151931139445457,-0.10673114361402858,-0.0006942498145961009
0.2,-0.1495432746094271,1.7201201411207363,-1.414815974890365,0.044220060805253,-0.013077829685100193,-0.00011048034445397467,-1.3346372633581214,1.2667439373341767,1.2671516688478093,0.3426842917643058,-0.10329660688804274,-0.0007239111326915977,-4.822215008648829,3.271487908321484,2.6634568418245124,0.47265743656977577,-0.09877335483404437,0.01105530241605468,-1.642681252922052,-5.114833903446329,-3.34120487092295,-0.6215748204027218,-0.10376191251523735,-0.0006151214905964323
0.21,-0.1633687887970672,1.7331146861114097,-1.4018809003378947,0.04769803667006652,-0.014129727390608693,-0.00011757167070010155,-1.38255141876401,1.2994544990673538,1.293507455247031,0.3477975864813519,-0.10518977055085002,-0.0007091326246126879,-4.570105828324646,2.9341792548765473,2.3020037978903565,0.3720489065639576,-0.07049709756067202,0.011403714367030027,-1.6289509996068088,-5.493676744531612,-3.4108385353891046,-0.6264840359642079,-0.10023234034179358,-0.0005339174567871603
0.22,-0.17764840642578233,1.7464025849537028,-1.3887181801131387,0.05121725334636569,-0.015197914575777892,-0.000124483025696411,-1.4279617628715133,1.328789884229317,1.316272022475594,0.35192166762991717,-0.10681871851691997,-0.000691135499630946,-4.311151837743429,2.5967574212903815,1.9468407560380374,0.2747411419747028,-0.04397663600307311,0.011682849951137664,-1.6055246610444878,-5.8599207262415245,-3.4743884102833684,-0.6298832868792369,-0.09616408738327237,-0.000451459649240246
0.23,-0.19235640432210493,1.7599500797094598,-1.375363101002887,0.05476812240837735,-0.01627986503141473,-0.00013118554647884026,-1.470799789632259,1.3547494755756913,1.3355079110251757,0.35508690620116584,-0.1081950455636836,-0.0006702520782429261,-4.0462677746787525,2.260391065968487,1.5990813167149724,0.1809996751773948,-0.019204479288006837,0.01190171596681533,-1.5723316164090568,-6.211849199918614,-3.5315010540893277,-0.6317552079196167,-0.09158865155649279,-0.000368601207703377
0.24,-0.2074664650696568,1.7737235231184896,-1.3618502136861106,0.058341386181065755,-0.017373171196348427,-0.00013765359586748508,-1.5110060747551852,1.3773443409029684,1.351288731677652,0.35732637726884053,-0.10933061649336967,-0.000646804938864482,-3.776406660186855,1.9262180977765773,1.2597695622735894,0.09106492074253758,0.003853193705321445,0.012068554546833976,-1.529488306439607,-6.54796742783765,-3.581908780730845,-0.632102325753446,-0.08654641009470551,-0.0002862068753293764
0.25,-0.22295177172313915,1.7876894923212903,-1.3482132288859383,0.06192814231180249,-0.018475544914461663,-0.00014386463957306517,-1.5485306653482342,1.3965969202800637,1.3636984800172367,0.35867561307367374,-0.11023737181132359,-0.0006211043705580083,-3.5025451091423676,1.5953350614560178,0.9298714787784617,0.005148001760842291,0.025251267240236075,0.01219064057258401,-1.477292675484653,-6.867012059361718,-3.625430864251809,-0.6309463399878109,-0.08108546524431728,-0.00020513352187113412
0.26,-0.2387851049541032,1.8018148983983195,-1.3344849212522147,0.06551986550302291,-0.01958481656631524,-0.00014979910600824016,-1.5833333230964046,1.4125406077029385,1.3728307633723649,0.35917231912204256,-0.11092716518535779,-0.0005934466435174987,-3.225669212247461,1.2687876446642279,0.6102676337270183,-0.07657219629398604,0.045060759252411486,0.01227417646853457,-1.4162130359173968,-7.1679560240008175,-3.6619727379016465,-0.6283269451923177,-0.07526033780784622,-0.00012621145815049052
0.27,-0.25493894121808625,1.816067090781975,-1.3206970417202213,0.0691084261402643,-0.02069893288009462,-0.00015544023550725583,-1.615383626398303,1.4252192383655347,1.3787879531993557,0.3588560637241389,-0.1114116313779378,-0.0005641129499015673,-2.9467612849506732,0.947562422794355,0.3017472505801164,-0.1539509028570274,0.06336434101629251,0.012324266558878083,-1.3468719414288466,-7.450008891882785,-3.691523302366896,-0.624300254481316,-0.06913055608374272,-5.0227142870464095e-05
0.28,-0.2713855506169274,1.8304139557210313,-1.3068802389480576,0.07268610564261067,-0.02181595370548181,-0.00016077392428764662,-1.6446609398841119,1.4346864939056236,1.3816802772163714,0.35776795023463726,-0.11170208253871909,-0.0005333688780390796,-2.666787716007733,0.6325799180619592,0.005003761972494525,-0.2268784074862168,0.08025236742876807,0.012344953437056105,-1.2700258781501277,-7.712612903700235,-3.714150525482605,-0.6189368987053899,-0.06275918911211048,2.209220751111664e-05
0.29,-0.28809709323808874,1.8448240081085328,-1.2930639902847603,0.07624560844488808,-0.022934048007913876,-0.00016578856726082834,-1.6711542621161362,1.4410052387501457,1.3816248663297281,0.3559502802277402,-0.11180943024320655,-0.0005014642973181715,-2.3866880870622222,0.32468901087027163,-0.27936812986977216,-0.29528019490115737,0.09581944189481106,0.012339300064426406,-1.1865417456387508,-7.955435006153344,-3.7299955708318633,-0.6123198843355707,-0.05621137222357222,9.009170274055974e-05
0.3,-0.305045712878458,1.859266476119173,-1.2792765425686066,0.07978007059376868,-0.024051489311861542,-0.0001704749027327408,-1.6948619640369245,1.4442468010640224,1.3787447716153605,0.3534462148880607,-0.1117441303947665,-0.000468633547191245,-2.107365676728996,0.024662705573470133,-0.5508739039312947,-0.35911638145219316,0.11016151255623363,0.012309503167389324,-1.0973711967567898,-8.178355339673361,-3.739265732785463,-0.6045422974276111,-0.04955286992476023,0.00015319927139071868
0.31,-0.32220362719756385,1.8737113782374317,-1.2655448629047559,0.08328306500375209,-0.025166650792003586,-0.00017482586113515912,-1.7157914319105825,1.4444902118258591,1.3731679663850667,0.3502994409983398,-0.11151614801420459,-0.00043509584024183193,-1.8296794097908085,-0.2668047794872784,-0.8091192409188182,-0.41838055710168565,0.12337347766729856,0.012257025594176074,-1.003523935219457,-8.381452709053828,-3.7422264795411047,-0.5957049406974317,-0.0428487164614452,0.00021093339824167576
0.32,-0.3395432134890506,1.8881295923899362,-1.251894599427305,0.08674860347413225,-0.02627800018176342,-0.00017883641918751796,-1.7339586291486753,1.441821415250441,1.365026347745091,0.34655384703801734,-0.11113493897598314,-0.00040105580523588317,-1.5544372653492484,-0.5490996556544315,-1.0538087048861504,-0.47309813098772757,0.1355472655532015,0.012182737453966475,-0.9060410360857142,-8.56498762273972,-3.7391929135790853,-0.5859139861130931,-0.036161968374609235,0.0002629080605428472
0.33,-0.35703708940488404,1.9024929170218936,-1.2383500519161825,0.090171135614798,-0.02738409464050643,-0.00018250346029621242,-1.7493875915833468,1.4363324631957513,1.3544547511122456,0.3422532140665755,-0.11060944587430105,-0.00036670411086944804,-1.2823911177414358,-0.8216890223295402,-1.2847432031395478,-0.5233242732410712,0.14677034729037342,0.012087057867714746,-0.8059692659366384,-8.729383512996616,-3.730520951723281,-0.5752787171651882,-0.02955259643841484,0.0003088349263651022
0.34,-0.3746581881100277,1.9167741240756944,-1.2249341520165882,0.09354554486732482,-0.02848357569435772,-0.00018582564153886658,-1.7621098705143678,1.428120705380073,1.3415899899594446,0.33744092525268155,-0.10994810538512922,-0.00033221812426541643,-1.0142329510006838,-1.0841202390685245,-1.5018163604300432,-0.5691415403656119,0.1571246367152339,0.011970091060007904,-0.7043372472604827,-8.875206748718055,-3.7165985066276557,-0.5639094239504908,-0.023076536978503214,0.00034852297380176284
0.35000000000000003,-0.39237982748287,1.9309470039381218,-1.21166845269973,0.09686714183861475,-0.02957516434144233,-0.00018880326723776377,-1.7721639372842255,1.4172879862427477,1.3265699316858233,0.3321596971289935,-0.10915886470846106,-0.00029776256988971883,-0.7505923615415797,-1.3360193234899385,-1.7050099557729563,-0.6106572658470482,0.16668573155241262,0.011831752116122307,-0.6021341487287588,-9.003146028279883,-3.6978369205762136,-0.5519155013240613,-0.016784915125637963,0.00038187576852766485
0.36,-0.410175773105832,1.9449864025197205,-1.198573126509626,0.10013165518771211,-0.030657656390551947,-0.00019143816888328352,-1.7795945622962004,1.4039398581598674,1.3095326190103853,0.3264513349097356,-0.10824920491096172,-0.00026349016455197525,-0.49203524427228307,-1.5770884954818691,-1.8943885766539341,-0.6480007915403654,0.1755224504598476,0.011671879143660246,-0.5002914031878499,-9.113991695627112,-3.6746628639265104,-0.5394037865871137,-0.010723445426348734,0.0004088866972430331
0.37,-0.42802029490934934,1.9588682507149253,-1.1856669720623199,0.10333522032282631,-0.031729918082856925,-0.00019373359100832694,-1.784452180351736,1.3881848195204816,1.2906154447306175,0.32035651351141997,-0.1072261692304981,-0.00022954221250434193,-0.23906354397918353,-1.8071029923035864,-2.0700936465596205,-0.6813206088279316,0.18369662297899714,0.011490329775316332,-0.3996677712373259,-9.208615463261603,-3.6475108673789713,-0.5264771593660682,-0.0049320087072622296,0.0004296324951980898
0.38,-0.44588821743942303,1.9725695865641513,-1.1729674282011153,0.1064743661755591,-0.032790882029277775,-0.00019569408252286777,-1.786792253007371,1.370133584922598,1.2699543861204587,0.31391458527327837,-0.10609639464208474,-0.00019604915145408263,0.007884054045421238,-2.0259072794970328,-2.2323369785028606,-0.7107814715009066,0.1912630922250329,0.011287060881314454,-0.301037891592902,-9.287950955758589,-3.6168166124161063,-0.5132334132686345,0.0005556016021329001,0.000444265427833825
0.39,-0.4637549638133607,1.986068570499144,-1.160490595164021,0.10954600032345567,-0.03383954348141973,-0.00019732539298078706,-1.786674637393764,1.3498983934992843,1.2476833037094361,0.307163414789658,-0.10486614521419539,-0.00016313104579192739,0.24843062326635854,-2.233410779619953,-2.381394000248255,-0.7365615350358805,0.1982698933141207,0.011062191185433667,-0.20508429922962934,-9.352975411510768,-3.5830110603055845,-0.4997643971849372,0.0057117751942132354,0.00045300449107784756
0.4,-0.4815965935098439,1.9993444941008007,-1.1482512620867884,0.11254739273091542,-0.034874956941438745,-0.00019863437325620337,-1.7841629696483252,1.3275923601656576,1.2239333077232466,0.3001392407459757,-0.10354134600190118,-0.00013089802754163036,0.482258813277743,-2.429583235261944,-2.517596787112384,-0.7588495694270581,0.20475857376408957,0.010816047108069937,-0.1123927552438668,-9.404692802808903,-3.5465154591261556,-0.48615541416817615,0.010515037815752994,0.00045612598418627153
0.41000000000000003,-0.49938983420813904,2.01237778283494,-1.1362629401457482,0.11547615837287838,-0.03589623310571085,-0.00019962888014285945,-1.7793240698295132,1.3033288734139317,1.1988321941040188,0.29287656419629593,-0.10212761642721042,-9.94506886656086e-05,0.7091081093190751,-2.6144498151927835,-2.6413270262292636,-0.7778422852665283,0.21076462526524242,0.010549192646718913,-0.02345062255490465,-9.444118558752649,-3.5077372319595024,-0.4724848579338227,0.014949879157509244,0.000453953785894345
0.42,-0.5171121079475207,2.025149993256905,-1.1245379006378757,0.11833023899622849,-0.036902536128577655,-0.0002003176844485985,-1.7722273739381649,1.277221042196498,1.172503950787252,0.2854080623350114,-0.1006303022866804,-6.888043057390436e-05,0.9287716512374486,-2.7880860633700353,-2.753009022755265,-0.7937418054023038,0.2163179992409745,0.010262444521471487,0.06135205933800911,-9.472266004769507,-3.4670667187566035,-0.4588240612462588,0.019006475019714326,0.0004468496319245835
0.43,-0.5347415519224725,2.037643805191318,-1.113087217299814,0.12110788426120175,-0.03789308118559465,-0.00020071038222903214,-1.7629443974951762,1.249381193441301,1.145068333806167,0.2777645264973256,-0.09905450570169953,-3.9269778043362694e-05,1.1410927205884078,-2.9506127804061517,-2.853102844244744,-0.8067533074609639,0.22144368144402993,0.00995687407151083,0.14171919974348626,-9.490134568874057,-3.42487471998154,-0.44523732676164723,0.022680323711889657,0.00043520365251770756
0.44,-0.552257034262818,2.049843009399813,-1.1019208121815034,0.12380763248991178,-0.038867132310476074,-0.0002008173088838465,-1.7515482340345483,1.219920420849494,1.116640511831075,0.2699748228710023,-0.09740511248814233,-1.0692665481437726e-05,1.3459609946839641,-3.1021909164203216,-2.9420976849120697,-0.817082855851508,0.22616230350439182,0.009633797609755745,0.2174434075314866,-9.498699749657156,-3.3815107720512954,-0.43178210909728976,0.025971816474673986,0.00041942538536908475
0.45,-0.5696381651716099,2.061732491248193,-1.0910475044121635,0.12642829123203334,-0.03982400047617161,-0.00020064945591988852,-1.738113090879195,1.1889481848379682,1.087330776933991,0.2620658742121562,-0.09568681656955315,1.678529639579887e-05,1.5433086557678617,-3.2430165433634417,-3.0205055171498016,-0.8249354357321916,0.2304907718521534,0.009294757067018933,0.28839929539226494,-9.49890479510753,-3.3373020725462275,-0.41850931675240066,0.028885760868453403,0.000399935434658992
0.46,-0.5868653038084258,2.0732982108762967,-1.0804750612252103,0.12896891783929465,-0.040763041888090906,-0.00020021839026271467,-1.7227138636815937,1.1565719628103914,1.0572443186953115,0.254062660726131,-0.09390414119192954,4.310656571738486e-05,1.7331064325764083,-3.373315964231585,-3.088855083874993,-0.830513195850342,0.23444289680823438,0.008941492802127471,0.3545357495892207,-9.491654004906424,-3.292552966601529,-0.4054637037166527,0.03143087470404901,0.0003771579028805449
0.47000000000000003,-0.6039195613127795,2.0845271803599785,-1.0702102506428666,0.1314288002212519,-0.04168365645627882,-0.00019953617606936083,-1.705425750435367,1.1228969483681905,1.0264810582343635,0.24598823819572416,-0.09206145681879103,6.822141933538507e-05,1.9153596406962663,-3.4933410063351635,-3.1476862723046013,-0.8340139022332558,0.23803000692284826,0.008575910486732896,0.41586754632104417,-9.477807541491334,-3.2475449040554585,-0.39268432285553634,0.0336192663383776,0.0003515136805987336
0.48,-0.6207828003627448,2.0954074383360104,-1.0602588952594596,0.13380743793532585,-0.042585286413203534,-0.00019861529905656515,-1.68632390499653,1.0880257976031866,0.9951355383406895,0.23786377140739562,-0.09016299569247133,9.208770127956845e-05,2.090104277656395,-3.603364536165392,-3.197544897835537,-0.8356296004173771,0.24126153582350263,0.008200043861830209,0.4724666545302999,-9.45817761629158,-3.2025367789747854,-0.38020501614510527,0.03546591515777362,0.00032341464139800595
0.49,-0.637437631658652,2.105928022538411,-1.0506259266034845,0.13610452374468307,-0.043467415044619866,-0.00019746859340969455,-1.6654831295907178,1.0520584202400869,0.9632968655975167,0.22970858093572277,-0.08821286314163329,0.0001146705646870596,2.2574032188090007,-3.7036762245417805,-3.2389779159495156,-0.8355454803085554,0.24414557098185874,0.007816015143660149,0.5244535173261184,-9.433525906183785,-3.15776556822232,-0.36805492025611075,0.03698816394437201,0.0002932587559654137
0.5,-0.653867407711845,2.1160789406695315,-1.0413154396013724,0.13831992575859148,-0.04432956550257606,-0.00019610917137591533,-1.6429776053193068,1.0150918131120472,0.9310487002112084,0.22154020139084088,-0.0862150457956194,0.00013594220337792153,2.4173425509286157,-3.794578582725398,-3.27252907058131,-0.8339389347803756,0.24668935584633545,0.0074259946443769875,0.5719885536543263,-9.404562050340934,-3.11344719292803,-0.3562589696081041,0.038205232670066674,0.00026142611100442325
0.51,-0.6700562143048991,2.125851140002006,-1.0323307467095943,0.14045367025166342,-0.045171299671913405,-0.0001945503556715515,-1.618880659305411,0.9772199332474496,0.898469289177801,0.2133744493071934,-0.08417341693373484,0.00015588157043638437,2.5700280721874114,-3.876383283096863,-3.298734979188369,-0.8309788007933019,0.24889973880209482,0.007032161048472929,0.6152640713788647,-9.371943078138107,-3.0697775352999885,-0.34483838262043476,0.03913776117262129,0.00022827579565375946
0.52,-0.6859888599732159,2.135236476079123,-1.023674431325423,0.14250592524114805,-0.0459922170644304,-0.0001928056148476244,-1.5932645668316734,0.9385336077117395,0.8656315384171377,0.20522549894846293,-0.08209173925169923,0.0001744740823927112,2.7155819798091017,-3.9494077718374054,-3.3181216478442153,-0.82682477006189,0.25078356431975557,0.006636663583373781,0.6544967348254123,-9.336273623526358,-3.0269335524935497,-0.33381112031791493,0.039807386204899764,0.00019414360021022606
0.53,-0.7016508638392805,2.144227680851877,-1.015348400129686,0.14447698488532484,-0.04679195371811783,-0.00019088850176017085,-1.5662003866064684,0.8991204772753861,0.8326031195736955,0.1971059644176781,-0.07997366536874352,0.0001917113087453532,2.8541397602772633,-4.013972175804576,-3.3312014039942515,-0.8216269550899522,0.2523480034611012,0.006241587121938785,0.6899206857466228,-9.298106789250983,-2.985074438691737,-0.32319230958782996,0.040236356558072714,0.00015934045892002297
0.54,-0.7170284421107228,2.152818330561463,-1.0073539340566,0.14636725475120524,-0.047570181082393144,-0.0001888125952841172,-1.5377578271442307,0.859064970958617,0.7994466073086065,0.18902698658803835,-0.07782273642753129,0.00020759064760536426,2.985847291462976,-4.070396501422568,-3.3384702299997073,-0.815525595657391,0.25360082260420747,0.005848921019613429,0.7217813776866653,-9.257945534529032,-2.9443427957037405,-0.31299462615683765,0.04044718837363398,0.00012415155997647895
0.55,-0.7321084935322228,2.1610028136467307,-0.9996917376258214,0.14817723798624982,-0.04832660487395096,-0.00018659144539297175,-1.5080051421500063,0.8184483085267918,0.7662196430778606,0.18099832350445766,-0.07564237915578202,0.0002221149891145454,3.1108581614030304,-4.118998119860231,-3.340405477152287,-0.8086508905626104,0.2545505907786776,0.005460532313731337,0.7503301504371198,-9.216244471491034,-2.9048657809429277,-0.30322863472160566,0.0404623613933083,8.883604110022763e-05
0.56,-0.7468785840597146,2.1687762989274195,-0.9923619864098566,0.14990752241668906,-0.04906096389159209,-0.0001842385217024077,-1.4770090527491748,0.777348528068865,0.7329751215964835,0.17302844304392392,-0.0734359017641129,0.00023529236905640315,3.2293312046464657,-4.160089529980598,-3.3374639373865422,-0.8011229394873798,0.2552068273899959,0.005078143669409507,0.7758195438597418,-9.17341196814082,-2.8667562093877996,-0.29390308561569234,0.04030405575464272,5.362718760320563e-05
0.5700000000000001,-0.761326931003639,2.176134704286197,-0.9853643724456793,0.15155876858430065,-0.04977302878209225,-0.0001817671655462063,-1.44483469439244,0.7358405358777739,0.6997613964177312,0.16512461676115842,-0.07120648905001614,0.0002471356156201409,3.341428254027625,-4.193976388442333,-3.3300802483283984,-0.7930517802479216,0.2555800932879393,0.004703316282291259,0.7984993286544482,-9.129812468233297,-2.830113592935466,-0.28502516893975893,0.0399939280178942,1.873305105049697e-05
0.58,-0.7754423868664997,2.1830746660457865,-0.978698147432666,0.1531316987241166,-0.05046260075273624,-0.00017919054561946389,-1.4115455862860675,0.6939961759589204,0.6666225013013228,0.15729301398159692,-0.06895719706439868,0.0002576619926742412,3.4473121033419973,-4.22095579484067,-3.3186656065009306,-0.7845375073369016,0.2556820291403046,0.004337437767212848,0.8186132152891022,-9.085768950874009,-2.7950251063784233,-0.27660072825180443,0.039552924394228084,-1.5662590036210863e-05
0.59,-0.7892144230789119,2.1895935092119374,-0.9723621635896887,0.1546270866774566,-0.051129510229494614,-0.00017652161718820176,-1.3772036212412206,0.6518843166150886,0.6335983842977256,0.14953879533399672,-0.06669094767583779,0.0002668928431262115,3.5471446746197124,-4.241314818814428,-3.3036067633467088,-0.77567045851149,0.2555253458573912,0.003981714907565714,0.8363961907410706,-9.041565464480161,-2.7615664740803565,-0.2686344367485277,0.03900112861866733,-4.939900108225323e-05
0.6,-0.8026331138178926,2.1956892187288157,-0.9663549120723893,0.15604574872783655,-0.051773615462896105,-0.00017377308482813866,-1.3418690738980688,0.6095709516878383,0.6007251517299415,0.14186620503799724,-0.06441052334014942,0.0002748532360063118,3.6410853824327862,-4.255329255543089,-3.285265279120118,-0.7665314571945121,0.25512377240533546,0.0036371710025059345,0.8520724253008121,-8.99744968078243,-2.7298027753464216,-0.26112993941398244,0.03835764155297996,-8.233706161248152e-05
0.61,-0.815689120071442,2.2013604118705365,-0.9606745588773438,0.15738853534159794,-0.052394801086399566,-0.00017095736861993144,-1.305600625354937,0.5671193141720611,0.5680353195045541,0.13427866137613834,-0.062118562350345984,0.0002815716208207227,3.7292896868596297,-4.263262595936732,-3.2639770105617227,-0.7571920995590506,0.2544919667362606,0.0033046474538653836,0.8658536877923865,-8.95363542464511,-2.699789169557817,-0.25408996491523983,0.037640489391493386,-0.0001143576956063974
0.62,-0.8283736740945984,2.206606311871118,-0.9553189781830903,0.1586563237904401,-0.052992976634459635,-0.00016808657369474326,-1.2684554023156376,0.524590000058162,0.53555806942535,0.12677884488421368,-0.059817554806007193,0.0002870794925188182,3.811907826292631,-4.265365198017054,-3.240051809484852,-0.7477150763597376,0.2536453957684106,0.002984809132570043,0.8779382065205681,-8.910305144562596,-2.671571544466161,-0.24751641113372402,0.036866557254114814,-0.0001453602159921588
0.63,-0.8406785643841538,2.211426722875039,-0.9502857830989702,0.15985001162931553,-0.05356807502948789,-0.0001651724629939263,-1.2304890289555401,0.4820411003920784,0.5033195084120103,0.1193687838875431,-0.057509839502825615,0.00029141107008169565,3.889083721144539,-4.261873646432823,-3.2137734109131086,-0.7381545207936213,0.25260019038320536,0.0026781530327223413,0.888509914442995,-8.867612296729835,-2.6451870927248033,-0.24141040817910897,0.03605154496372859,-0.0001752606301542859
0.64,-0.852596121282112,2.2158220062717846,-0.945572353811567,0.1609705110002499,-0.054120051048526574,-0.00016222643308034482,-1.191755689795824,0.43952833967456684,0.47134292874031386,0.11204993709343546,-0.055197601903868326,0.00029460299135814595,3.960954039624981,-4.253010287688407,-3.1853994911234267,-0.728556374886649,0.25137298129139296,0.002385019659836063,0.8977380199305439,-8.825683622600927,-2.62066482287645,-0.2357723625795529,0.03520994189913023,-0.00020398994644816806
0.65,-0.8641192033017443,2.2197930584602443,-0.9411758631353979,0.1620187437304677,-0.05464887978167676,-0.00015925949281744378,-1.1523082019632296,0.39710521884598604,0.4396490676169114,0.10482327302178128,-0.05288287331501866,0.00029669402629010347,4.0276474170636245,-4.238982929437142,-3.15516187780025,-0.7189587681172025,0.24998072138177108,0.0021056066012925534,0.9057768485311981,-8.78462130589142,-2.5980260117189733,-0.2306019861116987,0.034355017971083056,-0.0002314925151793417
0.66,-0.8752411842547204,2.223341290072442,-0.937093299489601,0.16299563719163077,-0.05515455509516753,-0.0001562822447157377,-1.11219809529761,0.3548231612197922,0.4082563645797004,0.09768934611630715,-0.05056753134907628,0.0002977248101706072,4.089283820702037,-4.219984693052493,-3.1232668964420105,-0.7093924031329326,0.24844049981509286,0.0018399837267659702,0.9127659059775973,-8.74450500011358,-2.5772846053252687,-0.22589831245488778,0.03349882797141915,-0.0002577244314321659
0.67,-0.8859559412432227,2.226468606670805,-0.9333214873358678,0.1639021208859218,-0.05563708811243699,-0.00015330486873522768,-1.0714756988502339,0.31273165983627166,0.37718121537331106,0.09064836942910229,-0.04825330172694657,0.0002977375980510035,4.145974052415122,-4.196194009593461,-3.089895839114586,-0.6998809445204568,0.24676935270552391,0.0015881094767193904,0.9188301179347147,-8.70539372203946,-2.5584475760787506,-0.22165970454952982,0.03265222677903763,-0.00028265202159542574
0.68,-0.8962578435671346,2.2291773909188772,-0.9298571051249873,0.16473912372403143,-0.05609650572674522,-0.00015033710832649503,-1.0301902323911842,0.2708784248072359,0.3464382210880515,0.08370028381096349,-0.04594176143082245,0.00029677604087326496,4.197819382416576,-4.167774750190908,-3.0552055435782473,-0.6904414076031138,0.24498407475474693,0.0013498477411446608,0.9240802073998733,-8.667327610050299,-2.5415152429719456,-0.21788385522744044,0.03182489316010005,-0.0003062504304666997
0.6900000000000001,-0.9061417425832721,2.2314704862120016,-0.9266967008102865,0.1655075719597378,-0.056532849158682376,-0.00014738825849253367,-0.9883899016137531,0.2293095293124298,0.3160404314700761,0.07684482357063865,-0.04363434319371552,0.0002948849833961361,4.244911307615287,-4.134876482759982,-3.0193290726759097,-0.6810845451800294,0.2431010356889871,0.0011249848557848274,0.9286131760329994,-8.630329549238738,-2.5264815621583185,-0.2145677833755625,0.031025360162702804,-0.00032850232143196063
0.7000000000000001,-0.9156029625411446,2.2333511817418974,-0.9238367049961739,0.1662083877456167,-0.05694617257150704,-0.000144467155657738,-0.946121995787248,0.18806955298957612,0.285999581411266,0.07008157858788758,-0.04133234128246605,0.0002921102834795657,4.287331428888862,-4.097634847761034,-2.9823764856290933,-0.6718152309482264,0.24113600482957764,0.000913246296463166,0.9325128608562394,-8.59440666746771,-2.5133343943918662,-0.21170782760298254,0.03026105037078365,-0.0003493966983953256
0.71,-0.9246372924078168,2.2348231989572263,-0.92127344179907,0.16684248827441045,-0.05733654175658266,-0.00014158216913937963,-0.9034329866672186,0.1472017215329034,0.25632631971038444,0.0634100528793747,-0.039036918507562024,0.00028849865183583866,4.325151442099401,-4.056172046460944,-2.9444356945026424,-0.6626328390958065,0.2391039866090381,0.0007143127100506241,0.935850542610612,-8.559551708435206,-2.502055755569727,-0.20929963911038113,0.029538314541682407,-0.0003689278548453091
0.72,-0.9332409786830583,2.235890679371032,-0.9190031375064306,0.16741078547064572,-0.05770403290031028,-0.00013874119402981793,-0.8603686275241561,0.10674804138056489,0.22703042926394276,0.05682971962352811,-0.03674911437276182,0.00028409751095617047,4.358433238171628,-4.010597435764415,-2.9055734005493954,-0.6535316201807451,0.2370190693401355,0.000527834957171569,0.9386855865237406,-8.525744289221116,-2.4926220561352506,-0.2073381752139387,0.028862472401821222,-0.0003870944526428203
0.73,-0.9414107191950468,2.2365581736553386,-0.9170219271274551,0.16791418619716286,-0.05804873144291643,-0.0001359516453143338,-0.8169740511988438,0.06674942843066621,0.19812103789754834,0.050340072651712586,-0.034469854260615385,0.00027895487154841296,4.387229107961815,-3.961008224169738,-2.865836106402673,-0.6445010739204413,0.23489428908179022,0.00035344790690894357,0.9410661002873638,-8.492952050865117,-2.4850043346196817,-0.20581769475299921,0.028237854611844297,-0.0004038987307517207
0.74,-0.9491436578564026,2.2368306319531386,-0.9153258589365726,0.168353592941257,-0.058370731038279104,-0.00013322045306909792,-0.7732938661355803,0.027245829780006857,0.1696068190882539,0.043940674409414474,-0.032199959536266975,0.0002731192245235877,4.4115820479520105,-3.907490263742625,-2.8252512011209654,-0.6355263199453436,0.23274151000699206,0.00019078277976825042,0.943029597650631,-8.461131711301146,-2.479168490110621,-0.20473175641151592,0.027667845133751163,-0.00041934584214897957
0.75,-0.9564373803502474,2.236713395328444,-0.9139108971179947,0.16872990494509119,-0.05867013262269176,-0.00013055405860574253,-0.7293722493844736,-0.011723662469434563,0.14149618185778914,0.03763120038341834,-0.02994015844126536,0.0002666394463355403,4.431526162991357,-3.850118933178606,-2.783828115897364,-0.6265884678587081,0.23057132228655774,3.947787234914735e-05,0.9446036592064202,-8.430230030502445,-2.475075517939735,-0.20407322080525414,0.027154923436370392,-0.00043344331549186163
0.76,-0.9632899107062682,2.2362121882660224,-0.9127729226266164,0.16904401974489527,-0.058947043599103945,-0.00012795841145289428,-0.6852530356020796,-0.05012070624215935,0.11379744913783635,0.031411479980408934,-0.027691097641218708,0.00025956471528482453,4.447087162364169,-3.7889601070320547,-2.7415595488047195,-0.6176649881406409,0.2283929581573041,-0.00010081243498394343,0.9458065846965134,-8.400184698012735,-2.4726817523823525,-0.20383425702696267,0.026700706160874797,-0.0004462006367294164
0.77,-0.9696997087174393,2.2353331121238633,-0.9119077323873743,0.16929683508319474,-0.05920157714196108,-0.0001254389670899228,-0.6409798011171086,-0.08790761421590541,0.086519023924207,0.025281533829945517,-0.02545335428571362,0.0002519444362971487,4.458282945384769,-3.72407120602477,-2.6984227572497774,-0.6087300855123416,0.22621422653413248,-0.00023041046397676013,0.9466480335084703,-8.370925153187697,-2.4719391196560987,-0.20400635419678653,0.026305988034309474,-0.00045762894467341845
0.78,-0.9756656681391005,2.234082639433364,-0.9113110369618797,0.16948925115790872,-0.059433851626318666,-0.0001230006853738096,-0.5965959421661262,-0.12504726904994193,0.05966954254946511,0.01924160747139974,-0.02322744843575852,0.00024382817161131907,4.465124272497245,-3.6555023230053085,-2.654380916843218,-0.5997550763756259,0.22404146626286092,-0.00034960982773557525,0.9471296520075706,-8.342373348472321,-2.472795403991529,-0.20458033843155887,0.0259707819659626,-0.00046774083354365317
0.79,-0.9811871156035458,2.232467608934689,-0.9109784568177207,0.1696221731716188,-0.0596439901834467,-0.0001206480296254601,-0.5521447464445218,-0.1615030498674789,0.033258014415894654,0.013292201371006188,-0.021013855712803828,0.00023526557483495128,4.467615517493952,-3.583297418619497,-2.6093845451729702,-0.5907087717971322,0.221879517883945,-0.0004586718108969823,0.9472456879679904,-8.314444465915553,-2.4751945290211843,-0.20554639552082127,0.025694358388728446,-0.0004765502546342428
0.8,-0.9862638101751652,2.2304952212278306,-0.9109055173422679,0.1696965141436481,-0.059832120383685905,-0.00011838496636663431,-0.5076694571619451,-0.19723877068586781,0.007293947545289156,0.007434097202929562,-0.018813020023919862,0.0002263063258825789,4.465755495963103,-3.50749558008003,-2.563372988474364,-0.581557867322072,0.21973171357289445,-0.0005578234917822389,0.9469835936642512,-8.287047596887822,-2.47907685619094,-0.2068940994763651,0.025475284015343512,-0.0004840725084787353
0.81,-0.9908959434635681,2.2281730349136035,-0.9110876427490523,0.16971319794682463,-0.059998374045884345,-0.00011621496572238918,-0.46321332884029354,-0.23221863142270516,-0.01821254067843719,0.0016683803176535021,-0.016625366219844145,0.00021700006442451283,4.459538364442835,-3.428132335603755,-2.516275968463099,-0.5722673405812575,0.21759988476497583,-0.0006472575152434157,0.9463246201817694,-8.260086394631294,-2.484379501336794,-0.20861244700320775,0.025311460267549924,-0.00049032431819701
0.8200000000000001,-0.9950841402050429,2.225508963093281,-0.9115201490307622,0.1696731625299573,-0.06014288717134475,-0.0001141410025258077,-0.4188196741474729,-0.2664071820322522,-0.04325062817099179,-0.004003541686732883,-0.01445131254604081,0.0002073963196581479,4.448954584007905,-3.345241016139997,-2.4680151856234764,-0.5628008572919025,0.2154843868099725,-0.000727133406837277,0.9452444062247876,-8.233459708843046,-2.491036669989801,-0.21068989782114297,0.025200161704828573,-0.0004953239740696077
0.8300000000000001,-0.9988294592162701,2.2225112700908465,-0.9121982361185061,0.16957736328616543,-0.06026579999886175,-0.00011216555818152183,-0.3745319011227248,-0.2997693002434863,-0.06780870877440129,-0.009579924379186314,-0.01229128275170056,0.0001975444344285878,4.433991941165795,-3.2588541549652255,-2.418505974071847,-0.5531211857992133,0.2133841398717493,-0.0007975802926183384,0.9437135651602974,-8.207062210971438,-2.4989800113733294,-0.21311442064618513,0.025138074828376905,-0.0004990915387960989
0.84,-1.0021333946184732,2.2191885682580708,-0.9131169794121157,0.16942677652631155,-0.060367257176137216,-0.00011029062336165434,-0.33039354022031275,-0.3322701832775641,-0.09187432936095011,-0.015058675985388485,-0.010145717727546756,0.00018749348198674818,4.4146366180126355,-3.169004914602927,-2.3676590017569143,-0.5431906198090068,0.21129668516146793,-0.0008587008608429425,0.9416982742529659,-8.180785018298621,-2.5081389904433657,-0.2158735445198527,0.025121337665472743,-0.0005016491023525363
0.85,-1.0049978772252588,2.2155498147198927,-0.914271320850763,0.1692224030159395,-0.06044740804164112,-0.00010851770162182546,-0.28644826067855533,-0.36387535381781394,-0.1154341438647348,-0.02043735103720578,-0.00801508655039089,0.00017729217398288803,4.390874302625398,-3.075728529374364,-2.315382008264344,-0.5329714084089812,0.20921825547334194,-0.0009105763893471064,0.9391608700318113,-8.154516324186218,-2.518441276700497,-0.21895441505172883,0.02514558054932399,-0.0005030210748756692
0.86,-1.0074252759833695,2.2116043079160006,-0.9156560596969064,0.16896527153336727,-0.06050640700984673,-0.00010684781403555941,-0.24273987581107181,-0.3945506803892018,-0.13847388461434285,-0.025713148257222845,-0.005899896820561292,0.00016698875862660549,4.362691329676144,-2.979063750741237,-2.2615815708946205,-0.5224261919135369,0.20714385887364983,-0.00095327264797751,0.936060453495551,-8.128142041078084,-2.5298131478802244,-0.2223438550182942,0.025205968500079022,-0.0005032345055817624
0.87,-1.009418399352538,2.2073616837942347,-0.9172658432093795,0.16865644240597802,-0.06054441405172289,-0.0001052815049525347,-0.19931233691685268,-0.4242624121766071,-0.16097835124731175,-0.03088291273892404,-0.003800704187615473,0.00015663090830247105,4.330075840282958,-2.87905428150433,-2.206164888043438,-0.5115184414710665,0.2050673742765312,-0.0009868464635625074,0.9323535084205505,-8.101546461982636,-2.5421799060178976,-0.22602842864071226,0.025297245584163068,-0.0005023194153951729
0.88,-1.01098049650869,2.202831911512508,-0.9190951573831572,0.16829701098134986,-0.06056159526142414,-0.00010381884898930602,-0.15620971561518962,-0.4529772281726646,-0.1829314173777655,-0.03594314246281519,-0.001718120970125458,0.00014626559632286755,4.293018949199025,-2.775750183923872,-2.1490415672737453,-0.5002128998020723,0.2029816575306178,-0.001011352747327221,0.9279945353936899,-8.074612945199208,-2.5554663027993643,-0.22999450874875454,0.025413781582016303,-0.0005003091307404783
0.89,-1.0121152582539903,2.1980252885085343,-0.9211383179337869,0.1678881109897187,-0.06055812349929157,-0.0001024594593605896,-0.11347617453004245,-0.4806623003973443,-0.20431605506297199,-0.04088999916311515,0.0003471762132566951,0.00013593896287164307,4.251515906626226,-2.669209245973584,-2.090125403899479,-0.48847601987738365,0.20087865652568837,-0.0010268517602123328,0.9229367033639722,-8.04722462601072,-2.5695969705644086,-0.23422834593084818,0.025549621229449232,-0.0004972406058694996
0.9,-1.0128268175177415,2.1929524348007914,-0.9233894617035191,0.1674309177544315,-0.06053417910057389,-0.00010120249765461418,-0.07115592637511514,-0.5072853707742836,-0.2251143769732199,-0.04571932352871876,0.0023944398717681884,0.00012569617059754142,4.20556724126388,-2.5594982892778986,-2.0293361344528074,-0.47627639783869213,0.19874953372340087,-0.001033416399453646,0.9171325195061357,-8.01926515794269,-2.5844968548437754,-0.2387161386750794,0.02569853621639292,-0.0004931547211802829
0.91,-1.0131197493339854,2.187624286389941,-0.9258425386636551,0.1669266512075677,-0.060489950638709766,-0.00010004668514758949,-0.029293181624382533,-0.5328148410850495,-0.24530769601360045,-0.05042665468638011,0.004422846186412606,0.00011558125070246968,4.155179870705165,-2.446694401859562,-1.9666011481508878,-0.46358519600665726,0.1965847944219128,-0.0010311393077506725,0.9105345170348892,-7.990619484994578,-2.600091643900018,-0.24344410342711648,0.025854080030402266,-0.00048809654526802554
0.92,-1.0129990701848983,2.1820520876373974,-0.9284913046834342,0.16637657866882802,-0.06042563573158669,-9.899031574040283e-05,0.012067914908703292,-0.5572198752543809,-0.2648766019779115,-0.05500725387396683,0.006431490712307281,0.00010563694071866571,4.100368165011675,-2.3308860786803205,-1.901857138463773,-0.4503765514622735,0.19437441897814622,-0.0010201395909901212,0.9030959593232019,-7.961174644992461,-2.6163081904247023,-0.24839854343263384,0.026009645622996985,-0.0004821155489547791
0.93,-1.0124702366037108,2.1762473825068995,-0.9313293152297983,0.16578201734714745,-0.06034144187891673,-9.803127058511185e-05,0.05288335811873887,-0.5804705130497932,-0.28380105463641275,-0.05945613216805689,0.00841938526699679,9.590451552909819e-05,4.0411549492609105,-2.2121742531300366,-1.835051676176699,-0.4366279654062897,0.19210799715764182,-0.0010005689699752462,0.8947715572911031,-7.930820602906581,-2.633074920335931,-0.25356591519800364,0.026158525757390638,-0.0004752657602980164
0.9400000000000001,-1.0115391429369482,2.1702220045657907,-0.9343499201545343,0.16514433652630908,-0.06023758731875011,-9.71670344503984e-05,0.09310936667625877,-0.60253779411089,-0.30206049247359873,-0.06376808208383773,0.010385456016661656,8.642361347134548e-05,3.9775724311008562,-2.0906732031334054,-1.766144684983602,-0.4223206683321479,0.18977486273891842,-0.0009726171889818946,0.885518195578131,-7.899451111638755,-2.6503222235347885,-0.25893289139748477,0.026293975769521957,-0.00046760585059381246
0.9500000000000001,-1.0102121181732466,2.1639880656551838,-0.9375462597155648,0.16446495939813643,-0.06011430189118782,-9.639471385401148e-05,0.13270247637015176,-0.6233938910606998,-0.3196339561030457,-0.06793771281726538,0.012328542756229275,7.723205963869208e-05,3.9096630398764916,-1.9665113164218913,-1.695109800680486,-0.4074399560130031,0.18736422649912043,-0.0009365165433560252,0.8752956615344881,-7.866964596433476,-2.667982821528122,-0.2644864190808668,0.026409278344170097,-0.0004591991426760831
0.96,-1.0084959217548015,2.157557943152214,-0.9409112619675409,0.16374536450962665,-0.05997182789755318,-9.57110569671248e-05,0.17161964184451886,-0.6430122502969874,-0.33650022519761663,-0.07195948885097962,0.014247399363463848,6.836568868866817e-05,3.837480164726656,-1.8398317007645657,-1.6219355954856527,-0.3919754913773623,0.18486530574255156,-0.0008925454045866088,0.8640673696113136,-7.83326505772491,-2.68599210701493,-0.2702137720946217,0.026497809778383535,-0.00045011353436676517
0.97,-1.0063977382975626,2.1509442657630196,-0.9444376416434322,0.16298708679365062,-0.059810420943638344,-9.51124752708856e-05,0.20981834572387997,-0.6613677389194378,-0.352637967589134,-0.07582777159760234,0.016140695391483877,5.9858169623920224e-05,3.761088780185099,-1.7107926265644673,-1.546626649907874,-0.3759215675684793,0.18226744860676902,-0.0008410306536696943,0.8518010723524252,-7.798262985924921,-2.7042884508669056,-0.2761025967230698,0.026553107079863556,-0.0004404213317392054
0.98,-1.003925171157504,2.1441598978017944,-0.9481179006335964,0.16219171815656921,-0.05963035075614677,-9.45950669199e-05,0.24725671400588303,-0.6784367961225377,-0.36802589901640836,-0.07953686370814038,0.018007018749157548,5.174083509856088e-05,3.680565949246876,-1.5795677911882477,-1.4692044559262647,-0.3592773278175727,0.17956025149575083,-0.0007823489669325223,0.8384695479459656,-7.7618762804122134,-2.722813472407011,-0.2821409496834881,0.02656893513292392,-0.00043019898889257483
0.99,-1.001086234792503,2.137217921929021,-0.9519443301519835,0.16136090760026547,-0.059431901962098646,-9.415464174165621e-05,0.28389363650009186,-0.6941975872773765,-0.3826429518387229,-0.08308105563037486,0.019844879404812204,4.404251782437839e-05,3.596001195557517,-1.4463463966786851,-1.3897081370119557,-0.3420469382454838,0.17673366816263325,-0.0007169269298977765,0.8240512532441164,-7.724031163828027,-2.7415122694946574,-0.28831732776868735,0.02653935306384502,-0.00041952675316051977
