tonegas/nnodely-applications/joint_friction_estimation/dataset/validation/mpc_mujoco_episode_3.csv
time,q1,q2,q3,q4,q5,q6,dq1,dq2,dq3,dq4,dq5,dq6,ddq1,ddq2,ddq3,ddq4,ddq5,ddq6,tau1,tau2,tau3,tau4,tau5,tau6
0.0,0.0,1.57,-1.57,0.0,0.0,0.0,0.0,0.0,0.0,0.0,0.0,0.0,2.6478507961689983,-8.334618750413131,2.6903997030040596,1.57322980994706,0.40019365560102216,-3.170809246721973e-06,0.36954690562100445,-8.261257892361414,-5.6026724593742845,-1.2190455107927707,0.03321777796690842,-0.00017632795467102495
0.01,0.0002634568413952641,1.5691702369231606,-1.5697342694330227,0.0001446816494415847,3.341986946295297e-05,4.2518194466090737e-07,0.026345684139526405,-0.08297630768394736,0.02657305669772594,0.01446816494415847,0.003341986946295297,4.2518194466090734e-05,2.607354335117003,-8.20706275672566,2.6696752488413438,1.4496534555944347,0.3349853705211814,0.004261719255564289,0.364236369311886,-8.204388076718496,-5.582702488657338,-1.2148948386351535,0.03280840792867134,-0.00017884988392882523
0.02,0.0007861323789570347,1.5675234845136197,-1.569205522041991,0.0004242257542009714,9.61766679638183e-05,1.294063751044261e-06,0.05226755375617706,-0.16467524095409541,0.05287473910317292,0.02795441047593867,0.0062756798500865334,8.688818063833537e-05,2.5626663470781477,-8.072274530475356,2.6437605633584838,1.3515508378074639,0.29471008889646555,0.004478014669697661,0.35636064529349265,-8.134646510394932,-5.558220259807979,-1.2097931239126896,0.03223928934712289,-0.00018235823458676536
0.03,0.0015634548736707813,1.5650732172408657,-1.5684168071112337,0.0008307572426363972,0.0001856949165132903,2.5788533404909663e-06,0.07773224947137466,-0.24502672727539138,0.07887149307573038,0.04065314884354258,0.008951824854947202,0.00012847895894467054,2.51457179966471,-7.930635174738947,2.614537464898355,1.272945196069724,0.26989865391275814,0.004251733423352055,0.3460726066626669,-8.052308922342489,-5.529380397527859,-1.2037786105957766,0.03151731155927791,-0.00018679892767443137
0.04,0.002590564267757628,1.5618335772981968,-1.5673713651923586,0.001357892500814921,0.00030033617132004876,4.255410110652174e-06,0.1027109394086847,-0.3239639942668857,0.10454419188749556,0.052713525817852394,0.011464125480675842,0.00016765567701612082,2.4635239399440536,-7.78248156511913,2.583447107473349,1.2092949535649122,0.2548373814729299,0.004082601290146481,0.33354607202640263,-7.957659817904326,-5.496342228633636,-1.1968907596958207,0.030649748568420978,-0.00019212315234621365
0.05,0.003862337682514651,1.557819344827147,-1.5660725174588335,0.002000395395085618,0.0004390532476224243,6.307317239901982e-06,0.12717734147570228,-0.40142324710499844,0.12988477335252174,0.06425028942706972,0.013871707630237557,0.0002051907129249808,2.409778809369009,-7.628119945815443,2.5515926841783525,1.1571490505030777,0.24606138157771085,0.004011875497917261,0.31897325368998797,-7.850993069481976,-5.459269803833849,-1.1891702790268224,0.029644205695155815,-0.00019828536955702195
0.06,0.005373403223948038,1.5530459102966025,-1.5645235809187072,0.002753915966313394,0.0006011798552974696,8.724233481508324e-06,0.1511065541433387,-0.47734345305443115,0.1548936540126166,0.07535205712277758,0.01621266076750453,0.00024169162416063427,2.3534752890303356,-7.467836323853353,2.519817381214718,1.1138856458691127,0.24146238796620523,0.00402398420439809,0.3025623773394097,-7.732612606779986,-5.418331899551381,-1.180659130723336,0.028508595998944432,-0.0002052419220339905
0.07,0.007118146909191408,1.5475292482142469,-1.5627278035792542,0.0036147919761005546,0.000786302072269288,1.150021428153447e-05,0.174474368524337,-0.5516662082355753,0.1795777339453124,0.08608760097871604,0.01851222169718184,0.00027759808000261455,2.294682846394884,-7.301904463982665,2.488763628935983,1.0775131057968377,0.23975279002227978,0.004103425840088493,0.28453535572400895,-7.602833180895921,-5.373702002576649,-1.1714005210320664,0.027251132590704594,-0.00021294999612634882
0.08,0.009090715582815656,1.5412858915355638,-1.560688315077314,0.004579898197242448,0.0009941793357774644,1.4632556582473213e-05,0.1972568673624248,-0.6243356678682954,0.203948850194009,0.0965106221141893,0.020787726350817645,0.00031323423009387425,2.233430061974644,-7.130592052388472,2.458918111598006,1.0465183447326307,0.2401419665764042,0.004240317464285326,0.2651254485179152,-7.46198117366357,-5.325558276216219,-1.1614388750459823,0.02588032851355982,-0.00022136680269284705
0.09,0.011285017535009007,1.534332906279289,-1.5584080893714827,0.005646531934857907,0.0012246954012904326,1.8121052545586373e-05,0.21943019521933518,-0.6952985256274756,0.22802257058313752,0.1066633737615459,0.023051606551296816,0.00034884959631131584,2.169721701437236,-6.954165443568298,2.4306459260638658,1.0197512771957538,0.24214016462166832,0.004429249984993611,0.2445748698798667,-7.310395422957871,-5.274083504547698,-1.1508197978980794,0.024404999055460425,-0.00023044890347011482
0.1,0.013694721844590281,1.5266878659698968,-1.5558899169166223,0.006812326006724012,0.0014778274110834226,2.196751085091502e-05,0.2409704309581274,-0.7645040309392092,0.2518172454860504,0.11657940718661047,0.02531320097929902,0.00038464583053286484,2.1035489670658154,-6.772893296172838,2.4042164802630897,0.996336812902328,0.24543917006444005,0.004667875295462531,0.22313232363402974,-7.148428035402533,-5.219465010639744,-1.1395900232519454,0.022834263193649392,-0.00024015164305602902
0.11,0.016313257060652935,1.5183688256160235,-1.5531363843680883,0.008075182502668608,0.001753625851713139,2.617544706707054e-05,0.26185352160626546,-0.8319040353873233,0.275353254853389,0.1262856495944597,0.02757984406297164,0.000420793621615552,2.0348957104379486,-6.587049325032265,2.379823112818805,0.9756078545633677,0.24983920676164217,0.004955918328754638,0.20105045864366985,-6.976445159358733,-5.161894544582212,-1.12779734954742,0.02117754194998249,-0.0002504286664708292
0.12,0.01913380959593164,1.5093942950047483,-1.5501498603390014,0.00943322223732736,0.00205220097403709,3.0749879806743504e-05,0.2820552535278702,-0.8974530611275185,0.29865240290869804,0.13580397346587517,0.029857512232395064,0.00045744327396729625,1.9637422922068317,-6.396914339150695,2.3575979489570997,0.9570543058251051,0.2552036015775556,0.005294535402158074,0.17858324662658287,-6.794827692806798,-5.101568137561339,-1.1154905642743211,0.019444552093937226,-0.0002612315138748079
0.13,0.022149322066881517,1.499783211149851,-1.5469324860943592,0.010884746025872928,0.0023737129301116774,3.569719221373557e-05,0.3015512470949878,-0.9611083854897383,0.32173742446422104,0.14515237885455667,0.03215119560745877,0.0004947312406992063,1.8900681278763056,-6.2027776932878655,2.3376231508639247,0.9402842806040415,0.26143003053643277,0.005685890809751237,0.15598329279069856,-6.603971902557291,-5.038685918811212,-1.102719356486634,0.01764529405549155,-0.00027250929066526187
0.14,0.02535249174120341,1.4895549097807526,-1.5434861703379918,0.012428204838468883,0.0027183638874957606,4.102503235462217e-05,0.32031696743218935,-1.0228301369098458,0.34463157563672386,0.15434588125959559,0.03446509573840833,0.0005327840140886597,1.8138535794339659,-6.004938249760586,2.319939447464364,0.9249946098333055,0.2684315442415981,0.006132857835326133,0.1334990969144315,-6.404289933054031,-4.97345189295917,-1.0895342177885572,0.015790033207966115,-0.0002842084147916007
0.15,0.028735769220581388,1.4787290958001786,-1.5398125874530995,0.014062176594945852,0.003086390978164725,4.674223449645134e-05,0.33832774793779774,-1.0825813980573842,0.3673582884892466,0.16339717564769693,0.03680270906689645,0.000571720214182917,1.7350816344549564,-5.803704924358085,2.304552619605195,0.9109484325804971,0.2761232143503385,0.006638780310616266,0.11137228910323947,-6.19621018483294,-4.9060736759893,-1.0759863320919263,0.013889273908931937,-0.00029627244489501377
0.16,0.03229135748191271,1.4673258126743618,-1.5359131787103102,0.015785347899026535,0.0034780592865355825,5.28587481290638e-05,0.35555882613313244,-1.1403283125816774,0.3899408742789369,0.17231713040806834,0.03916683083708574,0.0006116513632612464,1.6537396929355628,-5.599396873620168,2.291438456737355,0.8979581858939563,0.28441184186868096,0.0072072495330413044,0.08983487044072963,-5.98017754447992,-4.836762188732971,-1.0621274545407355,0.011953725875921722,-0.0003086419935200587
0.17,0.03601121141738571,1.455365410751051,-1.5317891560710357,0.01759649942138526,0.003893654276119675,5.938556422926127e-05,0.3719853935473003,-1.1960401923310775,0.41240226392744306,0.18111515223587255,0.04155949895840926,0.000652681610019747,1.5698217190576524,-5.39234336858873,2.2805465789095303,0.8858727100029258,0.2931871428710586,0.007841861820136353,0.0691064940281769,-5.7566534497016795,-4.765731307431987,-1.0480097801077202,0.009994262638265208,-0.0003212547296120433
0.18,0.039887038049027795,1.4428685145286062,-1.5274415082976867,0.01949449395344823,0.004333473156435274,6.633462945723244e-05,0.3875826631642084,-1.2496896222444682,0.4347647773349138,0.18979945320629688,0.043981888031559814,0.0006949065227971166,1.483330986191562,-5.182883391320248,2.271803424350657,0.874567492160442,0.30231343492194096,0.008545927226170758,0.04939182633724354,-5.526115774901129,-4.693197471493223,-1.0336858024798021,0.008021871953861929,-0.0003340454740983689
0.19,0.043910297645509744,1.429855988924652,-1.5228710091431847,0.021478266392389714,0.00479781473809845,7.371873921555422e-05,0.4023259596481948,-1.3012525603954206,0.4570499154501821,0.19837724389414838,0.04643415816631764,0.0007384109758321788,1.3942836324228278,-4.971364984043998,2.265114631365832,0.8639373060873927,0.31162124798191115,0.009322102285672651,0.0308780322546795,-5.289058524445895,-4.619379249054121,-1.0192081639561592,0.0060475982129095905,-0.00034694639175062266
0.2,0.04807220603782454,1.4163489046155935,-1.5180782274356306,0.02354681509997846,0.005286967338742419,8.155140010775409e-05,0.4161908392314798,-1.350708430905852,0.47927817075542606,0.20685487075887488,0.0489152600643969,0.0007832660892199863,1.3027132380434396,-4.75814437619224,2.2603669885272195,0.8538906819284691,0.320898580001888,0.01017192085225005,0.013732429570769478,-5.04599132264299,-4.544496861402135,-1.0046294971797958,0.004082476970888533,-0.0003598872818730418
0.21,0.05236373851598988,1.402368502539088,-1.5130635389041167,0.02569919421726855,0.0058011943030737805,8.984665153867954e-05,0.4291532478165338,-1.398040207650561,0.5014688531513894,0.21523791172900852,0.05142269643313619,0.0008295251430925451,1.2086766238426916,-4.543584911117629,2.2574300852565496,0.8443457770308882,0.32988177978318944,0.011095198935834105,-0.0018996401033856691,-4.7974386912939115,-4.4687716676390865,-0.990002259608162,0.0021374618624559853,-0.0003727959697510186
0.22,0.056775635790668896,1.3879361576705316,-1.5078271396117473,0.0279345066238715,0.006340716701559381,9.861883520637534e-05,0.4411897274679012,-1.4432344868556475,0.5236399292369491,0.22353124066029514,0.053952239848560034,0.0008772183667695803,1.1122610365272638,-4.328055791788457,2.2561577628450085,0.8352273207942464,0.33824631851382403,0.012089293893460806,-0.015896676916014124,-4.543939107613458,-4.3924256112584565,-0.9753785616996508,0.000223344250651316,-0.0003855988002666042
0.23,0.06129841261969427,1.3730733422019423,-1.5023690608743545,0.030251897312493548,0.006905692788317459,0.0001078823002662934,0.4522776829025374,-1.486281546858933,0.545807873739283,0.23173906886220458,0.05649760867580784,0.0009263465059918067,1.0135928196919708,-4.111930662877633,2.256389441418034,0.826464384941274,0.3455980437808437,0.013148207853924454,-0.02816257878623893,-4.2860438372779965,-4.315680630522214,-0.9608099898520194,-0.0016493339297495337,-0.0003982212346390528
0.24,0.06592236982561833,1.3578015882674044,-1.4966891855501017,0.0326505470124957,0.0074961938456904655,0.00011765103128159597,0.46239572059240597,-1.5271753934537977,0.567987532425276,0.2398649700002154,0.059050105737300684,0.000976873101530257,0.9128475474550228,-3.8955860453181,2.257951379564897,0.8179887895927269,0.35146591938112914,0.014261542868927668,-0.03862784379511404,-4.024315539470789,-4.238758034702524,-0.9463474251789377,-0.0034703735560386827,-0.0004105885508032405
0.25,0.07063761055862335,1.3421424503735695,-1.490787265587554,0.035129665944921756,0.008112176139246216,0.00012793818607616348,0.47152407330050167,-1.5659137893834805,0.5901919962547597,0.2479118932426059,0.06159822935557494,0.0010287154794567507,0.8102614042142032,-3.679399638561812,2.2606579089095478,0.8097339999048283,0.35529774465595976,0.015413344281375307,-0.047250377817011927,-3.759326643092268,-4.161877848421421,-0.9320408592570607,-0.005230017194244697,-0.0004226266473329241
0.26,0.07543406177637758,1.3261174677066172,-1.484662940719009,0.037688487629128874,0.008753448873900995,0.0001387555317614214,0.47964512177542423,-1.6024982666952388,0.6124324868544867,0.25588216842071154,0.06412727346547793,0.0010817345685257918,0.7061433121954019,-3.4637485056308153,2.264312674740243,0.801634400966873,0.3564608896617054,0.016580912093904443,-0.05401586997929876,-3.491657495964766,-4.085258126530802,-0.9179392080275094,-0.006919052515754099,-0.0004342629497746254
0.27,0.08030150199928429,1.3097481264985231,-1.4783157581827806,0.040326262690388075,0.009419638302438756,0.00015011277011520578,0.48674402229067093,-1.6369341208094033,0.6347182536228488,0.2637775061259198,0.06661894285377601,0.0011357238353784395,0.6008869336747724,-3.249007156598258,2.268709905028881,0.79362486273819,0.35425059826872696,0.017733718770214457,-0.05893770307423819,-3.2218942919758655,-4.009114242249082,-0.9040901250950666,-0.008528918986408509,-0.0004454274163732438
0.28,0.08522959642933899,1.2930558226453814,-1.4717451933534167,0.04304225264048879,0.010110148513522772,0.00016201674884284918,0.49280944300546886,-1.6692303853141603,0.6570564829363916,0.2715989950100714,0.06905102110840174,0.0011903978727643416,0.49498122469833805,-3.03554554800706,2.273635723033622,0.785640523970328,0.34790875221922923,0.01883264270021323,-0.062056371536260646,-2.9506267850635575,-3.9336581517293894,-0.8905398157554776,-0.01005181611547061,-0.0004560536369168904
0.29,0.09020794045972742,1.2760618247786224,-1.4649506711531028,0.045835723620868046,0.010824119932122362,0.00017447056374748609,0.49783440303884374,-1.6993997866759019,0.6794522200313826,0.2793470980379253,0.07139714185995896,0.0012453814904636901,0.38901774655530014,-2.823727019100915,2.2788695125426446,0.7776167360400733,0.33665592877029993,0.019829798965927514,-0.06343838640520709,-2.678445803934932,-3.8590976389211424,-0.8773328531984461,-0.011480810947934713,-0.0004660800131837457
0.3,0.09522611241176972,1.2587872379959066,-1.4579315881112729,0.048705940111090806,0.011560387200608802,0.00018747256902459575,0.5018171952042293,-1.727458678271571,0.7019083041829867,0.28702164902227584,0.07362672684864406,0.0013002005277109657,0.2836925543382779,-2.6139061910405186,2.284185339090701,0.7694891161446463,0.31973883512766466,0.020669302226677233,-0.06317465545822654,-2.4059405877411724,-3.7856355455922848,-0.8645119984899894,-0.012809941712181172,-0.0004754510016352725
0.31,0.10027373597763248,1.241252968461692,-1.4506873349332505,0.05165215861535065,0.012317438846846569,0.00020101532891334198,0.504762356586276,-1.7534269534214708,0.724425317802246,0.29462185042598427,0.07570516462377658,0.0013542759888746229,0.17980033341141802,-2.4064268623398295,2.2893534246839344,0.7611936661271608,0.2964934817726005,0.021289298646065047,-0.06137833830790873,-2.133695970614084,-3.7134689927018028,-0.8521180261213499,-0.014034313624709705,-0.00048411838815693624
0.32,0.10534055229251053,1.2234796890872583,-1.4432173194331015,0.054673621346563436,0.013093381921544413,0.0002150845631781501,0.5066816314878061,-1.7773279374433733,0.7470015500149072,0.3021462731212788,0.07759430746978448,0.0014069234264808112,0.07821872735055013,-2.201619943450562,2.294141667339697,0.7526669203126826,0.26642161674902093,0.021625516677851564,-0.058182191774230264,-1.8622894524452334,-3.6427886011197588,-0.8401895571422621,-0.015150181891287659,-0.000492042550890037
0.33,0.1104165008017095,1.205487806495422,-1.435520989681381,0.05776954993202135,0.013885915489110433,0.0002296581596509876,0.5075948509198973,-1.7991882591836377,0.7696329751720624,0.30959285854579144,0.07925335675660194,0.0014573596472837486,-0.02011835042117517,-1.999801483344386,2.298317189944332,0.7438460949030237,0.22927415392701816,0.021616378710433787,-0.05373544115072125,-1.5922882033851047,-3.5737777216488578,-0.8287629020981881,-0.016155016090491706,-0.0004991936513867792
0.34,0.11549180715539675,1.1872974294653647,-1.4275978572157124,0.060939139166883,0.014692317325679664,0.00024470534628160946,0.5075306353687249,-1.8190377030057319,0.7923132465668614,0.3169589234861641,0.08064018365692299,0.001504718663062184,-0.11425816469423858,-1.8012708506941617,2.3016478958112776,0.7346692238451609,0.18513124460400474,0.021209383546224647,-0.04820023842324996,-1.3242460599022636,-3.506611686406905,-0.817871916158838,-0.017047539618292706,-0.0005055526784935342
0.35000000000000003,0.12055707533402409,1.1689283390371155,-1.4194475201617696,0.06418155084249325,0.015509448225715719,0.00026018612846959985,0.5065268178627338,-1.836909042824929,0.8150337053942905,0.32424116756102467,0.08171309000360549,0.0015480782187990408,-0.2032751922247676,-1.606309138557326,2.303904001618784,0.7250752813212822,0.13446543221183788,0.020368060822760478,-0.041747798229486204,-1.0587005790098576,-3.441457095429519,-0.8075478688775106,-0.017827737998345857,-0.0005111122567775503
0.36,0.12560338020953393,1.1503999604327768,-1.411069686114772,0.06749590767626398,0.016333777762178456,0.0002760510998080412,0.5046304875509833,-1.8528378604338565,0.8377834046997491,0.33143568337707363,0.08243295364627365,0.001586497133844137,-0.2863215959727154,-1.4151778613630288,2.3048595133654617,0.7150043068669962,0.07817343707412128,0.019078420801862582,-0.03455433386055278,-0.7961702225540952,-3.3784711534314993,-0.7978193309000778,-0.018496830896400196,-0.0005158771262010428
0.37,0.130622355950844,1.1317313369227149,-1.4024641946374212,0.07088128736931015,0.017161434065388188,0.0002922417211148152,0.5018975741310066,-1.8668623510062008,0.8605491477350761,0.33853796930461705,0.08276563032097319,0.0016190621306774028,-0.3626765294590583,-1.2281180036211303,2.3042936091718014,0.7043975615965294,0.017564714130735126,0.017353625070645244,-0.026796944531882527,-0.5371517432278741,-3.3178010715562114,-0.788712079599424,-0.01905720478374118,-0.0005198642064939122
0.38,0.1356062752672165,1.112941105730602,-1.393631039239341,0.07433671681793219,0.017988278189308135,0.00030869113120014286,0.49839193163724926,-1.8790231192112976,0.8833155398080169,0.3455429448622031,0.08268441239199466,0.001644941008532765,-0.4317882269451668,-1.0453494597199606,2.3019918955875633,0.6931977486597818,-0.04569876242740023,0.015235718415618542,-0.018649625689885027,-0.2821178367419429,-3.259583547304132,-0.7802490250346273,-0.019512306323301847,-0.0005231021814401269
0.39,0.14054811459733832,1.0940474760333352,-1.3845703887152125,0.07786116650591454,0.018810001100366402,0.00032532550434410923,0.49418393301218205,-1.8893629697266714,0.9060650524128498,0.3524449687982354,0.08217229110582679,0.0016634373143966383,-0.49330368214084563,-0.8670708746546473,2.297747512182855,0.6813493250204292,-0.10970815819953161,0.012793733097406078,-0.010279580264721411,-0.03151511007014879,-3.203944332592357,-0.772450156867009,-0.019866500366096565,-0.000525630575448389
0.4,0.1454416010624868,1.0750682090731707,-1.375282607733119,0.08145354510668598,0.01962223860736289,0.0003420659096215617,0.48934864651484744,-1.8979266960164523,0.928778098209348,0.3592378600771433,0.08122375069964864,0.0016740405277452463,-0.54708267024125,-0.6934598607138869,2.29136207195594,0.6687989154927978,-0.17244645790327007,0.010118209737541989,-0.001843996106425088,0.214237604771583,-3.1509978953542284,-0.76533251200715,-0.020124900335355092,-0.0005274983437846586
0.41000000000000003,0.1502812382633537,1.056020600363123,-1.365768276580005,0.08511269432742471,0.020420697122398013,0.000358830565723505,0.48396372008669153,-1.9047608710047823,0.9514331153114143,0.36591492207387355,0.07984585150351245,0.0016764656101943328,-0.5931953741275583,-0.5246735314941384,2.282646440414059,0.6554958181242938,-0.23194112085929963,0.007312958414115861,0.006512577678866947,0.4547505854241165,-3.1008471748970434,-0.7589101619557335,-0.02029318198274932,-0.0005287620512405382
0.42,0.15506230965060042,1.0369214639358804,-1.3560282099862484,0.08883738403052376,0.02120128147819857,0.0003755373333971528,0.4781071387246703,-1.909913642724256,0.9740066593756559,0.3724689703099045,0.07805843558005555,0.0016706767673647764,-0.631905247465802,-0.3608492690016675,2.2714213710678184,0.6413925691461202,-0.2864094371649306,0.00448545828232455,0.014660171781490275,0.6896642189780475,-3.0535834262644745,-0.7531942181760604,-0.02037739332779164,-0.0005294837618887156
0.43,0.159780859994419,1.0177871185635767,-1.3460634749648501,0.09262630767052914,0.02196021547698501,0.0003921062564356215,0.471855034381857,-1.9134345372303565,0.9964735021398169,0.37889236400053766,0.07589339987864376,0.0016568923038468733,-0.6636404468605511,-0.20210562720157887,2.2575180264893056,0.6264455221032428,-0.33437783949609945,0.0017374892504297135,0.022484629552695104,0.9186497014236193,-3.0092861449410946,-0.7481928534963904,-0.020383773621220683,-0.0005297287952346004
0.44,0.16443365714877697,0.9986333758619584,-1.3358754076116266,0.09647807808581726,0.022694146532846963,0.00040846195741778654,0.4652797154357978,-1.9153742701618302,1.0188067353223584,0.385177041528813,0.07339310558619555,0.0016355700982165005,-0.6889579738273718,-0.048543277991252035,2.2407784199128544,0.6106153927711988,-0.3747625406974575,-0.0008426216959247779,0.029888163832278023,1.1414094819637743,-2.9680230609682527,-0.7439113375158626,-0.02031859240795117,-0.0005295635149002915
0.45,0.16901813762118256,0.97947553018764,-1.3254656288205258,0.10039122368327862,0.023400227555637972,0.00042453571631367594,0.4584480472405593,-1.9157845674318463,1.0409778791100868,0.3913145597461353,0.07060810227910087,0.0016073758895889377,-0.7085046728111398,0.0997540786694215,2.221055811987396,0.5938677287143674,-0.4069065134989607,-0.003185257278444348,0.03678931808229252,1.3576774998935397,-2.929850191082753,-0.7403520842340915,-0.020188016619896415,-0.0005290533033903668
0.46,0.1735323402752057,0.9603283502398395,-1.3148360588727634,0.10436418505099601,0.02407617175781506,0.00044026710313167127,0.4514202654023136,-1.9147179947800494,1.0629569947762327,0.39729613677173886,0.0675944202177089,0.001573138681799533,-0.7229786885500504,0.2427188944841966,2.1982150916007335,0.5761732765032352,-0.43057496561340924,-0.005241987533955883,0.04312244443379249,1.5672192570806023,-2.894811938604183,-0.7375147105432177,-0.019998009788865508,-0.0005282608441715523
0.47000000000000003,0.1779748327725192,0.9412060722859867,-1.3039889308603805,0.10839531202871447,0.02472027888452816,0.0004556050907611365,0.4442492497313494,-1.9122277953852742,1.0847128012383018,0.4031126977718458,0.06441071267130997,0.001533798762946523,-0.7330941664690642,0.38029906937392693,2.1721331605680176,0.5575082361885437,-0.44591670768746017,-0.006985508901541745,0.048836825195382204,1.769831759514065,-2.8629412329627795,-0.7353961046938083,-0.019754263677292938,-0.0005272447877546436
0.48,0.1823446351598326,0.9221223949413471,-1.292926802904877,0.11248286125951647,0.02533143401948681,0.0004705086308498585,0.43698023873134156,-1.90836773446397,1.1062127955503473,0.4087549230801996,0.061115513495864915,0.001490354008872196,-0.7395510872669856,0.5124573671366105,2.142699331601089,0.5378544076180676,-0.45340163716805915,-0.008407625822620307,0.05389556148848813,1.9653433496647161,-2.834259703361136,-0.7339905042684011,-0.01946215948409552,-0.0005260588306256333
0.49,0.18664114444250232,0.9030904754439286,-1.2816525691307314,0.11662499423939476,0.025909082258035385,0.00048494672526276113,0.42965092826697227,-1.9031919497418408,1.1274233774145594,0.4142132979878297,0.05776482385485739,0.0014438094412902644,-0.7430112842311993,0.6391709336168564,2.109815739287353,0.5171992439946616,-0.45374514473179794,-0.009515991129384282,0.058274337194893555,2.1536134399978355,-2.808777883552798,-0.7332895834997827,-0.01912675364594804,-0.0005247511927173792
0.5,0.19086406320488006,0.8841229273756026,-1.2701694693527623,0.12081977587512105,0.026453183972052468,0.0004988980627648098,0.4222918762377731,-1.8967548068325994,1.1483099777969197,0.41947816357262896,0.054410171401708396,0.001395133750204869,-0.7440809643820423,0.7604308891935241,2.073397756113761,0.49553583378680166,-0.4478291661982112,-0.010330289790218716,0.06196014370336465,2.334532148644457,-2.786495446723708,-0.7332825499280189,-0.01875278220244201,-0.000523364446095258
0.51,0.19501333447493444,0.8652318197874123,-1.2584810974361749,0.12506517355546978,0.026964156081188465,0.0005123503128606646,0.41492712700543644,-1.8891107588190292,1.1688371916587434,0.42453976803487337,0.051097210913599894,0.0013452250095854746,-0.7432994755543417,0.8762419628212987,2.033374400478837,0.47286283310870303,-0.43662754051289965,-0.010878416682997535,0.06495002612369634,2.5080198318502918,-2.7674014707996917,-0.7339562504080154,-0.018344677596372462,-0.0005219356270391369
0.52,0.19908908419727483,0.8464286776910115,-1.246591408289232,0.12935905673670878,0.027442804775092387,0.0005252991769176871,0.4075749722340401,-1.8803142096400773,1.1889689146942857,0.4293883181239003,0.04786486939039209,0.0012948864057022453,-0.7411336452759718,0.9866221359237116,1.9896887211576444,0.44918436814044327,-0.42114090896703904,-0.011193025757725225,0.06724988860880432,2.674026504512304,-2.7514747351632787,-0.7352952863873861,-0.017906592385945764,-0.0005204965554259443
0.53,0.20309157194844735,0.827724483879125,-1.2345047234510438,0.13369919704028022,0.027890254657471143,0.000537747293420398,0.40024877511725054,-1.8704193811886478,1.2086684838188275,0.43401403035714275,0.04474498823787569,0.0012448116502710867,-0.7379767625639757,1.091602269268285,1.9422981424217534,0.4245099225210911,-0.4023440573296909,-0.011308661165569833,0.06887337757118175,2.832531139500018,-2.7386840498447738,-0.7372821382105803,-0.017442425368737736,-0.0005190742870982142
0.54,0.2070211499403417,0.8091296820363135,-1.2222257352410149,0.1380832688585486,0.028307878485832407,0.0005497030829306707,0.39295779918943613,-1.8594801842811495,1.2278988210028856,0.4384071818268397,0.04176238283612635,0.0011955789510272683,-0.7341511646963258,1.1912256927282732,1.8911747553834508,0.3988542192502642,-0.3811466393767893,-0.011259545905993963,0.06984084785814901,2.983540837900173,-2.7289886179071763,-0.7398972980065973,-0.016955846802313712,-0.000517691633719225
0.55,0.21087822992243507,0.790654181097789,-1.2097595094418956,0.14250885046307393,0.028697230730278054,0.0005611796025429956,0.38570799820933577,-1.8475500938524532,1.2466225799119237,0.4425581604525341,0.03893522444456476,0.001147651961232494,-0.7299134002048558,1.285547745069245,1.8363055434988298,0.37223710154009026,-0.35836675266206586,-0.011078008872878069,0.07017840824558517,3.1270898651209613,-2.7223384311314356,-0.7431194105141914,-0.016450320561125515,-0.0005163676973735203
0.56,0.21466325730231922,0.7723073608092502,-1.197111486494928,0.1469734256087534,0.029059987207934235,0.0005721934622789835,0.37850273798841516,-1.8346820288538728,1.2648022946967574,0.4464575145679458,0.03627564776561794,0.0011013859735987876,-0.7254610331209815,1.3746352575666618,1.7776925329995987,0.3446834128816674,-0.33471587729381413,-0.010793474382003052,0.06991703814930121,3.263238551315202,-2.7186746983670123,-0.7469254210115256,-0.0159291220721709,-0.0005151183812385295
0.5700000000000001,0.21837669163593607,0.7540980784353281,-1.184287481193006,0.15147438562608861,0.02939789216294679,0.0005827638391369996,0.3713434333616856,-1.820928237392213,1.2824005301921966,0.4500960017335223,0.03379049550125538,0.0010570376858016124,-0.7209402979662034,1.458565980798216,1.7153528619024971,0.31622287366761803,-0.3107931764538464,-0.010431911817733681,0.06909176617460444,3.392072058332664,-2.7179303051492445,-0.751290729359307,-0.015395351664242694,-0.0005139568510945019
0.58,0.22201899256876012,0.7360346765587741,-1.1712936808657974,0.15600903199257748,0.029712713412302118,0.0005929116097811361,0.36423009328240685,-1.8063401876553973,1.299380032720851,0.4534646366488865,0.031482124935532825,0.0010147770644136508,-0.7164539806296666,1.5374279581436592,1.6493187639072526,0.28688995002466733,-0.2870869983361367,-0.010015637800876217,0.06774090194437393,3.5136990190343482,-2.7200303024731456,-0.7561893490435887,-0.014851943535779153,-0.0005128939340513985
0.59,0.22559061031120514,0.7181249919074,-1.158136642059163,0.16057457937268663,0.03000620558903914,0.0006026586108136242,0.3571617742445013,-1.7909684651374158,1.3157038806634491,0.45655473801091434,0.029349217673702313,0.0009747001032488115,-0.7120690646920721,1.611318852402078,1.5796374657953307,0.25672370990196214,-0.26398150921161845,-0.009563371222206803,0.06590531462035966,3.628250058071178,-2.7248924219956288,-0.7615940700174961,-0.014301670912977111,-0.0005119384500766197
0.6,0.22909197978278628,0.7003763651412527,-1.1448232857197311,0.16516815911399585,0.030280081086604398,0.0006120270264022771,0.35013694715811433,-1.7748626766147297,1.3313356339431783,0.45935797413092105,0.027387549756525645,0.000936841558865283,-0.7078238311750402,1.6803452336732032,1.5063709988259948,0.22576766169110396,-0.24176663106489082,-0.009090456127493693,0.06362775393056817,3.7358762060218895,-2.732427614435844,-0.7674766240883075,-0.013747148167400521,-0.000511097478601309
0.61,0.23252351764097978,0.6827956515287666,-1.131360890903975,0.16978682318493987,0.030535988025657042,0.0006210388965613312,0.34315378581934913,-1.7580713612485999,1.3462394815756247,0.46186640709440135,0.025590693905264323,0.0009011870159054194,-0.7037342241979483,1.744621837480093,1.4295959261149034,0.19406957142516124,-0.22064977687936882,-0.008609184467102363,0.06095221183086576,3.836747221051039,-2.742540607560888,-0.7738078515740611,-0.013190830730498228,-0.0005103765668678867
0.62,0.23588562150751424,0.6653892324377492,-1.1177570870394322,0.17442754853716827,0.030775494403903012,0.0006297157352446418,0.33621038665344577,-1.7406419091017438,1.360380386454277,0.4640725352228405,0.023950637824596846,0.0008676838683310651,-0.6997993929925188,1.8042708022700484,1.349402989120613,0.16168125569888758,-0.2007682148398432,-0.008129167281919644,0.05792332485458834,3.9310498339854014,-2.7551304798762164,-0.780557867957963,-0.012635013619342704,-0.0005097798891266771
0.63,0.23917867080624478,0.6481630275650527,-1.1040198447737217,0.1790872418729841,0.03100007752417626,0.0006380782451568121,0.3293049298730535,-1.7226204872696385,1.373724226571048,0.46596933358158454,0.022458312027324828,0.0008362509912170263,-0.6960063931479114,1.8594208951323403,1.2658966772197,0.12865834864910308,-0.18220121155509683,-0.00765771753373394,0.05458581859235278,4.018985933942815,-2.7700912459766003,-0.7876962292954749,-0.01208182930636392,-0.0005093103667258113
0.64,0.24240302872547523,0.6311225078276415,-1.0901574654546289,0.1837627447956971,0.031211117800561412,0.0006461461153672279,0.32243579192304617,-1.7040519737411273,1.38623793190928,0.4675502922712992,0.021104027638515335,0.0008067870210415834,-0.6923340799221296,1.9102067339832938,1.179194724988518,0.09506004251310962,-0.16498138217546243,-0.00720021988550815,0.05098399656285285,4.100770712422071,-2.787312449441191,-0.7951920951741399,-0.01153324555201954,-0.0005089697589876134
0.65,0.2455590449090252,0.6142727088374155,-1.076178569291717,0.18845083931812676,0.031409896094460876,0.0006539378880118588,0.31560161835499534,-1.6849798990226008,1.3978896162912036,0.4688094522429646,0.019877829389946183,0.0007791772644630784,-0.6887562579794965,1.9567680137214145,1.0894275422841084,0.06094880234932809,-0.14910490255899456,-0.006760472186607927,0.047161276026898326,4.17663078412215,-2.806679759162221,-0.8030143880867857,-0.010991063692636234,-0.0005087587338977728
0.66,0.24864705856197794,0.5976182448825502,-1.0620920822566038,0.19314825370199454,0.031597593813717594,0.0006614708812404971,0.30880136529527447,-1.6654463954865277,1.4086487035113167,0.4697414383867774,0.01876977192567144,0.0007532993228638338,-0.6852441691568396,1.9992487430380868,0.9967375825738962,0.026390056404911988,-0.13454041441903652,-0.006340990470073343,0.043159773146876315,4.246802302749523,-2.8280755650688008,-0.8111319481519091,-0.010456917749535593,-0.0005086769263541941
0.67,0.2516674017278706,0.5811633233391574,-1.047907221785199,0.1978516685986195,0.03177529510392137,0.0006687611568365942,0.3020343165892645,-1.6454921543392773,1.4184860471404848,0.4703414896624957,0.01777012902037764,0.000729027559609711,-0.6817684066398012,2.037796497742079,0.901278655235576,-0.008548135647729715,-0.1212365828489902,-0.005943274275537341,0.03901993940649827,4.311529089736795,-2.8513795693340085,-0.8195136821983038,-0.009932274608614983,-0.0005087229902616811
0.68,0.2546204025540762,0.5649117594387055,-1.0336334813507797,0.20255772345923415,0.031943990561395345,0.0006758235223952497,0.2953000826205597,-1.6251563900451926,1.4273740434419409,0.47060548606146424,0.016869545747398077,0.0007062365558655429,-0.6783003434846183,2.0725616956547315,0.8032151877605749,-0.04379543382790452,-0.10912835363578322,-0.005568032495024029,0.03478025048755419,4.37106079317379,-2.876469369325275,-0.82812870632224,-0.009418435416652306,-0.000508894649282028
0.6900000000000001,0.2575063884118909,0.5488669913187697,-1.0192806139817885,0.20726302318140843,0.03210458199490603,0.0006826715594442204,0.2885985857814687,-1.6044768119935793,1.435286736899126,0.4705299722174283,0.01605914335106889,0.0006848037048970752,-0.6748131583379662,2.1036968973793884,0.7027214439509235,-0.07927958512336808,-0.09814201314448068,-0.0052153720403323445,0.030476947949516355,4.425651093379927,-2.9032210287668763,-0.836946481122922,-0.008916538253913942,-0.0005091887496660046
0.7000000000000001,0.2603256887783412,0.5330320952872468,-1.0048586148026295,0.21196414495654117,0.03225788785333723,0.0006893176703347106,0.2819300366450346,-1.5834896031522898,1.4421999179159017,0.4701121775132745,0.01533058584311977,0.0006646110890490268,-0.6712825334524956,2.131356136547555,0.5999807043205005,-0.11492680346739226,-0.08819918389531911,-0.004884952846295185,0.026143833158173004,4.475555970457064,-2.9315096338217743,-0.845936938923712,-0.008427562072501147,-0.0005096013173690566
0.71,0.2630786378190961,0.5174098012330924,-0.9903777026795128,0.21665764528217,0.03240464901691005,0.0006957731380527277,0.27529490407548285,-1.562229405415439,1.4480912123116707,0.4693500325628813,0.014676116357281666,0.0006455467718017053,-0.6676870910883083,2.1556942825035543,0.4951844149827713,-0.15066215878361522,-0.07921990104613219,-0.0045761132505730065,0.02181211202850446,4.5210320478870285,-2.9612098310619115,-0.8550706023912379,-0.00795233183544075,-0.0005101276206181159
0.72,0.2657655766372635,0.5020025081198627,-0.9758483010565445,0.2213400671019765,0.032545534718982146,0.0007020481942766375,0.26869388181674586,-1.5407293113229699,1.4529401622968283,0.4682421819806517,0.014088570207209179,0.0006275056223909821,-0.6640086251045214,2.1768664377999984,0.3885313113421329,-0.18640997139874926,-0.07112491451274744,-0.004287969911633632,0.017510288335499752,4.562335024806982,-2.9921963445762025,-0.8643186940704424,-0.007491524751310475,-0.0005107622382607912
0.73,0.26838685517239047,0.48681229950180455,-0.9612810180697713,0.2260079470358286,0.032681148423992494,0.00070815209202062,0.26212785351269413,-1.5190208618058147,1.456728298677327,0.46678799338520954,0.013561370501034847,0.0006103897743982646,-0.6602321756075755,2.1950273723409737,0.28022652289429395,-0.2220942081250432,-0.06383735291473353,-0.004019496246341167,0.0132641026398271,4.59971820803931,-3.0243444697586743,-0.8736532364595272,-0.007045677471367027,-0.000511499133583057
0.74,0.2709428337486753,0.47184095900588685,-0.9466866260287667,0.23065782266200505,0.032812033535351635,0.0007140931800592796,0.2555978576284823,-1.4971340495917713,1.459439204100458,0.4649875626176444,0.013088511135914065,0.0005941088038659602,-0.6563459863035777,2.2103309955193966,0.17048066538251438,-0.257638876374346,-0.05728387233760551,-0.0037695830422770638,0.009096513294913719,4.633431153299173,-3.05753054162145,-0.8830471423532449,-0.0066151940988072155,-0.0005123317328103972
0.75,0.2734338842821586,0.45708998572695186,-0.9320760403565993,0.2352862398138862,0.03293867884600089,0.0007198789770361256,0.249105053348329,-1.4750973278934982,1.461058567216749,0.4628417151881141,0.012664531064925526,0.0005785796976846019,-0.6523413768866959,2.2229298672473976,0.059508926448487376,-0.2929684127762291,-0.05139539753184075,-0.003537084489226114,0.005027715558442621,4.6637184232821,-3.091632375784577,-0.8924742952849072,-0.006200354851091115,-0.0005132530071883317
0.76,0.2758603911642466,0.44256060948704357,-0.9174602980796532,0.23988975985385755,0.03306152367514171,0.0007255162437331203,0.24265068820879998,-1.4529376239908285,1.461574227694604,0.4603520039971371,0.012284482914081267,0.0005637266696994706,-0.6482125564460904,2.232974748369797,-0.052469849236512545,-0.3280080629297359,-0.04610754732581246,-0.0033208524367124986,0.0010751945258867107,4.690818468575254,-3.126529680603149,-0.9019096199956347,-0.005801325214486653,-0.0005142555573476774
0.77,0.27822275184400985,0.42825380591389844,-0.902850535958808,0.24446496688794891,0.03318096265847091,0.0007310110524370966,0.23623606797632574,-1.430680357314513,1.460976212084515,0.4575207034091356,0.011943898332920512,0.000549480870397624,-0.6439563984712181,2.2406141905770625,-0.16523406958195475,-0.36268424910066865,-0.04136082081700945,-0.003119761264334664,-0.0027461925690712916,4.7149626355677166,-3.1621044391988318,-0.9113291429527899,-0.0054181654336379,-0.0005153316985742687
0.78,0.2805213771348325,0.4141703112975266,-0.8882579683529302,0.24900847488580377,0.03329735017730582,0.0007363688526988016,0.22986252908226618,-1.4083494616371834,1.4592567605877826,0.4543507997854868,0.011638751883490657,0.0005357800261704952,-0.6395721935136809,2.2459941655948286,-0.2785602939044409,-0.3969249228906395,-0.03710060697598436,-0.00293272535501074,-0.006424109193031782,4.736374303786017,-3.198241260464408,-0.9207100430272948,-0.0050508401866967,-0.000516473545600359
0.79,0.2827566912726181,0.40031063718773224,-0.8736938649045279,0.2535169346719258,0.033411004425302294,0.0007415945330580445,0.22353141377855817,-1.3859674109794373,1.4564103448402315,0.4508459786122021,0.011365424799647575,0.0005225680359242847,-0.6350613918319112,2.2492577331176418,-0.39222411573966665,-0.43065990015275557,-0.03327706797818655,-0.0027587108122237858,-0.009948611938422003,4.75526815337802,-3.2348276984035658,-0.9300306925208867,-0.004699228307265627,-0.0005176730955958112
0.8,0.2849291317532518,0.3866750846992905,-0.8591695281357884,0.25798704075575657,0.03352221112099422,0.0007466924785187308,0.21724404806336978,-1.3635552488441718,1.452433676873954,0.44701060838307743,0.011120669569192455,0.0005097945460686314,-0.6304273453029149,2.2505447466774933,-0.506001024751473,-0.4638211756771148,-0.029844935978860537,-0.002596742755408693,-0.01331200683400345,4.771849561836902,-3.271754539451372,-0.9392706888086574,-0.004363132427141649,-0.0005189223081444342
0.81,0.2870391489766722,0.37326375849528737,-0.8446962710410962,0.26241553796998346,0.03363122688091664,0.0007516666237135126,0.2110017223420405,-1.3411326204003151,1.4473257094692213,0.44284972142269136,0.010901575992242321,0.0004974145194781781,-0.625675055432686,2.2499915963884742,-0.6196672432204506,-0.4963432154626839,-0.02676325412632119,-0.0024459092649264935,-0.016508693612016217,4.786314127520674,-3.3089160576913197,-0.9484108769290127,-0.004042288427850036,-0.0005202131811298289
0.8200000000000001,0.2890872057239511,0.3600765804228111,-0.8302853947595562,0.2667992278885292,0.03373828227229232,0.0007565205018105634,0.20480567472788908,-1.3187178072476293,1.4410876281540035,0.43836899185457645,0.01070553913756846,0.00048538780970507983,-0.6208109323404222,2.2477309872903657,-0.7330005330031428,-0.5281632246748207,-0.02399508524862831,-0.002305362833114055,-0.019535001717915463,4.798847316102713,-3.3462102381406647,-0.9574333635121157,-0.0037363746035900653,-0.0005215378216138639
0.8300000000000001,0.2910737764924036,0.3471133027787413,-0.8159481664080588,0.27113497499791217,0.03384358456671774,0.0007612572892939129,0.19865707684525333,-1.2963277644069766,1.4337228351497437,0.4335747109382946,0.010530229442541917,0.0004736787483349512,-0.6158425680464605,2.24389175182297,-0.845780969279976,-0.5592213896980054,-0.0215072056767536,-0.0021743199902816424,-0.02238902151925349,4.809624224803115,-3.383538968514997,-0.9663215224887393,-0.0034450204529766376,-0.0005228885109596358
0.84,0.292999346712097,0.3343735211867906,-0.80169579715207,0.27541971259805975,0.03394732021743013,0.0007658798468016703,0.19255702196933602,-1.2739781591950692,1.4252369255988828,0.42847376001475723,0.010373565071239176,0.0004622557507757323,-0.6107785261862498,2.238598694801587,-0.9577916778596154,-0.5894610930057627,-0.019269796901088543,-0.0020520596368008015,-0.025070433811830488,4.8188094581139636,-3.420808200104582,-0.975059993064226,-0.0031678150314622066,-0.0005242577636215954
0.85,0.2948644118653049,0.32185668707020104,-0.7875394205876506,0.27965044841117864,0.034049657082930486,0.0007703907562394408,0.18650651532078907,-1.2516834116589568,1.41563765644194,0.4230735813118914,0.010233686550035074,0.0004510909437770498,-0.6056281493391337,2.231972469132107,-1.0688195332668078,-0.6188290998829964,-0.01725614401026171,-0.0019379204776617254,-0.027580340346942046,4.826557107755938,-3.457928078597433,-0.9836346704769745,-0.0029043148102602706,-0.0005256383791925241
0.86,0.29666947652855336,0.3095621197075705,-0.7734900715042543,0.283824269879905,0.03415074641925985,0.0007747923544045525,0.18050646632484596,-1.2294567362630513,1.4049349083396327,0.4173821468726347,0.010108933632936428,0.0004401598165111773,-0.600401384447989,2.2241294803997422,-1.178655815303478,-0.6472757163608622,-0.015442346960084993,-0.001831297881274535,-0.029921097724876285,4.833010828795795,-3.494813045866819,-0.9920326900877443,-0.0026540510007415086,-0.0005270234874555803
0.87,0.2984150533549845,0.29748901786216997,-0.7595586650936692,0.28793834913864624,0.034250724662295756,0.0007790867633639889,0.17455768264311622,-1.2073101845400576,1.3931406410585092,0.4114079258741269,0.009997824303590514,0.0004294408959436326,-0.5951086262695164,2.2151818183932437,-1.2870968222371817,-0.6747549180332997,-0.013807048510737385,-0.0017316403839761074,-0.03209615662652728,4.8383040032195765,-3.531381913903229,-1.000242405365393,-0.0024165363154766842,-0.0005284065863364441
0.88,0.3001016620128768,0.2856364709778054,-0.7457559766661004,0.2919899476447559,0.03434971502021705,0.0007832759178286412,0.1686608657892297,-1.1852546884364545,1.3802688427568826,0.40515985061096244,0.009899035792129434,0.0004189154464652279,-0.5897605783987727,2.205237213584262,-1.3939444392233837,-0.7012244497445028,-0.012331181015811356,-0.0016384460244399102,-0.034109907995084655,4.842559981794806,-3.5675579122124947,-1.0082533603468065,-0.0021912711482511868,-0.0005297815727834423
0.89,0.3017298280943374,0.274003469936777,-0.7320926219298842,0.2959764204589197,0.0344478288949031,0.0007873615897606793,0.16281660814605983,-1.1633001041028446,1.3663354736216105,0.39864728141638084,0.009811387468604688,0.00040856719320381756,-0.5843681311258873,2.194399016575099,-1.4990066610126365,-0.7266458964257652,-0.01099773303359853,-0.0015512586309676668,-0.03596753743957047,4.845892394764548,-3.6032687101227805,-1.0160562571542258,-0.001977749165412911,-0.0005311427667209959
0.9,0.30330008200644987,0.26258891737778495,-0.7185790378867287,0.299895220166855,0.03454516714957727,0.0007913454104415158,0.15702539121124642,-1.1414552558992066,1.3513584043155502,0.3918799707935312,0.009733825467416676,0.0003983820680836448,-0.5789422551836803,2.1827661985634004,-1.6020980684117754,-0.7509847256679878,-0.009791535862430388,-0.0014696641544894584,-0.03767488881627044,4.848405521792411,-3.6384464155435996,-1.0236429191524834,-0.0017754623098133698,-0.0005324849283231483
0.91,0.30481295785553375,0.25139163757374067,-0.7052254643897228,0.30374390043709815,0.034641821238539934,0.0007952288902162678,0.15128758490838948,-1.1197279804044293,1.3353573497005908,0.38486802702431433,0.009665408896266698,0.00038834797747520336,-0.5734939103131437,2.1704333709644725,-1.7030402583734452,-0.7742103028768117,-0.008699069499821405,-0.001393287114953845,-0.03923833765617909,4.850194711613607,-3.6730275518002906,-1.0310062503223947,-0.001583905226367163,-0.0005338032689390436
0.92,0.3062689923336636,0.24041038587136157,-0.692041926406701,0.30752011921225963,0.03473787421340756,0.0007990134361177568,0.14560344781298498,-1.0981251702379096,1.3183537983021794,0.3776218775161494,0.009605297486762058,0.00037845459014889527,-0.5680339674937301,2.157490822512987,-1.8016622279582775,-0.7962958801279596,-0.00770828712573164,-0.0013217871956235916,-0.040664674848482,4.8513468420383825,-3.706953014227811,-1.0381401914155006,-0.0014025791249200254,-0.0005350934560713087
0.93,0.3076687236152082,0.22964385769618578,-0.6790382170269155,0.3112216415336323,0.03483340161891132,0.0008027003675598178,0.13997312815445698,-1.0766528175175787,1.300370937978558,0.37015223213726434,0.00955274055037573,0.00036869314420610074,-0.5625731436448067,2.144024572514533,-1.8978007127634076,-0.8172185600747159,-0.006808456963139278,-0.0012548560257837904,-0.04196100076276835,4.851940811300674,-3.740168008248399,-1.0450396734403902,-0.0012309951017412783,-0.0005363516128616039
0.9400000000000001,0.30901269026988976,0.21909069712826756,-0.6662238812443981,0.314846342001423,0.03492847229002995,0.0008062909302761969,0.1343966654681566,-1.055316056791822,1.2814335782517368,0.362470046779065,0.00950706711186306,0.00035905627163790484,-0.557121947592582,2.1301164396245507,-1.9913004807285422,-0.8369592364857219,-0.00599002023417905,-0.00119221415546239,-0.0431346297960502,4.852048052267729,-3.772621970677783,-1.0517005690133217,-0.0010686769456430677,-0.0005375743125753488
0.9500000000000001,0.3103014301977267,0.2087495050553795,-0.6536082005469195,0.31839220687512154,0.03502314906104632,0.0008097863086683111,0.1288739927836982,-1.0341192072888055,1.261568069747862,0.3545864873698572,0.009467677101637014,0.00034953783921142406,-0.5516906361028775,2.1158441271352295,-2.0820145825316945,-0.8555025131846428,-0.005244463876512333,-0.0011336082354457822,-0.04419300516381983,4.8517330618075505,-3.804268476000086,-1.0581196420885222,-0.0009151634586648668,-0.0005387585685987752
0.96,0.31153547959021005,0.1986188469122112,-0.6412001783350965,0.32185733582060067,0.035117489396030224,0.0008131876367125879,0.12340493924833201,-1.0130658143168312,1.2408022211823064,0.3465128945479098,0.00943403349839084,0.00034013280442767865,-0.5462891787891067,2.1012813298772173,-2.1698045600884033,-0.8728366033565544,-0.0045642066877247395,-0.001078808405308218,-0.04514362361534806,4.851053938933326,-3.8350651293073597,-1.0642944965732513,-0.0007700103248938137,-0.000539901820460816
0.97,0.3127153719211721,0.1886972600162271,-0.6290085261920011,0.32523994331243483,0.035211545949260285,0.000816496007566198,0.11798923309620549,-0.992158689598411,1.2191652143095348,0.33826074918341503,0.00940565532300642,0.00033083708536101167,-0.5409272306813717,2.0864978800994916,-2.2545406150583434,-0.8889532113658483,-0.00394249760838232,-0.0010276058760286255,-0.04599396963834437,4.850062928220497,-3.8649734474609683,-1.0702235243518066,-0.0006327915656879853,-0.0005410019163493968
0.98,0.3138416369700389,0.1789832605147476,-0.6170416510196123,0.32853835970161394,0.035305367063202094,0.0008197124819990853,0.11262650488667891,-0.9713999501479507,1.1966875172388856,0.3298416389179097,0.009382111394181056,0.00032164744328873134,-0.5356141110643899,2.0715599922130936,-2.336101740062632,-0.9038473994951888,-0.0033733249191180703,-0.0009798107090162045,-0.04675145861689691,4.848806973463287,-3.89395872957915,-1.075905853377752,-0.0005031006305192857,-0.0005420570924216733
0.99,0.3149147998795277,0.16947534996767433,-0.6053076430546983,0.33175103196024863,0.035398997210852,0.0008228380957702843,0.10731629094887958,-0.950791054707328,1.1734007964914024,0.3212672258634698,0.00936301476499018,0.00031256137711990436,-0.5303587863181484,2.0565308416382773,-2.4143758180095602,-0.917517442608144,-0.002851335196612695,-0.0009352497742824428,-0.047423388280963534,4.847328319333791,-3.921989916181477,-1.0813412971470981,-0.00038055121363981723,-0.0005430659485138363
