tonegas/nnodely-applications/joint_friction_estimation/dataset/validation/mpc_mujoco_episode_6.csv
time,q1,q2,q3,q4,q5,q6,dq1,dq2,dq3,dq4,dq5,dq6,ddq1,ddq2,ddq3,ddq4,ddq5,ddq6,tau1,tau2,tau3,tau4,tau5,tau6
0.0,0.0,1.57,-1.57,0.0,0.0,0.0,0.0,0.0,0.0,0.0,0.0,0.0,13.64596426643887,-6.6918561941578,3.176504076595359,1.6771653524462344,2.0470666323901554,-5.4682013175266775e-06,1.9032529577407633,-7.340222290835277,-5.238784550732715,-1.1411415230091813,0.1718576251646901,0.0015725302507477235
0.01,0.0013576821488724255,1.569334143825518,-1.569685468664965,0.0001547899666797604,0.0001714357384778083,1.8392076357459431e-06,0.13576821488724256,-0.0665856174482158,0.031453133503511504,0.01547899666797604,0.01714357384778083,0.0001839207635745943,13.463225259973347,-6.35384504083499,3.192844469423923,1.5520973618778484,1.7147360184714557,0.018429419393100943,1.881251682097884,-7.173990825682201,-5.177003601780959,-1.1281185454804694,0.17014882029228742,0.0015591988317871278
0.02,0.00405379132847007,1.5680361962660687,-1.5690554051720913,0.0004545360705042592,0.0004935680745549065,5.593286071037351e-06,0.26961091795976444,-0.12979475594493123,0.06300634928737893,0.02997461038244988,0.032213233607709814,0.0003754078435291408,13.262801073269125,-5.995172333152403,3.206629473759355,1.4538717028297263,1.508719974493438,0.019294224959040207,1.849388928430545,-6.996276309650688,-5.11002095823758,-1.11381307892821,0.16782728785100234,0.001540084295416192
0.03,0.008067739618892955,1.566141961722439,-1.5681088719742575,0.0008914623090964971,0.0009532952752709415,1.1141817153217627e-05,0.4013948290422885,-0.18942345436297742,0.09465331978337473,0.04369262385922379,0.045972720071603496,0.0005548531082180275,13.049002797756733,-5.617465497415494,3.2194923734181513,1.37616932711716,1.3804020406480788,0.018251928039941134,1.8087486584157841,-6.808015255299916,-5.038403343764601,-1.0983633271932474,0.1649525963954465,0.0015156131739842093
0.04,0.013377866829614872,1.5636891269949411,-1.5668448774556465,0.0014593708374599059,0.0015422228481578753,1.838217091098704e-05,0.5310127210721916,-0.24528347274978118,0.12639945186110668,0.05679085283634089,0.058892757288693365,0.0007240353757769414,12.824467278205864,-5.222375708891113,3.232529454970262,1.3141476296265173,1.3003166896660403,0.01742751746255955,1.7604855508325714,-6.610197548019071,-4.962752467075811,-1.0819155911056269,0.16158734026974844,0.0014862025531277411
0.05,0.019961601773878814,1.5607171004462599,-1.5652623013516107,0.00215327308132413,0.0022548807057437012,2.7244718564696682e-05,0.6583734944263941,-0.29720265486813136,0.15825761040358444,0.0693902243864224,0.07126578575858261,0.0008862547653709641,12.59084213916997,-4.811607534767218,3.246402019718184,1.2640750548186364,1.2504704164269995,0.0169600247964663,1.7058009536252936,-6.403879303158414,-4.8837034336283915,-1.0646235616752902,0.15779638143550992,0.0014522652225172925
0.06,0.02779556544064013,1.557266844896095,-1.563359855401425,0.0029691045203612113,0.003087631612359356,3.7684054676039284e-05,0.7833963666761318,-0.3450255550164945,0.1902445950185836,0.08158314390370813,0.08327509066156545,0.0010439336111342603,12.349193124453976,-4.3869370177281475,3.2614142616411597,1.2230591147890655,1.2197808816136657,0.016748277524504473,1.6459198678764106,-6.1901910559364515,-4.801921388426695,-1.0466471970858515,0.15364617612328116,0.0014142123559295855
0.07,0.03685564047774387,1.5533807026646378,-1.561136073399899,0.0039035025521321452,0.004037996860210317,4.96706128368714e-05,0.9060075037103736,-0.38861422314571875,0.22237820015260115,0.0934398031770934,0.09503652478509615,0.001198655816083212,12.100246063910744,-3.9502216040923006,3.2775740655130083,1.1888402491347196,1.2013349338366197,0.016694298233348448,1.5820687987506554,-5.970342263949741,-4.718096876514572,-1.0281513007691694,0.149204118748969,0.0013724544204395017
0.08,0.04711702140291864,1.5491022119388658,-1.558589326048363,0.004953631784602585,0.005104233851827474,6.318482566379391e-05,1.0261380925174768,-0.42784907257720173,0.25467473515359595,0.105012923247044,0.10662369916171564,0.0013514212826922513,11.844529971631246,-3.5034039399493655,3.294641407368473,1.1596354419147903,1.1907337855424842,0.01672454407033186,1.51545457415041,-5.745622655884954,-4.632940244216505,-1.0093038825159137,0.14453786850908423,0.001327400698414435
0.09,0.058554253972167014,1.544475914208169,-1.555717856894382,0.006117044892084312,0.006285065703233783,7.821317548822376e-05,1.1437232569248372,-0.46262977306966874,0.28714691539809717,0.11634131074817267,0.1180831851406309,0.0015028349824429846,11.582460897999297,-3.048510818494167,3.312167842012655,1.1340199676922804,1.1850929133897736,0.01678322085264483,1.447244379948625,-5.517400699080125,-4.547175307597633,-0.9902743636875465,0.13971464427622407,0.0012794576832453385
0.1,0.07114126854410006,1.5395471529709248,-1.5525198362741097,0.007391570081252045,0.007579502480744774,9.474543660366783e-05,1.2587014571933048,-0.49287612372442513,0.31980206202722966,0.12745251891677334,0.12944367775109905,0.0016532261115444061,11.314390247757999,-2.5876481424726534,3.329529724319232,1.1108384287928588,1.1824375688777167,0.016825253418543795,1.3785473333158451,-5.287119316294447,-4.461532458109553,-0.9712316753983701,0.13480048620110793,0.001229026556048019
0.11,0.0848514101261512,1.534361864289797,-1.5489934305941704,0.008775218454078354,0.00898671757494296,0.0001127726395357101,1.3710141582051139,-0.5185288681127864,0.35264056799392607,0.13836483728263094,0.14072150941981862,0.0018027202932042277,11.040631813798235,-2.122992523986208,3.3459571656855736,1.0891383042573066,1.181337975399643,0.01681167059399158,1.3103979364169984,-5.0562889159654825,-4.376741342763943,-0.952342291427866,0.12985949080165082,0.0011764999324674506
0.12,0.09965746650408594,1.5289663600928796,-1.545136884560999,0.010266106278860173,0.010505957198510541,0.0001322854680028421,1.4806056377934738,-0.5395504196917367,0.38565460331714313,0.1490887824781819,0.15192396235675823,0.0019512828467132006,10.761476124538369,-1.65678000512366,3.3605602172673428,1.068120800483662,1.180690227731418,0.016706920936943703,1.2437417353734888,-4.8264777842528,-4.293523237961335,-0.933768233485251,0.12495303193110562,0.0011222580700699363
0.13,0.11553169509849875,1.5234071053928175,-1.5409486141243878,0.011862388508313733,0.012136469802126317,0.00015327291617872634,1.5874228594412818,-0.5559254700062067,0.4188270436611222,0.15962822294535592,0.16305126036157766,0.002098744817588423,10.477197309935873,-1.19129230539391,3.3723533649682365,1.0471049938851058,1.179586182243554,0.01647749533393217,1.1794234627645475,-4.599299905319765,-4.212583226883622,-0.9156650840573036,0.12013898374413232,0.0010666647370935363
0.14,0.1324458487554612,1.517730490833488,-1.5364273079806114,0.013562200906144125,0.013877447582832408,0.0001757211073629672,1.6914153656962434,-0.5676614559329408,0.45213061437763086,0.1699812397830392,0.17409777807060905,0.0022448191184240842,10.188055639997584,-0.728840961816979,3.380279094290944,1.02550217182392,1.1772380646901226,0.016091425995590214,1.1181778728139922,-4.376400318552382,-4.134602287085437,-0.8981800407263872,0.11547096406792341,0.0010100629550355024
0.15,0.15037120043800262,1.5119826021769809,-1.531572035504959,0.015363608929944764,0.015727975566602968,0.00019961222149462426,1.7925351682541413,-0.5747888656507242,0.4855272475652648,0.18014080238006386,0.1850527983770558,0.002389111413165706,9.894297629376625,-0.2717497112502779,3.3832310184754255,1.002797974992946,1.1729370168641111,0.015518386845515764,1.060623392037068,-4.159438181157793,-4.060229395926388,-0.8814500451563143,0.11099761757682675,0.0009527708342790895
0.16,0.1692785666624792,1.5062089885135244,-1.5263823589751517,0.017264562121410903,0.017686985796225976,0.00022492350852229526,1.8907366224476585,-0.5773613663456414,0.5189676529807193,0.19009531914661387,0.19590102296230094,0.0025311287027671007,9.596154815747523,0.1776645368895875,3.380076847694654,0.9785404737055572,1.1660328952996082,0.014730214668492891,1.0072586114667068,-3.9500677761632175,-3.9900737655331264,-0.8656000196222347,0.10676195805569819,0.0008950777208861464
0.17,0.18913832946906384,1.5004544311133878,-1.5208584479236078,0.019262853214539154,0.01975321543589759,0.00025162638376608376,1.9859762806584622,-0.575455740013644,0.5523911051543824,0.19982910931282527,0.20662296396716132,0.0026702875243788497,9.293841696201657,0.6171117732186618,3.3696812998567696,0.9523327122992669,1.1559274621148248,0.013701721771291808,0.958461532035214,-3.749917788423088,-3.924697326621427,-0.8507412440977198,0.10280078653590324,0.0008372408443979507
0.18,0.20992045668325945,1.4947627149406766,-1.5150011934325125,0.021356081518907534,0.021925168406406504,0.0002796856137614591,2.0782127214195607,-0.5691716172711142,0.5857254491095332,0.209322830436838,0.2171952970508915,0.0028059229995375337,8.987552624647503,1.044349605557445,3.350928907834618,0.9238285618129236,1.1420759605669133,0.012411695244157528,0.9144913382470041,-3.560569262001092,-3.8646075916375797,-0.8369699074866106,0.09914419615220268,0.0007794825864147117
0.19,0.2315945201576461,1.4891764049104574,-1.50881232017346,0.02354162039120317,0.024201080660612266,0.00030905860875965073,2.1674063474386647,-0.5586310030219173,0.6188873259052485,0.21855388722956356,0.2275912254205764,0.002937299499819164,8.677455784259426,1.4572041105967555,3.322746555082374,0.8927309577197029,1.1239937325309626,0.01084398688589605,0.875492226702519,-3.3835327709050915,-3.810251050395533,-0.8243658692616452,0.09581515553483089,0.0007219882589168707
0.2,0.25412971141857027,1.4837366289816847,-1.5022944940035452,0.02581658879159417,0.02657888949307963,0.0003396948421825165,2.25351912609242,-0.5439775928772707,0.6517826169914742,0.22749684003910003,0.23778088324673632,0.003063623342286577,8.36378555529589,1.8535967695420217,3.284126063925908,0.8587915677908757,1.10126483485287,0.008988599023048494,0.8415102070070417,-3.2202222168057615,-3.7620061146924204,-0.8129914382717713,0.09283031009705014,0.0006649184476423861
0.21,0.2774948638688032,1.478482870783155,-1.4954514229108853,0.028177827028059203,0.029056207780434575,0.00037153542268767304,2.3365152450232918,-0.5253758198529719,0.6843071092659938,0.23612382364650336,0.2477318287354946,0.0031840580505156503,8.046574066035875,2.2315493036708447,3.23414389388658,0.8218121574684254,1.0735576209113233,0.006842707066371467,0.8124713824612846,-3.071940255470884,-3.7201808019459497,-0.8028911884940892,0.09019689184183716,0.0006083726630326166
0.22,0.30165845511223477,1.47345277226314,-1.4882879493840198,0.0306218769218808,0.031630303026036734,0.0004045128316410654,2.41635912434316,-0.5030098520014836,0.7163473526865549,0.24440498938215982,0.2574095245602157,0.0032977408953392363,7.725969338518673,2.589221421619327,3.171982939433133,0.7816454198574228,1.0406241329294517,0.004411389714096714,0.7882269285400685,-2.939846023382846,-3.6850049978145614,-0.7940908490622745,0.08791629973011582,0.0005524351738045993
0.23,0.3265886208169093,1.4686819501349464,-1.4808101320588363,0.03314496657262668,0.03429808242528403,0.0004385508507941913,2.4930165704674554,-0.47708221281936,0.7477817325183477,0.2523089650745881,0.2667779399247295,0.0034038019153125876,7.40203838803486,2.924918842763007,3.096949952549215,0.7381968326059258,1.0023173531496141,0.0017082223717110878,0.7685415176558186,-2.824940776072422,-3.6566292337428608,-0.786597532978063,0.0859820823070461,0.0004971508546217219
0.24,0.352253160763315,1.4642038269232793,-1.4730253149309473,0.03574299997557844,0.037056084191034205,0.0004735646907409562,2.5664539946405673,-0.44781232116669933,0.7784817127888815,0.25980334029517627,0.2758001765750172,0.003501383994676491,7.074593450251467,3.2371003587769716,3.0084916695940294,0.6914265299328726,0.9585950541052775,-0.001244550747710349,0.7530859747129663,-2.728053675327992,-3.6351241103938827,-0.7804002187455524,0.08437835526041296,0.00044250688944209946
0.25,0.3786195199750475,1.4600494773189312,-1.4649421825465676,0.038411551736903214,0.03990047462858604,0.0005094613184410588,2.6366359211732546,-0.41543496043481615,0.8083132384379841,0.26685517613247733,0.28443904375518375,0.003589662770010262,6.744370425226332,3.5244558459747215,2.906212135869213,0.6413468125712534,0.9095049036231551,-0.00441626881806112,0.7415727385595295,-2.649794848634301,-3.6204688732092896,-0.7754682449441267,0.08309305438453346,0.0003885916134817578
0.26,0.4056548611417639,1.4562474976268558,-1.4565707994548958,0.04114586673993994,0.0428270548629911,0.0005461400196136896,2.7035341166716416,-0.3801979692075318,0.8371383091671758,0.2734315003036722,0.2926580234405057,0.003667870117263071,6.385482022327563,3.784485070533604,2.7898444982487645,0.5881121830834317,0.8554366417432391,-0.007768182237591681,0.7308911939184087,-2.59120625812479,-3.6127790045607577,-0.7717958572518844,0.08182021024086743,0.0003320919760347368
0.27,0.4333235125440662,1.452823756502914,-1.4479226368882554,0.04394087278150188,0.04583117860336144,0.0005834922870705932,2.766865140230228,-0.34237411239418114,0.8648162566640315,0.2795006041561946,0.3004123740370342,0.003735226745690363,5.708049432504003,4.001652519882309,2.659219730632146,0.5328828385000755,0.7978750979961937,-0.011260163061843187,0.6905844443581965,-2.5588149759658516,-3.6140642326452657,-0.7697464699541569,0.07740027824051594,0.00023685946364013287
0.28,0.4615583875707366,1.449799845061752,-1.4390105908981967,0.04679128325727193,0.048906640258292625,0.0006213929500791873,2.823487502667037,-0.30239114411620505,0.8912045990058572,0.2850410475770045,0.3075461654931187,0.0037900663008594115,4.958718090794939,4.186315249393459,2.5152205199672046,0.4752288665339357,0.7222641664934066,-0.014896520746568775,0.6456775246557569,-2.5447087538148616,-3.621846531011399,-0.7689035729864178,0.07243133904519226,0.00013506798816718566
0.29,0.49028525138541384,1.4471941115373914,-1.4298488939247065,0.04969155971223153,0.05204581991584658,0.0006597015176263172,2.8726863814677284,-0.26057335243606256,0.9161696973490137,0.29002764549596,0.31391796575539566,0.0038308567547129867,4.2449035963242565,4.342940223539008,2.358371887199845,0.4150577038618941,0.6309663432863175,-0.01860605703566387,0.6064893841814415,-2.545686083739053,-3.6349610058545183,-0.7690503763100325,0.0680094232395562,4.0210325452352076e-05
0.3,0.5194333202947427,1.4450221074043903,-1.4204530620691362,0.05263590447474727,0.055240276548673424,0.000698268721410755,2.91480689093288,-0.21720041330010675,0.9395831855570169,0.2944344762515746,0.31944566328268453,0.0038567203784437773,3.569456642511366,4.471961441198973,2.1891969411576264,0.3525989436899053,0.5308073859666287,-0.022280430421971253,0.5725753628036467,-2.561214681146784,-3.653006300604985,-0.7700896179282175,0.0641109615141799,-4.753162070721974e-05
0.31,0.5489355675676643,1.4432966307001136,-1.4108398426928626,0.05561828239602433,0.058481176067212315,0.0007369424043329309,2.9502247272921625,-0.17254767042767719,0.9613219376273789,0.29823779212770524,0.3240899518538893,0.003867368292217594,2.9452163562581553,4.57416976770528,2.008337911894718,0.2880965602261387,0.426305829040567,-0.02582069601737569,0.5445472845469951,-2.590592950599132,-3.6755326884767427,-0.7719156832620638,0.060819729061935224,-0.00012686495664818121
0.32,0.5787300050437405,1.4420278050749955,-1.4010271501532656,0.058632444043221835,0.06175962210422572,0.0007755721527611502,2.9794437476076268,-0.1268825625118142,0.9812692539596826,0.3014161647197508,0.32784460370134066,0.003862974842821925,2.388696297966933,4.650440340826941,1.816544027510501,0.2218231133370132,0.32103445694410127,-0.0291468416255265,0.5234641524301378,-2.6331582929906965,-3.7020952431517236,-0.7744214694884225,0.058263181348159915,-0.00019620231467288782
0.33,0.6087613235693325,1.441223167307273,-1.391033990894355,0.061671951691987775,0.06506694462704926,0.0008140130546071093,3.003131852559209,-0.08046377677223637,0.9993159258910702,0.303950764876594,0.330732252282354,0.003844090184595913,1.8917537408052527,4.701352136557005,1.61468618291833,0.15411339711333483,0.21820257674502663,-0.03219612195755839,0.5079722764646402,-2.6884620227827853,-3.732304568807523,-0.7775064888924744,0.05631168587979844,-0.00025687342210262067
0.34,0.6389801014862528,1.4408877251619787,-1.3808803764554454,0.06473021139455196,0.06839486284485079,0.0008521282455492982,3.021877791692029,-0.03354421452943485,1.0153614438909653,0.30582597025641783,0.33279182178015293,0.003811519094218883,1.4754553690151215,4.727996725388742,1.4037158511873997,0.08528265470223673,0.11956843720779631,-0.034923143834224124,0.49978942762572304,-2.7557515263413737,-3.765692547330262,-0.781058997278131,0.055153843706673755,-0.0003069330790100906
0.35000000000000003,0.6693448877200385,1.441024066610805,-1.3705872284676175,0.06780050330161085,0.07173568153647238,0.0008897909482184271,3.036478623378567,0.013634144882631094,1.0293147987827795,0.30702919070588836,0.3340818691621589,0.00376627026691289,1.1091507068488164,4.731004412166708,1.1847099517919757,0.015721531810207523,0.027402982784653585,-0.037298452919340974,0.49547782910031957,-2.834576014678082,-3.8018653453074136,-0.7849758916379792,0.05443443768376485,-0.0003501791094695333
0.36,0.6998191882527298,1.4416324226934627,-1.3601762712005308,0.07087601953610197,0.07508230188423995,0.0009268854636191935,3.0474300532691334,0.06083560826577075,1.0410957267086733,0.3075516234491123,0.3346620347767566,0.0037094515400766417,0.8163692040617486,4.7115602497359195,0.9587923392522519,-0.05421650662649924,-0.058141345626993246,-0.039304367075673086,0.49719370482802205,-2.924011743787207,-3.840331702450815,-0.7891468953701237,0.054381129150330255,-0.0003844317791295085
0.37,0.7303737865330342,1.4427107861830417,-1.3496699194488204,0.07394989832292279,0.07842832929566294,0.0009633077258645675,3.055459828030438,0.10783634895791082,1.0506351751710323,0.3073878786820818,0.33460274114229993,0.003642226224537399,0.5844375636689734,4.6706887958459316,0.7271686466097327,-0.12414621130354853,-0.13581703191888989,-0.040938808104596935,0.5035192661536055,-3.023357822424464,-3.880639266499372,-0.793462562319494,0.054845024621798716,-0.0004114373289718261
0.38,0.7609854991619999,1.4442550139115369,-1.3390911583113383,0.07701526167871706,0.08176809567917673,0.0009989656417757529,3.0611712628965617,0.15442277284950737,1.0578761137482027,0.3065363355794272,0.3339766383513789,0.0035657915911185434,0.40059338697834335,4.6094677228732595,0.4911010015416153,-0.1936749030712832,-0.2053113489179199,-0.04220525510458051,0.5130709553394547,-3.1317802800071433,-3.922320663322025,-0.7978166687210991,0.055679995587779085,-0.00043282021193549616
0.39,0.7916359189645286,1.4462589344453807,-1.3284634173747736,0.08006525384309707,0.08509662515196409,0.001033778870490031,3.0650419802528703,0.200392053384379,1.0627740936564805,0.3049992164380013,0.3328529472787355,0.0034813228714277986,0.2547525195556612,4.529034191503206,0.251891925984995,-0.2624106205177892,-0.2669076855706902,-0.0431155807910088,0.5247692544626913,-3.2483257650959736,-3.964899948426972,-0.8021079463128735,0.056771525941206394,-0.00044980631831722547
0.4,0.8223104196559581,1.4487144617475056,-1.3178104409041649,0.08309307969243189,0.08840957507634847,0.0010676782268829567,3.0674500691429487,0.24555273021248902,1.0652976470608637,0.3027825849334825,0.33129499243843774,0.003389935639292581,0.13880547757275097,4.430570555117762,0.0108699738739082,-0.3299673542217798,-0.32115832562226365,-0.043688041973194924,0.5377605633694997,-3.3719642433465937,-4.0079031192620125,-0.8062414222347312,0.05802894521707337,-0.0004633205763489344
0.41000000000000003,0.8529973540496594,1.4516117133716764,-1.3071561554708921,0.08609204267718946,0.09170316920067928,0.0011006049116297292,3.0686934393701315,0.289725162417067,1.0654285433272825,0.2998962984757577,0.3293594124330808,0.003292668474677244,0.046232656840376814,4.315291410961234,-0.23062436907230754,-0.3959695856605432,-0.3687139007883813,-0.04394486553152979,0.5513728191061209,-3.5016244542898742,-4.050867070811305,-0.8101295332772286,0.05938101909726226,-0.0004740474977647747
0.42,0.8836874085541909,1.4549391318803104,-1.2965245364220406,0.08905558186510402,0.09497413157666507,0.001132509689560997,3.069005450453159,0.33274185086339475,1.0631619048851542,0.29635391879145556,0.3270962375985779,0.0031904777931267667,-0.02826985408853685,4.184431071945032,-0.4712522010475082,-0.4600561697809642,-0.41023364639720317,-0.04391055755588369,0.5650731494080687,-3.6362243199816815,-4.0933472934834025,-0.8136930035914007,0.06077165389896129,-0.0004824866832538248
0.43,0.9143730774264694,1.4586836082238859,-1.2859394745365345,0.09197730772191832,0.09821962511235782,0.0011633520813614073,3.0685668872278504,0.3744476343575488,1.0585061885506177,0.29217258568142973,0.324549353569276,0.003084239180041045,-0.09530508896222271,4.039200650695262,-0.7096807761025694,-0.5218777138267248,-0.4463263768774115,-0.04361073690777094,0.5777609430679906,-3.7747006654500757,-4.134927447655604,-0.8168625594543667,0.06208861801073769,-0.000489535957470493
0.44,0.9450476140975768,1.462830602738289,-1.2754246433312266,0.09485103689369002,0.1014371724989375,0.0011930996611201107,3.0674536671107315,0.4146994514403129,1.0514831205307902,0.2873729171771705,0.3217547386579675,0.0029747579758703335,-0.16331393667273594,3.880816489823888,-0.9446032934148736,-0.5811059773554641,-0.4777980844759604,-0.04306960629871058,0.5885346485724021,-3.9159717294093657,-4.175221354513055,-0.8195814918441112,0.06324237668744445,-0.0004957952563038187
0.45,0.9757041946343598,1.467364266682857,-1.2650033689777194,0.09767082500129999,0.10462457478862612,0.0012217273147809473,3.0656580536783036,0.45336639445681304,1.0421274353507355,0.28197881076099707,0.3187402289688626,0.002862765366083672,-0.2292286988686331,3.710523151015439,-1.174760376531725,-0.6374439444272979,-0.5055025216131352,-0.04231147561704296,0.5977292770016919,-4.058965462695254,-4.213876980233248,-0.8218046611486001,0.064268939825049,-0.0005008376782272956
0.46,1.0063362167264212,1.4722675666834528,-1.2546985049507884,0.10043099646978515,0.1077798727536033,0.0012492163707029037,3.0632022092061497,0.49033000005958804,1.0304864026930918,0.27601714684851564,0.31552979649771884,0.00274890559219564,-0.3024244178570534,3.5295151858038656,-1.3989329510920747,-0.690615249122704,-0.529836848878595,-0.04136324955399029,0.6043319016174227,-4.202720262735858,-4.250587371741497,-0.8234967564753726,0.06507069388397994,-0.0005052536822623156
0.47000000000000003,1.0369363721932179,1.4775224039974577,-1.2445323107464166,0.10312617260216116,0.11090128728261858,0.0012755541783027436,3.060015546679683,0.5254837314004974,1.0166194204371846,0.2695176132376009,0.31214145290152817,0.002633780759983993,-0.39436651091177166,3.338929929401157,-1.6159451646430067,-0.7403618907712092,-0.5513641564207354,-0.04024590606374712,0.6070423407342829,-4.3462993821240925,-4.285093864220168,-0.8246380130375048,0.06552517503284636,-0.000509697963798334
0.48,1.0674955119036025,1.4831097280470276,-1.234526334929235,0.1057512978627719,0.11398714294866259,0.0013007337811499194,3.055913971038468,0.5587324049569957,1.000597581718153,0.26251252606107417,0.3085855666044005,0.002517960284717578,-0.5843752971128698,3.1394589344625747,-1.8245104091597977,-0.7863478463014331,-0.5701473186330448,-0.03897779379229083,0.5967647994691193,-4.488829980221091,-4.317226034124004,-0.8252394018892665,0.06475770698028005,-0.0005196662695699356
0.49,1.0979948102423487,1.489009604748749,-1.224701287331933,0.10830167363852024,0.11703556674974203,0.0013247556869502351,3.0499298338746113,0.589987670172156,0.9825047597301982,0.2550375775748333,0.30484238010794346,0.0024021905800315716,-0.8960020692647486,2.932383765847482,-2.0236605638145897,-0.8284265777022433,-0.5894318959110851,-0.03754474885727077,0.5702160565601906,-4.628758105715936,-4.346882482859092,-0.8253696709038364,0.06248125908713924,-0.0005358917704640825
0.5,1.1284034215387453,1.4952013445667263,-1.2150769429158488,0.11077297360017123,0.12004421411880678,0.001347626997506719,3.0408611296396644,0.619173981797724,0.9624344416084253,0.24712999616509967,0.3008647369064751,0.0022871310556483834,-1.2279525929738508,2.719665763640022,-2.2128731932061863,-0.866696190281262,-0.6132195834017793,-0.03595939661479286,0.5384445907394129,-4.764375931423574,-4.374019993031153,-0.8251140817826865,0.0597884905177809,-0.0005504449698756042
0.51,1.1586884669853268,1.501663699711522,-1.205672089706951,0.11316123574303286,0.12301041473220829,0.0013693560264479603,3.028504544658152,0.6462355144795872,0.9404853208897663,0.23882621428616277,0.2966200613401514,0.0021729028941241345,-1.5582568746403096,2.502684287238471,-2.3915272717528193,-0.9011571693528602,-0.6395342669585693,-0.034296868955399296,0.5039690946954383,-4.894987274642158,-4.39864635353377,-0.8245187756445098,0.05693062967895312,-0.0005616858827619329
0.52,1.1888172123560092,1.5083750016895732,-1.196504467178747,0.11546286487477093,0.12593137488235626,0.0013899520382213272,3.0128745370682464,0.6711301978051168,0.916762252820406,0.2301629131738081,0.29209601501479665,0.002059601177336683,-1.8806599957320538,2.2826667753243677,-2.559075477471205,-0.931811474279133,-0.6663062395312522,-0.032581645834635964,0.4676159850428057,-5.020187661352215,-4.420804747263878,-0.8236237590307005,0.053991875301785786,-0.0005692282138214066
0.53,1.218757694130397,1.5153132834736236,-1.1875907119844404,0.11767463481644383,0.1288043256165442,0.0014094262080530007,2.9940481774387857,0.6938281784050525,0.891375519430649,0.22117699416728964,0.2872950734187943,0.001947416983167337,-2.1985520400566614,2.060758618161266,-2.715076047853589,-0.9586819709615284,-0.6920464593450912,-0.0308239447033527,0.4291041912020496,-5.139713438445197,-4.440571317483802,-0.8224704880607567,0.05095029070272132,-0.0005733644981240867
0.54,1.2484783903062757,1.5224563934157145,-1.1789463141935803,0.11979368832687155,0.13162660028490272,0.0014277926651705107,2.9720696175878603,0.7143109942090836,0.864439779086017,0.2119053510427725,0.2822274668358532,0.0018366457117510082,-2.5105193510177304,1.8380487041781601,-2.8592046571708987,-0.9818204671780411,-0.7160845183687989,-0.02903020623293351,0.38871216458740077,-5.253366764595109,-4.458054371649565,-0.8211049159024864,0.0478361244431726,-0.0005741081698991528
0.55,1.2779483627913257,1.5297821036565562,-1.1705855851566074,0.1218175338881244,0.13439567996707577,0.001445068798844745,2.9469972485049913,0.7325710240841724,0.836072903697295,0.20238455612528528,0.27690796821730346,0.0017276133674234357,-2.815931783151542,1.615557427887177,-2.9912461735967035,-1.0013049558227562,-0.7380276653819635,-0.027212373163817638,0.3466359088696722,-5.361041744716088,-4.473386895360428,-0.8195739048355337,0.0446708037805502,-0.0005715600167088895
0.56,1.3071373213589792,1.5372682117049525,-1.162521636219548,0.12374403977580004,0.13710921903480694,0.0014612752774686062,2.91889585676535,0.7486108048396238,0.8063948937059222,0.192650588767564,0.27135390677311566,0.0016206478623861254,-3.1143041083191476,1.394236288504717,-3.1110908323127653,-1.017238106690752,-0.757684276668213,-0.025383465018644413,0.30305936940602346,-5.462710219033744,-4.486722046478628,-0.8179245913991532,0.041473639977367735,-0.0005658618954923198
0.5700000000000001,1.3360156725689984,1.5448926351493608,-1.1547663679077402,0.1255714255749943,0.13976505782789353,0.0014764358870416768,2.8878351210019315,0.7624423444408207,0.7755268311807939,0.18273857991942408,0.26558387930865773,0.0015160609573070616,-3.4053524807441544,1.1749677997096668,-3.2187291621150447,-1.0297451799903126,-0.7749883014462302,-0.02355665468046464,0.25814420576813213,-5.558411687732572,-4.4982284790539655,-0.8162035516787488,0.0382609490333001,-0.0005571948201354282
0.58,1.3645545483482269,1.5526334994854845,-1.1473304690757402,0.12729825135937053,0.14236122685299515,0.0014905772663055402,2.8538875779228348,0.774086433612362,0.7435898832000015,0.1726825784376243,0.2596169025101618,0.0014141379263863418,-3.688275639508443,0.9585626524525431,-3.3142432678828437,-1.0389701407493366,-0.7899615366481392,-0.021744609045409202,0.21211774192058347,-5.64824468741969,-4.508085554489328,-0.8144558424801154,0.0350539813989733,-0.0005457386538434307
0.59,1.3927258854667697,1.560469218784675,-1.140223425150511,0.1289234049052882,0.14489594727316876,0.0015037285482090517,2.817133711854284,0.7835719299190362,0.71070439252291,0.16251535459176605,0.2534720420173596,0.0013151281903511513,-3.963002837627719,0.7457650655499718,-3.3978029856916843,-1.0450746644494462,-0.8026498037549104,-0.019959549900050888,0.1651158037707379,-5.732359166154947,-4.516478700271192,-0.8127242133441585,0.03186476290783062,-0.0005317319381044711
0.6,1.4205024327095834,1.5683785697143493,-1.1334535350951258,0.13044608706349706,0.14736762729900288,0.0015159210149174945,2.7776547242813696,0.7909350929674452,0.676989005538513,0.1522682158208858,0.24716800258341134,0.0012192466708442833,-4.229173691148256,0.5372505917180672,-3.4696554214735142,-1.0482335851003697,-0.8131440611120837,-0.018212217129996322,0.1173071258710719,-5.810944957915839,-4.523595956004195,-0.8110487824731224,0.02870735956777591,-0.000515415290814692
0.61,1.4478577865634819,1.5763407587114187,-1.1270279360411382,0.13186579570613807,0.14977485671342416,0.0015271877219019837,2.735535385389848,0.7962188997069399,0.6425599053987665,0.14197086426410105,0.24072294144212894,0.0011266706984489289,-4.486483756227073,0.3336291815206266,-3.5301174139828433,-1.0486324301485137,-0.821548043312248,-0.016512441210668083,0.06884986798459009,-5.884225260044832,-4.529623963542558,-0.8094663788984569,0.02559397252413678,-0.0004970453760826934
0.62,1.4747664213522698,1.5843354826076668,-1.1209526348423504,0.13318230849878204,0.15211640032916407,0.0015375631258637734,2.690863478878796,0.7994723896248203,0.6075301198787701,0.1316512792643965,0.23415436157399103,0.0010375403961789748,-4.734673044347972,0.13544761189717383,-3.5795670045808703,-1.046464511859389,-0.8279727937791357,-0.01486887956017835,0.01989201997979423,-5.952448818393601,-4.534744740089992,-0.808010194393234,0.022535019285246892,-0.00047689017452035454
0.63,1.5012037149698194,1.592342982951265,-1.1152325456999397,0.13439566477958345,0.1543911907695124,0.0015470827264817085,2.64372936175496,0.8007500343598131,0.5720089142410745,0.12133562808014006,0.2274790440348352,0.0009519600617935121,-4.973520842176035,-0.056807672113493024,-3.6184348194772116,-1.0419281698534988,-0.8325327976263566,-0.013288997908559086,-0.02942858144006355,-6.015882795122914,-4.539132878286413,-0.8067095386649603,0.01953918314320159,-0.00045522476804297373
0.64,1.5271459707321131,1.6003440943097729,-1.1098715330005577,0.13550614681447692,0.1565983208425857,0.001555782726983325,2.5942255762293764,0.8001111358507932,0.5361012699381863,0.11104820348934796,0.22071300730733107,0.0008700000501616574,-5.202842610193534,-0.24270739372001007,-3.6471954976923335,-1.035224195542341,-0.8353433947941369,-0.01177909791543863,-0.07898416250293427,-6.074806327225795,-4.542953182648329,-0.8055896920741267,0.01661347257347364,-0.00043232745826508374
0.65,1.5525704356595804,1.6083202868720552,-1.1048724585139442,0.13651426068120032,0.15873703569315548,0.0015636997166793678,2.542446492746738,0.797619256228227,0.4999074486613474,0.10081138667233872,0.21387148505697767,0.0007916989696042772,-5.422487464995137,-0.4218760433224099,-3.6663592818219146,-1.0265534605130942,-0.8365190968425686,-0.010344359913967427,-0.12865671085655878,-6.129504787625229,-4.546358736035172,-0.8046718459595876,0.013763302376822224,-0.0004084761914937017
0.66,1.5774553154406352,1.6162537036901423,-1.1002372321131522,0.13742071701656897,0.1608067248578584,0.0015708703774437191,2.4884879781054714,0.7933416818087043,0.4635226400791964,0.090645633536866,0.20696891647029336,0.0007170660764351446,-5.632335738562736,-0.5939883172982532,-3.676463872699521,-1.0161147633739205,-0.8361725072823667,-0.008988894230513633,-0.17833744653916256,-6.1802647490222835,-4.549489378739488,-0.8039731189223188,0.010992597312915624,-0.00038394530695814755
0.67,1.6017797863181042,1.6241271929179253,-1.0959668652071,0.1382264118415399,0.1628069143113115,0.0015773312152792024,2.4324470877468936,0.7873489227782868,0.4270366906052176,0.08056948249709135,0.2000189453453098,0.000646083783548322,-5.832296465556971,-0.75876546662027,-3.6780666332015217,-1.0041029029266006,-0.8344136323922307,-0.0077157985506626225,-0.22792609452853863,-6.2273696360623,-4.552470574906559,-0.8035066369310225,0.008303915021773689,-0.0003590026306696215
0.68,1.6255240041464973,1.6319243354124167,-1.0920615261102322,0.13893240765780004,0.16473725856581467,0.0015831183174770697,2.374421782839305,0.779714249449148,0.39053390968677154,0.07059958162601494,0.19303442545031807,0.0005787102197867351,-6.0223047794524005,-0.9159716181285007,-3.6717372110876116,-0.990706979800688,-0.8313494381679973,-0.006527219865224421,-0.27733000382454587,-6.271096038157388,-4.555412635581697,-0.8032816653538245,0.005698583751608394,-0.00033390693068246536
0.6900000000000001,1.6486691108766929,1.63962946806587,-1.088520596616073,0.13953991498842444,0.16659753287136483,0.0015882671353944255,2.314510673019546,0.770513265345338,0.3540929494159223,0.060750733062439624,0.18602743055501655,0.0005148817917355732,-6.202319244262953,-1.0654101242684888,-3.6580506362616876,-0.9761089239325287,-0.8270835578050395,-0.005424420042231315,-0.3264631616747263,-6.311710644796644,-4.5584102643406075,-0.8033037817313868,0.0031768502034741214,-0.0003089057395605942
0.7000000000000001,1.6711972387308762,1.6472277032340277,-1.0853427290889264,0.1400502745140227,0.16838762555253742,0.0015928122924981777,2.252812785418329,0.7598235168157701,0.31778675271465107,0.051035952559823565,0.17900926811725856,0.0004545157103752297,-6.372319162967081,-1.206919990332299,-3.6375809344321235,-0.9604822414547147,-0.8217160874227432,-0.004407844314042286,-0.3752451497023106,-6.349467757636634,-4.56154238984866,-0.8035750791268068,0.0007380330509629204,-0.0002842335398297706
0.71,1.6930915123329264,1.654704944617859,-1.0825259034395944,0.14046493993509662,0.1701075305123569,0.0015967874170288324,2.189427360205019,0.7477241383831308,0.28168256493318644,0.04146654210739327,0.1719904959819495,0.0003975124530654652,-6.532301905981801,-1.3403724217844721,-3.6108952870194173,-0.9439909716109156,-0.8153434303055924,-0.003477192075068025,-0.42360008418028633,-6.384607328915837,-4.564872249516063,-0.8040943910981603,-0.0016193218553761657,-0.00026011029934897684
0.72,1.7143360490575947,1.662047899943989,-1.0800674834055222,0.140785461671356,0.17175733992920542,0.0016002249984040883,2.1244536724668404,0.7342955326129921,0.24584200340722884,0.03205217362593866,0.16498094168485058,0.0003437581375255862,-6.682280300585599,-1.4656675281795917,-3.578548756392851,-0.9267888421613169,-0.8080581652286547,-0.002631489376268892,-0.4714555768905113,-6.417353473431785,-4.568447689379662,-0.8048575306465,-0.0038972880502398666,-0.00023674033630557208
0.73,1.7349159578559548,1.669244090773229,-1.0779642716121816,0.14101347148970184,0.17333723717018815,0.0016031562662989515,2.057990879835997,0.719619082924017,0.21032117933405883,0.02280098183458272,0.15798972409827192,0.0002931267894863217,-6.82228011798799,-1.5827312145213988,-3.541079586140514,-0.9090186103204818,-0.7999489248708613,-0.00186916241421331,-0.5187417466900235,-6.447913401055567,-4.572301647176048,-0.8058575368196058,-0.006098409668438734,-0.0002143114880359122
0.74,1.754817336805107,1.6762818597477642,-1.0762125629498323,0.14115066813464064,0.17484748994256394,0.0016056110911985546,1.990137894915229,0.7037768974535088,0.17517086623493436,0.013719664493880212,0.1510252772375785,0.00024548248996030214,-6.952337689995634,-1.6915122856854583,-3.4990050780735267,-0.8908115754496233,-0.79110027743355,-0.0011881112767548885,-0.5653903055733542,-6.47647671812399,-4.5764527880239365,-0.8070849239398415,-0.008225559643212893,-0.00019299455404892313
0.75,1.7740272696174522,1.683150375566147,-1.0748081958572517,0.14119880401813295,0.17628844370343585,0.0016076179051160346,1.9209932812345214,0.686851581838272,0.14043670925804086,0.004813588349231377,0.14409537608719075,0.00020068139174799288,-7.072497682446047,-1.7919797847221521,-3.452818040956577,-0.8722872494658738,-0.7815926093781655,-0.0005857831113651457,-0.6113337370056537,-6.503215048656877,-4.580906264983323,-0.8085279296276675,-0.010281806696820758,-0.0001729429813548481
0.76,1.792533821329454,1.6898396359517924,-1.073746601160956,0.14115967301034896,0.17766051534659869,0.0016092036410971134,1.8506551712001817,0.6689260385645396,0.10615946962956885,-0.003913100778399176,0.13720716431628432,0.0001585735981078625,-7.18281104799364,-1.8841205814472302,-3.402983800466779,-0.8535531710745268,-0.7715020103416741,-5.9243880442760855e-05,-0.6565045788328153,-6.528281929842552,-4.585654579811173,-0.8101727588782011,-0.012270292458505652,-0.00015429275930310335
0.77,1.8103260333721634,1.6963404688555779,-1.0730228481742752,0.1410350993585093,0.1789641871840746,0.0016103936900914962,1.7792212042709479,0.6500832903785477,0.07237529866809173,-0.01245736518396668,0.13036718374759365,0.00011900489943828324,-7.283333176533334,-1.967937223676392,-3.3499377554746084,-0.8347048504371148,-0.7609001632188956,0.0003947521696372469,-0.7008348182927149,-6.55181294030928,-4.590678522326734,-0.8120038223956981,-0.014194119628410627,-0.00013716249141506562
0.78,1.8273939182062802,1.7026445321068537,-1.0726316878149904,0.14082692774789926,0.1802000012383237,0.0016112118737563036,1.7067884834116882,0.6304063251275752,0.03911603592848065,-0.020817161061003706,0.12358140542490757,8.181836648073055e-05,-7.374122257566007,-2.0434460597233532,-3.2940834622906254,-0.8158258316450056,-0.7498542434343705,0.0007796960922821228,-0.7442554026284134,-6.573926024093881,-4.595948169804422,-0.8140039681887662,-0.016056251750936647,-0.00012165361295970447
0.79,1.8437284536835872,1.708744311700021,-1.0725675925527247,0.1405370145072062,0.1813685538593376,0.0016116804317643039,1.6334535477307028,0.609977959316724,0.006409526226568936,-0.028991324069305026,0.11685526210139033,4.685580080002878e-05,-7.455237865143766,-2.110675637302997,-3.235791225892882,-0.7969878612653769,-0.7384268317983498,0.0010992616442355718,-0.7866958655559069,-6.594721977714295,-4.601423930627394,-0.8161547060740585,-0.017859424868014562,-0.00010785072506142902
0.8,1.8593215772745735,1.7146331188761887,-1.0728247930476598,0.14016721994947337,0.18247049067879545,0.0016118200222177532,1.5593123590986253,0.5888807176167812,-0.025720049493500048,-0.036979455773284285,0.11019368194578531,1.3959045344923603e-05,-7.526739772659647,-2.1696653807146244,-3.175397175177396,-0.7782511522650974,-0.7266758452261755,0.0013572471110934181,-0.8280840673377705,-6.614285072180106,-4.6070576189872785,-0.8184364252310415,-0.019606071089478365,-9.582201876344226e-05
0.81,1.8741661802793,1.720305086131599,-1.0733973113902335,0.13971940183010573,0.1835065019111933,0.0016116497338129962,1.4844603004726542,0.5671967255410235,-0.05725183425738126,-0.04478181193676458,0.10360112323978472,-1.7028840475700017e-05,-7.588687001632112,-2.220464545069097,-3.113202797846956,-0.7596647336104176,-0.7146544891571622,0.0015575220729604489,-0.8683460443983029,-6.632683786001825,-4.612793549655205,-0.8208286053026143,-0.02129825393967598,-8.561976552191235e-05
0.8200000000000001,1.8882561021153677,1.7257551622568215,-1.0742789908971182,0.13919540989442347,0.18447731800938716,0.0016111871084591044,1.408992183606776,0.5450076125222431,-0.08816795068847036,-0.052399193568224166,0.09708160981938571,-4.626253538918417e-05,-7.641137105742475,-2.2631314433254,-3.0494749095008107,-0.7412668768697728,-0.7024112348337397,0.0017039794881954506,-0.9074059632006986,-6.6499716291890865,-4.618569643747441,-0.8233100217567044,-0.022937615210554388,-7.728085392148365e-05
0.8300000000000001,1.9015861247535135,1.7309791064834659,-1.07546352246188,0.13859708147915015,0.1853837056793599,0.0016104481731225207,1.333002263814584,0.5223944226644307,-0.11845315647618843,-0.059832841527331794,0.09063876699727397,-7.389353365837497e-05,-7.684145688670608,-2.297732938973946,-2.9844460307109433,-0.7230855920369876,-0.6899898238114162,0.00180049331580312,-0.9451861723922312,-6.666188041791583,-4.624318537953329,-0.8258589463252131,-0.02452533296456505,-7.082735584425389e-05
0.84,1.9141519673481582,1.7359734817886234,-1.0769444674992181,0.13792623812487095,0.1862264642562888,0.0016094474797457277,1.2565842594644596,0.4994375305157643,-0.14809450373380764,-0.0670843354279202,0.08427585769289002,-0.00010006933767929754,-7.717766151705718,-2.3243441943152807,-2.9183151452446845,-0.705139185593131,-0.6774293012228441,0.0018508818090476886,-0.9816073469026816,-6.681359353692089,-4.629968690887939,-0.8284533433332875,-0.026062090278173966,-6.626710877542417e-05
0.85,1.9259502810874165,1.7407356473817275,-1.0787152775594955,0.1371846831498347,0.18700642244121024,0.0016081981521693508,1.1798313739258248,0.47621655931040047,-0.1770810060277403,-0.07415549750362556,0.0779958184921445,-0.00012493275763769113,-7.742049664651297,-2.3430486614155317,-2.8512488120210793,-0.687436874471695,-0.6647640784827331,0.0018588764328786311,-1.0165887176458714,-6.695499795083283,-4.6354454810904455,-0.8310710626384605,-0.027548054290621515,-6.359430428946736e-05
0.86,1.9369786442649042,1.7452637503742863,-1.08076931072537,0.13637420012944473,0.18772443539480677,0.001606711939070557,1.1028363177487615,0.4528102992558694,-0.2054033165874403,-0.08104830203899759,0.07180129535965224,-0.00014862130987938077,-7.757045351169771,-2.3539382999610785,-2.7833826027978565,-0.6699794500637655,-0.652024025333354,0.0018280962838965742,-1.0500483806202299,-6.708612549341471,-4.64067229173734,-0.8336900297309867,-0.028982865115142503,-6.279007594897445e-05
0.87,1.947235557554371,1.7495567166102917,-1.0830998449346356,0.13549655222035023,0.18838138218213207,0.0016049992720145675,1.025691328946673,0.4292966236005393,-0.2330534209265627,-0.08776479090944933,0.06569467873252967,-0.0001712667055989429,-7.762800677409726,-2.357114003394383,-2.7148228369130054,-0.6527599867165232,-0.6392345904296093,0.0017620277911722937,-1.0819036794357204,-6.7206908418541795,-4.645571577409229,-0.836288433318623,-0.030365634173786737,-6.382308279601973e-05
0.88,1.956720439447992,1.7536142406143065,-1.085700088402845,0.13455348226318395,0.18897816355948852,0.0016030693277986697,0.9484881893621022,0.40575240040149063,-0.26002434682092734,-0.09430699571662847,0.05967813773564389,-0.00019299442158977979,-7.759362030520247,-2.3526862119053664,-2.6456485836148427,-0.6357645893032373,-0.6264169490476661,0.0016640093725253102,-1.1120716555261638,-6.731719059777131,-4.6500659082800375,-0.8388449104460647,-0.031694951525575485,-6.665008726880066e-05
0.89,1.9654336218002786,1.7574367745955757,-1.088563187345804,0.1335467135936842,0.1895157000922201,0.0016009300943474318,0.8713182352286613,0.3822533981269102,-0.28630989429591075,-0.10067686694997463,0.05375365327315913,-0.000213923345123793,-7.7467754714878145,-2.340775688111504,-2.5759139015916,-0.6189731744174232,-0.6135881760128541,0.0015372206809818323,-1.1404695604661252,-6.741673898708945,-4.654078986931823,-0.8413387288957592,-0.032968901765082013,-7.121652869103602e-05
0.9,1.9733763454022442,1.761025516430257,-1.0916822312255419,0.13247795148819377,0.18999493058991465,0.0015985884394930474,0.7942723601965633,0.35887418346813793,-0.3119043879737927,-0.10687621054904231,0.047923049769454926,-0.00023416548543842879,-7.7250876446512855,-2.321514428631653,-2.5056502842590938,-0.6023602795616618,-0.6007614415504108,0.0013846760236910782,-1.1670154248432454,-6.750525532904125,-4.657536632684586,-0.8437499662971667,-0.034185088069654965,-7.745709542507432e-05
0.91,1.98055075549489,1.7643823965302938,-1.0950502557637316,0.13134888516636145,0.19041681084344828,0.0015960501820448804,0.7174410092645758,0.3356880100036818,-0.3368024538189734,-0.11290663218323115,0.04218802535336182,-0.00025382574481670343,-7.694346824286135,-2.2950466822989,-2.4348692782097325,-0.5858958944071748,-0.587946227478696,0.001209221506700775,-1.1916286779987588,-6.758238805925203,-4.660367727918711,-0.8460596850497331,-0.035340663964451416,-8.529630032742076e-05
0.92,1.9869598971174518,1.7675100634967857,-1.0986602439836797,0.13016119027131287,0.19078231264647277,0.0015933201646167558,0.6409141622561769,0.3127666966491965,-0.3609988219948118,-0.11876948950485688,0.03655018030245047,-0.00027300174281245796,-7.654604076838359,-2.2615300435350525,-2.3635652410182444,-0.5695463077861742,-0.5751485609928153,0.0010135354319777967,-1.2142308126164154,-6.764774438595942,-4.6625051204095715,-0.848250101854354,-0.036432372352403895,-9.464906528133137e-05
0.93,1.9926077101743593,1.7704118684481984,-1.1025051255557752,0.12891653174564321,0.19109242308235358,0.0015904023277388268,0.5647813056907539,0.2901804951412625,-0.3844881572095584,-0.12446585256696453,0.03101104358807992,-0.0002917836877928951,-7.605914515777904,-2.221136587500217,-2.291718203391122,-0.5532749636332941,-0.5623712631845805,0.0008001315014074528,-1.2347460876042566,-6.770090250795513,-4.663886475241434,-0.8503047503622405,-0.03745659131947959,-0.00010542132129635505
0.9400000000000001,1.9974990240956578,1.7730918479095554,-1.1065777747315797,0.1276165670203571,0.19134814405621953,0.0015872997848332799,0.48913139212984075,0.26799794613571015,-0.4072649175804625,-0.1299964725286127,0.025572097386594144,-0.0003102542905546999,-7.54833862468127,-2.1740540121138565,-2.219296799526531,-0.5370433185856971,-0.5496142094404632,0.0005713643507498922,-1.2531022619831709,-6.77414239306698,-4.66445506947173,-0.8522086352011763,-0.03840938617366077,-0.00011751063095902562
0.9500000000000001,2.0016395519588692,1.7755547051480485,-1.1108710071584345,0.12626294943338676,0.19155049205068744,0.001584014897679181,0.4140527863211532,0.24628572384931044,-0.429323242685486,-0.13536175869703387,0.020234799446791116,-0.00032848871540990345,-7.48194362309732,-2.120486751001308,-2.1462612285922917,-0.5208116934965759,-0.5368745989080494,0.0003294369925126439,-1.269231351593713,-6.776886583243537,-4.664160522425032,-0.8539483754389333,-0.039286567109614576,-0.0001308068398986424
0.96,2.0050358839360345,1.7778057898433706,-1.1153775758694622,0.12485733179460151,0.19170049808296966,0.0015805493520322119,0.3396331977165055,0.22510846953219824,-0.4506568711027808,-0.14056176387852462,0.015000603228222375,-0.0003465545646969057,-7.406804849052086,-2.0606570209290536,-2.0725662095448487,-0.5045401106605745,-0.5241472303368937,7.640974400757727e-05,-1.2830703993968609,-6.778279342367907,-4.6629594543530235,-0.8555123354024753,-0.04008375181188589,-0.00014519276341349576
0.97,2.0076954799280347,1.7798510759875896,-1.1200901667430812,0.12340137001531942,0.191799207840455,0.001576904233099831,0.2659595992000276,0.20452861442191522,-0.4712590873618996,-0.1455961779282082,0.00987097574853491,-0.00036451189323809176,-7.323007131756984,-1.9948057674263444,-1.9981638911633803,-0.48818910824605766,-0.5114247817546413,-0.00018578974442728935,-1.2945622490260653,-6.778279223139718,-4.660816066239606,-0.8568907406984676,-0.040796432220529734,-0.00016054491350994996
0.98,2.0096266612492983,1.7816971379195121,-1.1250013937215912,0.12189672672227683,0.19184768197146182,0.001573080100602054,0.1931181321263828,0.18460619319224275,-0.4911226978510142,-0.1504643293042588,0.004847413100680079,-0.00038241324977769035,-7.230646128240744,-1.923193473106875,-1.9230066792912046,-0.4717205231889956,-0.4986980916345374,-0.00045535570470134346,-1.3036563101093297,-6.776848023022627,-4.657702633790505,-0.8580757772825615,-0.04142004458824882,-0.00017673427037335414
0.99,2.010838601229603,1.7833511244121547,-1.1301037940700498,0.12034507477882218,0.1918469965076825,0.001569077063173212,0.12119399803046167,0.1653986492642503,-0.5102400348458468,-0.15516519434546477,-6.854637793333746e-05,-0.00040030374288419526,-7.129829598262061,-1.8461007947475443,-1.8470499439044268,-0.4550982337640015,-0.4859564394299625,-0.0007305930522503168,-1.310309302792219,-6.773951973026504,-4.653599909144698,-0.8590616715065247,-0.04195004186202898,-0.0001936271007591932
