tonegas/nnodely-applications/joint_friction_estimation/dataset/test/mpc_mujoco_episode_3.csv
time,q1,q2,q3,q4,q5,q6,dq1,dq2,dq3,dq4,dq5,dq6,ddq1,ddq2,ddq3,ddq4,ddq5,ddq6,tau1,tau2,tau3,tau4,tau5,tau6
0.0,0.0,1.57,-1.57,0.0,0.0,0.0,0.0,0.0,0.0,0.0,0.0,0.0,5.478466002557672,-29.15401120386402,-4.657146596717574,-0.26351524234584645,0.9161210456709412,-1.88840080062036e-06,0.7656569269221416,-20.165465781858227,-10.39725281420225,-2.2556769130703422,0.06869012282180315,-0.0002937583396217292
0.01,0.0005454041591679506,1.5670925820824868,-1.5704710468946463,-3.157116371487661e-05,7.448994378673817e-05,7.530136816955441e-07,0.054540415916795065,-0.29074179175133225,-0.0471046894646274,-0.0031571163714876607,0.007448994378673817,7.53013681695544e-05,5.23969173736175,-28.982537898828934,-5.1086437027538665,-0.49008611620530473,0.7597359577864005,0.007625017007241719,0.7242943513782921,-20.17841524441735,-10.42894986028125,-2.2655175258860787,0.06548902772378044,-0.0003333580484683636
0.02,0.0016120055032464845,1.5612946977725781,-1.5714582525920717,-0.00011530286611847489,0.00021324354735378144,2.2658322269242986e-06,0.10666013440785338,-0.5797884309908762,-0.09872056974253354,-0.008373170240359827,0.013875360356704327,0.00015128185452287544,4.95726096689166,-28.767516306557027,-5.568644519296086,-0.7037193603225518,0.6617475803634996,0.008016425520151582,0.6609966347629342,-20.15964582374998,-10.42602666984613,-2.267160379447073,0.06079816150911355,-0.0003791612110870961
0.03,0.0031714456224512517,1.5526276239667784,-1.5730074489719328,-0.0002708600713859767,0.00040949865080036217,4.469119553433372e-06,0.15594401192047672,-0.8667073805799614,-0.15491963798609562,-0.01555572052675018,0.019625510344658075,0.00022032873265090736,4.628971645351102,-28.499704822627706,-6.027237259270684,-0.9049881591176074,0.601267776395698,0.007930621189201237,0.5779493146134959,-20.104404542119354,-10.385931747618148,-2.2600108734133055,0.05465623479415534,-0.00043123383006350924
0.04,0.00519093101622072,1.541117889640168,-1.575164223831566,-0.0005169719461783544,0.0006586701386336871,7.309259155568161e-06,0.20194853937694687,-1.1509734326610306,-0.215677485963324,-0.024611187479237774,0.024917148783332496,0.0002840139602134789,4.252286522572398,-28.169657224724094,-6.474048372321285,-1.093473590523871,0.5655523213116496,0.008357636351706027,0.47815632435138056,-20.00740402698613,-10.30597155566436,-2.2434427689271637,0.047122103332844216,-0.000489791177709633
0.05,0.007632948382520213,1.5267982225615786,-1.5779729054416458,-0.0008713408344717082,0.000957545027587894,1.0755182037362297e-05,0.2442017366299493,-1.4319667078589549,-0.2808681610079887,-0.03543688882933538,0.02988748889542068,0.0003445922881794137,3.8248385031808003,-27.767950096947285,-6.8983910557778145,-1.268018303245256,0.5467651448112534,0.009465465579240384,0.3654702497220478,-19.862866956129,-10.18339956666869,-2.216820912710298,0.03828472329153432,-0.0005550986209719699
0.06,0.010455018129977563,1.5097084934581941,-1.5814755119163972,-0.001350491759894345,0.001303767554711472,1.4794974096438786e-05,0.282206974745735,-1.7089729103384468,-0.35026064747514263,-0.0479150925422637,0.034622252712357804,0.00040397920590764895,3.344810210779589,-27.28557287450286,-7.289484987390189,-1.426954034196939,0.5400443361156189,0.011360598465684046,0.2445798369786718,-19.664664399341518,-10.015543767037308,-2.17953216365608,0.028273860993960315,-0.0006273649134100781
0.07,0.013609518328058842,1.4898966188109468,-1.585710688436811,-0.001969581182977207,0.0016954970685592423,1.943278654226559e-05,0.31545001980812787,-1.9811874647247312,-0.42351765204139025,-0.06190894230828619,0.03917295138477703,0.00046378124458268036,2.896348425829929,-25.20493623408711,-7.606733932062276,-1.5502029181717063,0.5431015934687693,0.014207834310667966,0.13003672836856767,-18.628556504196524,-9.523736692671008,-2.0742661975063434,0.01820830949739499,-0.0006630857381503686
0.08,0.01705200751963299,1.4675697736927098,-1.5907086984905374,-0.002741547762441299,0.0021315600418241047,2.4694918660837313e-05,0.34424891915741507,-2.2326845118236998,-0.49980100537263894,-0.07719665794640918,0.04360629732648625,0.0005262132118571725,2.4525618856853124,-22.33356227510457,-7.861745926544799,-1.6613225014213384,0.5565225336034931,0.018307469282675237,0.024385364564040557,-17.160407534966442,-8.864230617714075,-1.9337500541083237,0.008048410260029535,-0.0006826707821508332
0.09,0.020738591787762026,1.4430139418958075,-1.5964931885876408,-0.0036785062504083913,0.0026113468260818224,3.0629310677280676e-05,0.36865842681290345,-2.4555831796902248,-0.5784490097103269,-0.09369584879670924,0.047978678425771755,0.0005934392016443363,1.986288147810028,-19.273914337767884,-8.061201811459163,-1.7703271367224431,0.5789037916403057,0.023954393897642978,-0.07005296142225831,-15.564020457380622,-8.15528676902776,-1.7828251288490315,-0.0022146769703452335,-0.0007023920661694403
0.1,0.024623273393616942,1.4165338920372126,-1.603082267620399,-0.0047921851989369095,0.003134567159910513,3.730312386617531e-05,0.3884681605854915,-2.648004985859494,-0.6589079032758205,-0.11136789485285177,0.05232203338286909,0.0006673813188894636,1.4946860679476481,-16.112605258413307,-8.204923592988951,-1.8756055574367565,0.6072690025378824,0.031479464579234895,-0.14935066744246686,-13.879750632122272,-7.418028171257457,-1.6261732701011793,-0.01232637285596002,-0.0007240465684298708
0.11,0.02865770482178403,1.3884445462939647,-1.6104885285274753,-0.006093745417816349,0.003701001552550272,4.4801302571915006e-05,0.4034431428167086,-2.8089345743247907,-0.740626090707615,-0.1301560218879439,0.05664343926397584,0.0007498178705739696,0.9768593159634639,-12.90117798733648,-8.292599114885174,-1.975053627785016,0.6375502360839835,0.041235125833641195,-0.21049933138987745,-12.130142487518244,-6.666205496604318,-1.4669025924398795,-0.022003383674032442,-0.0007480566319250347
0.12,0.03279113967815905,1.3590658431487388,-1.6187190326521625,-0.0075935810102226034,0.004310196827462617,5.3223858486749694e-05,0.4133434856375018,-2.937870314522601,-0.8230504124687319,-0.14998355924062545,0.06091952749123452,0.0008422555914834686,0.4336525125888896,-9.66183883426018,-8.324075829305638,-2.06663895072122,0.6636508793006131,0.053467521919397853,-0.25171856362734424,-10.322801421818152,-5.9072121346792095,-1.3067527500644707,-0.030949779581288743,-0.0007736575111545438
0.13,0.03697055193994365,1.3287205230474814,-1.627775292097115,-0.009301145253355486,0.004961062087262372,6.267970531058142e-05,0.4179412261784601,-3.0345320101257456,-0.9056259444952263,-0.17075642431328833,0.06508652597997552,0.0009455846823831737,-0.13240394662631116,-6.427463631027916,-8.299403863372406,-2.1487176641552352,0.6763362492317291,0.06807732975981762,-0.2726687170809372,-8.471184292030921,-5.149581670775563,-1.147643467385898,-0.03887328312112054,-0.0007998471013250573
0.14,0.04114090217915114,1.2977308513488497,-1.6376532816909135,-0.011224800621226315,0.0056513185747869375,7.327382700740594e-05,0.4170350239207489,-3.0989671698631844,-0.9877989593798505,-0.19236553678708285,0.06902564875245654,0.0010594121696824526,-0.7160022323456755,-3.2599595845838065,-8.218909478166253,-2.219866356347424,0.6624123388499461,0.08422780631668747,-0.274523380042882,-6.6047158953675424,-4.4064425530769835,-0.9923840367111376,-0.045499051204545185,-0.0008258279078000912
0.15,0.04524563335703157,1.266412449216881,-1.648343499137623,-0.013371668522555747,0.006376783126868467,8.508374014334657e-05,0.4104731177880436,-3.131840213196875,-1.0690217446709374,-0.21468679013294314,0.0725464552081529,0.0011809913135940623,-1.3079206954028282,-0.3614940059159128,-8.083383139766765,-2.27863723227674,0.6053348325436656,0.09986711121925751,-0.2599107730052751,-4.828875135006207,-3.7167184814424514,-0.8490697757777952,-0.050581787914358696,-0.0008534852927747867
0.16,0.04922748247222891,1.235054151398508,-1.6598311649444217,-0.01574738876436029,0.0071305398959733615,9.81216582782235e-05,0.39818491151973384,-3.1358297818372862,-1.1487665806798901,-0.23757202418045448,0.07537567691048944,0.0013037918134876933,-1.8943557610849724,-0.0036482295140452714,-7.895046176707421,-2.3226510330606374,0.4889927654919992,0.11150781299029822,-0.23240934851317996,-4.363595898813439,-3.51628773201844,-0.8083647470406691,-0.05378833298666785,-0.000928804198605778
0.17,0.0530296730695248,1.2036917040499309,-1.6720979492375252,-0.018354469361890453,0.00790221755006602,0.00011228235572634566,0.3802190597295889,-3.136244734857721,-1.226678429310352,-0.26070805975301625,0.07716776540926577,0.0014160697448122159,-2.4621747670670246,-0.004417657120343896,-7.670510693216642,-2.335170167034896,0.30575071886988425,0.11532196277751527,-0.1977283489156916,-4.0712510933424255,-3.372202207158507,-0.7790004400273269,-0.055449818066791924,-0.001004434828535516
0.18,0.05659703831344615,1.1723251294523525,-1.6851220509668634,-0.021192505250908822,0.00867773265489199,0.000127299789129782,0.3567365243921348,-3.1366574597578385,-1.302410172933827,-0.2838035889018367,0.07755151048259698,0.001501743340343634,-2.995064097269824,-0.005273626297537072,-7.410946228437612,-2.3182695232230515,0.062215147907020096,0.1076748121885438,-0.1598067369111,-3.761942047729126,-3.212848849404713,-0.7458449885440714,-0.055509808844412284,-0.001070361817045722
0.19,0.059877515256718535,1.1409544458927106,-1.698878089089562,-0.02425857952469109,0.009439851035442183,0.00014271260417295293,0.32804769432723785,-3.1370683559641903,-1.3756038122698657,-0.30660742737822677,0.07621183805501926,0.0015412815043170933,-3.4805260142315873,-0.006184255214627823,-7.115494758226957,-2.2760135765949414,-0.2140673964124611,0.08762533702459319,-0.12278756628277487,-3.4346960815818353,-3.038286037150959,-0.7088994373051457,-0.05386944351936957,-0.0011240944680309618
0.2,0.06282340101119262,1.109579675252996,-1.7133370485735349,-0.027547572363303647,0.010169976011829217,0.0001578742550277134,0.29458857544740824,-3.1374770639714584,-1.4458959483972862,-0.3288992838612556,0.07301249763870349,0.0015161650854760465,-3.914710331982977,-0.0071385540431019336,-6.783768330520247,-2.2115748072573105,-0.478186350576256,0.05880709913967053,-0.09119304942483986,-3.088573987549082,-2.8486795264725755,-0.6681934588151894,-0.05046732311992904,-0.0011633385762674022
0.21,0.0653918546719517,1.0782008475456577,-1.7284662665728017,-0.031052402612238284,0.010851072950275816,0.00017203511930756276,0.2568453660759081,-3.1378827707338455,-1.5129217999266908,-0.3504830248934636,0.06810969384465981,0.001416086427984936,-4.303067783936596,-0.008126151400871027,-6.415828720169386,-2.1274840502195183,-0.6833117302390646,0.028417280807252254,-0.06976009799486464,-2.7226686492035954,-2.6442937396304873,-0.6237839013177011,-0.04527482304003552,-0.0011861328533509566
0.22,0.06754443141099914,1.0468180046573345,-1.744229458321,-0.03476422189088994,0.011470847574350651,0.00018448333273869008,0.21525767390474415,-3.1382842888323186,-1.5763191748198468,-0.371181927865166,0.06197746240748357,0.0012448213431127317,-4.656881765107854,-0.009139383460520204,-6.01221206561055,-2.025814250827729,-0.7984058119387556,0.003674064004134614,-0.06330108217214316,-2.3361339133435672,-2.4254925681544215,-0.5757549442660861,-0.03828577337939105,-0.0011908603779208883
0.23,0.0692459077920166,1.0154312033615194,-1.7605867863608868,-0.038672576438448576,0.012023914249033003,0.000194686991937778,0.17014763810174674,-3.1386801295815077,-1.6357328039886658,-0.39083545475586334,0.0553066674682351,0.001020365919908792,-4.98830200477196,-0.010172586159756455,-5.5739466226479575,-1.9083095872825488,-0.8168376671631274,-0.011365688002257457,-0.07660874859323316,-1.9282203116039076,-2.1927392855466374,-0.5242175558847306,-0.029507769867388206,-0.0011761360859286005
0.24,0.07046296293332421,0.9840405178953064,-1.7774949757626954,-0.04276554714586162,0.012512170333907172,0.00020237657217287534,0.12170551413076147,-3.1390685466212918,-1.6908189401808662,-0.4092970707413046,0.04882560848741701,0.0007689580235097347,-5.306538282404151,-0.011219398979204421,-5.102537876552312,-1.7764774229565017,-0.7532577549202473,-0.016493125504014827,-0.11437750727939885,-1.498307904253426,-1.9465917757556497,-0.46930759569763203,-0.018961009255096566,-0.0011406565394460587
0.25,0.07116321173877355,0.9526460424952516,-1.7949074745144937,-0.047029874619404874,0.012943516836932328,0.000207546398350301,0.07002488054493267,-3.1394475400054818,-1.741249875179834,-0.42643274735432496,0.043134650302515565,0.0005169826177425672,-5.6161898485674575,-0.012270442698109299,-4.5999141719257075,-1.6316533550785657,-0.6339853887004628,-0.014006390991480266,-0.18109420633077666,-1.0459304423053195,-1.6876910757701853,-0.41118227439696287,-0.006684944189544827,-0.001083115708557164
0.26,0.07131479813925197,0.9212478941485392,-1.812774654154706,-0.051451073698855876,0.01332968616274524,0.0002103968899444168,0.015158640047842627,-3.1398148346712387,-1.7867179640212265,-0.4421199079450999,0.03861693258129116,0.0002850491594115788,-5.917362709083822,-0.013312531838146308,-4.068358535049132,-1.4750497263825544,-0.48725195548938793,-0.006960797991141021,-0.28087001203745626,-0.5707944589878148,-1.4167466354136353,-0.3500158925165232,0.007251261775598962,-0.001002232396629289
0.27,0.07088650114040607,0.8898462155887384,-1.8310440441907196,-0.056013540660772125,0.013683988073852875,0.00021125466836860522,-0.0428296998845909,-3.1401678559800836,-1.826939003601365,-0.4562466961916249,0.0354301911107635,8.577784241884252e-05,-6.206781891759206,-0.01432916893996529,-3.510430092978531,-1.3077881080909677,-0.33674371352713894,0.0019791076207447134,-0.4172168795421126,-0.07279461375262053,-1.1345195103389782,-0.28599508126895273,0.022738898912643916,-0.0008968720460417136
0.28,0.06984818847400016,0.8584411784203548,-1.8496605927179166,-0.0607006551782154,0.014019492404915585,0.00021049911784752563,-0.10383126664059056,-3.1405037168383596,-1.8616548527196863,-0.4687114517443275,0.03355043310627102,-7.555505210795748e-05,-6.479162325064536,-0.015301403206139295,-2.928901086629318,-1.1309243446071928,-0.1989192992322577,0.010963904796707169,-0.5927919333923337,0.44796723730466836,-0.8418090578140124,-0.21931490026165845,0.03962316506773778,-0.000766213606841413
0.29,0.06817144583024219,0.8270329862303645,-1.8685669471321373,-0.06549487867784949,0.014347833483681887,0.00020850858394572136,-0.1676742643757978,-3.140819218999035,-1.8906354414220725,-0.47942234996340866,0.03283410787663026,-0.00019905339018042828,-6.72840336841912,-0.01620855228258073,-2.326714552315515,-0.9454695707238816,-0.0830495237964719,0.018933851197592944,-0.8091394525171683,0.9911560574207162,-0.5394457567238757,-0.15017643067615538,0.05770070623494927,-0.0006099166624732527
0.3,0.06583025133533003,0.7956218775783194,-1.8877037508289594,-0.07037785053945098,0.014678596680366493,0.0002056277874189577,-0.2341194494912158,-3.1411108652045137,-1.9136803696822082,-0.4882971861601477,0.033076319668460544,-0.00028807965267636424,-6.948443332314663,-0.017028617481578034,-1.7069723623237123,-0.7524127970539185,0.0073504160111443895,0.02541952907889833,-1.0664576379983761,1.5561672720179,-0.22829307776977303,-0.07878665068273076,0.07672098197275799,-0.00042825950563210233
0.31,0.06280161376648413,0.7642081287926344,-1.9070099547431514,-0.07533048387319015,0.01501914694689932,0.0002021523897994595,-0.3028637568845903,-3.141374878568497,-1.9306203914192013,-0.4952633333739175,0.03405502665328269,-0.00034753976194982236,-7.13381169826008,-0.017738638222243197,-1.072878757062154,-0.5527223373589618,0.07270065635174205,0.030327219512912507,-1.363415717013336,2.1420984467673407,0.09075243686878576,-0.005357836470218258,0.09639094944337064,-0.00022223552434426776
0.32,0.05906612861493339,0.7327920565446729,-1.9264231381655106,-0.08033306064658462,0.015374742854937319,0.0001983252331712702,-0.3735485151550739,-3.1416072247961484,-1.9413183422359248,-0.5002576773394465,0.03555959080379985,-0.00038271566281892897,-7.27988028094567,-0.01831443417448157,-0.42781292541751714,-0.3473860008898353,0.11571265692467136,0.03377019481639376,-1.6970323293778435,2.747689473699072,0.4167364373853073,0.06988649106625051,0.11638210668924467,6.400611860541338e-06
0.33,0.054608436024726724,0.7013740201509832,-1.9458798459546702,-0.08536532978959878,0.015748804564675374,0.00019433944037795825,-0.4457692590206668,-3.1418036393689737,-1.9456707789159569,-0.5032269143014161,0.03740617097380546,-0.0003985792793311962,-7.3829024128849445,-0.01873064587043402,0.22441167795870703,-0.13751162419012009,0.1401415684393328,0.03595547060521431,-2.0626215464661786,3.3712141806383267,0.7485890667038129,0.14669685533462526,0.13633890864023462,0.00025513001016490115
0.34,0.04941758360369394,0.6699544233805269,-1.9653159675834202,-0.09040661784704108,0.016143241401220122,0.00019034486173348349,-0.5190852421032778,-3.1419596770456253,-1.943612162874999,-0.5041288057442311,0.03944368365447488,-0.00039945786444747577,-7.439152102926249,-0.018956864329609996,0.8765237403032464,0.07464047114478278,0.14996367520728526,0.037115868499935534,-2.4536744997745545,4.009654891547963,1.084637376691672,0.22467072865460977,0.15588163584955927,0.0005206952968224442
0.35000000000000003,0.043487384165877836,0.638533713942845,-1.9846674551589398,-0.09543605273262154,0.01655877899946367,0.000186455615338975,-0.5930199437816105,-3.142070943768198,-1.9351487575519557,-0.5029434885580459,0.04155375982435483,-0.0003889246394508469,-7.444194963419538,-0.018954232571991567,1.5141813302285778,0.2844213352530707,0.14888207555564037,0.037473286478404866,-2.8617318253194144,4.657630741172632,1.4220219479357679,0.3031009724501655,0.1746062095176824,0.0007990727591398688
0.36,0.036816843802188616,0.607112377971339,-2.003871734505098,-0.10043302125694517,0.016995252031381938,0.0001827573378705625,-0.667054036368922,-3.1421335971506,-1.9204279346157909,-0.49969685243236284,0.04364730319182666,-0.00036982774684125164,-7.394051552711509,0.47130908423116985,2.1175513647509527,0.48529281320601747,0.14005288874868072,0.03722083602095916,-3.276830151935254,5.623130600635338,1.8776857268790328,0.4081172182516359,0.19201460125448477,0.0010997478177969722
0.37,0.029410545794308338,0.5757396975997376,-2.0228691708475157,-0.10537815272706207,0.017451838049006806,0.00017931352561754185,-0.7406298007880276,-3.13726803716013,-1.899743634241783,-0.49451314701168947,0.04565860176248677,-0.00034438122530206584,-7.293974173845279,1.652113074593384,2.6985954814153006,0.6762938110115861,0.12586807018028878,0.036479997275773446,-3.6871420240738377,7.046454734081875,2.502035865245207,0.551133704650919,0.20759992873525487,0.0014217973421436604
0.38,0.021278118524781363,0.5445336825292986,-2.0416016899941414,-0.11025345716786528,0.017927248375318113,0.0001761693764824153,-0.8132427269526975,-3.120601507043913,-1.8732519146625666,-0.48753044408032087,0.0475410326311307,-0.0003144149135126542,-7.146249425700428,2.795383327364785,3.2616230774692845,0.8527540812061858,0.10836385895913736,0.035326752604501244,-4.076970508121871,8.46232548693238,3.110698099514445,0.6905941100667878,0.22092302277391207,0.001734906541805429
0.39,0.012433999833828244,0.513608606702533,-2.06001309624777,-0.11504215163311812,0.018419902777657704,0.00017335425771016679,-0.8844118690953119,-3.092507582676551,-1.8411406253628617,-0.4788694465252839,0.049265440233959235,-0.0002815118772248516,-6.953359111824206,3.890580889284126,3.802242460879949,1.0159984137608618,0.08924497935514353,0.033873293699147086,-4.4334453059742955,9.856676227086396,3.6990919287040502,0.8254817506070726,0.23167354919492666,0.002032476050537278
0.4,0.002897181774553028,0.4830739535742691,-2.0780494943194543,-0.11972858238590929,0.01892806171578315,0.00017088554911836462,-0.9536818059275215,-3.0534653128263964,-1.80363980716843,-0.4686430752791174,0.05081589381254475,-0.00024687085918021666,-6.7183187775840745,4.9323009056018305,4.316772186139053,1.1669830250356128,0.06973648412347444,0.032226742546766274,-4.74471188287624,11.21865516598439,4.2640323070122115,0.9550907936799646,0.23962549110593706,0.0023085771657809684
0.41000000000000003,-0.007309096854459707,0.4530338731154134,-2.0956596399739014,-0.12429817452374274,0.019449921991964825,0.00016877191668074158,-1.0206278629012735,-3.0040080458855725,-1.761014565444728,-0.4569592137833449,0.05218602761816733,-0.00021136324376230375,-6.444502462840465,5.9170804766290415,4.802048494032773,1.3063198525518303,0.05067079363579552,0.030471942768892868,-5.000509967540389,12.538776459935876,4.802921190159879,1.0788412732003188,0.2446405934665682,0.002558047754741405
0.42,-0.01815769281312027,0.42358683261840585,-2.112795240814904,-0.12873740619078225,0.019983682751653725,0.00016701582443434193,-1.0848595958660563,-2.9447040497007535,-1.7135600841002678,-0.4439231667039509,0.05337607596888983,-0.00017560922463996358,-6.135533583457682,6.842443570615071,5.255407451845079,1.4343716913899058,0.032572347438154736,0.028672355653433623,-5.192644655626583,13.808497493463506,5.313534197060904,1.1962301410021916,0.24666809096866532,0.0027766167586361955
0.43,-0.029617924794924547,0.3948253661936395,-2.129411209303291,-0.13303379940206875,0.02052758841244366,0.00016561538179194602,-1.1460231981804279,-2.876146642476633,-1.6615968488386466,-0.42963932112865066,0.054390566078993424,-0.00014004426423959085,-5.795193410614241,7.706181810168922,5.674703630066773,1.5513457825791193,0.015733539049968215,0.0268737118749538,-5.315307811119652,15.019918108482646,5.793871523788713,1.3067975054176701,0.24574062526629487,0.002960987134631896
0.44,-0.04165595486757405,0.36683585140059305,-2.145465866484408,-0.13717591952945668,0.021079954294525256,0.00016456566134752889,-1.2038030072649506,-2.798951479304643,-1.6054657181117136,-0.4142120127387931,0.05523658820815992,-0.00010497204444171219,-5.426537526160941,8.61549014684745,6.0502239368780835,1.654581612303005,0.00028807797860963547,0.025107711854291725,-5.3649401275113675,16.23795030797318,6.269878710867259,1.4164287936277014,0.2419334296613942,0.0031121806288602035
0.45,-0.0542350971004355,0.33970916019957953,-2.1609217582082954,-0.14115372999660086,0.02163917610916428,0.00016385942770233024,-1.2579142232861455,-2.712669120101352,-1.5455891723887452,-0.3977810467144176,0.055922181463902446,-7.062336451986376e-05,-5.025953098695013,10.748570969399427,6.2926231589421135,1.7124653795707019,-0.013702512094997843,0.023387644838606114,-5.337004765141698,18.240540754382376,7.041369398064356,1.5933890101965207,0.23502851997096635,0.0032641980636595397
0.46,-0.06731546169127439,0.31365774396633217,-2.175752963097755,-0.14496254061156572,0.022203692264310033,0.00016348523259613668,-1.3080364590838893,-2.6051416233247338,-1.483120488945948,-0.3808810614964842,0.05645161551457498,-3.7419510619355143e-05,-4.608665889632441,12.275824462240882,6.527136112844058,1.7535769487036958,-0.02679088604493529,0.021639878218230102,-5.226873181426677,19.8164391592203,7.63359998167065,1.729260434806914,0.2252901110474764,0.003352690598492485
0.47000000000000003,-0.08085547366221374,0.28883378423762207,-2.1899350987460537,-0.1485985711951647,0.02277201848696238,0.0001634272226788893,-1.3540011970939345,-2.482395972871007,-1.4182135648298642,-0.3636030583598987,0.05683262226523496,-5.800991724736836e-06,-4.177814724782205,13.301003143790034,6.747087828175111,1.7856566983777356,-0.038705854509505144,0.01990439134213773,-5.042571072046092,21.02355667993964,8.074435821904508,1.8304549447050578,0.21320102368725766,0.0033847370662075118
0.48,-0.09481218918648719,0.26533951075574774,-2.20344581504126,-0.15205847390431146,0.023342765847166925,0.00016366733595814224,-1.3956715524273455,-2.3494273481874313,-1.351071629520649,-0.345990270914675,0.05707473602045443,2.4011327925292004e-05,-3.7364411045877732,13.916205124228785,6.947355587010577,1.8135020337523002,-0.04941632003177787,0.01822749352633135,-4.793725754633046,21.915784527263764,8.3888605152803,1.9027088972603936,0.19923508467786366,0.0033676165769351996
0.49,-0.10914160164927164,0.24323636031873191,-2.2162651627769154,-0.15533906461279914,0.02391464225893105,0.0001641870138961568,-1.4329412462784443,-2.2103150437015837,-1.2819347735655118,-0.32805907084876856,0.05718764117641264,5.19677938014553e-05,-3.2874738368514964,14.199808708000315,7.124287168759764,1.8398728817981436,-0.05902332842184066,0.01663844379452417,-4.490722382304136,22.54088775301583,8.598318888916767,1.950934420688723,0.18383790829269311,0.0033084343152567017
0.5,-0.1237989360237631,0.22255277105778687,-2.228375843735167,-0.15843719221101027,0.024486445063000843,0.00016496825295150562,-1.4657334374491453,-2.068358926094505,-1.2110680958251197,-0.3098127598211115,0.05718028040697934,7.812390553488388e-05,-2.8337035886082886,14.218258141457492,7.275415780880429,1.86612822107476,-0.06768827921016651,0.015151987846062198,-4.144035372799374,22.94104231965521,8.721135995175754,1.9793186614379017,0.16741477839062002,0.0032139548642767337
0.51,-0.13873892911713048,0.20329078964601063,-2.2397633648049933,-0.16134969977431424,0.025057049631318017,0.00016599416809228638,-1.4939993093367394,-1.9261981411776246,-1.1387521069826545,-0.2912507563303962,0.05706045683171721,0.00010259151407807774,-2.377766478105198,14.027644943193955,7.399234551888938,1.892689125317716,-0.07558845645855783,0.01377307896760449,-3.7637263406777715,23.153336406595287,8.772917258075944,1.9914191094322513,0.15032402261543956,0.0030904869959845174
0.52,-0.15391609411988466,0.18543164871120774,-2.2504161141798638,-0.1640734443988724,0.02562539703557791,0.00016724923399774318,-1.5177165002754176,-1.7859140934802904,-1.0652749374870365,-0.2723744624558153,0.05683474042598924,0.00012550659054568,-1.9221343164302365,13.675102740319264,7.495015894188413,1.9193735642328136,-0.0828913143388661,0.012500563336129034,-3.3591010090668436,23.21023800723618,8.76691436075578,1.9902507655314228,0.1328746739710019,0.0029438124643764675
0.53,-0.16928496853799685,0.16894045323705853,-2.26032537426343,-0.1666053519720787,0.026190482525566862,0.00016871932450494094,-1.5368874418112184,-1.649119547414921,-0.9909260083565992,-0.25319075732063134,0.056508548998895326,0.00014700905071977764,-1.4691096804475163,13.20003509161189,7.562664572640262,1.9456365991251232,-0.0897411989279604,0.01132972264376253,-2.938504426606615,23.140032170955283,8.714351177893898,1.9783635171753908,0.1153272802259786,0.0027791507744914686
0.54,-0.18480034505606516,0.1537700981558098,-2.2694852833312815,-0.16894249010924342,0.026751345707152718,0.00017039163266361872,-1.5515376518068307,-1.517035508124872,-0.9159909067851681,-0.23371381371647182,0.05608631815858555,0.00016723081586777843,-1.020824352198509,12.63531440624725,7.602587237041934,1.9707377802024126,-0.09625399541367052,0.010253954416717725,-2.509227657455865,22.967312940901216,8.624741518505388,1.957916947933526,0.09789683256936654,0.0026011559366874042
0.55,-0.2004174852063607,0.13986453644992763,-2.2778927567372986,-0.1710821480007509,0.02730706276194474,0.00017225452584158636,-1.5617140150295543,-1.3905561705882177,-0.840747340601731,-0.2139657891507465,0.055571705479202385,0.00018628931779676416,-0.5792207088326815,12.06886014332786,7.611053441718489,1.992288039429198,-0.10251615771814526,0.009265833727977846,-2.0775046251294675,22.755104272531632,8.522418863185743,1.9344944124020653,0.08074403193676674,0.0024159400690258537
0.56,-0.21609231407661053,0.12716751210700367,-2.285547731761609,-0.17302211732091088,0.027856738324221166,0.0001742971969778773,-1.5674828870249822,-1.2697024342923973,-0.7654975024310011,-0.19399693201599924,0.05496755622764274,0.00020426711362909433,-0.14625101977414015,12.092106782155913,7.546327313025426,1.9938375806146666,-0.10860617480298998,0.008354000961152241,-1.648411030299581,22.91446113912167,8.567307748532667,1.9449850863716271,0.06387186435075917,0.0022457426977499804
0.5700000000000001,-0.23178161644215284,0.11568128189423223,-2.29245638866888,-0.17476273431837902,0.028399477397926875,0.00017650760185249393,-1.5689302365542308,-1.1486230212771436,-0.6908656907271093,-0.17406169974681454,0.05427390737057085,0.0002210404874616625,0.2759284750078515,12.075804424711452,7.455223096355905,1.9822145771731385,-0.11477483781675613,0.007472789115278378,-1.2223046158464923,23.015593540163742,8.589265563882105,1.9500267659646342,0.04734969023391376,0.002068490316947484
0.58,-0.2474432516140161,0.10540413954403823,-2.298627544139724,-0.17630551611295645,0.028934394851738394,0.0001788721355318961,-1.5661635171863248,-1.0277142350193997,-0.6171155470844129,-0.1542781794577433,0.05349174538115175,0.00023645336794021722,0.6856831005197457,12.010560058682653,7.339700998635074,1.95924299210661,-0.12093040565077384,0.0066162752209710796,-0.8034848656471281,23.05386592980191,8.58652951854419,1.9492016476752152,0.031298619519129794,0.0018864197104189791
0.59,-0.2630363172149998,0.09632948379399944,-2.3040724658939533,-0.17765299870388235,0.02946062288497968,0.00018137590742032232,-1.55930656009837,-0.9074655750038788,-0.5444921754229275,-0.13474825909259003,0.05262280332412835,0.00025037718884262283,1.0815446797145518,11.898694442396062,7.201040420154008,1.9263481391820676,-0.12700145018210485,0.0057854156320806815,-0.39563606218148484,23.03275945997127,8.560516850581346,1.9428309638300978,0.015818096795141776,0.0017020029703867742
0.6,-0.2785212962506623,0.08844604990527605,-2.3088047383004793,-0.17880861979122392,0.02997731662400142,0.00018400305540055515,-1.548497903566248,-0.7883433888723393,-0.4732272406525917,-0.11556210873415829,0.05166937390217419,0.0002627147980232827,1.4622062466933423,11.742423804614834,7.040657656305484,1.8847337399693345,-0.13293255922552483,0.004981930612243168,-0.0017833041177235387,22.955697151573183,8.51259351681444,1.9312270494773132,0.0009868261252947395,0.0015174685024142475
0.61,-0.2938601880044002,0.08173813123509592,-2.3128401169700274,-0.17977661743492576,0.03048365860104045,0.00018673702413793256,-1.533889175373794,-0.6707918670180126,-0.40353786695481153,-0.09679976437018403,0.05063419770390294,0.0002733968737377404,1.8265184659438167,11.544103101779696,6.860053506932051,1.8354386014517132,-0.13867742080479495,0.0042075251466164865,0.37564617418272084,22.826175822307746,8.444129701404506,1.9147059509933397,-0.0131347570189344,0.001334806658128375
0.62,-0.3090166231308238,0.07618581490930283,-2.316196376512912,-0.18056194078655538,0.030978862555615647,0.00018956080830217286,-1.5156435126423575,-0.5552316325793083,-0.335625954288482,-0.07853233516296249,0.04952039545751963,0.0002823784164240292,2.173486288800719,11.306168859039186,6.66078929416555,1.7793801545944206,-0.14419501234472065,0.003463847996403313,0.7347529584922682,22.64769964993294,8.356476908192661,1.8935818593962406,-0.026501915835215106,0.0011557706379366284
0.63,-0.32395596329317244,0.07176522583737775,-2.318893153473672,-0.18117016969199376,0.03146217680470313,0.00019245716872126134,-1.4939340162348655,-0.4420589071925076,-0.26967769607599823,-0.06082289054383785,0.04833142490874857,0.00028963604190884783,2.5022656424179566,11.03112633735081,6.444464961305652,1.717385500255034,-0.1494476855361846,0.002752517049068759,1.074090799178228,22.423752656559596,8.250960314960803,1.8681650668076355,-0.03908306846781887,0.0009818842468704856
0.64,-0.33864538568432795,0.06844877772740945,-2.320951786278599,-0.18160744094481235,0.03193288730063912,0.00019540882749126352,-1.468942239115548,-0.3316448109968299,-0.20586328049269795,-0.04372712528185835,0.047071049593598875,0.0002951658770002188,2.812160079509286,10.72153869979792,6.21270114751275,1.6502133733690556,-0.15440046444871314,0.002075121630982113,1.392592869908708,22.157779767299814,8.12887437140935,1.8387606684916182,-0.05085739103475192,0.0008144531495732966
0.65,-0.3530539527727185,0.06620542996900361,-2.3223951537165894,-0.18188037964057682,0.0323903204160161,0.00019839864563995406,-1.4408567088390565,-0.22433477584058437,-0.14433674379903474,-0.027293869576446552,0.045743311537698,0.00029898181486905426,3.1026172678011497,10.380016348098122,5.967124448719002,1.578569401042202,-0.15902106989898002,0.001433201092984171,1.6895029478828816,21.853173965869935,7.991480656371956,1.8056677873979945,-0.061812653391488726,0.0006545781395935746
0.66,-0.3671526676288062,0.06500094927881081,-2.3232475132206654,-0.1819960345738574,0.03283384544799278,0.0002014097851862129,-1.4098714856087706,-0.12044806901928008,-0.08523595040759484,-0.011565493328059572,0.044352503197668855,0.00030111395462588397,3.3732251842379766,10.0092060351122,5.709355173131726,1.503116440565023,-0.16328033481036996,0.0008282094677234397,1.9643143361436106,21.513268044539902,7.840007401054343,1.7691791880661762,-0.0719433449720579,0.0005031692738066957
0.67,-0.3809145152161271,0.06479817498913137,-2.3235343400191724,-0.18196181697830272,0.03326287681016011,0.00020442585631979564,-1.3761847587320915,-0.020277428967943767,-0.028682679850697203,0.0034217595554682304,0.042903136216732835,0.00030160711335827417,3.6237078807034098,9.611779704593705,5.440997038354663,1.4244813398194083,-0.16715278176160098,0.00026147488173947075,2.216718263966618,21.141329728923377,7.675650201048338,1.7295811731770838,-0.08124912206381597,0.00036096001795478063
0.68,-0.3943144900727286,0.06555728683957453,-2.3232821680710742,-0.18178544216928103,0.03367687587119487,0.00020743104978997715,-1.3399974856601482,0.07591118504431493,0.02521719480981454,0.017637480902170016,0.041399906103475693,0.00030051934701815224,3.853920702373719,9.190423096741391,5.163628383630986,1.343259128873278,-0.17061720946703218,-0.00026583998793916486,2.4465625499248165,20.740559106739603,7.49957350138139,1.6871536699909255,-0.08973358511626238,0.00022852081971473355
0.6900000000000001,-0.4073296108628111,0.06723607411396659,-2.322518433578834,-0.18147487383322947,0.034075352400870666,0.00021041025429778323,-1.3015120790082464,0.1678787274392071,0.07637344922405767,0.031056833605155935,0.03984765296757948,0.00029792045078060704,4.063844863593802,8.74782419189521,4.87879457609035,1.260015400365269,-0.1736571893270451,-0.0007527721748308291,2.65382051371631,20.314087432159024,7.312912496441768,1.6421704269837982,-0.09740337557935343,0.0001062717659457351
0.7000000000000001,-0.4199389223420102,0.0697902049531986,-2.3212713217765573,-0.1810382708366297,0.03445786559188383,0.00021334915862850304,-1.2609311479199092,0.25541308392319984,0.12471118022764521,0.043660299659976635,0.038251319101316406,0.00029389043307198023,4.253581316312057,8.286661584971739,4.588001375654468,1.175287446913316,-0.17626141296069875,-0.0011985850372049356,2.8385694852209022,19.864976530169976,7.116775146694973,1.5948992546164587,-0.10426756652785953,-5.505816760956932e-06
0.71,-0.432123485350004,0.07317349467167002,-2.3195696176133946,-0.18048393651445338,0.03482402463767479,0.00021623433835441793,-1.21845630079938,0.3383289718471425,0.17017041631627614,0.05543343221763275,0.036615904579096165,0.00028851797259148827,4.423343879813172,7.809592897715187,4.292709092014647,1.089584580926882,-0.17842386097876073,-0.0016027861429352974,3.000977781272032,19.39621818448177,6.9122440751696566,1.545602257948672,-0.11033730998023028,-0.00010665879916394453
0.72,-0.44386635551760767,0.07733817191200637,-2.317442560886947,-0.17982027045352264,0.03517348885997389,0.0002190533271209786,-1.174287016760364,0.41646772403363463,0.2127056726447774,0.06636660609307372,0.03494642222991045,0.0002818988766560665,4.573451635236293,7.319243345920652,3.994327421251569,1.0033879540891206,-0.18014378492814132,-0.0019651364434796204,3.1412986945092167,18.91073305094263,6.700378166310852,1.4945360221786386,-0.1156256962302602,-0.00019715258902492549
0.73,-0.4551525514487347,0.08223514149091865,-2.3149197063241878,-0.179055722818457,0.03550596739368818,0.0002217946727550939,-1.128619593112703,0.4896969578912278,0.25228545627592963,0.07645476350656569,0.03324785337142862,0.00027413456341152695,4.704320622017522,6.818194584560361,3.6942108912062785,0.9171501117253413,-0.18142551012804375,-0.0022856515940834488,3.2598698521732326,18.41136878999625,6.4822137458763285,1.441951724661036,-0.12014777641774382,-0.0002770621647317632
0.74,-0.4659690132071835,0.08781424281909925,-2.3120307890546985,-0.1781987512827511,0.0358212184498901,0.0002244479786659267,-1.0816461758448825,0.55791013281806,0.2888917269489371,0.08569715357059042,0.031525105620192256,0.00026533059108328126,4.81645490420483,6.308973955093919,3.3936548753705686,0.8312944547334808,-0.1822780782042699,-0.00256459663159192,3.3571162405929016,17.90089725115759,6.258765271479723,1.3880951581856584,-0.12392069861087344,-0.0003465635593919651
0.75,-0.47630455200105715,0.09402450282011424,-2.308805595870375,-0.1772577806296412,0.03611904818931449,0.0002270039312245684,-1.033553879387369,0.6210260001014984,0.3225193184323473,0.0940970653109898,0.029782973942438767,0.00025559525586417306,4.91043710200225,5.794044255269963,3.0938921561263584,0.7462147335891984,-0.18271475543008364,-0.00280247557965696,3.4335552366253452,17.382010665141074,6.031025507709059,1.3332066599672145,-0.12696390944043723,-0.000405925550296031
0.76,-0.4861497920109959,0.10081438232701652,-2.305273842615492,-0.17624116508031742,0.03639930924842253,0.00022945431399196158,-0.9845240009938742,0.6789879506902284,0.3531753254882691,0.10166155493237791,0.0280261059108044,0.00024503827673931695,4.9869184999876,5.275794150880822,2.7960900342598496,0.6622746625358218,-0.18275243708286837,-0.0030000176653257604,3.4898021173280243,16.85731690917825,5.799965199549295,1.2775209494274051,-0.12929937718274417,-0.0004555013324019874
0.77,-0.49549710535067504,0.10813201500082667,-2.3014650579998484,-0.1751571533934048,0.036661898967488275,0.00023179200980502228,-0.9347313339679119,0.7317632673810152,0.3808784615643673,0.10840116869126422,0.026258971906574533,0.00023376958130607057,5.0466088762837735,4.756529318903129,2.5013479812027537,0.5798077111812105,-0.18241097967703723,-0.003158161619198019,3.526574732553454,16.329333979085103,5.566532281473069,1.2212668827054796,-0.13095179821918745,-0.0004957200020867296
0.78,-0.5043405411759094,0.11592543788914425,-2.297408474075958,-0.17401385676181844,0.0369067573751877,0.00023401099182771313,-0.8843435825234378,0.7793422888317585,0.40565839238903406,0.11432966315863588,0.024485840769942573,0.0002218982022690849,5.09026617832252,4.238464428411901,2.2106958452749073,0.49911711146269155,-0.18171249242332266,-0.003278039466453553,3.5446962582740005,15.800483890379665,5.331650692935968,1.1646671390806445,-0.13194875505787063,-0.0005270777284951197
0.79,-0.5126757499740584,0.12414281282768411,-2.293132923567634,-0.1728192195124779,0.037133864986908044,0.00023610630472574044,-0.833520879814901,0.8217374938539862,0.42755505083241674,0.11946372493405562,0.022710761172034733,0.0002095312898027299,5.118686205002712,3.723716018009933,1.9250926082739284,0.4204760966920098,-0.18068061727712603,-0.0033609609269897867,3.5450952488383107,15.273086246015906,5.096218875611861,1.1079378550010075,-0.13232080227239892,-0.0005501285579675272
0.8,-0.5204999040648268,0.13273263797774276,-2.2886667441834496,-0.1715809925926409,0.03734324047456829,0.00023807403713476739,-0.7824154090768402,0.8589825150058663,0.44661793841843,0.1238226919836984,0.020937548766024668,0.00019677324090269427,5.132692436083077,3.214296327928495,1.6454256916629317,0.3441283774672925,-0.17933982386298908,-0.003408399196984657,3.5288024864333045,14.749351744452138,4.861108042241743,1.0512882243922974,-0.13210146408120857,-0.0005654748556804107
0.81,-0.5278116153288931,0.14164394888845164,-2.2840376899943275,-0.17030670980467766,0.0375349382644018,0.00023991128656898557,-0.7311711264066216,0.8911310910708877,0.46290541891221426,0.12742827879632365,0.019169778983351718,0.00018372494342181774,5.133126150472822,2.7121081192517864,1.372510802100794,0.27028884752330384,-0.1777147417244862,-0.0034219786637965655,3.4969444153364253,14.231375898930487,4.627160306870672,0.9949200835341757,-0.13132713496821985,-0.0005737574468914233
0.8200000000000001,-0.5346108511519806,0.1508265085716157,-2.279272849900906,-0.16900366672989248,0.037709046116174774,0.00024161611786504815,-0.6799235823087502,0.9182559683164053,0.4764840093421667,0.1303043074785187,0.017410785177296894,0.00017048312960625729,5.120836964711129,2.2189404934503107,1.107092298413142,0.19914450418483476,-0.17582954819467034,-0.003403464714488713,3.450733211384644,13.72113322540199,4.395186763041431,0.9390274977852139,-0.13003688170636574,-0.0005756455681585422
0.8300000000000001,-0.5408988495300535,0.16023098617706003,-2.274398573164244,-0.16767890226219279,0.03786568273300295,0.0002431875161844613,-0.6287998378072932,0.9404477605444337,0.4874276736661466,0.1324764467699688,0.015663661682817135,0.0001571398319413145,5.096673910206653,1.7364657057403403,0.8498440536445395,0.13085556169842683,-0.17370742594656718,-0.0033547556184054805,3.391453766360659,13.220472128893816,4.165965588587084,0.8837963654261898,-0.12827215128247713,-0.0005718267756180224
0.84,-0.5466780342275327,0.16980912395576303,-2.2694404019237333,-0.166339182654533,0.03800499544559191,0.0002446253355113395,-0.5779184697479129,0.9578137778703015,0.4958171240510874,0.13397196076597598,0.013931271258896018,0.00014378193268782508,5.06147715261135,1.2662369472170627,0.6013707775396173,0.06555673106822191,-0.1713701001911332,-0.003277876179397232,3.320448052987091,12.731110680134798,3.9402402444218416,0.829404051206519,-0.1260763943170266,-0.0005629969813319226
0.85,-0.5519519308163092,0.17951389229480277,-2.264423010579666,-0.16499098796551917,0.03812715800865749,0.0002459302434894813,-0.5273896588776577,0.9704768339039753,0.5017391344067467,0.13481946890138516,0.01221625630655793,0.00013049079781417755,5.016070439800377,0.8096870537979524,0.3622097571251657,0.003358636972132345,-0.16883746171494352,-0.003174972650664021,3.239097473301147,12.254633429217135,3.718717821320168,0.7760190590881421,-0.12349461750784624,-0.0005498507995987576
0.86,-0.5567250843505707,0.18929963270060815,-2.259370151875618,-0.16364050078061818,0.03823236854075493,0.00024710366334922417,-0.47731535342614617,0.9785740405805377,0.5052858704047752,0.1350487184900983,0.010521053209743869,0.00011734198597428552,4.961254347047667,0.3681280852336921,0.13283296641816456,-0.055650659431358385,-0.16612727859092757,-0.003048308348747586,3.1488038792443014,11.792489354237489,3.5020675742243053,0.7238007504443859,-0.12057288136277358,-0.0005330723836450682
0.87,-0.5610029793528302,0.19912218869372553,-2.2543046094782717,-0.1622935970722392,0.03832084763199913,0.0002481477135842624,-0.42778950022594775,0.9822555993117384,0.5065542397346242,0.1346903708378978,0.008847909124420383,0.00010440502350382713,4.897800369778903,-0.057248294852797074,-0.08635050910330697,-0.11140406356254562,-0.16325499648482378,-0.002900259165533381,3.0509699905337735,11.345990993277692,3.2909196691613842,0.6728991108217214,-0.11735776105108074,-0.000513326920717364
0.88,-0.5647919627018914,0.20893902465807013,-2.249248156820159,-0.1609558390556064,0.0383928366374027,0.0002490651459579114,-0.3788983349061209,0.9816835964344587,0.5056452658112374,0.13377580166328065,0.007198900540356725,9.174323736489992e-05,4.826445896316303,-0.46536971652370507,-0.2949917915329485,-0.16385380770030933,-0.16023362505959682,-0.0027333083029974503,2.9469799253505604,10.916314760465745,3.085864154275828,0.6234545655077028,-0.11389578868453515,-0.0004912529322431973
0.89,-0.568099169925578,0.21870933275948387,-2.244221521944446,-0.15963246989280933,0.03844859616696703,0.0002498592823476072,-0.33072072236866046,0.9770308101413737,0.5026634875713234,0.13233691627970642,0.005575952956433056,7.941363896957681e-05,4.747890075774771,-0.8552813640514718,-0.49279933368008644,-0.21296979858826592,-0.15707370599074721,-0.0025500393592690074,2.8381805104370637,10.504502403457993,2.8874501545013214,0.5755978417204959,-0.11023289486825226,-0.0004674554977120048
0.9,-0.570932455311637,0.22839412811170734,-2.2392443580705326,-0.15832841009560458,0.03848840477737802,0.00025053395088087073,-0.2833285386059115,0.9684795352223472,0.4977163873913294,0.13040597972047535,0.003980861041099104,6.746685332635144e-05,4.662790580097124,-1.2261436886927066,-0.6795359076413345,-0.2587379805322012,-0.1537833565549107,-0.002353127090021001,2.7258639567973293,10.111463522238754,2.696185279518038,0.529449873346184,-0.106413866102428,-0.0004425004886480158
0.91,-0.5733003261609073,0.23795633242221118,-2.234335219585055,-0.15704825547829854,0.03851255786429383,0.00025109342177427753,-0.23678708492702172,0.9562204310503828,0.49091384854774545,0.12801546173060344,0.0024153086915804705,5.59470893406791e-05,4.571761244409883,-1.5772296641369672,-0.855015519247563,-0.30115873964528106,-0.15036838154071575,-0.0021453251634313553,2.6112523841581905,9.737979038832565,2.5125352271673007,0.4851217428513101,-0.10248183274913623,-0.0004169098648480636
0.92,-0.575211881419103,0.24736084639561937,-2.2295115431547035,-0.15579627651516048,0.03852136674885672,0.00025154234326073553,-0.19115552581956025,0.9404513973408195,0.48236764303518104,0.1251978963138052,0.0008808884562894119,4.4892148645800655e-05,4.475370556628142,-1.9079216736159614,-1.0191003064257513,-0.34024537198961013,-0.1468324453459502,-0.001929450353942208,2.495484560670664,9.384705485013205,2.3369235595320452,0.44271465429467627,-0.09847779998829306,-0.00039115805107107555
0.93,-0.5766767548387328,0.25657461120884534,-2.224789633654949,-0.15457641896205096,0.03851515794728041,0.0002518856779787964,-0.14648734196298566,0.9213764813225991,0.4721909499754415,0.1219857553109525,-0.000620880157631348,3.4333471806086426e-05,4.37414095565617,-2.2177081138674293,-1.1716974757127616,-0.3760226351023377,-0.14317729548670144,-0.0017083627905303267,2.379605102550744,9.052179960522924,2.1697316263683355,0.40231993121891435,-0.09444023165128596,-0.00036566938041601813
0.9400000000000001,-0.5777050627419024,0.2655666593999377,-2.2201846546118906,-0.15339230560902464,0.03849427260820734,0.00025212864019908776,-0.10283079031695916,0.8992048191092323,0.4604979043058142,0.11841133530263222,-0.0020885339073063213,2.429622202913401e-05,4.26854888767636,-2.506179795310306,-1.3127563261072828,-0.4085253989489246,-0.13940302833509222,-0.0014849420444220662,2.2645562590744004,8.74082560739302,2.0112986102751305,0.3640190335507384,-0.09040469420131851,-0.00034081656215255484
0.9500000000000001,-0.578307356379025,0.27430815553258636,-2.215710622862494,-0.15224723903927675,0.0384590660990318,0.00025227663427527554,-0.06022936371225746,0.8741496132648687,0.44740317493965004,0.11450665697478775,-0.003520650917554641,1.4799407618779906e-05,4.159025561867596,-2.7730262102067895,-1.4422654033078848,-0.4377974088133101,-0.13550838766548878,-0.0012620590541687626,2.151172297828873,8.45095744608246,1.861921669610963,0.32788358839245374,-0.08640356556460436,-0.0003169201078020758
0.96,-0.5784945788086068,0.28277242701103583,-2.211380407150913,-0.1511442052796352,0.03840990771956563,0.00025233519472734353,-0.01872224295817935,0.8464271478449448,0.43302157115812023,0.11030337596415588,-0.004915837946616798,5.856045206801555e-06,4.045958340431617,-3.0180317316593928,-1.5602498204068693,-0.4638901690362296,-0.1314910865403789,-0.0010425441331185503,2.040176408176711,8.182788425403595,1.7218561583088492,0.293975430641351,-0.08246581111879592,-0.0002942486304347362
0.97,-0.578278026159916,0.2909349854266818,-2.2072057303946395,-0.1500858782385326,0.038347180519295025,0.000252309928389721,0.02165526486907573,0.8162558415645931,0.4174676756273383,0.1058327041102613,-0.006272720027060367,-2.5266337622550907e-06,3.929692693293122,-3.2410717964215405,-1.6667687734446979,-0.4868619529946798,-0.1273481431602228,-0.0008291515078124867,1.93217996087789,7.936435549524395,1.5913159059873025,0.262346650622473,-0.07861682700384574,-0.0002730199187137045
0.98,-0.5776693130839452,0.2987735388188884,-2.203197175373172,-0.14907462483870412,0.03827128119303741,0.00025220645908266223,0.06087130759708153,0.7838553392206604,0.40085550214679044,0.10112533998284653,-0.007589932625761272,-1.0346930705873724e-05,3.810534642131823,-3.442109113967286,-1.7619132724302933,-0.5067769414934347,-0.1230762214533101,-0.0006245211275772711,1.827683898915601,7.711925960561333,1.4704735466655945,0.23303964725519977,-0.0748783490365501,-0.0002534026789153735
0.99,-0.5766803421491985,0.30626799522960174,-2.199364193612925,-0.1481125107634489,0.038182620029057424,0.0002520303752874542,0.09889709347466735,0.7494456410713324,0.38329817602467386,0.09621140752552346,-0.008866116397998355,-1.7608379520801797e-05,3.6887536234017033,-3.6211899333228748,-1.845804099412291,-0.5237044880351611,-0.11867196787056145,-0.0004311386828268482,1.7270819950818288,7.509202873745662,1.3594608898175804,0.20608718666637021,-0.07126842412819083,-0.00023551883532305212
