tonegas/nnodely-applications/joint_friction_estimation/dataset/test/mpc_mujoco_episode_0.csv
time,q1,q2,q3,q4,q5,q6,dq1,dq2,dq3,dq4,dq5,dq6,ddq1,ddq2,ddq3,ddq4,ddq5,ddq6,tau1,tau2,tau3,tau4,tau5,tau6
0.0,0.0,1.57,-1.57,0.0,0.0,0.0,0.0,0.0,0.0,0.0,0.0,0.0,5.009052410274591,-15.238258951392977,0.5988956070815163,1.1130154692887402,0.7809563702304274,-3.0575135427923783e-06,0.6992480913833518,-12.142227015716589,-7.1382653291939295,-1.5485942300670015,0.06290072453935795,1.332490160426596e-05
0.01,0.000498473591483831,1.568481410350962,-1.5699441956589464,9.999704828784887e-05,6.468674435413356e-05,7.21992175720948e-07,0.049847359148383105,-0.15185896490380751,0.005580434105369179,0.009999704828784886,0.006468674435413355,7.21992175720948e-05,4.901204977100028,-15.038553074746336,0.5167528676866944,0.9778389532166827,0.6528318668260233,0.007262712744084077,0.6821646506839347,-12.06120769646839,-7.113454306132176,-1.543948532963615,0.06160767151655761,1.8449189763883453e-06
0.02,0.0014842871137544847,1.5654641635042883,-1.5698412864623363,0.0002888357106291565,0.00018595777701840176,2.191707506079732e-06,0.09858135222706538,-0.30172468466736213,0.010290919661015325,0.018883866234130763,0.012127103266426822,0.0001469715330358784,4.7797363208192465,-14.82349806588431,0.42982850510258075,0.8653365021129673,0.5739820190670102,0.007659706977940939,0.6556919591102308,-11.958060876197134,-7.077027052046734,-1.5367453046564936,0.059718295034894606,-1.260018173644765e-05
0.03,0.002945112034673854,1.5609697039966093,-1.5697002825496014,0.000557085632311496,0.0003586890340804436,4.359536749837378e-06,0.1460824920919369,-0.4494459507678995,0.01410039127348995,0.026824992168233946,0.01727312570620418,0.00021678292437576463,4.645515347372592,-14.592695380716806,0.3407137364848687,0.7705055962561573,0.526306963277694,0.0074108402519175165,0.6204644465811895,-11.832579059094774,-7.0290340586642985,-1.5270055108926375,0.05725203283549245,-2.9907617245353703e-05
0.04,0.004867449618440786,1.5550210329087732,-1.5695302849607908,0.0008966686505336221,0.0005796400504570924,7.185997063199895e-06,0.19223375837669315,-0.5948671087836048,0.0169997588810616,0.0339583018222126,0.02209510163766488,0.00028264603133625163,4.498774391768151,-14.345721466035755,0.25164196879617506,0.6896152735774592,0.49886828641790615,0.007383543646384716,0.5772528203769851,-11.684526434363237,-6.969524321861437,-1.514750448146942,0.054229771150239074,-5.001854126742019e-05
0.05,0.007236617989906415,1.5476427537900175,-1.569340292497192,0.0013005822624706652,0.0008467870789281371,1.0648351659741334e-05,0.23691683714656295,-0.7378279118755726,0.01899924635989106,0.040391361193704324,0.026714702847104484,0.0003462354596541439,4.339374520240159,-14.082158590207548,0.16456821517515152,0.619899092189435,0.48502746293664956,0.007660558311910037,0.526957866862458,-11.513650896898952,-6.8985508354327525,-1.5000030448446589,0.050674344375061554,-7.290270005574212e-05
0.06,0.010036717778567992,1.538861117221194,-1.5691390294701981,0.0017626963498542437,0.0011589145523143603,1.4737610074844871e-05,0.2800099788661576,-0.8781636568823568,0.020126302699376104,0.04621140873835784,0.03121274733862231,0.0004089258415103536,4.166963878017876,-13.801622544818832,0.081225316368986,0.5593222787357277,0.48075050039421896,0.008233716324657525,0.4706038605103398,-11.319696911512942,-6.816176067607338,-1.482789106176631,0.04661118195870553,-9.854611031507492e-05
0.07,0.013250586132481042,1.5287040614381084,-1.5689347903739617,0.002277605447945487,0.0015153630112345936,1.9455662469734616e-05,0.32138683539130497,-1.0157055783085362,0.02042390962364089,0.05149090980912433,0.03564484589202333,0.0004718052394889744,3.9810733160276057,-13.503787852859091,0.0031626467238332623,0.506403169274158,0.48358708303050335,0.009102835622479377,0.40933034547314556,-11.102419261387382,-6.722477403037374,-1.463138502188308,0.04206903341413967,-0.00012694011812114733
0.08,0.016859745138333083,1.517201246638873,-1.568735298870493,0.0028405229280447607,0.0019158717994555343,2.4813461670107506e-05,0.3609159005852042,-1.1502814799235563,0.019949150346856726,0.05629174800992736,0.04005087882209407,0.0005357799200372888,3.7811749864184425,-13.188410741738577,-0.06822854291594638,0.46007579147188693,0.49204930450913764,0.010286239309630352,0.34438124242119805,-10.86159764360775,-6.6175525103502935,-1.4410862926378663,0.03708071978397816,-0.00015807100866716385
0.09,0.0208443484693481,1.504384080787854,-1.5685475795115429,0.003447206576373381,0.002360478823247817,3.083002704137047e-05,0.3984603331015018,-1.281716585101906,0.018771935895011048,0.060668364832862025,0.044460702379228306,0.0006016565371262967,3.566719079412459,-12.855349912145332,-0.1316999051523382,0.4195838558266658,0.5052275445002543,0.01181999861969163,0.27709039223151255,-10.597052011020532,-6.501524583103848,-1.4166737789299588,0.03168386847252248,-0.0001919097855907116
0.1,0.02518312878189239,1.4902857349227128,-1.5683778414044578,0.004093907432208947,0.002849453959811208,3.753200670310539e-05,0.4338780312544289,-1.4098345865141084,0.016973810708506756,0.06467008558355665,0.0488975136563391,0.0006701979661734915,3.3371579873370343,-12.50458479435847,-0.186138311443802,0.38439878662763505,0.5225450866658008,0.013756923416308853,0.20886281838156376,-10.308658403777425,-6.374547361520745,-1.3899494653011635,0.025921592301279196,-0.000228402001626018
0.11,0.029853347647602703,1.4749411462019177,-1.5682313736072322,0.004777335570615477,0.0033832510919969147,4.4953610400774096e-05,0.4670218865710314,-1.534458872079504,0.014646779722553065,0.068342813840653,0.05337971321857067,0.0007421603697668706,3.091964030580359,-12.136232086760023,-0.23056362178303047,0.3541561904754289,0.5435903114473124,0.016166320699498415,0.14115118710677937,-9.996365563182477,-6.236810053914045,-1.3609699553174879,0.019843074763848854,-0.0002674577196608542
0.12,0.03483074945865185,1.4583870070866278,-1.568112452449852,0.005494637914750582,0.003962468489428458,5.3136781236962025e-05,0.49774018110491425,-1.6554139115289999,0.011892115738027842,0.07173023441351041,0.057921739743154343,0.0008183170836187926,2.830645705463079,-11.7505580501462,-0.264130171730411,0.32860654341051543,0.5679866875682311,0.01913402978153922,0.07542720022611521,-9.660210903011258,-6.088541687059035,-1.32980069071113,0.013504025257399813,-0.0003089417103433016
0.13,0.04008952072696881,1.4406617394628431,-1.5680242612474287,0.0062433842429476675,0.004587809663744605,6.213150046906375e-05,0.5258771268316963,-1.7725267623784653,0.008819120242340769,0.07487463281970853,0.06253411743161473,0.0008994719232101726,2.55276728810707,-11.347988998827951,-0.28613058420175363,0.3075768714498466,0.5952725706056246,0.022761849574979287,0.01314792761662803,-9.300336882650122,-5.930015313445702,-1.2965166248549007,0.0069669668691229,-0.00035266418734671636
0.14,0.04560225651917845,1.4218054526814954,-1.5679688230257782,0.007021558394857171,0.0052600376487924325,7.199611859338464e-05,0.5512735792209641,-1.8856286781347744,0.0055438221650492385,0.07781741519095035,0.06722279850478276,0.0009864618124320887,2.257977998891476,-10.92911771929752,-0.296000698977263,0.29094104685605515,0.6247687745242256,0.027165018863058554,-0.04428257359433807,-8.917006372551516,-5.761551645677402,-1.2612027496431244,0.000301320994488527,-0.00039837231538861076
0.15,0.05133993654344642,1.4018598848944726,-1.5679469469317986,0.007827552340431069,0.0059799153127469504,8.279757817659783e-05,0.5737680024267972,-1.9945567787022747,0.0021876093979737833,0.0805993945573897,0.07198776639545178,0.0010801459583213177,1.9460592025971095,-10.494706020926783,-0.293324619890722,0.2785969067325418,0.6554147481440991,0.03246564771649163,-0.09555565771532148,-8.510616780639634,-5.583522126950925,-1.2239544863328513,-0.006416747583233354,-0.0004457428201496553
0.16,0.05727191480308527,1.3808683274466296,-1.5679581889672007,0.00866016130075826,0.00674812304053953,9.461133538885945e-05,0.5931978259638852,-2.0991557447842952,-0.0011242035402066262,0.08326089603271913,0.07682077277925796,0.0011813757212261618,1.6170015555032202,-10.045682354620016,-0.27783901872367167,0.2704488896615729,0.6855566885920359,0.038778833461405926,-0.13950343856748398,-8.08171198359307,-5.3963512010641335,-1.1848779027143197,-0.013104762156218575,-0.0004943760279344621
0.17,0.06336592901344396,1.3588755325737931,-1.5680008275745176,0.009518578536374854,0.0075651431429871905,0.00010752069059992676,0.6094014210358681,-2.1992794872836456,-0.004263860731681593,0.0858417235616594,0.08170201024476603,0.001290935521106731,1.2711279731809144,-9.583132039704765,-0.24943595882022862,0.26639525757627425,0.7126770858517162,0.04618666919501302,-0.17514564129046184,-7.630990318735401,-5.200517281342841,-1.144089667720125,-0.019674681551099117,-0.0005437916659643892
0.18,0.06958813945292869,1.3359276053935405,-1.5680718544277168,0.01040238877295648,0.008431098018338206,0.00012161509559030854,0.6222210439484734,-2.294792718025272,-0.007102685319921339,0.08838102365816258,0.08659548753510159,0.001409440499038178,0.9092757443339587,-9.108393753858333,-0.20816229040526935,0.2663193418365779,0.7330717644157847,0.054693884402447095,-0.20173646361898678,-7.159365165252221,-4.996572186266144,-1.1017207362296793,-0.026034043822368572,-0.0005934297970864769
0.19,0.07590321133227973,1.3120718705907297,-1.5681669804879816,0.011311559627853348,0.00934552718474059,0.0001369868127465988,0.6315071879351044,-2.385573480281074,-0.009512606026483546,0.09091708548968669,0.09144291664023849,0.001537171715629026,0.5330758641744618,-8.622740053014281,-0.15422078987567645,0.2700849764092901,0.741518201173037,0.06415876809141391,-0.21880794432474976,-6.667814902462725,-4.785086752899611,-1.0579051402023945,-0.03208742606847054,-0.0006426443228893556
0.2,0.08227446277674931,1.2873567456437323,-1.5682806572722872,0.012246430429614851,0.010307088629100302,0.0001537250828487073,0.6371251444469587,-2.47151249469974,-0.011367678430552147,0.09348708017615036,0.09615614443597116,0.0016738270102108488,0.1452846627486519,-8.127722317160691,-0.08795967358505763,0.2775331541563446,0.731051097522065,0.0741972201869524,-0.2262096574108296,-6.157564482345284,-4.566714346158723,-1.012792703705216,-0.037738523216928124,-0.0006907168264730936
0.21,0.08866410477226722,1.2618315862466036,-1.5684061125571653,0.013207698409783728,0.0113131752459551,0.00017190676970043166,0.6389641995517902,-2.55251593971286,-0.012545528487820447,0.09612679801688771,0.10060866168547986,0.001818168685172437,-0.24982378628087443,-7.624929498660413,-0.009865332932880833,0.28848453522284245,0.6930704551068108,0.0840714279332695,-0.22413922777968326,-5.629969456037386,-4.3421484995435895,-0.9665403139360494,-0.04289268412050497,-0.0007368611606557908
0.22,0.09503360678248393,1.2355465279790345,-1.5685353996537215,0.014196402291112813,0.012359452705096433,0.00019158246760982232,0.636950201021671,-2.6285058267569172,-0.012928709655604649,0.09887038813290851,0.1046277459141332,0.001967569790939067,-0.6461494490444999,-7.115932273419058,0.07945216201540184,0.30274229961461074,0.6181278774640373,0.09260272066076847,-0.21316127049180272,-5.086489182038369,-4.112113519190648,-0.9193100085502725,-0.04746006019664893,-0.0007802392287767461
0.23,0.10134421957893405,1.2085523297961291,-1.5686594587977913,0.015213903507305239,0.013439356402401754,0.00021275756309911326,0.6310612796450124,-2.6994198182905453,-0.012405914406978951,0.10175012161924261,0.10799036973053212,0.002117509548929094,-1.0356997429810235,-6.601254915672795,0.17925970718773776,0.32009232853541647,0.4977525795574065,0.09818764427273474,-0.1942086779015903,-4.528168581708688,-3.877185617124381,-0.871233280652613,-0.05135916897892133,-0.0008199609455295968
0.24,0.10755767551034327,1.1809003217489293,-1.5687681899502615,0.016261864414006098,0.014543635659922125,0.0002353691449519461,0.6213455931409224,-2.7652008047199756,-0.010873115247022253,0.10479609067008593,0.11042792575203703,0.002261158185283282,-1.40934059897915,-6.0853319128388135,0.2888243260130867,0.3403163651808736,0.3273981288783778,0.09902076441877483,-0.16857282963031345,-3.958112347907216,-3.638658634733613,-0.8225848768481099,-0.054521491404342974,-0.0008552456453154998
0.25,0.11363702255611292,1.1526419631013383,-1.5688505280355403,0.017342228733382585,0.015660093250596512,0.00025926211296948783,0.6079347045769645,-2.825835864759101,-0.008233808527869497,0.10803643193764863,0.11164575906743866,0.0023892968017541743,-1.7575304405442251,-5.565413101037625,0.4072113793857426,0.3631832088382527,0.10986215020426826,0.09358174303421385,-0.1378465892557588,-3.375917018349282,-3.3965822614732804,-0.7733886014755658,-0.0568947239690944,-0.0008851950098543607
0.26,0.1195475574429595,1.12382911604591,-1.5688945333381523,0.01845719517535533,0.016773716156085146,0.00028417127205316857,0.5910534886846571,-2.8812847055428352,-0.004400530261202986,0.11149664419727448,0.11136229054886321,0.002490915908368072,-2.0670412060114804,-4.92796499496925,0.5307828530652117,0.3878139361499766,-0.14229964008597085,0.08128124091612565,-0.1037221093452278,-2.7258947734598626,-3.1319693650270772,-0.7198822874018938,-0.058441272650789716,-0.0009062342911634417
0.27,0.12525819377175823,1.0945253555869043,-1.5688876792484279,0.019609049724566004,0.01786739695482629,0.00030971993069637833,0.5710636328798727,-2.930376045900553,0.0006854089724529725,0.11518545492106742,0.10936807987411455,0.002554865864320978,-2.333430555215712,-4.190858084863801,0.6588986527548908,0.41293149904763204,-0.40706078563514847,0.06295738076979385,-0.06821747774716631,-2.0182196573251305,-2.8497161838021574,-0.6631473931133661,-0.05914209523840287,-0.0009181846961051288
0.28,0.13074204310315482,1.064804189163986,-1.5688169331984572,0.020800074035502804,0.018923242801798558,0.0003354392575180419,0.5483849331396603,-2.9721166422918546,0.007074604997060394,0.11910243109367986,0.10558458469722667,0.0025719326821663567,-2.562288209233229,-3.496552225655041,0.7940647193529209,0.4383535092604429,-0.6573874301450684,0.04086929957405516,-0.033590180410815115,-1.3254286973748646,-2.5760970382924686,-0.6084992981378103,-0.058999076670835524,-0.0009242269765328945
0.29,0.1359760252604619,1.0347348642027896,-1.5686686030931323,0.02203264374624704,0.019924286347356747,0.00036080914015821296,0.5233982157307074,-3.006932496119636,0.014833010532479065,0.12325697107442378,0.10010435455581898,0.0025369882640171046,-2.7576567229671674,-2.8508202998410854,0.9353491122282733,0.4644950353903816,-0.8677719139574132,0.018068168223895675,-0.0019136160791254422,-0.6517990989164246,-2.3124278793809374,-0.5561865460463387,-0.05804762340764713,-0.0009245170400056312
0.3,0.14094055388966087,1.0043817915308326,-1.5684284283966596,0.023309260252339304,0.02085626246012251,0.0003853158860115094,0.4964528629198967,-3.035307267195698,0.024017469647268003,0.1276616506092263,0.09319761127657634,0.002450674585329644,-2.9263130840571763,-2.2649241489994822,1.081943071091568,0.49166278786676987,-1.0197237217567716,-0.0025371899762762773,0.024905196130745037,-0.00431084278751892,-2.0608700276557608,-0.506618925632934,-0.056330847995191516,-0.0009195148284461251
0.31,0.14561886028403034,0.9738034221077012,-1.5680816633859587,0.024632578270454484,0.021709007542145154,0.0004085097113400576,0.46783063943694814,-3.057836942313137,0.03467650107010416,0.1323318018115181,0.08527450820226455,0.002319382532854819,-3.075976698195735,-1.7472869300755296,1.2329574218541697,0.5200976170935941,-1.104833161028735,-0.018938151699665173,0.04517594638731433,0.6115353328581371,-1.822932227484625,-0.4600659291388888,-0.05389571128557456,-0.0009097315205314044
0.32,0.14999615503123545,0.9430514067115308,-1.5676131669173015,0.02600542539527175,0.022477179648712264,0.00043004718937601685,0.43772947472051005,-3.0752015396170402,0.04684964686572302,0.13728471248172694,0.07681721065671106,0.0021537478035959256,-3.2139347579391546,-1.2982325996062014,1.3873862345648116,0.5499615116429809,-1.1245885043270931,-0.03028942243617161,0.05744230862162465,1.1943751410394654,-1.5985783279847827,-0.4164821258735677,-0.05079067917598081,-0.0008955532763770769
0.33,0.15405881181448894,0.9121705627247959,-1.5670074990590752,0.02743080884608775,0.023160234284010775,0.00044971104075527485,0.40626567832534966,-3.088084398673483,0.06056678582262841,0.14253834508159968,0.06830546352985101,0.0019663851379258016,-3.346392222525502,-0.9221255189704716,1.5442960188244415,0.5813337661457743,-1.0879403946603454,-0.036739673330699496,0.06047543971909526,1.7409124329968508,-1.3884165862262394,-0.37594769074807843,-0.047060664598393115,-0.0008774396502404809
0.34,0.15779367818200513,0.8811984386428635,-1.5662490138366727,0.02891191873876096,0.023761799241932374,0.0004674080056945301,0.373486636751619,-3.097212408193244,0.07584852224025601,0.14811098926732125,0.060156495792159856,0.0017696964939255247,-3.477803652957229,-0.6124493906934583,1.7026422584356,0.6142277647183243,-1.0080218112810946,-0.039059357953825646,0.05327105233539739,2.253398472939122,-1.19107064784919,-0.33814536245847604,-0.04275157865878274,-0.000855576939701544
0.35000000000000003,0.16118759575306085,0.8501659627546367,-1.5653219564352887,0.030452117985398885,0.024288695474369647,0.0004831512185582507,0.33939175710557323,-3.103247588822678,0.09270574013840344,0.15401992466379247,0.052689623243727154,0.0015743212863720615,-3.610962672819197,-0.36163676331398803,1.8614274359119052,0.6485466386076144,-0.89911835969099,-0.03826998098265699,0.03503739090897348,2.734708888172833,-1.0050024773517694,-0.3027306755571353,-0.037908038940591665,-0.0008300708101528366
0.36,0.16422711864773096,0.8190981967373122,-1.564210555910401,0.032054923153950775,0.024749850108701357,0.0004970348687579055,0.30395228946700936,-3.1067766017324474,0.11114005248878774,0.16028051685518918,0.04611546343317096,0.001388365019965485,-3.7470484386375027,-0.15301788378003103,2.019596703727488,0.6840743444504191,-0.7744694348292617,-0.03538210637776196,0.005195531421634536,3.1923535501202163,-0.8271404336233885,-0.2690633859453785,-0.03257754718483287,-0.000800791011721299
0.37,0.1668984138381152,0.7880159962014364,-1.5628991185157202,0.033723969380689084,0.025155284878083908,0.0005092076913017127,0.2671295190384249,-3.108220053587589,0.13114373946807303,0.16690462267383072,0.04054347693825513,0.0012172822543807258,-3.8823813661005158,0.13397036376765145,2.173062307899462,0.7196102228909371,-0.6449911017341914,-0.03125394441924545,-0.03643841427440497,3.685365198904439,-0.6369266999313774,-0.23309962950691834,-0.02684531599554981,-0.0007653031194993746
0.38,0.16918765050979928,0.7569480210674708,-1.561372356436489,0.0354628069017763,0.02551528240291574,0.0005198501400178986,0.22892366716840779,-3.10679751339655,0.1526762079231276,0.17388375210872148,0.03599975248318313,0.0010642448716185907,-4.015143318387054,0.5133936784700425,2.3203528338089905,0.7535866516860361,-0.5188951000134756,-0.026534820232232192,-0.08988579659873858,4.219615404111253,-0.4333693497843726,-0.19474015702081202,-0.020769208073721075,-0.0007235906734853049
0.39,0.1710812100639038,0.725932137297234,-1.5596155317309275,0.037274758898946395,0.02583976648168865,0.0005291555876163821,0.18935595541045414,-3.101588377023677,0.1756824705561476,0.18119519971700976,0.032448407877291266,0.0009305447598483443,-4.146222680362489,0.9053861557390844,2.4628346791681004,0.7853436905287143,-0.4017756783587605,-0.02169224257383684,-0.15503965774351755,4.754400260602212,-0.2315574706217468,-0.15703112387586265,-0.014383879764736589,-0.000677784987548239
0.4,0.17256562580681828,0.6950074611843273,-1.557614378008057,0.039162933825182905,0.02613789189746867,0.0005373158811458617,0.14844157429144694,-3.0924676112906773,0.20011537228706802,0.18881749262365122,0.02981254157800165,0.0008160293529479625,-4.274908461732826,1.2849390693284972,2.6003718306997126,0.8147614187896757,-0.29690963138691817,-0.0170422664850729,-0.23142612433886042,5.276313049975786,-0.03634826721323603,-0.12094579151260931,-0.0077513912915810074,-0.0006288619342146502
0.41000000000000003,0.17362767358884965,0.6642118677901651,-1.5553551300293817,0.04113023245553679,0.02641781260097574,0.0005445119029316342,0.10620477820313583,-3.0795593394162317,0.22592479786751882,0.19672986303538836,0.0279920703507072,0.0007196021785772473,-4.399824834818436,1.6470420015192329,2.7322514219766076,0.8417968883674778,-0.20576104312272925,-0.012771719428667838,-0.31824930226887405,5.781912125025435,0.15109129235905727,-0.08671463404694696,-0.0009456786104326195,-0.0005774049213659017
0.42,0.1742545218684423,0.6335814913827809,-1.5528245962319123,0.04317934342205954,0.02668658718116574,0.0005509081606646422,0.06268482795926739,-3.0630376407384206,0.2530533797469424,0.2049110966522752,0.0268774580189998,0.0006396257733007972,-4.519407072374212,1.9939453788258792,2.8575906605182886,0.8663610512604194,-0.12848591833819345,-0.008973629068050215,-0.4144271788709528,6.271396526055727,0.33090453905245154,-0.054307952970341244,0.005953698624105309,-0.0005238927774623347
0.43,0.17443389530674663,0.6031509491762524,-1.5500102434783691,0.04531272900537316,0.026950181520205105,0.000556650317662508,0.017937343830432093,-3.043054220652838,0.28143527535431484,0.21333855833136214,0.02635943390393666,0.0005742156997865762,-4.6323959210090715,2.321939738907462,2.9757925929766005,0.8883817414743795,-0.06437839470992657,-0.005677968855120952,-0.5186517727199241,6.742098629089765,0.5022511171074953,-0.02388599138884842,0.01286858416636386,-0.0004689787220483771
0.44,0.17415420420501831,0.5729529714186912,-1.546900257689956,0.04753261829394665,0.027213534415952104,0.0005618646828658773,-0.027969110172831275,-3.0197977757561327,0.310998578841324,0.22198892885734872,0.02633528957469992,0.0005214365203369255,-4.737517656144893,2.6331162685411735,3.0861335636000877,0.9077579308646051,-0.012219168761920862,-0.0028754339932011153,-0.62939660980636,7.194266461683449,0.6653356450453054,0.004597700373711322,0.019718797197466765,-0.00041322935690371273
0.45,0.17340467255774164,0.5430186093368226,-1.543483613340113,0.0498409932017377,0.02748065882976998,0.0005666590037588553,-0.0749531647276672,-2.993436208186866,0.3416644349842884,0.230837490779105,0.026712441381787765,0.0004794320892977995,-4.833753920219556,2.9268837120205053,3.1880592172408395,0.9243904981369901,0.029453158336204766,-0.0005334356587138878,-0.7449799063668083,7.626895726482674,0.8199284396532218,0.03110610341798689,0.026427174254211615,-0.0003572946607256339
0.46,0.17217543897417326,0.5133771759238555,-1.5397501281980754,0.05223957762465673,0.02775475889446151,0.0005711239755836657,-0.12292335835683973,-2.9641433412967086,0.3733485142037607,0.23985844229190312,0.027410006469152773,0.00044649718248103806,-4.920259221441192,3.202988929494599,3.281075807301624,0.9381881134572652,0.062159747561073786,0.001392080138320928,-0.8636048871070334,8.039215078411672,0.9658967901461151,0.05562339780981787,0.03291971911567035,-0.00030182895960684643
0.47000000000000003,0.17045763934590386,0.4840562204487309,-1.5356905119479378,0.05472982736606389,0.028038349172225793,0.0005753350971902009,-0.17177996282693897,-2.9320955475124535,0.4059616250137702,0.24902497414071556,0.02835902777642847,0.000421112160653518,-4.99635533748749,3.4614366804153254,3.364750499458059,0.949067891030257,0.08736230095202124,0.0029493281876713517,-0.9834088767934748,8.430645524475883,1.1031852873301395,0.07815072959072267,0.03912686421576369,-0.0002474789873405777
0.48,0.16824347232626483,0.45508152869934376,-1.5312964087038392,0.057312920938552996,0.028333367676300892,0.0005793546192775798,-0.22141670196390423,-2.8974691749387147,0.43941032440985645,0.25830935724891085,0.02950185040751002,0.00040195220873788783,-5.06152026547461,3.7024192793250834,3.438710906058395,0.9569563889063168,0.1063940549233493,0.004186098499638025,-1.1025122266522176,8.8007644214698,1.2317984130192687,0.09870247454809011,0.0449845376118114,-0.0001948721008083592
0.49,0.16552624905702815,0.426477141953621,-1.526560433506902,0.05998975136602517,0.028641277941905546,0.0005832334262818264,-0.2717223269236677,-2.860438674572275,0.473597519693719,0.2676830427472171,0.030791026560465333,0.0003878807004246647,-5.115386963630368,3.925813963031047,3.5026609789037044,0.961795647800745,0.12042651160576767,0.005147130949838763,-1.2190672336628667,9.149062190780356,1.3517142060665677,0.11728958060406325,0.05043527263446646,-0.0001446134144381922
0.5,0.16230042747685117,0.3982653446073421,-1.5214762015344243,0.06276091992220649,0.028963158084197638,0.0005870127610507408,-0.32258215801769663,-2.821179734627896,0.5084231972477786,0.2771168556181326,0.03218801422920899,0.0003779334768914418,-5.134861240986861,5.111354595451719,3.524767614356241,0.9545275130095838,0.13066421741936907,0.005872586053911721,-1.3275160765283067,9.944563647331965,1.6208307412255234,0.1636234069351346,0.05489860694645263,-7.942003599299187e-05
0.51,0.1585639048488722,0.3705642650198564,-1.5160408754476669,0.06562511361706373,0.029299735176605803,0.0005907294018544272,-0.37365226279789704,-2.77010795874857,0.5435326086757465,0.2864193694857236,0.03365770924081641,0.00037166408036864903,-5.100592688587131,7.900810395271445,3.481543915001497,0.9196059271708208,0.13754892334434565,0.00640804996751132,-1.4201076834023305,11.484555806293685,2.1287579871096116,0.2534011843962264,0.057757547100477216,8.682496555873143e-06
0.52,0.15431994221643516,0.34365181489385527,-1.5102571588912956,0.06857726638528366,0.029651377023572126,0.0005944179562713251,-0.4243962632437037,-2.691245012600112,0.5783716556371317,0.2952152768219928,0.03516418469663243,0.0003688554416897872,-5.05631648069641,9.989961151331402,3.4419399918507487,0.8639806803913572,0.14051876049097878,0.006749886038972641,-1.4976651067295887,12.657848906667766,2.487214922234937,0.3124749123295175,0.059835802611485314,7.280481034823703e-05
0.53,0.14957282044093134,0.317736150690716,-1.5041279715814566,0.07161121599257941,0.030018175519036475,0.0005981008007589878,-0.47471217755038075,-2.5915664203139306,0.6129187309839054,0.30339496072957484,0.036679849546434815,0.0003682844487662718,-5.002358022941979,11.497428175796907,3.400584477480802,0.7974007903506362,0.14079742267174744,0.006832609475787871,-1.5586444318261252,13.523022842273578,2.724031636502149,0.3469290345549031,0.06109272408046072,0.00011583607490672913
0.54,0.14432780507624693,0.2929674815718422,-1.49765683311926,0.07472034851077869,0.030400033339727746,0.0006017898446972848,-0.5245015364684423,-2.4768669118873747,0.6471138462196651,0.31091325181992685,0.038185782069126956,0.0003689043938297036,-4.9391446132054835,12.524900651535134,3.3537236281109273,0.7263603205399889,0.13927455885755613,0.006705869606505432,-1.6023697861499657,14.130919451608964,2.863040390025846,0.3619502751060362,0.06153058792570136,0.0001405640692279122
0.55,0.1385911012434908,0.26944819373600476,-1.4908481215103195,0.07789801090330017,0.030796726771164882,0.0006054893320385573,-0.5736703832756116,-2.351928783583747,0.6808711608940391,0.3177662392521483,0.03966934314371347,0.0003699487341272473,-4.867179379096884,13.159294496365353,3.2988397704260244,0.6550317540786565,0.1365826429867223,0.006424924974765683,-1.628899030012564,14.525522997902854,2.9243634997155588,0.3618842616538143,0.06118271397895625,0.00014961829060947628
0.56,0.13236980118326025,0.24724150535157416,-1.483707236072986,0.08113776051332444,0.03120795013478957,0.0006091981624259907,-0.6221300060230559,-2.22066883844306,0.7140885437333669,0.3239749610024262,0.041122336362468696,0.00037088303874333647,-4.787018267177257,13.474667652840575,3.234356227975823,0.5859522269885318,0.1331581690100112,0.006035411112315259,-1.638874289411504,14.744757839133108,2.924788269733844,0.3503176531629909,0.06010370392105709,0.00014543670799317665
0.5700000000000001,0.12567182680821995,0.22637884223704133,-1.476240687755185,0.08443350173500133,0.0316333462409101,0.0006129116357375629,-0.6697974375040291,-2.0862663114532825,0.7466548317800934,0.3295741221676887,0.04253961061205272,0.0003713473311572231,-4.699250844581786,13.533907906379413,3.1594090758260087,0.5205253713131057,0.129291099869981,0.0055728435264873755,-1.6333735065806199,14.821204951646454,2.8781722034942625,0.3301706030777556,0.05836164833308119,0.00013024877212429833
0.58,0.11850586916610177,0.20686610194773847,-1.4684561347148788,0.08777954637796233,0.0320725264470754,0.000616622721674786,-0.7165957642118177,-1.9512740289302846,0.7784553040306285,0.33460446429609925,0.04391802061653072,0.0003711085937223036,-4.604484835994864,13.390217593355166,3.0736703780624666,0.45938600725795453,0.1251644271039556,0.005064286490906261,-1.6137742028352222,14.782744122187657,2.7958441364051216,0.30379015166678247,0.05603208825104786,0.000106069775567101
0.59,0.11088132633361945,0.18868895381699183,-1.4603623770275131,0.0911706240260222,0.03252508317646775,0.0006203229649747082,-0.7624542832482318,-1.8177148130746628,0.8093757687365595,0.3391077648059876,0.045255672939235186,0.0003700243299922279,-4.503333985382133,13.088418044672625,2.9772111323314405,0.40266315033014166,0.12088523073214219,0.0045301284984516355,-1.581635937526814,14.653128722935735,2.6869811883560284,0.27303891322326335,0.0531934842105444,7.470310362429592e-05
0.6,0.10280824092317309,0.1718173046350814,-1.451969321294463,0.09460186114950668,0.032990597126913136,0.000624003118706241,-0.8073085410446358,-1.6871649181910418,0.839305573305006,0.34312371234844774,0.0465513950445386,0.0003680153731532895,-4.396408721454587,12.666094193638408,2.870394909188647,0.35016788224378814,0.11650853267110861,0.0039856130883116625,-1.5386041159815997,14.452499444702621,2.55895090651555,0.23937596369367636,0.04992393710688985,3.774785203423111e-05
0.61,0.09429723810341037,0.1562090437962955,-1.4432879235294154,0.09806874218240325,0.03346864087421083,0.0006276535785479903,-0.8511002819762722,-1.5608260838785906,0.8681397765047795,0.3466881032896558,0.047804374729769505,0.0003650459841749221,-4.284309107419524,12.15459754562705,2.7537952860694546,0.301525907889868,0.11205518727970087,0.0034420810313040284,-1.4863350442986532,14.197842785607246,2.4176141762392467,0.20392851922835786,0.046298915457186646,-3.3900669171346953e-06
0.62,0.08535946480877321,0.14181316768660718,-1.4343301168342188,0.10156706171242391,0.033958780140009984,0.0006312646740302709,-0.893777329463716,-1.4395876109688328,0.895780669519649,0.3498319530020659,0.04901392657991513,0.00036110954822806974,-4.1676196090723145,11.57992372301531,2.628131784041006,0.2562695653518965,0.10752496792761868,0.002907947043138487,-1.4264403896565596,13.903399552441446,2.2675884094479337,0.1675540793084453,0.04238976674838526,-4.7484734686605316e-05
0.63,0.07600653063504711,0.12857237062881657,-1.425108728919471,0.10509287397284502,0.034460573647363435,0.0006348268589230142,-0.9352934173726094,-1.3240797057790605,0.9221387914747728,0.35258122604211023,0.050179350735345345,0.0003562184892743238,-4.046905287396263,10.963479046921757,2.494220238530257,0.21390026781307014,0.10290588330750339,0.0023894509031244515,-1.3604482952875425,13.581028148400378,2.112472883023662,0.13089337245938698,0.03826282077790525,-9.347599386035072e-05
0.64,0.06625045077947728,0.11642517867716788,-1.4156373933846575,0.10864244368437052,0.0349735722163186,0.000638330832013282,-0.9756079855569841,-1.2147191951648697,0.9471335534813574,0.35495697115255087,0.05129985689551697,0.00035039730902678166,-3.9227090944721237,10.32274902738192,2.3529344655825817,0.17392952421208108,0.09818060819823238,0.0018912247456010778,-1.2897780959679521,13.240526975658025,1.9550393946893971,0.09441481909663202,0.033978925619423464,-0.0001404549263690679
0.65,0.0561035912774626,0.10530769280353874,-1.4059304577768437,0.11221220076029101,0.035497317545880654,0.0006417676110258565,-1.0146859502014673,-1.1117485873629134,0.9706935607813881,0.35697570759204905,0.05237453295620483,0.0003436779012574453,-3.795550018374317,9.671880288235158,2.2051767929331447,0.13590457128898237,0.09333075905147403,0.0014167146844775089,-1.2157256744365337,12.88991991837231,1.7973920066929776,0.05845141237578022,0.02959328872059515,-0.0001876495674524435
0.66,0.045578616706279204,0.09515499941012542,-1.3960028907413935,0.11579870030004837,0.036031340975684355,0.000645128575962908,-1.05249745711834,-1.0152693393413317,0.9927567035450272,0.35864995397573507,0.05340234298037009,0.00033609649370514375,-3.6659218776020945,9.022186138687962,2.0518555660690563,0.09942307389290761,0.08833959868925234,0.0009684893816567369,-1.1394568199797501,12.535708497683444,1.6410997827016007,0.02323097614067926,0.02515552458831865,-0.00023441120236118132
0.67,0.03468844046416598,0.0859022985095434,-1.3858701900213115,0.11939858853683623,0.036575162409835674,0.0006484054932719352,-1.0890176242113225,-0.9252700900582026,1.013270072008201,0.35998882367878626,0.0543821434151316,0.00032769173090272004,-3.534292612132381,8.3825849366599,1.8938681525525976,0.06414017623745139,0.08319362485237747,0.0005484623197215543,-1.0620063737314815,12.183094004486314,1.4873063013358878,-0.011099257424406261,0.020709835394986248,-0.00028020145489130366
0.68,0.023446177685789264,0.07748579322716966,-1.3755482926216123,0.12300857488609876,0.03712828950708794,0.0006515905286469477,-1.1242262778376715,-0.8416505282373742,1.0321897399699211,0.3609986349262525,0.05531270972522704,0.0003185035375012421,-3.4011039540804147,7.759979349560135,1.7320882861491516,0.02977031282888376,0.07788338758495428,0.00015804917669763607,-0.9842813858908135,11.836172619714924,1.3368194393047967,-0.044452872062998805,0.016295271315603654,-0.0003245802759334355
0.6900000000000001,0.011865100819052905,0.06984337839957828,-1.365053488106886,0.1266254098984403,0.0376902171878001,0.0006546762536370153,-1.158107686673636,-0.7642414827591371,1.0494804514726181,0.3616835012341518,0.056192768071215454,0.0003085724990067606,-3.2667713882763243,7.159583772300149,1.5673568358888286,-0.003914462904862859,0.07240379094883664,-0.00020172292348771825,-0.9070669185824469,11.498106300086825,1.19018456363932,-0.07678850076372667,0.011946033560789764,-0.00036719486757601634
0.7000000000000001,-4.1402139232806986e-05,0.06291516088337157,-1.354402335724951,0.13024586870394522,0.03826042747251244,0.0006576556493454878,-1.1906502958285712,-0.6928217516206714,1.0651152381935016,0.3620458805504931,0.05702102847123358,0.0002979395708472417,-3.1316843371053267,6.585206223518949,1.4004752798630307,-0.03708835722757797,0.06675406362105107,-0.000530141292598374,-0.8310334798560494,11.171271916585129,1.0477438692871908,-0.10809737411987383,0.0076917954815406316,-0.0004077695322738313
0.71,-0.012259866772503448,0.05664383965748616,-1.3436115858318687,0.13386673940944072,0.03883838964438405,0.0006605221091675768,-1.221846463327064,-0.6271321225885411,1.0790749893082476,0.3620870705495507,0.05779621718716079,0.00028664598220889904,-2.996206516596305,6.03949051248255,1.2322013054735557,-0.06987700679870734,0.06093752842464717,-0.0008267587522643727,-0.7567453594000016,10.85739100087267,0.9096842468984419,-0.13839358107716593,0.0035580260751895375,-0.00044609640414898836
0.72,-0.02477678877823591,0.0509749698468297,-1.3326981059224798,0.13748481584895048,0.03942356071426281,0.0006632694415914298,-1.2516922005732463,-0.5668869810656455,1.0913479909388897,0.36180764395097503,0.058517106987876315,0.0002747332423853137,-2.860676434277159,5.524123249319357,1.0632460944186022,-0.1023632895095492,0.054961259421377306,-0.0010913623418922491,-0.6846693607487949,10.557642016168142,0.776075639136454,-0.16770654194964965,-0.0004336930150655241,-0.00048202701159731376
0.73,-0.037578657959596466,0.045857131294607306,-1.3216788114350986,0.14109689407164475,0.04001538615989813,0.0006658918734657321,-1.2801869181360555,-0.5117838552222391,1.101929448738118,0.3612078222694276,0.059182544563532065,0.00026224318743022965,-2.72540795786507,5.04001221745881,0.8942728521686565,-0.1345933355576978,0.0488356864078181,-0.0013239539792955224,-0.6151835801962493,10.272757927590078,0.6469018472126271,-0.1960752238565137,-0.004265363228074491,-0.0005154645801828901
0.74,-0.050651989734625286,0.041242019458993875,-1.3105706013992964,0.14469977196286682,0.04061330090756309,0.000668384053746376,-1.3073331775028816,-0.4615111835613434,1.1108210035802244,0.3602877891222061,0.059791474766496176,0.0002492180280643916,-2.590691017470836,4.587435542655474,0.7258964477895704,-0.166582414386502,0.04257418069666663,-0.0015247387373920618,-0.5485860240235225,10.003108955259572,0.5220846323707002,-0.22354383673318393,-0.0079222770539122,-0.0005463570758814559
0.75,-0.06398335423546239,0.037084473501301424,-1.2993902989066237,0.14829025143052701,0.041216730523707654,0.0006707410574760715,-1.3331364500837106,-0.41575459576924484,1.1180302492672634,0.3590479467660194,0.060342961614456465,0.0002357003729695544,-2.4567923361267434,4.1661701200715475,0.5586837600222614,-0.1983205049843031,0.036192648233963176,-0.0016941177677046726,-0.48510291528378513,9.748774178752768,0.40150293705351225,-0.2501586125984614,-0.01139274127546798,-0.0005746908565688554
0.76,-0.0775594030725701,0.03334245436684011,-1.288154596327979,0.1518651426323551,0.04182509258509183,0.0006729583896327305,-1.3576048837107706,-0.37420191344613185,1.1235702578644715,0.357489120182808,0.06083620613841771,0.0002217332156658895,-2.323956205578362,3.775599869627852,0.39315460912360667,-0.22977743537364592,0.029709139350505787,-0.001832683315086292,-0.4248966053117978,9.509602379300308,0.28500786759361546,-0.275965484268076,-0.014667814188127595,-0.0006004849174977517
0.77,-0.09136689384311028,0.02997698365026468,-1.2768800051553344,0.15542126977078116,0.042437798197409206,0.0006750319884288852,-1.380749077054018,-0.3365470716575428,1.1274591172644577,0.35561271384260684,0.061270561231737276,0.00020735987961547093,-2.1924053566061286,3.4148055418126853,0.22978323437576353,-0.2609075003159287,0.023143478863312694,-0.0019412142858230008,-0.36807305891620606,9.285263059868624,0.17243414420887038,-0.30100848243306444,-0.017741054907633603,-0.0006237856936557399
0.78,-0.10539271247179853,0.02695205219918414,-1.2655828103013993,0.15895547803932075,0.04305425363429367,0.0006769582276333718,-1.402581862868825,-0.3024931451080544,1.1297194853935055,0.3534208268539596,0.06164554368844613,0.0001926239204486605,-2.0623417418334626,3.0826425592959703,0.06899986958770388,-0.2916535783163292,0.016516923897670566,-0.00202067126738964,-0.31468885146669556,9.075290428537114,0.06360913797216772,-0.3253286260302894,-0.02060828737031671,-0.0006446623252900106
0.79,-0.11962389346365417,0.02423450621763358,-1.2542790286865344,0.16246464135232913,0.0436738620705957,0.0006787339175431073,-1.423118099185564,-0.2717545981550559,1.130378161486499,0.3509163313008377,0.06196084363020282,0.00017756899097355315,-1.933947383931952,2.777803586890024,-0.08880736682058732,-0.3219507176235741,0.009851840793546174,-0.0020721899534348887,-0.26475769576323427,8.8791192620259,-0.041640596598023494,-0.3489632759718229,-0.02326737484160592,-0.0006632024229875658
0.8,-0.13404763815440912,0.02179391710931537,-1.2429843719179658,0.1659456705443951,0.0442960253855695,0.0006803563042723058,-1.442374469075494,-0.24405891083182105,1.1294656768568605,0.34810291920659786,0.06221633149738057,0.00016223867291985264,-1.8073848841542037,2.4988744957547895,-0.24329115524325085,-0.35172931650981276,0.003171414852405796,-0.0020970728219067425,-0.21825641179971889,8.696116204210803,-0.14348414533116566,-0.37194575297534693,-0.025718010759938025,-0.0006795082148807097
0.81,-0.14865133101041217,0.019602440641790352,-1.231714212924568,0.1693955217584435,0.04492014601358226,0.00068182306714447,-1.4603692856003059,-0.21914764675250153,1.1270158993397927,0.34498512140483983,0.06241206280127554,0.00014667628721641684,-1.6827998919671756,2.2443576994920167,-0.3941396372118966,-0.38091724013012174,-0.0035006968803914518,-0.0020967782192462536,-0.17513088199950871,8.525597265901595,-0.24208456335196032,-0.39430544989916455,-0.027961492173698442,-0.0006936933602961175
0.8200000000000001,-0.16342255422488822,0.017634667763259327,-1.2204835560296425,0.17281120487331794,0.04554562881924604,0.0006831323137589417,-1.477122321447606,-0.19677728785310242,1.1230656894925335,0.34156831148744443,0.06254828056637743,0.0001309246614471713,-1.560319821376893,2.012738194096412,-0.5410786482196972,-0.40944248224339086,-0.010140529217395944,-0.002072909752487362,-0.1353007043884995,8.366859428917305,-0.3375935323139999,-0.4160675039436522,-0.03000055856397063,-0.0007058795401407871
0.8300000000000001,-0.17834910048390826,0.01586747365459727,-1.2093070106646264,0.1761897917007753,0.04617188298072766,0.0006842825729756522,-1.4926546259020046,-0.1767194108662058,1.1176545365016197,0.3378586827457367,0.06262541614816278,0.00011502592167104549,-1.4400560370429918,1.8024907866042832,-0.6838668294340005,-0.43723467078116146,-0.01672413818159857,-0.002027198159763377,-0.09866411630517691,8.219188987986989,-0.4301519465796475,-0.43725325543142746,-0.03183919174593211,-0.000716194048181532
0.84,-0.1934189841205372,0.014279865742593469,-1.198198768255776,0.17952842385940468,0.04679832385948089,0.000685272785552132,-1.5069883636628936,-0.15876079120038006,1.110824240885044,0.33386321586293777,0.0626440878753228,9.902125764798755e-05,-1.322104439025752,1.612107591183233,-0.8222940816133399,-0.4642264761980093,-0.02322782003663537,-0.001961486621742947,-0.06510216706940614,8.081876299546439,-0.5198885959902579,-0.4578804449526048,-0.0334824487364576,-0.000724767375791862
0.85,-0.20862045071628466,0.012852833417652441,-1.1871725821312247,0.18282432020499395,0.04742437483969296,0.0006861022924929232,-1.5201466595747448,-0.1427032324941028,1.1026186124551298,0.32958963455892676,0.06260509802120678,8.295069407911712e-05,-1.2065458209168631,1.4403109584886136,-0.9561804588316529,-0.4903548249469374,-0.02962832019720585,-0.0018777119363914685,-0.034482508368071985,7.954296873447171,-0.6068995590578099,-0.477960679395778,-0.03493642237324688,-0.0007317291854162311
0.86,-0.2239419851867733,0.011569220671841081,-1.1762417502501084,0.18607478356460727,0.04804946911227716,0.0006867708223563559,-1.5321534470488647,-0.1283612745811361,1.093083188111635,0.32504633596133153,0.06250942725841978,6.685298634327283e-05,-1.0934491344622501,1.2850449448877983,-1.0853683753110914,-0.515562548202521,-0.03590324703567793,-0.0017778761720748104,-0.006661979858152811,7.835546732975037,-0.6913547551907855,-0.4975146955051317,-0.03620752872942024,-0.0007372174313774167
0.87,-0.23937231867512765,0.010413521192421173,-1.165419100484552,0.1892772074772483,0.04867305142483796,0.0006872784713362048,-1.5430333488354337,-0.11556994794199082,1.0822649765556425,0.3202423912641021,0.06235823125608023,5.0764897984891596e-05,-0.982867766657745,1.1456249584965559,-1.20973376374741,-0.5397933391467062,-0.04203060229406086,-0.0016640751027940381,0.01850695009160508,7.7252284144853265,-0.7732753539243851,-0.516541538010359,-0.03730340369900567,-0.0007413530982426685
0.88,-0.254900433888339,0.009371810054749534,-1.154716978500063,0.19242908160399924,0.049294579724156476,0.0006876256899544448,-1.552811521321132,-0.10417111376716393,1.0702121984488926,0.31518741267509526,0.06215282993185186,3.472186182399979e-05,-0.874844658900648,1.0205013263079032,-1.3291689928731107,-0.5630025373884209,-0.047989949735446125,-0.0015383627714967152,0.041179079042012345,7.622635514560457,-0.8527684362101976,-0.5350515853671302,-0.03823184612030048,-0.0007442649918897226
0.89,-0.27051556938136506,0.008431589235114317,-1.144147237691726,0.19552799679462188,0.049913526719057605,0.0006878132621410887,-1.5615135493026062,-0.09402208196352174,1.0569740808336894,0.309891519062264,0.0618946994901131,1.8757218664388547e-05,-0.7694110776124442,0.9084426439060492,-1.4435899361281346,-0.5851490589674588,-0.05376189410946819,-0.0014028579584965395,0.061510273489271516,7.52718641983084,-0.9299047470767883,-0.5530497622387389,-0.039001106126167556,-0.0007460744408675022
0.9,-0.28620722267045745,0.007581664822457855,-1.1337212312631841,0.19857164949002137,0.050529381342562116,0.0006878422841331391,-1.5691653289092387,-0.08499244126564608,1.042600642854199,0.30436526953995097,0.061585462350450745,2.902199205050205e-06,-0.6665877716432212,0.8082909347419557,-1.5529321508989515,-0.606197898916232,-0.059328418666108496,-0.0012596551024762759,0.07965656862671733,7.438335034906844,-1.0047454572950787,-0.5705394750595983,-0.03961971261486383,-0.0007468976148040601
0.91,-0.3019651522909788,0.006812031542304425,-1.1234498062092073,0.20155784547605457,0.05114165010149718,0.0006877141424108485,-1.5757929620521356,-0.07696332801534306,1.0271425053976846,0.2986195986033207,0.06122687589350635,-1.2814172229060687e-05,-0.5663857223597457,0.718964054060896,-1.6571492598967672,-0.6261200706785139,-0.06467301549171545,-0.0011108138353025931,0.09577252092796606,7.355571774215819,-1.0773429919653676,-0.5875229118314004,-0.040096378749450184,-0.0007468448795234446
0.92,-0.31777937887511626,0.006113764833953441,-1.113343299045607,0.20448450300205692,0.05174985830432368,0.000687430490796175,-1.581422658413744,-0.0698266708350984,1.0106507163600404,0.2926657526002347,0.060820820282649776,-2.8365161467344205e-05,-0.4688068654915879,0.6394587421200473,-1.756211432619939,-0.6448924639516855,-0.0697807969484261,-0.0009583404282105801,0.11000983921602381,7.278424472019957,-1.1477417148303588,-0.6040012968064254,-0.040439919090048154,-0.0007460203002906014
0.93,-0.333640185322079,0.005478920786390736,-1.1034115331390772,0.20734965528268473,0.05235355115926706,0.0006869932269952613,-1.5860806446962734,-0.06348440475627046,0.9931765906529664,0.28651522806278146,0.06036928549433852,-4.372638009137182e-05,-0.37384477678407246,0.5688581899923504,-1.8501039803634485,-0.662497654937984,-0.07463858804325918,-0.0008041689424322929,0.12251627492261907,7.206460526325567,-1.2159781436703145,-0.6199750634468497,-0.04065918095238678,-0.0007445212477180014
0.9400000000000001,-0.3495381161297666,0.00490044468760435,-1.0936638174982038,0.21015145240113303,0.05295229473597157,0.0006864044689241168,-1.5897930807687612,-0.057847609878638656,0.9747715640873362,0.28017971184482965,0.05987435767045103,-5.8875807114447604e-05,-0.2814853002484004,0.5063554159499576,-1.9388261065696686,-0.6789237279255156,-0.07923500126713601,-0.0006501432958794795,0.1334347628927021,7.139293950237049,-1.2820797707439238,-0.6354438407582809,-0.040762998651560356,-0.0007424380058525455
0.9500000000000001,-0.36546397595120556,0.004372090516590992,-1.0841089468951126,0.2128881626175538,0.05354567678430134,0.000685666531265152,-1.592585982143894,-0.05283541710133583,0.9554870603091195,0.2736710216420763,0.059338204832976776,-7.379376589648109e-05,-0.19170705937641463,0.4513269009673745,-2.022389941896882,-0.694164248586314,-0.08356049992555242,-0.0004979999221884079,0.1429028352802668,7.07660830890079,-1.3460597154212839,-0.650405941274884,-0.040760198223325335,-0.0007398531109986263
0.96,-0.3814088274275037,0.003888358713155511,-1.0747552031942993,0.2155581730335583,0.05413330740196974,0.0006847819030391409,-1.5944851476298172,-0.04837318034354808,0.9353743700813322,0.2670010416004481,0.058763061766839854,-8.846282260111284e-05,-0.10448169127900164,0.403557073759854,-2.100820232496015,-0.7082187821004604,-0.08760747001751595,-0.00034934884106180286,0.1510524241798789,7.018227158493014,-1.4078992827122363,-0.6648564756324514,-0.04065973533215577,-0.0007368396717766721
0.97,-0.3973639883218256,0.0034444745854100628,-1.065610357768218,0.21815998939910533,0.05471481953365468,0.0006837532280135418,-1.5955160894321905,-0.0443884127745448,0.9144845426081192,0.26018163655470466,0.05815121316849385,-0.00010286750255991837,-0.019773467472225876,0.36384756134842255,-2.1741554516711346,-0.721095068209368,-0.09137036915730704,-0.00020564593919414342,0.15801044650322837,6.964304075645195,-1.4675006841706035,-0.6787822071572976,-0.040471171041961865,-0.0007334570443000454
0.98,-0.4133210279187035,0.0030364680375605706,-1.0566816748669825,0.22069223440868277,0.0552898692570135,0.0006825832924516327,-1.5957039596877858,-0.040800654784949215,0.8928682901235707,0.253224500957745,0.05750497233588183,-0.00011699355619090233,0.06246179631155229,0.33512377049853354,-2.2424500493633244,-0.7328155008755814,-0.09484618776124992,-6.813825032708776e-05,0.16390131955097434,6.915659918959591,-1.5246049081490556,-0.6921529828278049,-0.04020568917227125,-0.0007297438254350408
0.99,-0.4292717625832438,0.002661464832911318,-1.0479759157444952,0.22315364309753408,0.05585813575944964,0.000681275028043312,-1.5950734664540296,-0.037500320464925234,0.8705759122487273,0.24614086888513162,0.05682665024361382,-0.0001308264408320746,0.1422784403525098,0.3221874254090732,-2.305778662864832,-0.7434306187069089,-0.09803548791033279,6.22308161251639e-05,0.16885395247901533,6.87367007359615,-1.5788296077628248,-0.7049276766208721,-0.039876605025264425,-0.0007257247274203015
