tonegas/nnodely-applications/joint_friction_estimation/dataset/test/mpc_mujoco_episode_4.csv
time,q1,q2,q3,q4,q5,q6,dq1,dq2,dq3,dq4,dq5,dq6,ddq1,ddq2,ddq3,ddq4,ddq5,ddq6,tau1,tau2,tau3,tau4,tau5,tau6
0.0,0.0,1.57,-1.57,0.0,0.0,0.0,0.0,0.0,0.0,0.0,0.0,0.0,-2.3259411193164885,-17.89400305319007,7.641860264634797,4.205349894661346,-0.3662490027621512,-2.126154876602726e-06,-0.3239960549148867,-12.127346221183862,-6.499481984373298,-1.3537858484396068,-0.029702425814233876,-0.0010157226950430628
0.01,-0.00023146655448316308,1.5682191579827003,-1.5692433519011033,0.000386835373571299,-3.0351243834924536e-05,-8.511397578894742e-08,-0.023146655448316306,-0.1780842017299714,0.07566480988966973,0.0386835373571299,-0.0030351243834924537,-8.511397578894742e-06,-2.2889426034181644,-17.918045968446574,7.4282118862858475,3.8356182840866992,-0.3100624000495902,-0.0008727457662400795,-0.31762004301665087,-12.18505146268976,-6.530969703988533,-1.3610739970452455,-0.029257686349093735,-0.001014761069327125
0.02,-0.0006905342054749025,1.5646551773809283,-1.5677531198907673,0.001130426621525227,-8.753908212003712e-05,-2.5758463807998844e-07,-0.04590676509917395,-0.356398060177206,0.14902320103359395,0.07435912479539279,-0.005718783828511258,-1.7247066229104103e-05,-2.2445629009574946,-17.949506624740003,7.179007277884484,3.52778896459753,-0.2762968655468754,-0.0009587365494234668,-0.30624912818892,-12.223574289320478,-6.5529404501806425,-1.3661847120428896,-0.02849567562387307,-0.0010096576502771188
0.03,-0.0013726757056327127,1.5593049573670588,-1.5655554155208908,0.002205292478907981,-0.0001694041222272933,-5.167098240080325e-07,-0.06821415001578103,-0.5350220013869611,0.21977043698764478,0.10748658573827544,-0.008186504010725617,-2.5912518592804413e-05,-2.192644699479089,-17.987930165246095,6.898788562898275,3.2658559004703918,-0.2568414122126583,-0.00105749877079786,-0.2900463126640834,-12.242570363863472,-6.565214710355351,-1.3690954978869874,-0.027414093379121537,-0.001000429412315745
0.04,-0.002272658690709483,1.5521646518563248,-1.562679059589652,0.003589332492088532,-0.00027464897005897976,-8.67441033387284e-07,-0.08999829850767704,-0.7140305510733889,0.2876355931238792,0.13840400131805508,-0.010524484783168645,-3.507312093792514e-05,-2.1326910173361244,-18.0325514126009,6.590970767992783,3.0375713524184036,-0.2467872940064293,-0.0012586901131195205,-0.26927071650077505,-12.241595441822321,-6.567535042906103,-1.369766669136902,-0.026011689774500267,-0.0009870795185801876
0.05,-0.0033844802987210987,1.5432297563327284,-1.559155329637387,0.005262895248122864,-0.00040253684837839374,-1.319624171908862e-06,-0.11118216080116157,-0.8934895523596358,0.35237299522650195,0.1673562756034332,-0.012788787831941397,-4.5218313852157804e-05,-2.0639882726813674,-18.082317038058918,6.258127129583041,2.833576782518808,-0.24316019609506867,-0.0015614852404679525,-0.244283265212775,-12.220107509227228,-6.559566061822071,-1.3681416963197448,-0.02428875522844749,-0.0009696032100160556
0.06,-0.0047012874235257,1.5324952210413925,-1.5550177707944708,0.007208066184361112,-0.0005527060834281982,-1.886767272579826e-06,-0.13168071248046012,-1.073453529133587,0.41375588429161153,0.1945170936238248,-0.015016923504980444,-5.671431006709638e-05,-1.9856825125014488,-18.135901089691163,5.902215337998438,2.646735206547273,-0.2441596572151674,-0.001963686472944648,-0.21555216100713942,-12.177472115959159,-6.540895495685792,-1.3641476813618336,-0.022247742899790056,-0.0009479937424082837
0.07,-0.006215287558393739,1.5199555895713521,-1.550302052202414,0.009408124324428384,-0.0007250545305551527,-2.5853082407091892e-06,-0.1514000134868039,-1.253963147004042,0.47157185920568145,0.22000581400672725,-0.017234844712695454,-6.985409681293632e-05,-1.8968292672392173,-18.191715927992313,5.5247587074230395,2.4716198484601932,-0.24869771855244593,-0.0024720730094567323,-0.1836571105186391,-12.112970519379704,-6.511036226892718,-1.3576959574568064,-0.01989400281476599,-0.000922248512300018
0.08,-0.00791765369972907,1.5056051621736528,-1.5450458546303405,0.011847129219730518,-0.0009196659135243725,-3.4342965894103245e-06,-0.17023661413353303,-1.4350427397699284,0.5256197572073594,0.24390048953021345,-0.01946113829692199,-8.489883487011353e-05,-1.7964292219346494,-18.247920001190344,5.126993113301975,2.304123664222999,-0.2561143495070759,-0.003102456381285368,-0.1492911886598739,-12.02581025422036,-6.469429219788529,-1.3486828011690506,-0.017236611742865292,-0.0008923754640505836
0.09,-0.009798426050523947,1.4894381833711787,-1.539288777475685,0.014509608595483791,-0.0011367606629524814,-4.455336588393894e-06,-0.18807723507948765,-1.6166978802474032,0.5757077154655512,0.26624793757532733,-0.021709474942810898,-0.00010210399989835695,-1.6834573358499547,-18.302422711829344,4.709988074558737,2.141162200769365,-0.26599521898632705,-0.003879345453246419,-0.11325910420987122,-11.915137350568944,-6.415447117955319,-1.3369902135297989,-0.014289283061561388,-0.0008583998097633144
0.1,-0.01184641301949026,1.4714490536280582,-1.5330722552610954,0.017380324316608072,-0.0013766600020487796,-5.6726840327448075e-06,-0.20479869689663135,-1.7989129743120529,0.6216522214589635,0.2870715721124281,-0.02398993390962982,-0.00012173474443509137,-1.556891113751402,-18.352868459206725,4.274749556670365,1.9804488945364156,-0.27804474063672924,-0.004836285627555448,-0.07647056445977957,-11.780040394293195,-6.348395089655142,-1.3224860752792411,-0.011071340576325911,-0.0008203707508402653
0.11,-0.014049094161618692,1.4516325668621148,-1.5264394750457289,0.020444099806850066,-0.001639755398617126,-7.113423516816548e-06,-0.2202681142128432,-1.981648676594332,0.6632780215366575,0.30637754902419934,-0.02630953965683464,-0.00014407394840717404,-1.4157422782320737,-18.396624578898557,3.8223079383052188,1.8203256045452463,-0.2919822779002157,-0.006016618371955218,-0.03992728631221859,-11.619558476741856,-6.267513472152679,-1.3050246166513537,-0.007608727342094397,-0.0007783686233741002
0.12,-0.016392528145651827,1.4299841751501297,-1.51943528726289,0.023685696265948655,-0.0019264770143280585,-8.807666364785344e-06,-0.23434339840331364,-2.164839171198522,0.7004187782838807,0.3241596459098589,-0.02867216157109324,-0.00016942428479687968,-1.2594406910250882,-18.414935513742428,3.354831820823744,1.660035152788879,-0.30743923936839757,-0.007474058488252666,-0.004734240509741056,-11.424784128025673,-6.169165856904401,-1.2838795582636169,-0.003937835648532334,-0.0007322538111959098
0.13,-0.01886130350821511,1.406501859925857,-1.5121059908318626,0.027089755539190456,-0.0022372565313854694,-1.0788699276844256e-05,-0.24687753625632808,-2.3482315224272767,0.7329296431027505,0.34040592732418,-0.031077951705741097,-0.00019810329120589112,-1.1222305748622572,-16.810407183227426,2.9756947038370143,1.5383147616735826,-0.3241178336178532,-0.009271566642074625,0.02495492298162441,-10.403721276868005,-5.771734704378023,-1.2025526224907477,-0.0003718863452586152,-0.0006565775416763839
0.14,-0.0214419167597754,1.381345328438384,-1.5044881223921813,0.03064341697539836,-0.002572644158879669,-1.3093091365788297e-05,-0.2580613251560292,-2.515653148747293,0.7617868439681302,0.35536614362079016,-0.033538762749419956,-0.0002304392088944041,-0.9812601808030096,-14.943473331952193,2.6241965096334496,1.414915971417038,-0.3418615393839697,-0.0114163022388305,0.049597277953445915,-9.242221435637884,-5.329858107907332,-1.1131516316156522,0.003131760887616528,-0.0005769794993536252
0.15,-0.024120526299195533,1.3547004547642367,-1.496615408238482,0.034333683896446573,-0.002933200817139331,-1.5761575349530683e-05,-0.2678609539420132,-2.664487367414744,0.7872714153699432,0.36902669210482136,-0.036055665825966185,-0.00026684839837423874,-0.834740542714104,-12.926666501943766,2.295007808024991,1.2879071678599487,-0.358675139905293,-0.013928795519730475,0.06861443291518164,-8.001347364148579,-4.869184288621942,-1.0211551913580954,0.00651668191122713,-0.0004965877026660888
0.16,-0.02688277513673554,1.3267680655937057,-1.4885193614743792,0.038147310161636167,-0.0033193656711378266,-1.8837769472289857e-05,-0.27622488375400067,-2.793238917053106,0.8096046764102798,0.38136262651895925,-0.03861648539984955,-0.0003076194122759174,-0.6822901630423371,-10.83836537894024,1.9853800776215635,1.1573506895377221,-0.37177003252710383,-0.01676845933600002,0.08166829140891303,-6.724082153401197,-4.407991152429023,-0.9304571654024771,0.009721172524682844,-0.00041782870572016625
0.17,-0.029713746582565738,1.2977561290746211,-1.4802295949521262,0.0420708368624092,-0.0037312868291009297,-2.2365609081348403e-05,-0.28309714458301954,-2.901193651908465,0.8289766522253024,0.39235267007730334,-0.041192115796310325,-0.0003527839609058545,-0.5247853452852306,-8.693602865227936,1.694311793982374,1.024411802878518,-0.37755350915950214,-0.019816185885696225,0.08871566985146959,-5.422042643519028,-3.952817556230362,-0.8425540286548953,0.01268671011067787,-0.0003419236728704688
0.18,-0.03259803535746346,1.2678782554921875,-1.4717739202612428,0.04609068456899897,-0.004168615661402445,-2.6385435114338964e-05,-0.2884288774897722,-2.9877873582433634,0.8455674690883528,0.4019847706589772,-0.04373288323015146,-0.00040198260329905595,-0.36373955491317556,-6.51617969875807,1.4207041356268082,0.8899466200327115,-0.37178141537488685,-0.022844459088081193,0.09003595339319075,-4.1107175962175235,-3.511102564078514,-0.759070730675913,0.015359834708691547,-0.0002701527139259317
0.19,-0.03551987164461645,1.237351324408681,-1.4631784628052344,0.050193227118253,-0.004630270359844652,-3.092858769524909e-05,-0.29218362871529907,-3.0526931083506605,0.8595457456008256,0.4102542549254026,-0.04616546984422078,-0.0004543152580910121,-0.20137982697076728,-4.3636548414760545,1.1633198267781237,0.7546358424584332,-0.35006732140999786,-0.025503824928643115,0.08621376766782536,-2.82092451200472,-3.0948779173644363,-0.6824468402695973,0.01769273777122338,-0.00020420873621658766
0.2,-0.03846330759795228,1.2063897481406014,-1.454467810178245,0.05436487423322335,-0.005114194515981586,-3.601064764462144e-05,-0.2943435953335829,-3.09615762680794,0.8710652626989448,0.41716471149703566,-0.04839241561369341,-0.0005082059949372353,-0.0406038336887924,-2.336099783332053,0.9207807467864186,0.6193300270244189,-0.30888078154560317,-0.02735252337953406,0.07810149604772866,-1.6021475451497171,-2.721415822883209,-0.6160014244168105,0.019646015837438996,-0.0001462087410744384
0.21,-0.04141246992400791,1.175195499058909,-1.4456651963312335,0.05859219653378078,-0.005617161119984448,-4.1624136346518094e-05,-0.29491623260556327,-3.1194249081692247,0.8802613847011359,0.42273223005574334,-0.05029666040028611,-0.0005613488701896654,0.1154546442062253,-0.8821708876555,0.6911755482138368,0.4852439459697125,-0.24685316814885008,-0.027948982679576073,0.06673884128018592,-0.6624866397815893,-2.4594523593435245,-0.572579319245174,0.02116341613172414,-0.00010338214319545505
0.22,-0.04435184858725024,1.143913403529581,-1.436792929375605,0.06286231621893333,-0.006134692507121713,-4.7732390370412194e-05,-0.2939378663242329,-3.128209552932804,0.8872266955628588,0.42701196851525447,-0.05175313871372659,-0.0006108254023894097,0.26383573607639815,-0.0055207389678857965,0.47065903206125015,0.3564913684364326,-0.1658834826000095,-0.027023056631809844,0.05334190784476053,0.0007780771193295899,-2.301966660689737,-0.5501752991870996,0.022273464013988234,-7.457133655682004e-05
0.23,-0.04726659505906783,1.1126307725874007,-1.4278727355855694,0.06716321308900752,-0.006661154034781507,-5.426681120978538e-05,-0.2914746471817585,-3.128263094218026,0.8920193790035695,0.4300896870074198,-0.052646152765979386,-0.0006534420839373186,0.4026394650554627,-0.004788869875945933,0.2551870310846127,0.2359242588899616,-0.07108191968295863,-0.02455146444091927,0.0389659226151208,0.2574469760825087,-2.28577563600969,-0.5549212231744708,0.022983464413214204,-6.295801742287066e-05
0.24,-0.050142743825287654,1.081347641167153,-1.4189262943096643,0.07148413588008626,-0.007190035735266739,-6.112873002058077e-05,-0.2876148766219827,-3.1283131420247847,0.8946441275904944,0.43209227910787285,-0.05288817004852317,-0.0006861918810795389,0.5311836631593349,-0.004641715457524867,0.03915308802424757,0.12760683970101305,0.03023286903918243,-0.020806538853644974,0.02456729283256326,0.5113096723425388,-2.2678650721053604,-0.5593187938734178,0.023465150053961388,-5.2979171181995806e-05
0.25,-0.05296733251185202,1.0500639795767368,-1.4099752672468036,0.07581528699454185,-0.007714369289906776,-6.819581510514055e-05,-0.2824588686564365,-3.128366159041619,0.8951027062860871,0.433115111445559,-0.052433355464003684,-0.0007067085084559772,0.6493030512161528,-0.004471449237001949,-0.17669134396326824,0.028815431689066306,0.13005234006069322,-0.01618656511390537,0.01069967477010339,0.7624537860177651,-2.2481107631300072,-0.5633392035413091,0.023726091164353178,-4.457205208767792e-05
0.26,-0.055728466913443686,1.0187797561403589,-1.4010412421150205,0.08014761473471739,-0.008227231325205744,-7.533143728940881e-05,-0.27611344015916706,-3.1284223436378014,0.8934025131783189,0.4332327740175544,-0.051286203529896754,-0.0007135622184268259,0.7576889041818581,-0.004278888606040742,-0.39174610560317297,-0.06251018173142109,0.22085004926069507,-0.01119326378910307,-0.00212870575114541,1.0106904215406147,-2.2264777323072096,-0.56696943824466,0.023774877383102636,-3.7656404480978e-05
0.27,-0.058415285303073994,0.987494938667287,-1.392145687142623,0.08447265666751207,-0.008722254786880703,-8.239591496178258e-05,-0.26868183896303055,-3.128481747307185,0.8895554972397435,0.4325041932794672,-0.04950234616749599,-0.0007064477672373774,0.85764700070779,-0.004065658876784717,-0.6055195316105833,-0.14792130037853735,0.2967299400118182,-0.006319989889528588,-0.01345936249043447,1.2558361093441333,-2.202920764020699,-0.5701932958620066,0.023620302902023802,-3.213258880016322e-05
0.28,-0.06101783844391182,0.9562094954503799,-1.3833099128808644,0.08878242193283818,-0.009194065028069123,-8.925765708950918e-05,-0.2602553140837831,-3.1285443216907036,0.8835774261758593,0.4309765265326119,-0.047181024118841966,-0.0006861742127726598,0.9508183618743159,-0.0038340873454255618,-0.8175934125335762,-0.2285813782838182,0.3540589266020948,-0.0019593524156099607,-0.022883740581537478,1.497715023925232,-2.177383698676839,-0.572991267121076,0.023270609586921304,-2.789100354108647e-05
0.29,-0.06352691530420923,0.9249233959116203,-1.374555038702967,0.09306930326843972,-0.009638578721605444,-9.580233144813473e-05,-0.2509076860297413,-3.1286099538759617,0.875487417789728,0.42868813356015384,-0.044451369353632114,-0.0006544674358625548,1.0389298470905723,-0.003587045383148058,-1.0275968826456205,-0.3053576383359351,0.39154066793322273,0.0016420347575949457,-0.030040427099954043,1.7361603284688756,-2.1497990919099714,-0.5753404763731952,0.02273302164297886,-2.4820487849039475e-05
0.3,-0.06593384784330823,0.8936366109861265,-1.3659019620273005,0.0973260117621743,-0.010053139924588693,-0.00010193889661011474,-0.24069325390990023,-3.128678492549384,0.8653076675666455,0.4256708493734576,-0.04145612029832485,-0.0006136565161980011,1.123604299681685,-0.0033277044444767947,-1.2351866855984486,-0.3788903941129953,0.4098736376668599,0.004382762608438062,-0.03461107319347449,1.97101499602479,-2.1200881112221235,-0.5772146613322554,0.022013588728802512,-2.2814560641909446e-05
0.31,-0.06823032329590664,0.8623491133225856,-1.357371328779448,0.10154552904821516,-0.010436503101817348,-0.00010760222231966343,-0.22964754525984088,-3.1287497663540935,0.8530633247852427,0.4219517286040866,-0.03833631772286549,-0.0005663325709548693,1.2062352863212178,-0.0030593026044977347,-1.4400320061299878,-0.4496455162485997,0.41119576037446404,0.0062767813195293565,-0.0363164775607944,2.202132334397687,-2.0881605841716695,-0.5785841797280303,0.021117279856325485,-2.1775098957845086e-05
0.32,-0.0704082232739564,0.8310608773619,-1.3489835039467086,0.1057210729577932,-0.010788697033162152,-0.00011275273424693008,-0.21778999780497682,-3.128823596068549,0.8387824832739394,0.41755439095780345,-0.035219393134480366,-0.000515051192726665,1.2879197383551526,-0.002784975926139482,-1.6418026424279197,-0.5179541452917187,0.3984895657785228,0.007413430717692737,-0.034913732106842746,2.429376371342176,-2.053915136609396,-0.5794160350755864,0.020048237017634203,-2.1613696024293632e-05
0.33,-0.07245949954549374,0.7997718793389684,-1.340758541325059,0.10984607361399704,-0.011110813336662095,-0.000117373902465674,-0.20512762715373373,-3.128899802293162,0.822496262164974,0.41250006562038377,-0.03221163034999429,-0.00046211682187439123,1.3694370504182571,-0.0025076658989804947,-1.8401597086984336,-0.5840427416445149,0.37506054063504257,0.007920476398894705,-0.030194763390641144,2.6526221916705843,-2.017239383947208,-0.5796739173461983,0.018810099677571693,-2.225130618466943e-05
0.34,-0.07437608878419379,0.7684820972375292,-1.3327161517452615,0.11391415769919194,-0.011404761539432708,-0.00012146847054297902,-0.19165892387000394,-3.1289782101439143,0.8042389579797498,0.40680840851949096,-0.02939482027706137,-0.0004094568077305022,1.4512616624061463,-0.00223008887591018,-2.034748327334893,-0.6480558084025061,0.3441419890429114,0.007936190947897659,-0.021986185609855727,2.871756266058955,-1.9780101598427033,-0.5793182572334952,0.01740633293772451,-2.361688035041267e-05
0.35000000000000003,-0.07614986362113506,0.7371915107164723,-1.3248756692128256,0.1179191391810656,-0.011673024093957545,-0.00012505420078082628,-0.17737748369412776,-3.1290586521057007,0.7840482532435874,0.40049814818736623,-0.026826255452483815,-0.0003585730237847257,1.533596606433342,-0.0019547417469611508,-2.225191932800559,-0.7100730591259943,0.3086362087154587,0.007591422445822782,-0.01015015294929554,3.0866767778244006,-1.9360937818651551,-0.5783062946405014,0.015840518579606,-2.5645610242367478e-05
0.36,-0.07777261472302976,0.7059001010185942,-1.3172560145183814,0.12185501520359589,-0.011918433928601526,-0.00012815970340919,-0.16227511018947088,-3.1291409697878003,0.7619654694444157,0.39358760225302925,-0.024540983464398026,-0.0003105502628363716,1.616417405082038,-0.001683927508502666,-2.4110879201113335,-0.770122386034986,0.2709759656866185,0.007000010564235493,0.005414173791814081,3.297293929435959,-1.8913463668682924,-0.5765921640205135,0.014116590734933347,-2.8277231444393138e-05
0.37,-0.07923605773782144,0.6746078508681409,-1.3098756559791613,0.12571596616529748,-0.012143987005643722,-0.00013082070345234374,-0.1463443014791682,-3.1292250150453356,0.7380358539220007,0.3860950961701596,-0.022555307704219464,-0.0002661000043153743,1.6995183824675246,-0.0014197830745354405,-2.59200443451833,-0.8281896642893027,0.23307876905426517,0.006255139796378262,0.02476890612750661,3.503530205870806,-1.8436142135866085,-0.574126999845669,0.012239013569665298,-3.145465720188563e-05
0.38,-0.08053185913662046,0.6433147443614224,-1.3027525670630835,0.12949635924412403,-0.012352694385692366,-0.00013307692074298572,-0.1295801398799019,-3.129310650671844,0.7123088916077864,0.3780393078826556,-0.020870738004864484,-0.00022562172906419686,1.7825562134946864,-0.0011643028053555876,-2.7674781512156983,-0.8842261875412145,0.19636462720679834,0.005429400572310672,0.04793574013245115,3.705320569161361,-1.7927342743869317,-0.5708590663539032,0.010212907431675116,-3.512306524245842e-05
0.39,-0.08165167572299395,0.6120207668539386,-1.2959041807280705,0.13319075480506828,-0.012547472818090183,-0.00013496960992455496,-0.11198165863734916,-3.1293977507483812,0.6848386335012995,0.3694395560944252,-0.01947784323978167,-0.00018926891815692395,1.865087897507466,-0.0009193542437622292,-2.9370129327801626,-0.9381543442484315,0.1618115461934202,0.0045768563073608215,0.07489450512824708,3.9026125636271,-1.7385347389674901,-0.5667339160616798,0.008044134004611073,-3.9229451664183525e-05
0.4,-0.08258720352666574,0.5807259048472774,-1.289347340383376,0.13679391525707088,-0.012731069632384386,-0.00013653972571375187,-0.09355278036717934,-3.129486200666119,0.6556840344694554,0.3603160452002583,-0.018359681429420217,-0.00015701157891969108,1.946602099666198,-0.0006868925296882008,-3.1000792947245315,-0.9898720078063583,0.130028842137211,0.003735966478862651,0.10558207453556417,4.095366233153749,-1.6808357799445335,-0.5616945863496304,0.005739351844388667,-4.372259919700046e-05
0.41000000000000003,-0.0833302327404108,0.5494301458585058,-1.2830982474502266,0.1403008160207488,-0.012906016185439665,-0.0001378266346237949,-0.07430292137450714,-3.1295758988771603,0.6249092933149245,0.3506900763677899,-0.01749465530552787,-0.00012869089100430489,2.026543898659363,-0.00046795080513767297,-3.256114575871921,-1.0392559655433793,0.10133438230480185,0.0029326647136211914,0.13989169775918928,4.283554422122461,-1.619450295385635,-0.5556818076546661,0.003306053120147738,-4.855335305701661e-05
0.42,-0.08387270619513006,0.5181334783760849,-1.277172405560999,0.14370665833808435,-0.013074603782490828,-0.0001388672768085659,-0.05424734547192511,-3.1296667482420824,0.5925841889227513,0.3405842317335576,-0.016858759705116334,-0.00010406421847709809,2.1043337289537605,-0.00026460907278086257,-3.4045238812807717,-1.0861647338895715,0.07582710219149758,0.00218321095831564,0.17767277401484544,4.467161755169411,-1.554185218310372,-0.5486343200262788,0.000752589429778956,-5.367514287112466e-05
0.43,-0.08420677954723732,0.4868358917090346,-1.2715845615090196,0.14700688370081705,-0.013238876376916045,-0.00013969568102723795,-0.033407335210726176,-3.1297586667050323,0.558784405197942,0.33002253627327016,-0.01642725944252174,-8.28404218672033e-05,2.1793814397344993,-7.804952669095079e-05,-3.544681693960921,-1.1304408801443842,0.05345017208601366,0.0014966451461276842,0.2187310466046922,4.646185086018569,-1.484842510775272,-0.5404891523166288,-0.001911805176940921,-5.904456257089834e-05
0.44,-0.08432488188565072,0.4555373759254685,-1.2663486431212039,0.15019718970623194,-0.013400635115035335,-0.00014034274457465617,-0.011810233841340945,-3.1298515783566097,0.5235918387815691,0.3190306005414892,-0.016175873811928868,-6.470635474182256e-05,2.230443407352496,0.007756328772439624,-3.650519623614197,-1.1550017757967552,0.033715210060992096,0.0008768122458017169,0.2603288417553888,4.826991749107905,-1.4061758259377914,-0.5299463135632152,-0.0046146425498014565,-6.556893103476517e-05
0.45,-0.08422182370795939,0.4242386853615172,-1.2614751159091608,0.15327502498112344,-0.013561460549317844,-0.00014083733501719632,0.010305817769133602,-3.1298690563951275,0.48735272120430334,0.30778352748915105,-0.016082543428250884,-4.9459044254015114e-05,2.242724201612511,3.681079870774805,-3.704085593968948,-1.14970207518122,0.016370742935284177,0.0003149860839710694,0.3002394001823836,6.442263786857506,-0.8821953182191125,-0.44879131256065136,-0.006515940602878836,-3.447992880000852e-05
0.46,-0.08389626668510165,0.3933057696447362,-1.2569673450154972,0.1562376934838065,-0.01372266365030672,-0.00014120826598175808,0.03255570228577268,-3.0932915716781038,0.45077708936635336,0.29626685026830724,-0.016120310098887643,-3.70930964561771e-05,2.2501870829246045,7.210857488147837,-3.731215124634266,-1.1736860898191943,0.0025140520886663964,-0.00019442467075414527,0.34047634448059216,7.981016877354071,-0.41473371533624187,-0.38046392602241547,-0.00835655048169419,-9.737031564352808e-06
0.47000000000000003,-0.08334736200913762,0.3630903081660146,-1.252826368699719,0.15908042742860112,-0.013885283264304667,-0.00014148158734764423,0.0548904675964044,-3.0215461478721544,0.4140976315778248,0.2842733944794607,-0.016261961399794755,-2.7332136588614404e-05,2.2531077093308802,9.898715965399214,-3.7360413637663843,-1.2190999244619558,-0.008306701957081497,-0.0006232331532409763,0.37963567678971827,9.173532103549121,-0.0831018659396291,-0.336818575066764,-0.01019536976608423,2.2571213510017593e-06
0.48,-0.08257472411534784,0.33386012447680324,-1.2490516000799496,0.16179752171382134,-0.01405013174782577,-0.00014167986967357434,0.0772637893789776,-2.9230183689211358,0.3774768619769375,0.27170942852202,-0.016484848352110434,-1.9828232593009828e-05,2.251474597782927,11.884360251261434,-3.7251013058247135,-1.274296033953025,-0.01661450369377704,-0.0009680790929822436,0.4166328192762747,10.07862152583856,0.1404376675648722,-0.3122846594305298,-0.01195135750104788,4.816203329869559e-06
0.49,-0.08157843157897085,0.3058130942305824,-1.2456413229244432,0.16438311463035965,-0.014217833442807555,-0.0001418221868546111,0.09962925363769932,-2.804703024622087,0.34102771555063865,0.25855929165383207,-0.016770169498178486,-1.4231718103676257e-05,2.2453264547373797,13.287849424794953,-3.7033212427560684,-1.3314247177642073,-0.022856679194954044,-0.0012344960980896769,0.4506469507175419,10.746395354385008,0.27942629270647235,-0.30216789293954693,-0.013569626999356675,6.4577037741032e-07
0.5,-0.08035902261977668,0.2790890991505947,-1.2425930639641272,0.1668316925686488,-0.01438885778033623,-0.00014192433033748881,0.12194089591941759,-2.6723995079987692,0.3048258960315976,0.24485779382891554,-0.01710243375286743,-1.0214348287771644e-05,2.23474630434961,14.212045796115355,-3.6743906354956124,-1.3853924821007837,-0.02741790605166239,-0.0014311622565506,0.4811143786120512,11.219424166980984,0.3534610759243286,-0.3026085963115314,-0.015016160939392635,-8.099307843881129e-06
0.51,-0.0789174859849602,0.2537802701197621,-1.2399038703692584,0.16913839667819142,-0.014563547780113796,-0.0001419991291822272,0.14415366348164757,-2.5308829030832567,0.2689193594868645,0.23067041095426122,-0.017468999977756625,-7.479884473837926e-06,2.2198531430041477,14.74481791970102,-3.641049680907013,-1.4330862100593933,-0.030625481672336363,-0.001567876458058226,0.5077047053642973,11.533771793101424,0.37858932269053847,-0.310501187032537,-0.016273183269092814,-1.9744204634489698e-05
0.52,-0.07725524816813162,0.22993973820417488,-1.2375705144317855,0.1712991892780208,-0.014742144260181946,-0.00014205681471250576,0.16622378168285815,-2.3840531915587246,0.23333559374729834,0.21607925998293726,-0.01785964800681502,-5.768553027856358e-06,2.200793056431051,14.960985803172136,-3.605310613257508,-1.4727977513889563,-0.032753054556179606,-0.0016544911522538008,0.5302864563756003,11.71989806910814,0.3677596254732637,-0.3233968613379731,-0.01733519436371145,-3.30202579511001e-05
0.53,-0.07537415793004656,0.2075890869122157,-1.2355896424377542,0.17331092267143755,-0.01492480601955293,-0.000142105391594356,0.1881090238085048,-2.235065129195919,0.19808719940312208,0.2011733393416758,-0.01826617593709829,-4.857688185022544e-06,2.1777308748710658,14.924034217771991,-3.5686282264851137,-1.5037989802085079,-0.03402503499686249,-0.0017002932746494892,0.5488881213754822,11.803445520065399,0.33127822528201545,-0.33940286717637425,-0.01820564963877782,-4.699383855867072e-05
0.54,-0.07327646900005862,0.1867246760188705,-1.2339578808355889,0.17517134167266502,-0.015111626333520495,-0.00014215099167919735,0.20976889299879548,-2.0864410893345195,0.16317616021653697,0.18604190012274677,-0.018682031396756588,-4.5600084841362e-06,2.150842883563254,14.687619946154278,-3.532031438405866,-1.5260295352891422,-0.03462203147401066,-0.0017136720680195339,0.5636592011180053,11.805923770533644,0.2772405600790976,-0.3570863610719779,-0.018894241089562305,-6.100140132553466e-05
0.55,-0.07096482170947888,0.16732298685274624,-1.2326719098260384,0.17687904267607332,-0.015302646184947933,-0.00014219819736429446,0.2311647290579738,-1.9401689166124252,0.12859710095506066,0.17077010034083104,-0.019101985142743798,-4.720568509710053e-06,2.120310767560968,14.296896286258919,-3.4962249086720156,-1.539868761038857,-0.034686940583218195,-0.001701978271240634,0.574834360296146,11.745304141195824,0.21192183994501657,-0.3753872159930087,-0.019414724849690604,-7.459240910898454e-05
0.56,-0.06844222417030649,0.14934512080931667,-1.2317285122045667,0.17843340578129765,-0.015497864701573518,-0.0001422503284775237,0.252259753917239,-1.7977866043429582,0.09433976214716373,0.15543631052243334,-0.019521851662558556,-5.213111322924145e-06,2.086316779886784,13.789675579838574,-3.4616675848851948,-1.5459704316428482,-0.034331164677390724,-0.0016715056355602886,0.5827024538325902,11.636535489868795,0.14011964187172743,-0.3935417589421643,-0.019783227693905753,-8.748065259075923e-05
0.5700000000000001,-0.06571203348184683,0.1327405667702087,-1.2311246035149612,0.17983451179237653,-0.015697247273743394,-0.00014230969142608275,0.27301906884596594,-1.660455403910796,0.060390868960551666,0.1401106011078879,-0.019938257216987578,-5.936294855903765e-06,2.0490400259355654,13.19744824292271,-3.42863342940241,-1.5451441819009162,-0.033640514332810234,-0.001627545179887946,0.5875811464230459,11.491991067944134,0.06544731640371682,-0.4110178966100423,-0.020016961498342332,-9.950374974815389e-05
0.58,-0.06277793733134598,0.11745033885144557,-1.2308572482011477,0.1810830524299633,-0.015900731798121,-0.00014237779219578175,0.2934096150500839,-1.5290227918763144,0.026735531381353303,0.1248540637586772,-0.020348452437760827,-6.810076969898569e-06,2.0086537171753567,12.546274771411943,-3.3972583496402926,-1.538271593816959,-0.03268050472844397,-0.0015744781100270888,0.5897971089283487,11.321855020329894,-0.009419515380122201,-0.4274611684248768,-0.02013327594044561,-0.00011059017507355324
0.59,-0.05964393625557113,0.10340957327741693,-1.2309236653795614,0.18218023952695228,-0.016108233443403237,-0.0001424555163120822,0.31340010757748527,-1.4040765574028644,-0.006641717841367627,0.10971870969889752,-0.02075016452822356,-7.772411630045016e-06,1.9653232385500177,11.857565587092578,-3.3675764209112806,-1.5262479145624583,-0.03150090036208475,-0.0015158850758877351,0.5896713164953871,11.13445620760769,-0.08253916174365428,-0.44265075400935494,-0.020148984640363292,-0.00012073294695476392
0.6,-0.05631432674816716,0.09054966202445815,-1.2313212270261003,0.1831277170896498,-0.01631964827504762,-0.00014254327952510024,0.33296095074039733,-1.2859911252958778,-0.039756164653883846,0.09474775626975332,-0.021141483164438184,-8.7763213018043e-06,1.9192048810832911,11.14876257010016,-3.3395477796675053,-1.5099426537059135,-0.030139474104207586,-0.0014546578852807635,0.587508733757671,10.936556346525403,-0.15253760578886533,-0.45646421517016,-0.020079906970646755,-0.000129969019230721
0.61,-0.05279368533126357,0.07879999109874994,-1.2320474507254533,0.1839274787261011,-0.01653485601567248,-0.0001426411530907954,0.35206414169035866,-1.1749670925708204,-0.07262236993529697,0.07997616364512825,-0.021520774062486092,-9.787356569514925e-06,1.8704450775024581,10.433944489719456,-3.3130799849488497,-1.4901739876705076,-0.028625020972971704,-0.0013931055980536122,0.5835915846121493,10.733602384464692,-0.218473334162826,-0.46884952946832864,-0.019940573282994388,-0.0001383633438886377
0.62,-0.04908685366011748,0.06808934374273175,-1.2330999886165215,0.1845817919354477,-0.016753722161188776,-0.00014274896732899834,0.3706831671146089,-1.071064735601819,-0.10525378910682485,0.06543132093465986,-0.021886614551629578,-1.0781423820293338e-05,1.8191796726304288,9.724487521103317,-3.28804380212023,-1.4676929288894343,-0.026979714033299018,-0.0013330507693176674,0.5781753552430606,10.529994206027727,-0.2797145734742197,-0.47980122132460856,-0.01974401895660076,-0.00014599558972144992
0.63,-0.0451989247266608,0.058347034360094696,-1.2344766136559306,0.185093129953885,-0.016976099620628248,-0.0001428663968903621,0.3887928933456677,-0.9742309382637055,-0.137662503940913,0.05113380184373028,-0.0222377459439471,-1.17429561363779e-05,1.7643748664930619,9.433913799607037,-3.262915002728308,-1.4419711716689807,-0.025247727358640226,-0.0012759526340782035,0.5712855743207585,10.482922742716987,-0.2901889495422726,-0.48272538362045564,-0.019393089275776113,-0.00014911013623500262
0.64,-0.04113534517864282,0.049544105592866095,-1.236174861963908,0.18546388924993554,-0.01720182304478325,-0.0001429933666760276,0.4063579548017983,-0.8802928767228602,-0.16982483079772803,0.03707592960505332,-0.02257234241550035,-1.2696978566548077e-05,1.706614929071618,9.285318229072193,-3.2360171619869487,-1.4174699460757003,-0.02333455023511366,-0.0012232103473388545,0.5626760461627562,10.488382200747585,-0.28260484390454654,-0.4825850199040314,-0.018925891083122374,-0.00015030447274857182
0.65,-0.03690185733863956,0.04166574623941351,-1.2381920322056754,0.1856962666171341,-0.01743070771999442,-0.00014312989260980568,0.42334878400032633,-0.787835935345258,-0.20171702417674897,0.02323773671985551,-0.022888467521116576,-1.365259337780788e-05,1.6466522918985715,9.00830257934273,-3.2075489429668718,-1.3956546110062928,-0.02122133024677808,-0.001172238248298707,0.5523900799025427,10.443917159448892,-0.2881114779850199,-0.4839752377727621,-0.018406170901021916,-0.00015214918317263507
0.66,-0.03250442442673482,0.034684354112660895,-1.2405253483885252,0.18579235949130044,-0.017662554214882834,-0.00014327582943245482,0.43974329119047384,-0.6981392126752617,-0.23333161828498214,0.009609287416632889,-0.02318464948884168,-1.4593682264915136e-05,1.5846250682335723,8.663078881319741,-3.17841916080536,-1.3749026648879545,-0.018969490785729626,-0.0011214179030354376,0.5407012021345382,10.37206536624829,-0.2998992661041889,-0.4858980296286993,-0.01783920361078401,-0.00015418679019174505
0.67,-0.027949216585152918,0.028565532831491214,-1.2431720094851022,0.18575424110284786,-0.017897151881173093,-0.0001434309028623103,0.45552078415819,-0.6118821281169681,-0.2646661096576965,-0.0038118388452577506,-0.023459766629025797,-1.5507342985547257e-05,1.5207602257111241,8.21154732122093,-3.1492228734535352,-1.3545592110592446,-0.01661366249340368,-0.0010715332781816578,0.5278273672511092,10.257982463446591,-0.3224992256299395,-0.489026157403021,-0.01725050116050554,-0.00015689392714944163
0.68,-0.02324258817078148,0.023264295276412036,-1.246129263242824,0.18558403997673495,-0.018134282437860246,-0.00014359469951580128,0.47066284143714365,-0.5301237555079177,-0.2957253757721876,-0.01702011261129204,-0.02371305566871535,-1.6379665349097093e-05,1.455200893887934,7.6512031790269095,-3.1205978036716697,-1.3337431985926216,-0.014193844398405098,-0.001023304474241482,0.5140325757212277,10.10019302761259,-0.3564217222322543,-0.49344727871321836,-0.01666118091484391,-0.00016045068341793511
0.6900000000000001,-0.018391063363663182,0.01872481294937923,-1.249394465132042,0.18528400837294629,-0.018373723167913705,-0.00014376668801030618,0.48515248071182965,-0.4539482327032808,-0.3265201889218122,-0.03000316037886729,-0.023944073005345783,-1.7198849450489516e-05,1.3880312294922423,7.045422322451142,-3.093062240933917,-1.3117067254796368,-0.011745908667238236,-0.000977894694474457,0.4995958801230832,9.92245129952531,-0.39468471423688917,-0.49816723717943306,-0.016075794555951563,-0.00016441810961481218
0.7000000000000001,-0.013401327600771729,0.014886728818082002,-1.2529650931050158,0.1848565273007443,-0.0186152483985123,-0.00014394630675186075,0.49897357628914524,-0.3838084131297227,-0.3570627972973765,-0.042748107220196806,-0.02415252305985965,-1.7961874155458017e-05,1.3193569189231378,6.4035605256675145,-3.0667857105631677,-1.2884248733835189,-0.009285825136026826,-0.0009367180406068543,0.48471351890719216,9.728037222065431,-0.4365337132949017,-0.503111529157167,-0.015506034363312188,-0.0001688431892449632
0.71,-0.008280216941508165,0.011686089201436574,-1.2568387595789337,0.18430409981289247,-0.01885863063542331,-0.00014413300882168027,0.5121110659263564,-0.32006396166454276,-0.38736664739178744,-0.05524274878518354,-0.024338223691100728,-1.8670206981952535e-05,1.249273023515079,5.683643135725329,-3.041873590348712,-1.2639559249362438,-0.00682666285610134,-0.0009007556625860724,0.46955724939989585,9.500401209336887,-0.48715165820704354,-0.5090738498082338,-0.01497636378593872,-0.00017427711927534467
0.72,-0.0030347085485447926,0.009051161953791258,-1.2610132437715889,0.1836293797741972,-0.019103642552654836,-0.00014432625326314696,0.5245508392963372,-0.26349272476453156,-0.41744841926552473,-0.06747200386952887,-0.024501191723152627,-1.932444414666971e-05,1.1778223322493429,5.020053033246015,-3.0185870267105352,-1.237953584316485,-0.004391627859147373,-0.0008709374169428297,0.45438259906823414,9.29110806943749,-0.5311878782547887,-0.5138326500589615,-0.01446787424271164,-0.00017955899285280525
0.73,0.0023280837829839137,0.006915823898372425,-1.2654864469500482,0.1828350882647428,-0.019350055904190592,-0.00014452566058157832,0.5362792331528706,-0.2135338055418833,-0.44732031784593107,-0.07942915094543886,-0.024641335153575528,-1.9940731843135683e-05,1.1050864629134713,4.306809516912194,-2.996519803924366,-1.2113021233496677,-0.0019687294437655822,-0.0008487004810664445,0.43920645830557314,9.059119795409964,-0.5812254948799696,-0.5192737573889886,-0.014010349373027458,-0.00018578836465983802
0.74,0.007800917701752446,0.0052090033438384024,-1.270256412210664,0.1819240318304611,-0.019597643038011755,-0.00014473094383052646,0.5472833918768533,-0.1706820554534022,-0.4769965260616004,-0.09110564342816899,-0.024758713382116458,-2.052832489481541e-05,1.0311054691144175,3.663061057442005,-2.9758206485045027,-1.1837716094601252,0.0004246032907917474,-0.0008342554266119462,0.4242308539722661,8.850589639642177,-0.6234085342919943,-0.5233725120845567,-0.013583591649600619,-0.00019189786428012784
0.75,0.013376426459692347,0.0038665500209765172,-1.2753212766184843,0.18089902246118406,-0.01984617561503445,-0.00014494204095134985,0.5575508757939901,-0.1342453322861885,-0.5064864407820081,-0.10250093692770558,-0.02485325770226962,-2.1109712082338584e-05,0.9559374124081316,3.0237624113234296,-2.9560279325296066,-1.156186457294341,0.002802435898309419,-0.0008287376135858726,0.4094332923393246,8.640366134759295,-0.6654500471676396,-0.5272909455980759,-0.013202668822774682,-0.0001985446990682999
0.76,0.019047124654459187,0.0028247558001277063,-1.2806792643970017,0.17976286767942518,-0.02009542507539095,-0.00014515907237721046,0.5670698194766838,-0.10417942208488112,-0.5357987778517528,-0.11361547817588807,-0.024924946035649962,-2.1703142586062e-05,0.8796239301256426,2.4876961594302887,-2.9370528054585954,-1.1286267128601448,0.005159715727866665,-0.0008321523630944322,0.39490865959414734,8.467394263126424,-0.6955245067303844,-0.5292755849776746,-0.012843164883932074,-0.00020476012194119478
0.77,0.024805412496399393,0.0020301961469125105,-1.2863286274269217,0.17851828376844509,-0.020345160809027544,-0.00014538244852561012,0.5758287841940206,-0.07945596532151955,-0.5649363029919827,-0.12445839109800944,-0.024973573363659508,-2.233761483996496e-05,0.8022166477326372,1.9662376677658828,-2.9183079310285764,-1.1019752805809073,0.007516774991290109,-0.000844970231058513,0.38054016253853223,8.297282535014054,-0.7241050362130927,-0.5308959592838339,-0.012520204599340194,-0.00021138237771803543
0.78,0.030643580859809387,0.0014309018310215353,-1.2922676389244963,0.17716790141602734,-0.020595150710524222,-0.00014561278196422426,0.5838168363409992,-0.059929431589097526,-0.5939011497574638,-0.13503823524177572,-0.024998990149667808,-2.3033343861412635e-05,0.723760326568128,1.5795578099655219,-2.8997201213136337,-1.0761659688991445,0.009868450000186879,-0.0008665395348426662,0.3663811139095897,8.17802442782582,-0.7364478622071283,-0.5299289390301195,-0.012198471977814075,-0.00021714948175672322
0.79,0.03655381586465778,0.0009883311970494903,-1.2984945227967262,0.1757141729118194,-0.020845158786524216,-0.00014585100694270442,0.5910235004848391,-0.0442570633972045,-0.6226883872230018,-0.14537285042079537,-0.025000807599999248,-2.3822497848016094e-05,0.6443065193602004,1.2006966395217955,-2.880586189385348,-1.0521375176571626,0.01224136659912789,-0.0008969169438642309,0.3522132905084117,8.059887707738516,-0.7477400117365938,-0.5286606105811236,-0.011897952418262229,-0.00022324944592170897
0.8,0.042528203858766656,0.0006647227309920629,-1.3050074568163215,0.17415940568352206,-0.021094946187642172,-0.00014609823122332992,0.597438799410888,-0.03236084660574274,-0.6512934019595348,-0.15547672282973504,-0.024978740111795576,-2.4722428062550343e-05,0.5639068597450737,0.9382996657236045,-2.860935703072789,-1.0295508327872493,0.014625833081593154,-0.0009347250122379303,0.33806844123480406,7.9867195464658565,-0.7443910371040113,-0.5250139835561098,-0.011584812746749431,-0.00022849817011567133
0.81,0.04855873666571987,0.00043391889091841797,-1.3118045158965472,0.17250569994888154,-0.02134426934942408,-0.0001463558338660081,0.603053280695322,-0.023080384007364486,-0.6797059080225776,-0.16537057346405154,-0.02493231617819052,-2.5760264267818394e-05,0.48261756499189923,0.6941354619883626,-2.840201438129224,-1.00903409969332,0.017042801029964805,-0.0009797497250341458,0.32372945055768326,7.919807130680831,-0.7382737325440257,-0.520789216619104,-0.011271569088827888,-0.00023379648316975305
0.8200000000000001,0.05463731705139509,0.00027158043809726907,-1.3188836721884742,0.17075498280628426,-0.021592880833776865,-0.000146625336539266,0.6078580385675212,-0.01623384528211489,-0.7079156291926998,-0.1750717142597292,-0.024861148435278802,-2.6950267325790455e-05,0.40049899054029164,0.5306874723826931,-2.81838593686693,-0.9902460595631588,0.019484709638442954,-0.0010304954024965007,0.3091746708833932,7.884818889643979,-0.7213480441673907,-0.5147376812915203,-0.010934861986188819,-0.0002384082004948191
0.8300000000000001,0.0607557647862567,0.00016141131362590604,-1.3262427597514792,0.1689089840557214,-0.021840528382154226,-0.00014690844743583975,0.6118447734861614,-0.011016912447136304,-0.735908756300491,-0.18459987505628606,-0.02476475483773617,-2.8311089657374678e-05,0.31761646877120153,0.37612101846627466,-2.7951360954860016,-0.9734302737375167,0.02196269640429782,-0.001086383706471905,0.2942294929214625,7.853109747732317,-0.7024642881622893,-0.5082162615796652,-0.010583589783897054,-0.00024299922241747792
0.84,0.06690582304791799,8.800233167390568e-05,-1.3338794798708948,0.16696927803995548,-0.0220869559072972,-0.00014720695447237656,0.6150058261661286,-0.007340898195200035,-0.7636720119415638,-0.19397060157659307,-0.024642752514297584,-2.985070365368214e-05,0.23404118456194564,0.3164215623618,-2.7705077077165603,-0.9581678416283488,0.024467455745010747,-0.001146090602810873,0.27887763945695804,7.860324345590083,-0.6704163155923009,-0.49946617102268104,-0.010186724184372251,-0.00024654248312937406
0.85,0.07307916558526864,4.539747308811687e-05,-1.3417913573037696,0.164937245989368,-0.022331902061283333,-0.0001475228019842005,0.617334253735065,-0.004260485858578881,-0.7911877432874748,-0.20320320505875053,-0.024494615398613143,-3.158475118239537e-05,0.149850012415905,0.11269352251252536,-2.7440632509353446,-0.9448370808998936,0.027014839873728325,-0.0012089957076223679,0.26286170929327457,7.808113100529024,-0.656067209583646,-0.49332734003414824,-0.009805510681136487,-0.00025164332365966685
0.86,0.07926740409156037,1.3293582112966252e-05,-1.3499758300090317,0.16281424507215778,-0.022575105204662715,-0.00014785777450167508,0.6188238506291724,-0.003210389097515062,-0.8184472705262048,-0.2123000917210215,-0.024320314337938142,-3.349725174745556e-05,0.04271294387370597,3.133223454810844,-2.6014434100426427,-0.9206975232203094,0.03068441546444184,-0.0012704339286924958,0.2408458178180835,9.122541296661069,-0.19744542885232674,-0.41502362226425793,-0.008100759356658048,-0.00021753065408070473
0.87,0.08545986619371988,0.00029267301799082825,-1.35841718934083,0.1606005271282425,-0.02281611756488656,-0.0001482165618036773,0.619246210215951,0.027937943587786195,-0.8441359331798175,-0.22137179439152857,-0.024101236022384537,-3.587873020022225e-05,-0.019705838020975232,-2.4781207145192914,-2.6730558808137532,-0.9406330447599363,0.032794999502778144,-0.0013287448215705822,0.22258651540233718,6.79224580336894,-0.9174330894462243,-0.5275231800133479,-0.009229026476434789,-0.0002838498110374031
0.88,0.09165032606520877,0.00032444781389249274,-1.367125606366328,0.1582986851560282,-0.023054870485601783,-0.00014859459779309486,0.6190459871488887,0.0031774795901664474,-0.870841702549797,-0.2301841972214289,-0.02387529207152215,-3.780359894175758e-05,-0.10518265393822257,-1.2348410144121653,-2.65777764895411,-0.9042516707517816,0.0345363910291841,-0.0013587336849911202,0.20992585049037232,7.335776753161308,-0.7098982096321464,-0.4898167983945943,-0.008660793502113562,-0.0002748804641163507
0.89,0.09783026808549776,0.0002324533410070157,-1.3760986695405124,0.15591063747640385,-0.02329111971524758,-0.0001489954857531434,0.6179942020288988,-0.009199447288547703,-0.8973063174184498,-0.23880476796243583,-0.0236249229645797,-4.008879600485557e-05,-0.19086645629381996,-0.1794135561832861,-2.631831861650268,-0.8854635571965632,0.03685983405209403,-0.0014591926435653102,0.19400543950938884,7.81370223267684,-0.5214041485319838,-0.45478982116111155,-0.007907202238228307,-0.00026562446128584107
0.9,0.1039911545789681,0.00012182988910596088,-1.3853331295633993,0.1534371313270632,-0.023524583659233936,-0.00014942323926014564,0.6160886493470339,-0.011062345190105483,-0.9234460022886826,-0.2473506149340678,-0.023346394398635596,-4.2775350700224384e-05,-0.27666150200962003,0.6565889310849649,-2.5974394417859754,-0.8784569795426949,0.03956227403492951,-0.0015501063372546087,0.17506696610311015,8.209850623131917,-0.35784991437690294,-0.42349126344369387,-0.007006613561831963,-0.00025679992654837214
0.91,0.1101244355226139,7.587100171047985e-05,-1.3948251015764959,0.15087821584478178,-0.02375495885073664,-0.00014988110474423483,0.6133280943645799,-0.004595888739548102,-0.9491972013096643,-0.2558915482281417,-0.02303751915027034,-4.578654840891969e-05,-0.3624644978800903,-0.1396889916255438,-2.5566279468584514,-0.8784637965533495,0.042481959687904025,-0.0016208708316783893,0.1531261723647224,7.906286390209596,-0.4192659185074078,-0.42889206547327857,-0.006493575175662179,-0.0002670802752867523
0.92,0.11622155746769693,1.5255617923872073e-05,-1.4045710455684153,0.14823477014345152,-0.023981970597696623,-0.00015036964733962905,0.6097121945083026,-0.006061538378660778,-0.9745943991919511,-0.26434457013302765,-0.022701174695998423,-4.885425953942119e-05,-0.47645139805262754,3.128390908348979,-2.2751936377498208,-0.842627347401433,0.046434512820021645,-0.0016659351312637988,0.12428306846425932,9.412764403402573,0.13074862437982113,-0.32996560663785757,-0.004273016413732914,-0.0002221086560927756
0.93,0.12227116163535301,0.0002657037550198617,-1.4145414754453913,0.1455086103946622,-0.024205130419849886,-0.00015089225519266454,0.6049604167656084,0.025044813709598962,-0.9970429876975976,-0.27261597487893025,-0.022315982215326286,-5.226078530354878e-05,-0.5329550775999243,-2.3977360002884796,-2.466670225049042,-0.8797776984494572,0.04845710453796781,-0.0017096715300137788,0.10231167216441811,6.99990696663481,-0.6428293578544311,-0.4571956925730095,-0.0052650268023945734,-0.0002932424947950891
0.9400000000000001,0.1282676082165313,0.00027655620926205155,-1.4247584052245403,0.1427001795732062,-0.024424389071398146,-0.00015144446183516588,0.5996446581178291,0.0010852454242189884,-1.021692977914902,-0.2808430821456009,-0.02192586515482605,-5.522066425013195e-05,-0.6179454557607416,-1.114937655949351,-2.440592699200854,-0.8483911103070092,0.050180652048530394,-0.0017293127591360702,0.08405369612127017,7.591528938715979,-0.40899121558394547,-0.4128321804611393,-0.0043132846338280115,-0.0002793643785495349
0.9500000000000001,0.1342024264478361,0.00017559567031886922,-1.4352183426310285,0.13981102768873488,-0.024639498668489506,-0.00015202956843984517,0.5934818231304784,-0.010096053894318233,-1.0459937406488105,-0.2889151884471299,-0.02151095970913604,-5.8510660467927644e-05,-0.7023370492476813,0.04630416877599961,-2.4036938067220937,-0.8332875243231772,0.052491006764590065,-0.0018154934806242085,0.06218996010758543,8.146098679272725,-0.1856716499950351,-0.3698224914447742,-0.0031392579238598154,-0.0002639823722099322
0.96,0.14006720375372134,7.851362091516696e-05,-1.4459169017306257,0.13684158923007675,-0.024850173379569723,-0.00015265114000845444,0.5864777305885249,-0.009708204940370226,-1.0698559099597256,-0.2969438458658138,-0.02106747110802163,-6.21571568609274e-05,-0.8062477002613407,2.50886306259899,-2.2109981944174053,-0.8112020414592307,0.05609885501720058,-0.001880785094403481,0.03090829385983415,9.32913541790149,0.2599604660940109,-0.2868047839092997,-0.0009927961435443576,-0.00022563351613261707
0.97,0.14585158192063388,0.00023073794060870565,-1.4568337307339638,0.13379273373645692,-0.025055978066139586,-0.0001533123012110826,0.5784378166912539,0.015222431969353868,-1.0916829003338178,-0.30488554936198337,-0.020580468656986515,-6.611612026281485e-05,-0.868279275760994,-1.927702863838525,-2.299067002770808,-0.8392766931937334,0.05839116857841553,-0.0019165327295488366,0.004497262940748065,7.346208900371343,-0.3719388928713697,-0.3918173131057473,-0.001463956032835322,-0.0002838767571918492
0.98,0.15154936883309936,0.00019021446514036418,-1.467980189245378,0.1306653488393403,-0.025256814095758123,-0.00015400849651582316,0.569778691246548,-0.004052347546834147,-1.1146458511414203,-0.3127384897116608,-0.020083602961853506,-6.961953047405772e-05,-0.9500085279956182,-0.6494283995523896,-2.2636847633811468,-0.8126523934048375,0.06013908325779216,-0.0019187817728524292,-0.018822984670559623,7.963427489273828,-0.1227421101792221,-0.34319888441715274,-0.00017583372592149156,-0.00026518929263998075
0.99,0.15715241607011018,8.42837252905866e-05,-1.4793518827033079,0.12746066914504145,-0.02545243311911616,-0.00015474233876879302,0.5603047237010815,-0.010593073984977757,-1.137169345792977,-0.32046796942988653,-0.019561902335803814,-7.338422529698635e-05,-1.049939739700162,4.448041089863816,-2.030021465135218,-0.7780450993169565,0.06330572587598038,-0.001970442062682473,-0.05110442948433608,10.405909123029868,0.7557072887301977,-0.1823236496618918,0.0030779148322563135,-0.00018380364769407615
