tonegas/nnodely-applications/joint_friction_estimation/dataset/test/mpc_mujoco_episode_7.csv
time,q1,q2,q3,q4,q5,q6,dq1,dq2,dq3,dq4,dq5,dq6,ddq1,ddq2,ddq3,ddq4,ddq5,ddq6,tau1,tau2,tau3,tau4,tau5,tau6
0.0,0.0,1.57,-1.57,0.0,0.0,0.0,0.0,0.0,0.0,0.0,0.0,0.0,-14.599144198765618,-11.299078767745435,11.71483982413713,5.494328725868529,-2.229819064200342,-4.6012442744824966e-07,-2.035885832121991,-8.021632096669839,-4.708219215318226,-0.9541140230159281,-0.18429992066482856,-0.002704327942282438
0.01,-0.0014526436770458788,1.568877913349907,-1.5688362469234292,0.0005087472007145276,-0.00018592163860404087,-1.6081008221728645e-06,-0.14526436770458787,-0.11220866500930812,0.11637530765709424,0.05087472007145276,-0.018592163860404087,-0.00016081008221728645,-14.525443189910895,-10.909504993482523,11.733239412469722,5.123032743062143,-1.8923201500899296,-0.016124561324470932,-2.025629225731316,-7.836832816252949,-4.634577882311406,-0.9378908549822635,-0.1838245465101725,-0.0026871795238155986
0.02,-0.0043494366359117225,1.5666727928199315,-1.5665090549779381,0.001497246889111161,-0.0005371214215898754,-4.8975900931442555e-06,-0.28967929588658436,-0.2205120529975368,0.23271919454909512,0.09884996883966335,-0.035119978298583446,-0.0003289489270971391,-14.436687395718579,-10.485385085106143,11.738276762410646,4.8329605800699245,-1.6908190897199091,-0.01693941155582479,-1.9999965273661526,-7.627732107846251,-4.549271415151389,-0.9187305561651412,-0.1824332146414519,-0.0026532116776662854
0.03,-0.008680832121519022,1.5634270640132835,-1.5630194741599808,0.002942712578786224,-0.0010412243117735877,-9.77906403205804e-06,-0.43313954856072995,-0.32457288066481255,0.34895808179573456,0.14454656896750628,-0.05041028901837123,-0.0004881473938913783,-14.336171937229409,-10.027181679352866,11.735733527272028,4.604590269059091,-1.5744017875763348,-0.01610372586024056,-1.9601924293848167,-7.395339437992858,-4.45301357901667,-0.8968203243158512,-0.18018046396575108,-0.0026030424763220034
0.04,-0.014436382571532895,1.559186495868684,-1.5583688543757386,0.004827081368112901,-0.0016910495386893432,-1.6183335127147893e-05,-0.5755550450013872,-0.4240568144599458,0.4650619784242298,0.1884368789326677,-0.06498252269157553,-0.0006404271095089853,-14.225401186108623,-9.535442990887983,11.729712455376074,4.4228441562530545,-1.512108696468971,-0.015401540417956383,-1.907616106977955,-7.140934016795561,-4.346657940139306,-0.8723778340801469,-0.17712677047827713,-0.0025373226536121035
0.05,-0.02160478374278173,1.5540001586448384,-1.5525585447162238,0.007135865905454837,-0.00248273232074563,-2.4071699253274614e-05,-0.7168401171248836,-0.5186337223845673,0.5810309659514861,0.2308784537341936,-0.07916827820562865,-0.0007888364126126723,-14.10481718212423,-9.010911192667502,11.722915903058745,4.276031161072721,-1.4849477127884825,-0.014895088106742449,-1.8438273332867743,-6.866107379508343,-4.2312103784567485,-0.845653815194745,-0.17333798424105118,-0.0024567345469609413
0.06,-0.0301738554749477,1.5479203595194562,-1.5455897074598375,0.009857261470946618,-0.0034145663543372656,-3.342634457205533e-05,-0.8569071732165966,-0.6079799125382149,0.6968837256386242,0.27213955654917804,-0.0931834033591636,-0.0009354645318780719,-13.974228775867669,-8.454613110093847,11.716853885766566,4.155023215858998,-1.4811322962100988,-0.014446812077077098,-1.7705089112594126,-6.57279914747932,-4.107838277856171,-0.8169335941701377,-0.16888466487628123,-0.002361992729517079
0.07,-0.04013048488725705,1.5410025474587672,-1.537463231800214,0.012981445165634448,-0.004486280806436812,-4.424172988908532e-05,-0.995662941230935,-0.691781206068895,0.812647565962363,0.312418369468783,-0.10717144520995461,-0.001081538531702999,-13.83306229928253,-7.867936528275952,11.711999036190686,4.052620296034915,-1.4932088120003115,-0.013924703300117969,-1.6894251911515046,-6.263324332279524,-3.9778757061376533,-0.7865374647819738,-0.16384121193650658,-0.0022538435400036596
0.08,-0.05146054683694695,1.5333051802736708,-1.5281797362847473,0.01650001870859004,-0.005698578522000886,-5.651845533282473e-05,-1.1330061949689907,-0.7697367185096395,0.9283495515466613,0.351857354295559,-0.12122977155640748,-0.001227672544373941,-13.680505343275032,-7.25269336878102,11.707903352024003,3.9630636069625744,-1.5163146609134373,-0.013216068703123085,-1.6023771073032607,-5.94038998103895,-3.842823748502053,-0.7548197214241452,-0.1582847373812557,-0.002133062296922875
0.09,-0.0641488098619496,1.524889547961607,-1.5177396517373611,0.020405557693415413,-0.007052830214018313,-7.025884183119138e-05,-1.2688263025002644,-0.8415632312063916,1.044008454738611,0.3905538984825375,-0.13542516920174266,-0.001374038649836664,-13.515586685090355,-6.611169652324142,11.70328915985565,3.881664874349706,-1.547118546678952,-0.012219146712038054,-1.5111547051700063,-5.607098620935556,-3.704345104696003,-0.722166186050561,-0.15229366483604734,-0.0020004479091235514
0.1,-0.0781788318776198,1.5158195476587217,-1.506143378217359,0.02469123905964298,-0.00855086056611017,-8.546349069690544e-05,-1.4030022015670198,-0.9070000302885245,1.1596273520002072,0.4285681366227564,-0.14980303520918561,-0.0015204648865714064,-13.33721875482974,-5.946161293348359,11.69612471359882,3.804526937392083,-1.5831745033132734,-0.010835969171241189,-1.417488562867976,-5.266935845038816,-3.564252094321618,-0.6889900817953867,-0.14594607094062736,-0.001856815169426871
0.11,-0.09353284760588923,1.5061614068722966,-1.4933915104845579,0.029350525560710983,-0.010194787189795,-0.00010212835384269372,-1.5354015728269437,-0.9658140786425111,1.2751867732801152,0.46592865010680057,-0.1643926623684829,-0.0016664863145788276,-13.144219238689507,-5.260994240097035,11.683693195491012,3.728336575064386,-1.6225288342660633,-0.008968459580902532,-1.3230018389785712,-4.9237395113543965,-3.42448733988288,-0.6557261539733487,-0.13931781088399878,-0.0017029854074152699
0.12,-0.11019164850348599,1.4959833531752424,-1.4794851266237847,0.03437689159990517,-0.01198688869710181,-0.00012024204074830358,-1.6658800897596764,-1.0178053697054064,1.390638386077303,0.5026366039194184,-0.17921015073068106,-0.0018113686905609858,-12.935322480675605,-4.559527230321612,11.662662446900358,3.6502148922222943,-1.6634837409760905,-0.006517139062246713,-1.229164880194928,-4.581648439171092,-3.2870966213281143,-0.6228230124994678,-0.13248049335014878,-0.0015397764471460724
0.13,-0.12813445546691513,1.485355230242259,-1.4644261340416498,0.0397635792947327,-0.013929487663995934,-0.00013978321800231814,-1.7942806963429139,-1.0628122932983393,1.5058992582134976,0.538668769482753,-0.19425989668941235,-0.001954117725401456,-12.709187159556322,-3.8461355014826246,11.629161390777949,3.567613890508486,-1.7044602978273034,-0.003381789875930963,-1.1372543461822344,-4.245029231081255,-3.154193730947905,-0.5907337693506453,-0.1254993852999742,-0.001367992946010231
0.14,-0.147338784549512,1.4743480619805769,-1.4482176660972754,0.04550337726823809,-0.01602484031113667,-0.00016071804366295377,-1.920432908259686,-1.1007168261682023,1.6208467944374259,0.5739797973505395,-0.20953526471407372,-0.002093482566063562,-12.464400753601382,-3.125674415733992,11.578867695818957,3.4782502804751907,-1.743926675358118,0.0005363894222760734,-1.0483183839271502,-3.91838104750086,-3.0279176393875553,-0.5599051747990593,-0.11843130620769364,-0.0011884178930198208
0.15,-0.16778030582325493,1.4630335684922473,-1.430864521288506,0.05158841763411111,-0.018275028701170468,-0.00018299763829769398,-2.044152127374292,-1.1314493488329593,1.7353144808769347,0.608504036587302,-0.22501883900337952,-0.0022279594634740203,-12.199573187679263,-2.4034141604458132,11.507111858903851,3.3800684745555785,-1.7803712883286877,0.0053315131959283946,-0.9631593604845529,-3.606215387978688,-2.9103812584371638,-0.530765284169993,-0.11132361816293235,-0.0010018173103212413
0.16,-0.18943270447060756,1.4514836404764806,-1.4123736351152236,0.058009989008085655,-0.020681854351762587,-0.00020655563975027026,-2.165239864735262,-1.154992801576672,1.8490886173282353,0.6421571373974546,-0.24068256505921193,-0.0023558001452576287,-11.913159635049444,-1.684976583301599,11.408989068035519,3.271229639535566,-1.8123108393375063,0.011088992019542054,-0.8822961063440371,-3.3129298148238844,-2.8036193395432414,-0.5037113594641718,-0.10421043363493328,-0.00080891536326568
0.17,-0.2122675265891227,1.4397697784518524,-1.3927545738146239,0.06475836546678829,-0.023246733196149616,-0.00023130591205618186,-2.283482211851515,-1.1713862024628217,1.961906130059987,0.674837645870263,-0.25648788443870274,-0.0024750272305911598,-11.603675185191358,-0.9762205750317104,11.279500135869032,3.1501156763965064,-1.8383139663134216,0.017881247413706447,-0.8059798507518726,-3.0426499467384476,-2.709525927805092,-0.47909630607086934,-0.09711353813334757,-0.0006104226182248511
0.18,-0.2362540309334408,1.4279625083078293,-1.3720200362063268,0.07182265268924239,-0.025970594329498893,-0.0002571405047142532,-2.3986504344318096,-1.1807270144022963,2.0734537608297057,0.70642872224541,-0.2723861133349275,-0.0025834592658071304,-11.266341066574489,-0.28340952208517306,11.113721984914363,3.0153888335816887,-1.8570477150542501,0.02576361594880794,-0.7338641520992265,-2.799191616098066,-2.6298295624522137,-0.45722249932103604,-0.09000587899058768,-0.00040668571241946094
0.19,-0.26135871620430784,1.4161307565499115,-1.3501863467990165,0.07919065723692591,-0.028853771273358204,-0.0002839278960599655,-2.510468527086702,-1.1831751757917788,2.1833689407310257,0.7368004547683525,-0.28831769438593097,-0.002678739134571231,-10.680997225982129,0.3693238394209513,10.909428483531066,2.868877098867518,-1.8671138433843097,0.034770754232002155,-0.6446016842703637,-2.5928983407806654,-2.5679758320789094,-0.4386456377452267,-0.08059894503347015,-0.00017627789285497948
0.2,-0.28752363065767683,1.4043394436809329,-1.3272736763911446,0.086849032819501,-0.0318949621803238,-0.0003115081617238865,-2.616491445336901,-1.1791312868978698,2.2912670407871967,0.7658375582575094,-0.3041190906965596,-0.0027580265663921005,-9.422626019443399,0.9408745927603506,10.670593263010318,2.7168258424608354,-1.8582825728032262,0.044876090857493445,-0.4997402122488881,-2.437454474368404,-2.527902744361655,-0.4239575879755244,-0.06461143940319201,0.00011654456928423488
0.21,-0.3146245055949487,1.3926453860124686,-1.3033056408383317,0.09478382273004278,-0.035088715942768224,-0.00033968481239726224,-2.7100874937271877,-1.169405766846438,2.3968035552812816,0.7934789910541779,-0.319375376244442,-0.0028176650673375743,-8.141055278356562,1.47129962418298,10.390210848792208,2.551742453427199,-1.8052532009617757,0.0558898039027258,-0.36320419221588884,-2.3105939987948827,-2.504082864839872,-0.4123761400203718,-0.04893446845810018,0.00039780064559635656
0.22,-0.3425346871502926,1.3811012930420214,-1.2783100108549952,0.10297980385461136,-0.038426675653365674,-0.00036822415944066955,-2.791018155534389,-1.1544092970447106,2.4995629983336523,0.8195981124568583,-0.33379597105974473,-0.002853934704340733,-6.871215411724158,1.9597607430646666,10.065648074247449,2.3733072423332473,-1.7202969032913558,0.06773689510758985,-0.2370806499023116,-2.211045513082759,-2.4963887597500483,-0.40385714266585704,-0.03389449964541316,0.000662245130802388
0.23,-0.37112862541516134,1.3697556840817549,-1.2523189730730977,0.1114204485023739,-0.041898471385553276,-0.00039686551156701503,-2.8593938264868752,-1.1345608960266584,2.5991037781897584,0.8440644647762536,-0.34717957321876053,-0.002864135212634549,-5.653486791966383,2.4072077348801164,9.414724919429524,2.186539310293494,-1.612890749930802,0.08023131931618299,-0.12350592901348423,-2.169972513752568,-2.5434662128343586,-0.4079970962439621,-0.019873084983167755,0.0009016257354618282
0.24,-0.4002858841527297,1.3586528457918374,-1.2253966003857917,0.12008667592957617,-0.0454924795565759,-0.00042533643628315344,-2.9157258737568332,-1.1102838289917354,2.6922372687306044,0.8666227427202269,-0.35940081710226207,-0.0028470924716138385,-4.498558503673232,2.8148415436315393,8.341834526660163,1.9788229428393507,-1.4911435354115739,0.09302628885418773,-0.021723976155087588,-2.1903984691967717,-2.6584667886448727,-0.4281153583502051,-0.0069262944141897514,0.0011124911501666978
0.25,-0.42989222026569357,1.3478329254104502,-1.1976482794224115,0.12895535231960126,-0.0491963749498287,-0.0004533668445885312,-2.9606336112963887,-1.0819920381387251,2.7748320963380255,0.8868676390025074,-0.37038953932528024,-0.002803040830537776,-3.4453322666867217,3.1803859234284024,7.263039370103538,1.726269788675996,-1.3609244304526946,0.10573965160976906,0.06648987343272561,-2.2176243811919507,-2.783695540660857,-0.4500035553501028,0.004663673244617583,0.0012951821853464033
0.26,-0.4598434246725138,1.3373319246368096,-1.1691803174348323,0.1379998536789048,-0.05299767594732218,-0.00048068906525958557,-2.995120440682023,-1.0501000773640567,2.846796198757918,0.9044501359303543,-0.3801300997493478,-0.002732222067105439,-2.552791357848606,3.504789304518356,6.20221330916306,1.4397967910634932,-1.2283313705968286,0.1183377090912952,0.1377227405536815,-2.246353660794238,-2.914544622298811,-0.4725630004246588,0.014389489635229354,0.0014469409409876262
0.27,-0.49005113193226113,1.3271817982812086,-1.140097543511153,0.14719105607509586,-0.056884405419205954,-0.000507038995218716,-3.0207707259747307,-1.0150126355600897,2.9082773923679284,0.9191202396191056,-0.38867294718837714,-0.0026349929959130435,-1.7445385276047722,3.787805873625246,5.181326419452265,1.1298898584216914,-1.1004708651923973,0.1308399996311554,0.1994198406442952,-2.2729543751060373,-3.046768637483775,-0.494755731335355,0.023039074595063283,0.0015747765037063784
0.28,-0.5204353346380333,1.3174104312017176,-1.1105010961550323,0.1564982796965956,-0.06084518258765121,-0.0005321606842028418,-3.0384202705772076,-0.9771367079491022,2.959644735612087,0.930722362149975,-0.39607771684452564,-0.002512168898412576,-1.1231792857018317,4.031046413437402,4.209755474321656,0.8057243130866389,-0.9785446066460741,0.14321487101550737,0.24457181458473642,-2.2947560088530636,-3.177697261099445,-0.5159736862368903,0.0296969261231848,0.0016748904030769113
0.29,-0.5509344497282662,1.3080417960993238,-1.080487444906183,0.16589005583295718,-0.06486979790673723,-0.0005558014071152394,-3.049911509023295,-0.9368635102393925,3.0013651248849413,0.9391776136361581,-0.40246153190860173,-0.0023640722912397633,-0.6528022581953447,4.235339394952441,3.3102992019952655,0.4752007599282866,-0.8686437341266242,0.15561960098737862,0.27713252536834365,-2.309134440285619,-3.3028778850963905,-0.5351235871318829,0.034769791939612736,0.001753243206344004
0.3,-0.5815018033340178,1.2990960380308563,-1.0501461086435528,0.17533486799373355,-0.06894943238309863,-0.0005777115743827655,-3.0567353605751544,-0.8945758068467476,3.0341336262630056,0.9444812160776348,-0.407963447636139,-0.0021910167267526074,-0.2921457859924425,4.40155306321643,2.5295183977772355,0.14574715039939967,-0.7731914058180218,0.16817262707429795,0.3010068993821394,-2.31206730636557,-3.414547135057119,-0.5503090332360555,0.038696248074708076,0.0018154084288512947
0.31,-0.6121015802050862,1.2905895718974143,-1.019555052720623,0.18480198083663557,-0.0730766228681476,-0.0005976431511649059,-3.059977687106842,-0.8506466133441991,3.059105592292982,0.9467112842902031,-0.41271904850489727,-0.0019931576782140402,-0.016939005364896443,4.531196953225361,1.8255158278179255,-0.1740393505067619,-0.6919838680622853,0.18102442921834733,0.3185170521005034,-2.3075429469035877,-3.5171531922110595,-0.5626503034302106,0.04172710380233205,0.0018647973484438446
0.32,-0.6427064324419677,1.282535206166358,-0.9887847214632327,0.19426187837128522,-0.0772451490748561,-0.0006153486400187127,-3.06048522368815,-0.805436573105626,3.077033125739021,0.9459897534649659,-0.4168526206708504,-0.0017705488853806744,0.1962098271833888,4.625245368746727,1.2825079256285088,-0.4802176661369062,-0.6239728133521611,0.19430212667627456,0.3316336704288029,-2.2894781164445126,-3.597912326325772,-0.5690498519019656,0.044117255371804616,0.001904977431759065
0.33,-0.6732951745627268,1.2749422668579347,-0.9578897715415511,0.20368701225678948,-0.08144986213985653,-0.0006305757981733859,-3.058874212075913,-0.7592939308423247,3.0894949921681643,0.9425133885504252,-0.4204713065000416,-0.001522715815467316,0.36702811361120424,4.685483173053009,0.8205035937222611,-0.7649728659152446,-0.5674867769097998,0.2082267323150085,0.3419569149939247,-2.26511212758013,-3.6666553749763158,-0.5719503667514952,0.046050140238749065,0.0019379762026143163
0.34,-0.703850837692044,1.2678167345368883,-0.9269168379312255,0.21305198092292107,-0.08568650016139495,-0.0006430672348174893,-3.055566312931728,-0.7125532321046426,3.0972933610325564,0.9364968666131585,-0.4236638021538418,-0.0012491436644103482,0.5062135617790807,4.713205453850526,0.485006806894126,-1.0267630884894081,-0.520678906975844,0.22293466498019282,0.35026478435829567,-2.231862900808746,-3.716199966435528,-0.5696509798411086,0.04764772421556482,0.001965718434497026
0.35000000000000003,-0.7343596101802955,1.2611613860063569,-0.8959000653362312,0.2223338783763557,-0.089951525287131,-0.0006525556805243719,-3.0508772488251465,-0.6655348530531381,3.10167725949943,0.9281897453434627,-0.42650251257360466,-0.0009488445706882542,0.6224537134624102,4.710010343582597,0.249649501328423,-1.2621058604836803,-0.48189083428157176,0.2386486706471394,0.357179391579128,-2.192560961489566,-3.7492887356298548,-0.5628686813702871,0.04900051115628837,0.001989615762829655
0.36,-0.7648099772285392,1.254975937563315,-0.8648636604579079,0.23151242166341285,-0.09424198579146356,-0.0006587612695192236,-3.04503670482437,-0.6185448443041999,3.103640487832334,0.9178543287057149,-0.4290460504332555,-0.0006205588994851761,0.7247529792309801,4.6774741931599975,0.08039840178567292,-1.4697076783596368,-0.4496843917418216,0.25557724615530014,0.363261439380683,-2.1498233170273444,-3.769888136719082,-0.5526281788061398,0.05019271406274563,0.002010719782503817
0.37,-0.79519183210447,1.2492571862512838,-0.8338252114122471,0.24056987329483187,-0.09855538997007467,-0.0006613899175454983,-3.0381854875930814,-0.5718751312031237,3.1038449045660754,0.9057451631419032,-0.4313404178611111,-0.0002628648026274788,0.8624476478649156,4.616982855743099,-0.06672360815347034,-1.6500029758855375,-0.4227452212463998,0.2739159349803525,0.37127886649801234,-2.1059274257559806,-3.783507742626105,-0.5403501489488269,0.051600334902695034,0.002028897850564513
0.38,-0.8254916519453355,1.2439991313536651,-0.8027999960253694,0.2494907850906697,-0.10288938746372825,-0.0006601395809441656,-3.0299819840865445,-0.5258054897618628,3.1025215386877685,0.8920911795837804,-0.4333997493653575,0.00012503366013326688,0.9988038698198947,4.530371632241487,-0.21154481825948457,-1.8057203178517174,-0.3976420300324177,0.29372086248660595,0.37873636988056397,-2.0608639098029444,-3.792517687667258,-0.5267204981953869,0.05291218678508269,0.002044239773444066
0.39,-0.8556960740322523,1.2391931532391207,-0.7718029396794841,0.25826168730867183,-0.10724174408550456,-0.0006546923845541165,-3.020442208691688,-0.4805978114544407,3.099705634588535,0.8770902218002129,-0.43523566217763066,0.0005447196390049063,1.1510720200794116,4.419941938730376,-0.3878706695642342,-1.9391726488706695,-0.37392187922014664,0.31522696959812235,0.386294348277221,-2.014763434697632,-3.801237081778376,-0.512901316558324,0.05422790890140121,0.0020563923751175596
0.4,-0.8857902139132162,1.2348282343861485,-0.7408519440513954,0.26687074780355824,-0.11161023381936495,-0.0006447162627097209,-3.0094139880963837,-0.4364918852972094,3.0950995628088704,0.8609060494886408,-0.43684897338603923,0.000997612184439567,1.3191966815836693,4.307590769260842,-1.1729065867937307,-2.0406231088638815,-0.34972179068135745,0.3385295454655658,0.3938015523881323,-1.981698380347871,-3.887467662948686,-0.5180116478837111,0.05528650798437951,0.002063031421292001
0.41000000000000003,-0.9157576612098728,1.2308929709464673,-0.7100244450289264,0.27530583810463816,-0.1159926254466895,-0.0006298941629783545,-2.9967447296656617,-0.39352634396812036,3.082749902246904,0.8435090301079889,-0.43823916273245517,0.0014822099731366368,1.5182400602621957,4.182334052220241,-2.0220770725745942,-2.150252174657365,-0.3247801339467511,0.362867275865726,0.40036216643320893,-1.9356231684771246,-3.978712729111024,-0.5248455945440679,0.05617714599639517,0.0020616004624084638
0.42,-0.9455790239606134,1.2273746800489769,-0.6794042437292632,0.2835539503822543,-0.12038650583126566,-0.0006099074489600134,-2.98213627507407,-0.35182908974904037,3.062020129966313,0.8248112277616153,-0.4393880384576152,0.001998671401834115,1.7463465511846927,4.045005112779011,-2.8552712379337617,-2.266984305750718,-0.29658352405568866,0.38824673639942625,0.4051361680715828,-1.8736167582134686,-4.064140141229404,-0.5309646162782691,0.056814945280574236,0.002051150094706748
0.43,-0.9752321096665109,1.224259506691783,-0.6490736409596213,0.2916016570185312,-0.12478911730750719,-0.0005844306583300637,-2.9653085705897393,-0.3115173357193847,3.03306027696419,0.8047706636276909,-0.44026114762415375,0.0025476790629949736,2.01769361979292,3.898255684824575,-3.6681037943222745,-2.384875023718461,-0.26300056423353624,0.41455972428796833,0.40827159836011495,-1.796345529089073,-4.143134032786695,-0.5363581182359471,0.0572115911726815,0.0020301583701830984
0.44,-1.0046905512283244,1.2215326853632882,-0.6191129729029357,0.29943560120115614,-0.12919714947677716,-0.0005531377212884781,-2.9458441561813498,-0.27268213284947823,2.9960668056685615,0.7833944182624936,-0.44080321692699614,0.0031292937041585587,2.4691517320592866,3.742205630630361,-4.44935643289042,-2.496065155698277,-0.22262083960656565,0.4414905908290845,0.41514634396879924,-1.7051939286188662,-4.214351571609412,-0.5408278575905533,0.05811539599877978,0.001988258054804771
0.45,-1.033910542040496,1.219178548103575,-0.5895994717742417,0.3070431705673838,-0.13360595582947635,-0.000515751487164707,-2.9219990812171632,-0.2354137259713147,2.9513501128694,0.7607569366227659,-0.44088063526992,0.003738623412377123,3.10021285072118,3.579120080394644,-5.193320712633643,-2.5967111617976943,-0.16636914709860218,0.46800096021487536,0.42450190818106553,-1.6016370672645066,-4.277506754732544,-0.5444481588083674,0.059319580718107015,0.0019204054409570272
0.46,-1.0628309093026103,1.2171807498660772,-0.5606066817385726,0.314412819629656,-0.13800897451339392,-0.0004720626160854747,-2.89203672621143,-0.19977982374978875,2.899279003566897,0.7369649062272202,-0.44030186839175606,0.004368887107923225,3.728675900791423,3.414134026171736,-5.90462655506111,-2.688499709350797,-0.08629973655974155,0.49324603990973404,0.4282509830805409,-1.4872211609938788,-4.3337650224744255,-0.5475878769864831,0.05960272643127312,0.0018367972146237956
0.47000000000000003,-1.091390783740174,1.2155227830059017,-0.5322049100526748,0.32153390500849044,-0.14239812936530796,-0.00042188230746495004,-2.8559874437563733,-0.16579668601755881,2.840177168589785,0.7121085378834435,-0.4389154851914047,0.005018030862052467,4.337496807295876,3.249772263489605,-6.5814570110742405,-2.770364773978905,0.012825032294275118,0.5172274331101516,0.4260931714035717,-1.3640266336010878,-4.383204445165348,-0.5502723652847097,0.058859667585693595,0.0017400294089902893
0.48,-1.1195312864816362,1.214188227456465,-0.5044610398824336,0.32839677275177886,-0.14676420898975653,-0.00036504328556631,-2.814050274146225,-0.1334555549436532,2.774387017024117,0.6862867743288443,-0.4366079624448568,0.005683902189864008,4.925591441541364,3.0881037679494,-7.221625068416515,-2.8415009192303344,0.12723970318510602,0.5394203563545661,0.4185755515907323,-1.2342174319582708,-4.425852632644132,-0.5524883765671595,0.05710843868897818,0.0016318451573995615
0.49,-1.1471956613041612,1.213160955348128,-0.47743830873831383,0.33499282544039166,-0.15109710796908424,-0.0003014127032276497,-2.7664374822524875,-0.10272721083370535,2.702273114411981,0.6596052688612802,-0.4332898979327691,0.006363058233866026,5.489641991987637,2.9309828045026776,-7.823351062541467,-2.901647520686165,0.2544724272746919,0.559132435637637,0.40629574038255056,-1.0999342568907409,-4.461802144180203,-0.5542185634621444,0.05437713753063893,0.0015142193365250424
0.5,-1.1743296137741566,1.212425314359414,-0.45119612944283194,0.3413145430286936,-0.15538600056535612,-0.00023090490328236827,-2.713395246999536,-0.07356409887140024,2.6242179295481898,0.6321717588301893,-0.4288892596271878,0.007050779994528142,6.026465007279325,2.7800294078820897,-8.385176144619303,-2.9509590989088927,0.39247879775007277,0.5756527728643603,0.3899599101133568,-0.9632344380928651,-4.491188008668786,-0.5554392981443343,0.05071607633468256,0.0013891439764823553
0.51,-1.2008816316060986,1.21196628762444,-0.42578994475293586,0.3473554685817433,-0.15961948945689786,-0.00015349345529159025,-2.6552017831942147,-0.04590267349739265,2.540618468989606,0.6040925553049729,-0.4233488891541737,0.007741144799077801,6.532127022904396,2.6366479012283115,-8.906000908586647,-2.989947267765796,0.5392312520417359,0.588287102288148,0.3703165896309401,-0.8260397401804396,-4.514187828208964,-0.5561242224466202,0.0461911626808609,0.0012586652022206876
0.52,-1.2268033725873775,1.2117696319457179,-0.40127111923743247,0.3531101638803734,-0.1637857598484875,-6.922188516154041e-05,-2.5921740981278822,-0.01966556787220815,2.451882551550337,0.5754695298630091,-0.4166270391589646,0.008427157013004984,7.003016962313418,2.5020272932935144,-9.38504158516903,-3.0193876632020675,0.6924035619599795,0.5963987614983624,0.34815474580541306,-0.6900988395399583,-4.531012653320379,-0.5562457048390044,0.04088646723574388,0.0011247371425771226
0.53,-1.2520500174429738,1.2118219942464983,-0.3776868638405326,0.3585741429619806,-0.16787275391283268,2.1786790286670412e-05,-2.5246644855596436,0.005236230078044031,2.3584255396899816,0.5463979081607148,-0.40869940643451735,0.009100867544821083,7.4350824448345625,2.377159805455818,-9.821852519029418,-3.0402648192298614,0.8492566666586949,0.599443120336216,0.3242444381025451,-0.5569603729900705,-4.541909302221665,-0.5557786680669428,0.034897359450035526,0.000989261244383791
0.54,-1.2765806607726946,1.212111008089125,-0.35508019514755695,0.36374378842929034,-0.17186837653201653,0.00011932260071908742,-2.4530643329720716,0.028901384262687447,2.260666869297568,0.5169645467309771,-0.399562261918384,0.009753581043241701,7.8242215259420735,2.262850243619879,-10.216301404079758,-3.053696621210502,1.006560540260372,0.5970129584360242,0.2993174075913389,-0.427958319012919,-4.547156842188543,-0.5547027763744004,0.02832893936395236,0.0008540249839567235
0.55,-1.300358701936455,1.2126253711780652,-0.333489926674337,0.3686162571227673,-0.175760735207744,0.00022308376394450876,-2.377804116376042,0.05143630889401489,2.1590268473219925,0.48724686934769823,-0.3892358675727449,0.010376116322542133,8.166466340849345,2.1597279999653227,-10.568552628472355,-3.0608641098326714,1.1606263845638356,0.5888757205749293,0.2740440354158403,-0.3042074238422151,-4.547065229552716,-0.5530047911775477,0.02129299699668464,0.0007206658028840959
0.56,-1.323352217606348,1.2133549050725545,-0.31295069027775874,0.3731893812244624,-0.1795384106250681,0.000332675019306412,-2.299351566989275,0.07295338944893157,2.0539236396578295,0.4573124101695096,-0.3777675417324088,0.010959125536190325,8.458140770764802,2.0682598168173953,-10.879047932830098,-3.0629445112603975,1.3074179255977825,0.5750031158456466,0.24901433802489845,-0.186607361852264,-4.541973827627688,-0.5506804764560184,0.013904674584232966,0.00059064704362096
0.5700000000000001,-1.3455343002464246,1.2142905984459202,-0.2934929854919898,0.3774615705101992,-0.18319074899492846,0.0004476096736375692,-2.218208264007674,0.09356933733658283,1.9457704785768906,0.42721892857368055,-0.36523383698603784,0.011493465433115723,8.6960490197499,1.9887628873871044,-11.148484475560005,-3.0610482113011415,1.44272669554194,0.5555882845705584,0.22472533107258347,-0.07585401806549757,-4.532249359362864,-0.5477359388500307,0.006279246390174631,0.00046523918355605154
0.58,-1.3668833440726436,1.2154246352920377,-0.2751432543116546,0.38143172101908884,-0.1867081626577717,0.0005673156710678356,-2.134904382621892,0.11340368461174678,1.8349731180335247,0.397015050888967,-0.3517413662843244,0.01197059974302664,8.877663614146753,1.9214183951573942,-11.37779061245206,-3.0561627103160127,1.5623966200307242,0.5310464193660369,0.20157426658834218,0.027543803646876253,-4.5182830368482,-0.5441883490761457,-0.001470947443590713,0.00034550813101392417
0.59,-1.387383260517189,1.2167504095464257,-0.25792397870074135,0.3850991346923041,-0.19008242197907937,0.000691145708539646,-2.04999164445453,0.1325774254388038,1.7219275610913236,0.36674136732152884,-0.33742593213076727,0.012383003747181045,9.001294219024725,1.8662854970049156,-11.56809958063863,-3.0491066270447575,1.66257632252184,0.5019970309800028,0.17985736988957293,0.12324390554589265,-4.500486698146853,-0.5400660323256612,-0.009239308279491876,0.00023231062986335676
0.6,-1.4070236075915723,1.2182625276471077,-0.24185379789991715,0.3884634535605429,-0.19330691977455047,0.0008183910809063579,-1.964034707438337,0.15121181006821627,1.6070180800824194,0.3364318868238787,-0.32244977954711046,0.012724537236671187,9.066219730188898,1.8233157004600604,-11.720721307991461,-3.0404966448430706,1.7399730342012925,0.4692283984590224,0.15977344314274092,0.2110480079649375,-4.479287908239082,-0.5354079604337487,-0.016927428363312527,0.00012629642316034075
0.61,-1.4257996216342081,1.2199568006010388,-0.22694764244359103,0.3915246108658722,-0.19637688971257836,0.0009482985974686348,-1.8776014042635756,0.16942729539310591,1.4906155456326127,0.30611573053293173,-0.30699699380278866,0.012990751656227682,9.072768894982993,1.7923675065140496,-11.837112713005915,-3.030729614229088,1.7920802704691683,0.4336472372854745,0.14143148773589836,0.2908782390244736,-4.455124114098675,-0.5302627200481643,-0.024447099025294267,2.7916513627749363e-05
0.62,-1.4437121453807167,1.2218302271371233,-0.21321688169773917,0.39428280016377604,-0.19928956246830418,0.0010800896161338024,-1.7912523746508429,0.18734265360844982,1.3730760745851867,0.27581892979038325,-0.2912672755725826,0.013179101866516772,9.022339709042985,1.7732210956169683,-11.918847061674958,-3.0199808820879355,1.817353457341886,0.39621876614092866,0.12486135855139895,0.36275398651572804,-4.428436064642635,-0.5246870642658462,-0.031721817666247924,-6.25634106017481e-05
0.63,-1.4607674525390366,1.2238809695083663,-0.20066948170795648,0.39673846207418845,-0.20204424765703993,0.001212980038253828,-1.7055307158319926,0.2050742371242953,1.2547399989782675,0.24556619104123978,-0.27546851887357593,0.013289042212002574,8.91735443039082,1.7655927440057422,-11.967583157687711,-3.008218465911778,1.815313607162464,0.35790369986516524,0.11002640651858484,0.4267700619640512,-4.399660799186864,-0.5187441770393919,-0.03868776191922429,-0.00014504552568988884
0.64,-1.4769769753836628,1.2261083234472332,-0.18931017021894497,0.39889228706279123,-0.20464233525906475,0.0013462000287229002,-1.6209522844626212,0.2227353938866789,1.1359311489011494,0.2153824988602798,-0.2598087602024812,0.013321999046907219,8.761154204276867,1.769148591625373,-11.985035368707857,-2.99523116705711,1.786568166559226,0.31959896334061,0.09683708911212763,0.48307688229362844,-4.369224569794752,-0.5125017899960008,-0.04529423065217647,-0.00021957966413860275
0.65,-1.4923569475849534,1.228512683677303,-0.17914060590466221,0.4007452315588593,-0.2070872166328911,0.0014790122831216067,-1.5379972201290717,0.24043602300698538,1.0169564314282769,0.1852944496068082,-0.2444881373826333,0.013281225439870644,8.557843672549465,1.783517342344283,-11.972945164918013,-2.9806674000864177,1.7327487457718864,0.28208808042131217,0.0851646186141641,0.531863124007018,-4.337536018242572,-0.5060302734275478,-0.05150358223360605,-0.00028634162579522626
0.66,-1.5069279789605468,1.2310955062412554,-0.17015954908974956,0.4022985439518911,-0.209384131467706,0.0016107278446086833,-1.4571031375593353,0.25828225639523633,0.8981056814912663,0.15533123930317427,-0.22969148348148893,0.013171556148707663,8.312101078723463,1.8083015345007978,-11.93305613164455,-2.964080572222958,1.6563756939662688,0.24600547211064772,0.07485387297175666,0.5733411137895261,-4.30498007103186,-0.4994008471638899,-0.05729072807990514,-0.0003456112440855337
0.67,-1.5207145816386487,1.2338592687302985,-0.1623630316636016,0.4035537966102765,-0.21153995236552858,0.001740718745698587,-1.3786602678102045,0.2763762489042991,0.7796517426147962,0.12552526583854595,-0.21558208978225832,0.012999090108990355,8.028971242470698,1.8430870269686603,-11.867091981757481,-2.9449766001602775,1.560667613851313,0.21181669454339147,0.06573496046544208,0.6077349792643874,-4.271912646146224,-0.4926839600716434,-0.06264225956884314,-0.0003977512049994176
0.68,-1.5337446681604985,1.236807429297154,-0.15574452424125226,0.40451292003898626,-0.2135629225784414,0.0018684270708052221,-1.303008652184971,0.2948160566855468,0.6618507422349358,0.09591234287097455,-0.20229702129128072,0.012770832510663521,7.713659373076612,1.887450516115323,-11.776739266470868,-2.9228593023699396,1.4493187166537698,0.17981444483447362,0.0576330393110362,0.6352714872551845,-4.238656497630753,-0.48594793100331046,-0.06755529918404525,-0.0004431874548799529
0.6900000000000001,-1.5460490413583794,1.2399443851227852,-0.15029509911904268,0.40517823559775756,-0.21546236443776007,0.0019933703576302053,-1.230437319788091,0.3136955825631183,0.5449425122209586,0.06653155587713061,-0.18994418593186765,0.012494328682498312,7.371341076789312,1.9409649927715595,-11.663634628448587,-2.8972702339482588,1.3262679442314986,0.1501283270660183,0.05037617111091636,0.6561733561940514,-4.205498225145124,-0.47925786523450686,-0.07203616996871297,-0.00048239172909970854
0.7000000000000001,-1.5576608937594165,1.2432754307957319,-0.14600358802526622,0.4055524837588522,-0.21724837618204715,0.00211514353965334,-1.1611852401037028,0.3331045672946782,0.4291511093776468,0.037424816109467,-0.1786011744287092,0.012177318202313468,7.007000325895122,2.0032031957668908,-11.529356640380124,-2.8678205708700446,1.195481390863545,0.12274517883486791,0.04380115679814632,0.6706547721740959,-4.172686455052435,-0.4726748484050969,-0.07609897279013744,-0.0005158664933282797
0.71,-1.568615331188143,1.2468067168659305,-0.14285673409932043,0.4056388455981774,-0.21893153345805097,0.002233417850605705,-1.0954437428726522,0.35312860701985516,0.31468539259457984,0.008636183932520382,-0.1683157276003833,0.011827431095236486,6.625302682046401,2.0737392375316643,-11.37542187195972,-2.8342138380589432,1.0607646735243317,0.09753626096242751,0.03775743725087077,0.6789188016440855,-4.14043111156038,-0.4662553944847839,-0.07976414998783718,-0.0005441323631582881
0.72,-1.5789489316311767,1.2505452086620918,-0.14083933791373401,0.4054409559869825,-0.22052260914745317,0.0023479372521006633,-1.033360044303358,0.37384917961612757,0.20173961855864023,-0.019788961119492306,-0.15910756894022038,0.011451940149495844,6.230506644353272,2.1521486702858366,-11.203284574247265,-2.7962593781051623,0.925615736178645,0.07428773131175959,0.0321092384601561,0.6811563847978528,-4.108903639861499,-0.46005110836335666,-0.0830570990187246,-0.0005677178925566581
0.73,-1.5886993467095163,1.2544986453199014,-0.13993439766377394,0.40496290769789456,-0.22203232185430252,0.0024585130082967295,-0.9750415078339725,0.3953436657809543,0.09049402499600619,-0.047804828908793034,-0.15097127068493432,0.011057575619606626,5.826412177260291,2.2380073192901246,-11.01433920507048,-2.7538773413564073,0.7931223113627746,0.05273137604527989,0.026736203017083134,0.6775466025958644,-4.078238009380531,-0.4541085150543869,-0.08600688304992349,-0.0005871515009264992
0.74,-1.5979049496207665,1.2586754988607856,-0.14012324387984276,0.40420924629517324,-0.22347111985120063,0.0025650170273724604,-0.9205602911250129,0.4176853540884079,-0.018884621606883187,-0.07536614027213216,-0.14387979968981218,0.010650401907573074,5.416342600350517,2.330889231414668,-10.809924949282331,-2.707096572071375,0.6659028265966958,0.03257334606340345,0.021532779974783367,0.6682579298292569,-4.0485323126819885,-0.4484690054517737,-0.08864506909985741,-0.000602955239917981
0.75,-1.6066045304028975,1.26308493308781,-0.14138566916757178,0.4031849562067219,-0.22484900392453147,0.0026673745352309725,-0.8699580782131097,0.44094342270245174,-0.12624252877290132,-0.10242900884513213,-0.13778840733308237,0.010235750785851226,5.0031541946026215,2.4303640767886323,-10.591331405121084,-2.6560470618627328,0.5460854960841555,0.013519451972443974,0.01640665016286546,0.6534502110182527,-4.0198507805829955,-0.4431688517308535,-0.09100470977655772,-0.0006156400761045452
0.76,-1.6148370369647804,1.2677367620238136,-0.14370005355538762,0.40189543876066897,-0.22617538966183814,0.002765556560374412,-0.8232506561882962,0.46518289360035275,-0.23143843878158488,-0.12895174460529557,-0.13263857373066604,0.009818202514343934,4.589267017844171,2.535994305625868,-10.359804694177205,-2.6009486812479885,0.43531787848897396,-0.004703730686731689,0.011276450772587081,0.6332771213633774,-3.992226051734543,-0.43823925222868126,-0.09311947279621047,-0.0006257023731517158
0.77,-1.6226413585667832,1.2726414076025965,-0.14704348604033518,0.40034648321766686,-0.22745900744539255,0.0028595726069957773,-0.7804321602002704,0.490464557878298,-0.3343432484947567,-0.15489555430020885,-0.12836177835544105,0.009401604662136536,4.176710335931615,2.6473323098382835,-10.116553384364966,-2.542097750153861,0.3347982192963682,-0.02233217921770425,0.006069038059734534,0.6078888992658301,-3.9656615604836887,-0.43370637440384646,-0.09502291362446769,-0.0006336212859625562
0.78,-1.6300561472881288,1.2778098563312539,-0.15139188288385155,0.39854423195999417,-0.22870783680210618,0.002949463789453153,-0.741478872134551,0.5168448728657433,-0.4348396843516375,-0.18022512576727154,-0.12488293567136353,0.008989118245737558,3.7671765341960137,2.7639177778860455,-9.86275376971415,-2.479852743228868,0.24532015879917868,-0.03955208547558531,0.0007164958207929875,0.5774351592737171,-3.9401339359278014,-0.42959137393387814,-0.09674788068032518,-0.0006398568198830675
0.79,-1.637119672412377,1.283253614664501,-0.1567201031346477,0.39649514103546757,-0.22992907077342448,0.0030352966049208845,-0.7063525124248323,0.5443758333247225,-0.5328220250796161,-0.20490909245265715,-0.12212339713182949,0.008583281546773172,3.362078157959262,2.885275368406721,-9.599554207996743,-2.4146201128222593,0.16732352165697717,-0.05649164850403965,-0.0048469359669324,0.542067614778788,-3.915595334398071,-0.4259103771548669,-0.09832603920709715,-0.0006448483531352407
0.8,-1.643869702500582,1.288984662864215,-0.16300206175983023,0.39420593722505126,-0.2311291055169199,0.0031171574379358006,-0.6750030088204868,0.5731048199713946,-0.6281958625182531,-0.22892038104163212,-0.12000347434954213,0.008186083301491601,2.9626036707218426,3.010912768845652,-9.328078362390295,-2.3468409026669086,0.10094555622839607,-0.07321677721159725,-0.01068787046639225,0.5019425589739485,-3.8919756548756936,-0.4226744222189804,-0.09978749862933046,-0.0006490134653446503
0.81,-1.6503434100983996,1.295015407154086,-0.1702108406601029,0.39168357273266197,-0.2323135503140152,0.0031951478235357606,-0.647370759781769,0.603074428987094,-0.7208778900272647,-0.25223644923893046,-0.11844447970953105,0.007799038559995999,2.5697685035656495,3.14031915330896,-9.049427316901264,-2.2769785514930376,0.046068848712973676,-0.08973053421114896,-0.016876609454458347,0.45722297125207245,-3.8691846106906786,-0.41988936117398135,-0.10116052841979935,-0.0006527469564563367
0.8200000000000001,-1.656577294437302,1.301358630015787,-0.1783187977401815,0.3889351785043611,-0.23348725341126192,0.0032693804453254685,-0.62338843389024,0.6343222861701137,-0.8107957080078622,-0.27483942283008633,-0.1173703097246704,0.007423262178970768,2.184458945068379,3.2729640115661933,-8.764680631895992,-2.205508064206473,0.00236394468089296,-0.10597619659893476,-0.02348971989581658,0.40808013509599816,-3.8471136506509334,-0.4175557305186019,-0.10247134867039459,-0.0006564199769924958
0.8300000000000001,-1.6626071180494462,1.3080274385059705,-0.18729767410868345,0.3859680170868672,-0.23465433955327258,0.0033399758103337483,-0.6029823612144203,0.6668808490183378,-0.8978876368501953,-0.2967161417493941,-0.11670861420106762,0.007059536500827993,1.8074673721237213,3.408296289904725,-8.47489647390236,-2.132906562723697,-0.030673726946772728,-0.12184379034840931,-0.0306122897003969,0.3546946731072865,-3.8256377383840547,-0.4156686016837081,-0.10374398324214835,-0.0006603792218162602
0.84,-1.6684678538417097,1.3150352105003147,-0.19711869939738724,0.38278943584175024,-0.23581825558274935,0.0034070595223874714,-0.5860735792263471,0.7007771994344193,-0.98210252887038,-0.317858124511694,-0.11639160294767566,0.006708371205372307,1.4395182475047317,3.5457437650212094,-8.1811109932799,-2.0596451154737423,-0.053691858347597377,-0.13717983766025066,-0.03833982024956706,0.2972569254377367,-3.804617010357986,-0.4142174254562997,-0.10500016520316632,-0.0006649461650175836
0.85,-1.6741936398017947,1.3223955387904873,-0.20775269512022881,0.3794068212467046,-0.2369818210218499,0.0034707600678967865,-0.5725785960085091,0.7360328290172644,-1.0633995722841574,-0.3382614595045612,-0.11635654391005455,0.006370054550931503,1.0812851982306817,3.6847125643997236,-7.88433713648369,-1.9861816774851917,-0.06745273247779582,-0.1517998382710708,-0.04677972923891803,0.23596661957527754,-3.783898341173665,-0.413185885779367,-0.10625928598678559,-0.0006704163330473901
0.86,-1.6798177390875952,1.3301221729719712,-0.21917017593804916,0.3758275549400807,-0.2381472810695523,0.0035312070300627025,-0.5624099285800558,0.7726634181483831,-1.1417480817820336,-0.3579266306623892,-0.11654600477024027,0.006044696216591594,0.7334002998705607,3.824586750230266,-7.5855630699642935,-1.9129549454584662,-0.07280651241376024,-0.1655027197837512,-0.056052449893708514,0.17103180204665336,-3.763316849776427,-0.4125517788250152,-0.10753838114814984,-0.0006770586266974869
0.87,-1.68537250374508,1.3382289590658867,-0.23134144865474077,0.37205897209779343,-0.23931635993325862,0.003588529656910032,-0.5554764657484738,0.8106786093915483,-1.2171272716691597,-0.37685828422872747,-0.11690788637063235,0.00573226268473296,0.3964573541060563,3.964727897853452,-7.285750365114437,-1.8403789390512237,-0.07066499340122978,-0.17808620419279397,-0.06629212169847079,0.10266702583834231,-3.7426973827282133,-0.4122869329526688,-0.10885214668498396,-0.0006851147100508466
0.88,-1.6908893406908991,1.3467297768176676,-0.24423670874182724,0.36810832266947824,-0.24049031285609607,0.0036428557222915096,-0.551683694581919,0.8500817751780799,-1.2895260087086478,-0.39506494283151855,-0.11739529228374433,0.005432606538147748,0.07101137138835774,4.104474622332696,-6.985832054335324,-1.7688381558200952,-0.061975100897510016,-0.18936183054185332,-0.07764687344276339,0.031090810817509307,-3.7218560111326973,-0.41235718432062385,-0.11021298061326694,-0.000694798486568505
0.89,-1.6963986788811745,1.355638474611776,-0.25782613416890315,0.3639827359392156,-0.24166997560820408,0.003694310634108206,-0.5509338190275365,0.8908697794108403,-1.3589425427075914,-0.41255867302626337,-0.11796627521080166,0.005145491181669665,-0.24242341876318435,4.243142035788124,-6.6867106244329415,-1.6986832065384867,-0.04769222390672678,-0.19916832249425165,-0.0902787016494712,-0.04347758227557985,-3.700601576691378,-0.4127224216910718,-0.11163104490703359,-0.0007062956799789486
0.9,-1.7019299367796235,1.3649688019371076,-0.2720799763039716,0.35968918881123313,-0.24285581058536562,0.0037430167577150583,-0.5531257898448991,0.933032732533146,-1.4253842135068475,-0.42935471279824877,-0.1185834977161542,0.004870612360685218,-0.5433749399065442,4.380021150837895,-6.38925597249855,-1.6302269104972815,-0.02875422838799402,-0.20738213668436356,-0.10436294646248737,-0.1208220010391321,-3.6787373201095908,-0.4133367125024486,-0.11311434311986668,-0.0007197635320098864
0.91,-1.707511489359501,1.3747343393351252,-0.28696864763811386,0.35523447814947,-0.24404794900223925,0.0037890929327649126,-0.5581552579877467,0.9765537398017742,-1.4888671334142238,-0.4454710661763139,-0.11921384168736275,0.004607617504985451,-0.8314124694824025,4.514378278985602,-6.094303317494977,-1.5637409043317305,-0.006057507189418665,-0.21392436450619806,-0.12008736315228752,-0.20073378902227634,-3.6560626220052894,-0.41414852069299957,-0.11466880911549199,-0.0007353306219513185
0.92,-1.7131706339536608,1.3849484257649858,-0.30246280608130166,0.3506251974198664,-0.24524622897512643,0.003832654167530373,-0.5659144594159854,1.0214086429860616,-1.5494158443187793,-0.4609280729603592,-0.11982799728871973,0.0043561234765460395,-1.1061428455059885,4.645454504276359,-5.802651041787574,-1.4994528788504873,0.019563426975544917,-0.21876362632937985,-0.1376507810942857,-0.28301660687364383,-3.632374882781063,-0.4151010251094768,-0.1162984024490812,-0.0007530968062399616
0.93,-1.7189335543337765,1.3956240833297862,-0.3185334355694402,0.3458677177955442,-0.24645022955143212,0.003873811496095805,-0.5762920380115786,1.0675657564800303,-1.6070629488138557,-0.4757479624322197,-0.12040005763056744,0.004115732856543243,-1.3672036314148737,4.772465339814872,-5.515058432313745,-1.437544593986976,0.047351522664321966,-0.2219150988995593,-0.1572613341374997,-0.36749156402672334,-3.6074715637347428,-0.41613254566354235,-0.11800520613615054,-0.0007731332710205136
0.9400000000000001,-1.7248252824762176,1.4067739393281626,-0.3351519227165614,0.3409681737892567,-0.24765930094979827,0.003912671981761169,-0.5891728142441145,1.1149855998376499,-1.6618487147121228,-0.48995440062874845,-0.12090713983661562,0.003886048566536404,-1.6142538596721097,4.894600696080318,-5.2322432991152095,-1.3781508250818675,0.07663717128299075,-0.22343625473460005,-0.17913423762806807,-0.45400252214515757,-3.5811524069559795,-0.41717708268675924,-0.11978952286378342,-0.0007954826877051422
0.9500000000000001,-1.7308696575723197,1.41841014562798,-0.35229012924073866,0.3359324533777186,-0.24887259141949128,0.003949338846140382,-0.6044375096102178,1.1636206299817535,-1.713820652417723,-0.503572041153811,-0.12132904696930004,0.003666686437921226,-1.8469634267455035,5.0110253043233515,-4.954879466017137,-1.3213593638793988,0.1068424592386128,-0.2234201913212669,-0.20348907900973978,-0.5424214185438813,-3.553221846199669,-0.4181649731423134,-0.12164996614895178,-0.0008201594610273988
0.96,-1.7370892819695882,1.4305442954053602,-0.36992045988847244,0.3307661924828735,-0.25008907120899976,0.003983911699440634,-0.6219624397268468,1.2134149777380119,-1.763033064773377,-0.5166260894845123,-0.12164797895084907,0.003457285330025142,-2.0650024030605674,5.120879745089423,-4.683594150126644,-1.2672121412874784,0.13748017869414708,-0.2219875538970666,-0.2305465819751778,-0.6326534479685463,-3.523491614850533,-0.41902366542437874,-0.12358354351904596,-0.000847150060587878
0.97,-1.7435054738848577,1.4431873373537196,-0.38801592558101233,0.3254747735805057,-0.251307554157476,0.0040164868446025005,-0.6416191915269444,1.2643041948359484,-1.8095465692539903,-0.5291418902367805,-0.12184829484762383,0.0032575145161866646,-2.268031471578351,5.223282230725752,-4.4189652694561286,-1.21570746711199,0.16814855339841506,-0.21927801793371615,-0.2605247996953194,-0.7246419348638306,-3.491783550192096,-0.4196786123493682,-0.12558572945916185,-0.0008764134297926198
0.98,-1.7501382169029238,1.45634948754389,-0.40655020150848914,0.3200633281214431,-0.2525267173994575,0.004047157627113259,-0.6632743018066122,1.3162150190170527,-1.8534275927476798,-0.5411445459062557,-0.12191632419814544,0.0030670782510758584,-2.455694483350828,5.317331281460045,-4.161518738427423,-1.1668033072100563,0.19852289332089557,-0.2154421374294908,-0.2936346918193967,-0.8183727259833504,-3.45793258543605,-0.42005427956526603,-0.12765052661924653,-0.0009078814697649204
0.99,-1.7570061064551514,1.470040139206956,-0.4254976799050247,0.3145367423789048,-0.25374511961697377,0.004076014803526555,-0.686788955222753,1.3690651663065974,-1.894747839653556,-0.5526585742538347,-0.12184022175162948,0.0028857176413296113,-2.627613801063932,5.4021094173150095,-3.9117258275163573,-1.1204214520360924,0.2283454380027683,-0.21063413826044308,-0.33007504380918357,-0.913877935273586,-3.421789912384676,-0.42007526393882305,-0.12977051458753325,-0.0009414595998046267
