tonegas/nnodely-applications/joint_friction_estimation/dataset/test/mpc_mujoco_episode_8.csv
time,q1,q2,q3,q4,q5,q6,dq1,dq2,dq3,dq4,dq5,dq6,ddq1,ddq2,ddq3,ddq4,ddq5,ddq6,tau1,tau2,tau3,tau4,tau5,tau6
0.0,0.0,1.57,-1.57,0.0,0.0,0.0,0.0,0.0,0.0,0.0,0.0,0.0,-4.7108377280300076,19.47964267641162,14.527517930338114,4.773190482913577,-0.6403612592447594,-4.38004938227432e-06,-0.6561749908232654,8.027391506454576,1.1159527765242583,0.24747874475066411,-0.05876456143531221,-0.0005235342496050251
0.01,-0.00046846746565231627,1.5719467037989443,-1.5685492776124388,0.00045099824288445374,-5.5157894838852784e-05,-3.248297975882074e-07,-0.04684674656523163,0.19467037989442496,0.1450722387561374,0.045099824288445375,-0.005515789483885278,-3.248297975882074e-05,-4.689841068650572,18.981431619018828,13.980544787040422,4.305190537582661,-0.5385605426976596,-0.003156734508821757,-0.6643796198129086,7.633120280358272,0.9455379564862296,0.20917584325598337,-0.05920140926323407,-0.0005438505564499606
0.02,-0.0014029943437996297,1.575790425798315,-1.5657041276142316,0.0013134347743596223,-0.0001591724205733801,-9.879500263962914e-07,-0.09345268781473134,0.3843721999370777,0.2845149998207093,0.08624365314751685,-0.01040145257345273,-6.63120228808084e-05,-4.6559122159580175,18.445322341936592,13.380468735719795,3.895998764298028,-0.47201025453065526,-0.0030027813501599665,-0.6822480888973894,7.1542196249406365,0.7662800952770565,0.17066042067382847,-0.06014777025729195,-0.000562080085361541
0.03,-0.002800038446534905,1.5814776272872375,-1.5615256320093045,0.002551993556680219,-0.0003077796972199995,-1.9652301139029974e-06,-0.13970441027352754,0.5687201488922542,0.417849560492719,0.12385587823205967,-0.014860727664661937,-9.77280087506706e-05,-4.609766996316839,17.87193498773446,12.73530485242528,3.5300840165997585,-0.42431625763152425,-0.0022900753903586923,-0.7089904603884812,6.597818238419596,0.5790377310016925,0.13204385797542373,-0.06152425332416383,-0.0005776443707948246
0.04,-0.004654935266042151,1.5889509948413922,-1.5560789838101814,0.004134447158948676,-0.0004977678521766491,-3.2291265403292547e-06,-0.18548968195072454,0.7473367554154693,0.5446648199123176,0.15824536022684568,-0.018998815495664963,-0.00012638964264262575,-4.551654199672066,17.262438706376184,12.05214666669647,3.196072329108347,-0.3859369533289332,-0.0014067887911789478,-0.7436873973624076,5.9716233885445416,0.3849064790454797,0.09349153281622602,-0.06323442286595465,-0.0005898744895870956
0.05,-0.006961885967075303,1.5981495702056872,-1.5494328739304815,0.006030819432182112,-0.0007264065667125592,-4.750199547791531e-06,-0.23069507010331514,0.9198575364294939,0.6646109879699847,0.1896372273233436,-0.022863871453591006,-0.0001521073007462276,-4.48158209478595,16.618510147809644,11.337426459999957,2.8857617858649576,-0.35153935718232887,-0.00042839627856061657,-0.7852714224705373,5.283832280558889,0.18518922211877875,0.055213607637158546,-0.06516865135959139,-0.0005980455223398606
0.06,-0.009713935642888739,1.6090089282760585,-1.5416589218891186,0.00821279072146042,-0.0009911320417736644,-6.496106371305959e-06,-0.2752049675813436,1.0859358070371414,0.7773952041362883,0.21819712892783086,-0.02647254750611053,-0.00017459068235144276,-4.399470381457614,15.942287935341762,10.597100011797824,2.5933602696926528,-0.318363604813527,0.000593832333708133,-0.8325103640028431,4.5430301779709,-0.018638175963874737,0.01745513698184875,-0.06720818135478526,-0.0006014237505912677
0.07,-0.012902951554523335,1.6214613992021187,-1.5328311370451109,0.010653287275586548,-0.0012893883026163227,-8.431590071791712e-06,-0.3189015911634596,1.2452470926060286,0.8827784844007744,0.24404965541261261,-0.02982562608426582,-0.00019354837004857534,-4.305253451569897,15.236322030135389,9.836771936209438,2.3148960166159327,-0.2851987950164947,0.0016063166411083296,-0.883998398990806,3.758076791533558,-0.22496464903317648,-0.019514244361528377,-0.06922937424009604,-0.0005993181587694687
0.08,-0.016519608196385472,1.6354363299788426,-1.523025401820131,0.013326209681851829,-0.0016185627389616875,-1.0519297498800055e-05,-0.3616656641862136,1.3974930776723842,0.9805735224979844,0.2672922406265282,-0.03291744363453649,-0.00020877074270083426,-4.198950285170744,14.503517979895467,9.061774904883453,2.0477614284968553,-0.2517363842962048,0.00255984886452032,-0.9381589955654899,2.9379833748025037,-0.43208413315390226,-0.05541076266514533,-0.0711080748539744,-0.0005911305918045394
0.09,-0.02055338398287758,1.6508603802782846,-1.5123189720472214,0.016206265282019898,-0.001975976616630076,-1.2720967030717459e-05,-0.40337757864921064,1.542405029944204,1.070642977290964,0.2880055600168071,-0.03574138776683887,-0.0002201669531917404,-4.080709939930637,13.747076814131692,8.27721367908321,1.7903596520056837,-0.21816026194690608,0.003416119577144938,-0.9932626214414597,2.091783709303118,-0.6382370694450317,-0.08994677617024482,-0.07272397808792294,-0.0005764005672793135
0.1,-0.02499257274604974,1.6676578467589522,-1.500789992386935,0.019268877329591275,-0.0023589055884859693,-1.4998661686526728e-05,-0.4439188763172161,1.679746648066754,1.1528979660286445,0.30626120475713775,-0.03829289718558935,-0.00022776946558092706,-3.950838023217376,12.970431039395761,7.487982998769876,1.5418305874150988,-0.18488788584875593,0.004150509914252476,-1.0474603973244954,1.2284023039048515,-0.8416521733081499,-0.12284060581388412,-0.07396485077075104,-0.0005548418580566532
0.11,-0.02982431187511702,1.6857510096432795,-1.4885170268168069,0.02249014968258247,-0.002764614342280058,-1.7315862350668127e-05,-0.48317391290672784,1.809316288432719,1.2272965570128025,0.3221272352991194,-0.040570875379408844,-0.00023172006641414004,-3.809807797704585,12.177182453212243,6.698766510776121,1.3018383961440492,-0.15240976482352053,0.004751889562794709,-1.098833074308156,0.35652577443198386,-1.0405866674025464,-0.15382552389386495,-0.07473044326347057,-0.0005263687604309823
0.12,-0.035034627741701005,1.705060495492027,-1.47557860567237,0.02584687050102702,-0.0031903954570947817,-1.9638334199636837e-05,-0.5210315866583985,1.9309485848747494,1.2938421144436778,0.3356720818444547,-0.04257811148147236,-0.00023224718489687105,-3.6582586763112603,11.371034198913561,5.914023346097164,1.0704070467896116,-0.12119405906673464,0.00522058164398409,-1.1454529458499063,-0.5155229570627284,-1.2333653013721348,-0.18265793429985866,-0.07493592136037064,-0.000491110963663071
0.13,-0.04060849801433597,1.7255056494998429,-1.4620527916340487,0.029316542089853414,-0.003633606483198187,-2.1934742671283653e-05,-0.5573870272634961,2.044515400781592,1.352581403832153,0.34696715888263946,-0.044321102610340536,-0.00022964084716468148,-3.496984772978084,10.555729824632282,5.137966743880572,0.8477932876862013,-0.09163463714439501,0.005565474906804924,-1.1854547987004938,-1.379898492685168,-1.4184153935243677,-0.20912420184377856,-0.07451466273548132,-0.00044941639564518904
0.14,-0.04652992960503948,1.7470049113120063,-1.4480167675997901,0.03287742689211505,-0.004091701911944407,-2.417703293235828e-05,-0.5921431590703514,2.1499261812163346,1.403602403425845,0.35608848022616385,-0.04580954287462201,-0.00022422902610746243,-3.326915888208524,9.734993176963034,4.374539116154086,0.6343891673507613,-0.06402793304161136,0.005800992726496257,-1.2171108783980626,-2.229335042499021,-1.5942981657446667,-0.23304620274200655,-0.07342029017059032,-0.00040184245593003897
0.15,-0.05278205030963805,1.7694761884301415,-1.43354644955268,0.03650860192028829,-0.004562258481970325,-2.6340606482087622e-05,-0.625212070459857,2.247127711813525,1.4470318047110173,0.3631175028173245,-0.04705565700259181,-0.00021635735497293435,-3.1490932861665453,8.9124733771825,3.6273865654203536,0.43064790544469034,-0.038568378639844525,0.005944367182947441,-1.2389042537890593,-3.057232479198465,-1.7597351483154973,-0.2542854020638317,-0.07162785414235215,-0.00034913657462064317
0.16,-0.059347211720035764,1.7928372217704258,-1.4187161274436981,0.04019001573032755,-0.005042993437587574,-2.840433621569304e-05,-0.6565161410397717,2.3361033340284183,1.4830322108981764,0.3681413810039256,-0.048073495561724834,-0.00020637297336054187,-2.9646424000692324,8.091695659065767,2.899835272752462,0.23702834061556288,-0.015355167647847168,0.006013448886745931,-1.24959495846032,-3.8577243344804835,-1.913629116932248,-0.272745418851453,-0.06913412573147489,-0.00029220768237268695
0.17,-0.06620710069323171,1.817005938514577,-1.403598136813173,0.04390254350362376,-0.005531776089006203,-3.0350461441472888e-05,-0.6859888973195954,2.4168716744151104,1.5117990630525193,0.3712527773296213,-0.048878265141862914,-0.0001946125225779848,-2.7747445108498847,7.276096995444859,2.194866799220181,0.05395289203926623,0.005594756723677818,0.006025122493467094,-1.2482738938553717,-4.625692131453164,-2.055068377642103,-0.2883710789647233,-0.06595700738896429,-0.00023208954144668078
0.18,-0.07334285655963953,1.8419007958359472,-1.3882625638532144,0.04762803679999598,-0.006026633445516987,-3.216440031199489e-05,-0.7135755866407816,2.4894857321370334,1.5335572959958492,0.3725493296372214,-0.04948573565107837,-0.00018139388705220018,-2.5806080133260085,6.468729442675386,1.5151183374488575,-0.11821747093695834,0.024331081583914838,0.005994292889733077,-1.23440051937032,-5.35690950133055,-2.183371805005052,-0.30115470072663914,-0.06213415705610807,-0.00016990411200696817
0.19,-0.08073519120615415,1.8674410859776065,-1.3727769842595972,0.05134936624210755,-0.006525750892242296,-3.383451092738236e-05,-0.739233464651462,2.554029014165927,1.5485579593617225,0.37213294421115745,-0.049911744672530935,-0.0001670110615387473,-2.383442629383654,5.672571088252151,0.8628534583351559,-0.27920651581426803,0.04095401830911882,0.005933355656034811,-1.207821299407636,-6.047900421790626,-2.2980457834723733,-0.31112588386438367,-0.057720838174740344,-0.00010681430756914753
0.2,-0.08836450945594282,1.8935472336866348,-1.3572062387531127,0.055050454963907244,-0.007027468938685999,-3.5351826016954374e-05,-0.7629318249788675,2.61061477090283,1.5570745506484336,0.3701088721799693,-0.050171804644370266,-0.00015173150895720136,-2.1844348882171256,4.890303942209435,0.23996968138424624,-0.4288325699685309,0.05559940170239308,0.005852034345966373,-1.1687690162536652,-6.696019257954601,-2.3988090983581416,-0.3183536978468925,-0.05278727042966799,-4.398445804727695e-05
0.21,-0.09621102728619055,1.9201410639048306,-1.3416122447698584,0.05871630227720832,-0.007530277017774286,-3.670977977649781e-05,-0.7846517830247721,2.6593830218195853,1.559399398325437,0.3665847313301071,-0.050280807908828655,-0.00013579537595434347,-1.984727202302815,4.124344429501396,-0.3520020839828595,-0.5670143074201661,0.06842558765307416,0.005757480878558319,-1.117842540369284,-7.299404076755235,-2.485579509082557,-0.3229418356789804,-0.04741553470391831,1.7460276034556322e-05
0.22,-0.10425488577869176,1.9471460427784697,-1.3260538444459906,0.062332997118554126,-0.00803280521740144,-3.7903940046132475e-05,-0.8043858492501211,2.7004978873639174,1.5558400323867891,0.36166948413458083,-0.05025281996271532,-0.0001194160269634666,-1.7854002425572646,3.376835145566225,-0.9118900903966498,-0.6937714775875943,0.07960254307915271,0.005654542145677732,-1.0559696594150674,-7.856935356250344,-2.5584619818642307,-0.32502416895448755,-0.04169625024067164,7.646961609844036e-05
0.23,-0.11247625902425042,1.9744874911899626,-1.3105866882289772,0.06588772131034279,-0.008533814699886443,-3.8931754562187686e-05,-0.8221373245558666,2.7341448411492904,1.5467156217013505,0.35547241917886646,-0.05010094824850028,-0.00010278145160552132,-1.587458821036884,2.649641620524544,-1.4388692725167407,-0.8092218934902816,0.08930314937902217,0.005546117583281274,-0.9843561065761657,-8.368182747923365,-2.617733397259026,-0.32475984839124755,-0.03572518604384033,0.00013209818747795502
0.24,-0.12085545455066164,2.002092770512254,-1.2952631529271332,0.06936874299202467,-0.009032187430961052,-3.979231651426748e-05,-0.8379195526411221,2.76052793222918,1.5323535301844036,0.34810216816818784,-0.04983727310746087,-8.605619520797944e-05,-1.391821224547841,1.944355996873605,-1.932444480950053,-0.9135756027198068,0.09769656826434225,0.005433551735707587,-0.9044247787758785,-8.833341569539712,-2.6638242651231043,-0.32232812518151027,-0.029599963325988778,0.0001835289209778135
0.25,-0.12937300518876232,2.0298914409745437,-1.2801322925659748,0.07276540082011428,-0.00952691571103879,-4.048615199851572e-05,-0.8517550638100675,2.7798670462289325,1.513086036115836,0.3396657828089604,-0.04947282800777389,-6.9383548424824e-05,-1.1993118144996218,1.2623035778751415,-2.3924299751113027,-1.0071269737399646,0.10494342600991136,0.005317022959294038,-0.817749482537689,-9.253163231926875,-2.697298731332107,-0.31792318220355714,-0.023416985561825688,0.00023008931320284642
0.26,-0.13800975161842494,2.057815393312798,-1.265239820036111,0.07606807971964999,-0.010017091884618192,-4.101503004931816e-05,-0.8636746429662624,2.792395233825456,1.4892472529863812,0.3302678899535715,-0.04901761735794006,-5.2887805080244235e-05,-1.0106566898507658,0.6044372849669066,-2.818921308836422,-1.090244363729572,0.11119255423119867,0.005195903372864796,-0.7259875025304623,-9.628927235025223,-2.7188470665298126,-0.3117514806426719,-0.017268723343694628,0.0002712591934162401
0.27,-0.14674691514402877,2.0857989432101336,-1.2506281168090154,0.07926817927471712,-0.010501898502704173,-4.138179455446644e-05,-0.8737163525603823,2.798354989733539,1.4611703227095532,0.32000995550671246,-0.048480661808598134,-3.66764505148279e-05,-0.8264816277869552,-0.028132370104545862,-3.2122903407340893,-1.1633632731775378,0.11657883376244893,0.005069077708592773,-0.6308144597338788,-9.96216189381977,-2.7292047665180825,-0.30401683074072927,-0.01124130810808738,0.0003066789211929081
0.28,-0.15556616047956284,2.113778941344542,-1.2363362699662872,0.08235807503012037,-0.01098059912763609,-4.1590216832254415e-05,-0.8819245335534069,2.7979998134408164,1.4291846842728158,0.30898957554032547,-0.0478700624931917,-2.0842227778797324e-05,-0.6473131431431148,-0.6349819395899012,-3.573124183131805,-1.226971809056245,0.12122245533475429,0.004935202555329199,-0.5338665072223059,-10.254911846797528,-2.7292294580906105,-0.2949328351511645,-0.0054128326528374345,0.0003361360881412929
0.29,-0.164449648635293,2.1416948149130017,-1.2224001309236525,0.08533107478137002,-0.011452529894456737,-4.1644866573354724e-05,-0.8883488155730139,2.791587356845979,1.3936139042634679,0.2972999751249645,-0.04719307668206477,-5.464974110031164e-06,-0.47358059500739097,-1.215713296561427,-3.902222655264824,-1.2816010928549115,0.12522839525147011,0.004792930661814188,-0.4366885363585652,-10.50940903783767,-2.7198086260187457,-0.28470695742781615,0.00014815108566323607,0.0003595635970724895
0.3,-0.17338008010723327,2.1694886065729975,-1.2088523952437502,0.08818137023655967,-0.011917091899619165,-4.155099913302078e-05,-0.893043147194028,2.7793791659995786,1.354773567990221,0.28502954551896587,-0.046456200516242704,9.386744033394289e-06,-0.30562032341577433,-1.7701134282667181,-4.20056312585232,-1.327814979241838,0.12868681614205313,0.004641071953014331,-0.34069393848683827,-10.728077404136188,-2.701860872679216,-0.27354069466569614,0.00538349202434662,0.00037702470335438233
0.31,-0.18234072877411137,2.197104994897418,-1.1957227001360766,0.09090398519874139,-0.012373744434621548,-4.13144569626252e-05,-0.8960648666878104,2.7616388324420766,1.3129695107673653,0.27226149621817197,-0.04566525350023826,2.3654217039557446e-05,-0.14368091286488455,-2.2981378059502977,-4.469272664515998,-1.3661998983562054,0.13167380618012903,0.004478712043254673,-0.24713443435845972,-10.913472103494069,-2.6763193922150514,-0.26162706514911405,0.01024589395568614,0.0003886969438034822
0.32,-0.19131546702124344,2.224491298012921,-1.1830377368675162,0.09349472124825711,-0.012821999051576854,-4.094158306978245e-05,-0.8974738247132082,2.7386303115502764,1.2684963268560445,0.25907360495157256,-0.044825461695530616,3.728738928427467e-05,0.012070640404546201,-2.799891697696769,-4.709601037514389,-1.397355316706701,0.13425240755630974,0.004305289211528396,-0.1570803863158356,-11.068224217933853,-2.6441171730078707,-0.24914863235493023,0.014698969628739657,0.00039485417606650614
0.33,-0.20028878270260497,2.2515974622954307,-1.170821375388719,0.09595010184538186,-0.013261414423305747,-4.0439144583588785e-05,-0.8973315681361543,2.7106164282509644,1.221636147879705,0.24553805971247464,-0.043941537172889275,5.0243848619366374e-05,0.16154213753582347,-3.27561062920447,-4.922894866031007,-1.4218849567075118,0.1364738343315529,0.004120635124886141,-0.07141093006051419,-11.194991768410098,-2.6061741169223067,-0.23627604575980563,0.018716950973146254,0.00039584773595631657
0.34,-0.2092457886160044,2.2783760380800446,-1.1590947985963356,0.0982673157023667,-0.013691591943033423,-3.981426473909685e-05,-0.8957005913399432,2.6778575784614107,1.1726576792383574,0.2317213856984842,-0.04301775197276767,6.248798444919321e-05,0.3047090058200804,-3.7256411186167955,-5.110573199791193,-1.440388865967595,0.13837880123993362,0.003924984855175451,0.009187194753119013,-11.29641753449988,-2.5633861632197528,-0.22316706130060557,0.02228411796505973,0.0003920876014235413
0.35000000000000003,-0.21817222520534582,2.3047821443140726,-1.1478766437920231,0.10044416019482742,-0.014112171996856427,-3.9074361854389984e-05,-0.8926436589341409,2.640610623402783,1.1218154804312503,0.21768444924607275,-0.042058005382300354,7.399028847068637e-05,0.4416069534157439,-4.1504222826085035,-5.274104707544737,-1.4534563873542297,0.1399989020381034,0.0037189616821583504,0.08421352931245257,-11.37509372247379,-2.5166163804202446,-0.20996598604961011,0.025394010701216874,0.00038402430888768264
0.36,-0.22705445722221976,2.3307734239939633,-1.137183149060675,0.10247898549862415,-0.01452283083474469,-3.822709413453962e-05,-0.8882232016873928,2.599127967989081,1.0693494731348108,0.20348253037967223,-0.041065883788826314,8.47267719850364e-05,0.5723246202275949,-4.550468549534693,-5.414986630439922,-1.4616600487667206,0.14135798962524637,0.0035035420085740565,0.15334205024871014,-11.433533203432166,-2.466687904193533,-0.19680348221498933,0.028048487602402417,0.00037213220944607404
0.37,-0.23587946508012483,2.3563099921154813,-1.1270283024666738,0.10437064005262278,-0.014923277962074395,-3.728030938431283e-05,-0.8825007857905075,2.5536568121518024,1.0154846594001044,0.18916545539986257,-0.040044712732970396,9.467847502267936e-05,0.6969963608985376,-4.9263535664325975,-5.5347255879534,-1.4655503657560445,0.1424735210139394,0.003280005440444156,0.21640515853193787,-11.474146855801875,-2.414378553894979,-0.18379666409706596,0.030256688154810776,0.00035689449151510625
0.38,-0.24463483162194913,2.381354377746514,-1.1174239921524114,0.10611841786235353,-0.015313253972831911,-3.624199893513042e-05,-0.8755366541824294,2.5044385631032626,0.9604310314262529,0.1747777809730741,-0.03899760107575166,0.0001038310449182407,0.8157952644112789,-5.278695338764841,-5.634820274853535,-1.4656515294580323,0.14335783890220055,0.00304987469603879,0.27337497585439074,-11.499226441965753,-2.360416939710973,-0.1710494249664043,0.03203395208183503,0.00033879024373776305
0.39,-0.2533087249980984,2.4058714617081325,-1.1083801556126585,0.10772200807652847,-0.015692528747104178,-3.512025528503517e-05,-0.8673893376149318,2.451708396161823,0.9043836539752881,0.16035902141749372,-0.03792747742722652,0.00011217436500952511,0.9289264867181563,-5.608142621430452,-5.716746044494878,-1.4624579359998364,0.14401936855176434,0.0028148496190477656,0.32434325906798456,-11.51093239282412,-2.305479866264077,-0.158652936741676,0.033400739109606795,0.00031828369520029657
0.4,-0.26188987832167854,2.4298284112239883,-1.0999049266072776,0.10918144718920396,-0.016060899938797057,-3.392323310889858e-05,-0.858115332358014,2.3956949515856008,0.8475229005380807,0.14594391126754808,-0.03683711916928783,0.0001197022176136593,1.0366209483905977,-5.915362562417094,-5.781941338980629,-1.4564315012365157,0.14446371436278227,0.0025767390926597633,0.36950103754492286,-11.51128585156902,-2.2501908418669796,-0.14668627256175865,0.03438158522599158,0.0002958156537056668
0.41000000000000003,-0.27036756673088097,2.4531946127725432,-1.092004778359722,0.11049707414625122,-0.016418191684299182,-3.265911341846562e-05,-0.8477688409202432,2.3366201548555043,0.7900148247555618,0.1315626957047257,-0.03572917455021246,0.00012641196904329588,1.1391294285679705,-6.201029583517898,-5.831795899907826,-1.4479996959531718,0.14469464526966114,0.0023373941619239114,0.40911885410670257,-11.502164331635157,-2.195119512567278,-0.13521711007666865,0.035004123087497216,0.000271797069118496
0.42,-0.2787315824492727,2.475941604252658,-1.0846846618670738,0.11166948856656525,-0.01676425346869137,-3.133607073839716e-05,-0.8364015718391731,2.2746991480114453,0.7320116492648111,0.11724144203140273,-0.0346061784392189,0.00013230426800684575,1.2367170694017229,-6.465815467532233,-5.867640673739651,-1.4375542312850165,0.14471496211361146,0.002098645150041323,0.4435282670896336,-11.48530036820814,-2.1407818545543456,-0.12430248096336699,0.03529818642408182,0.00024660457777499374
0.43,-0.28697220839377224,2.4980430074522366,-1.0779481383170373,0.11269951222661878,-0.017098959092791313,-2.9962243217218706e-05,-0.824062594449954,2.2101403199578877,0.6736523550036619,0.10300236600535263,-0.033470562409994443,0.0001373827521178454,1.3296582915482607,-6.710380609693318,-5.890739312542044,-1.425450321553523,0.14452724360673752,0.0018622450056249296,0.47310506362447713,-11.46228258260676,-2.08764097558482,-0.11398953939829931,0.03529501122487329,0.00022057783435610432
0.44,-0.2950801908390789,2.519474461693069,-1.0717975047669754,0.11358815390180936,-0.017422205691555587,-2.8545705614505348e-05,-0.8107982445306647,2.143145424083242,0.6150633550061796,0.08886416751905815,-0.03232465987642732,0.00014165376027133592,1.418232110807292,-6.9353663831457695,-5.902281163031674,-1.4120064516867643,0.144134470489111,0.0016298206066096554,0.49825445173580457,-11.434558629406272,-2.0361083943192435,-0.10431632871854474,0.03502654034151141,0.000194018407188333
0.45,-0.303046711607266,2.5402135594135142,-1.066233912388986,0.11433657760957189,-0.017733912761901612,-2.7094445101580046e-05,-0.79665207681871,2.073909772044526,0.556359237798957,0.07484237077625322,-0.03117070703460246,0.0001451260512925302,1.502717838439346,-7.141388563948988,-5.903375633802856,-1.3975045784049378,0.14354053002230138,0.0014028332058884097,0.519398346465513,-11.403439553016133,-1.9865456846917606,-0.09531253112837462,0.03452483300698738,0.00016718999881195024
0.46,-0.3108633602129136,2.5602397843446996,-1.061257476722815,0.11494607425726358,-0.018034021165655213,-2.5616339787659262e-05,-0.7816648605647644,2.002622493118549,0.4976435666171016,0.060949664769169506,-0.030010840375359886,0.0001478105313920784,1.5833911427161729,-7.329031759835793,-5.895047831429855,-1.3821906980689889,0.14275060506721626,0.0011825487449659278,0.5369647444077204,-11.3701051399951,-1.9392663898411513,-0.08700019000738085,0.033821576646279924,0.00014031975273403027
0.47000000000000003,-0.3185221063580465,2.579534452835526,-1.0568673795052197,0.11541803666204258,-0.018322492080897923,-2.4119139841479126e-05,-0.7658746145132891,1.929466849082665,0.43900972175952657,0.047196240477899234,-0.028847091524270892,0.00014971999461801345,1.660520446549664,-7.498844788250663,-5.878235360119865,-1.3662757191085468,0.1417714536893273,0.0009700182976351002,0.5513790906886094,-11.335609912891316,-1.894538126199294,-0.0793943981736599,0.03294769520318967,0.00011360041646622058
0.48,-0.3260152731375347,2.598080658786892,-1.053061961760581,0.1157539378799023,-0.018599305882333453,-2.2610451025528732e-05,-0.7493166779488205,1.8546205951365768,0.3805417744638813,0.033590121785972954,-0.02768138014355309,0.00015086888159503942,1.7343636353078526,-7.651336952435539,-5.85378618602148,-1.3499365829021635,0.14061158649209737,0.000766068533382791,0.5630574796398101,-11.300889468782916,-1.8525848127894702,-0.07250394842399771,0.03193304593871956,8.719314733458995e-05
0.49,-0.33333551128458766,2.6158632225658143,-1.0498388079438072,0.11595531275615133,-0.018864460938296173,-2.1097720400925286e-05,-0.7320238147052978,1.7782563778922178,0.3223153816773825,0.02013748762490169,-0.026515505596272086,0.00015127306246034462,1.8051650498747616,-7.786975168974763,-5.822457475496201,-1.3333175836069735,0.1392813497485923,0.0005713017446435931,0.5724014912762897,-11.266766919565258,-1.813588973540528,-0.06633194491437294,0.030806195159923333,6.12307685616933e-05
0.5,-0.34047577475743557,2.6328686441850895,-1.0471948210236774,0.11602374258934002,-0.01911797231859568,-1.9588223900685596e-05,-0.7140263472847916,1.7005421619275074,0.26439869201298416,0.0068429833188693445,-0.025351138029950877,0.00015094965002396916,1.873152742376632,-7.906181905721991,-5.784915326054723,-1.3165318443704663,0.13779292290394274,0.0003861047139925855,0.5797944458524519,-11.233959240525571,-1.777694071508321,-0.060876375572060326,0.02959426249368388,3.582130657563316e-05
0.51,-0.34742929794201494,2.6490850609532197,-1.0451262884836903,0.11596084278429968,-0.019359870413466734,-1.8089055411981917e-05,-0.6953523184579373,1.6216416768130086,0.2068532539987138,-0.006289980504033871,-0.024189809487105286,0.00014991684887036795,1.9385359755311387,-8.00933389493694,-5.741735318679778,-1.2996629143968903,0.13616023920437126,0.00021066546499870498,0.5855988539094346,-11.203083378442013,-1.7450068434251513,-0.056130646858437994,0.028322823006406535,1.105166462628333e-05
0.52,-0.3541895747211096,2.6645022097219626,-1.0436289392992377,0.11576825335693296,-0.01959019946943303,-1.6607116958078102e-05,-0.6760276779094682,1.5417148768743083,0.14973491844524361,-0.01925894273667124,-0.02303290559662962,0.0001481938453903815,2.001502951040953,-8.096761592316925,-5.693403830412953,-1.2827664582203688,0.1343988381492469,4.499678124303408e-05,0.590154845346976,-11.17466201025008,-1.7155996111236382,-0.05208408293401773,0.02701585657407145,-1.3008688772881267e-05
0.53,-0.36075033963750136,2.67911139378444,-1.042697992025523,0.11544763214304961,-0.01980901605287536,-1.5149109531343e-05,-0.6560764916391739,1.4609184062477347,0.09309472737147706,-0.03206212138833424,-0.021881658344232797,0.0001458007426735101,2.062218757622278,-8.168749358031912,-5.6403200559187585,-1.2658720150721514,0.13252565823867624,-0.00011103476200990947,0.5937793746714983,-11.149128878381894,-1.6895125532684694,-0.04872239170573822,0.02569573432526155,-3.630411628761137e-05
0.54,-0.36710555135674416,2.6929054544047113,-1.0423281942010898,0.11500065055527935,-0.02001638745651131,-1.372152410323181e-05,-0.6355211719242805,1.3794060620271342,0.036979782443313895,-0.04469815877702564,-0.020737140363595155,0.000142758542811119,2.1208235349086357,-8.225536340510068,-5.5827986958445805,-1.2489848122502032,0.13055877816856043,-0.0002576755878704873,0.5967660178036354,-11.126833659509387,-1.6667559266366343,-0.04602810043749511,0.024383232625021144,-5.8789373336023347e-05
0.55,-0.3732493786136323,2.705878746889638,-1.0425138533380482,0.11442899172536405,-0.02021239006784543,-1.2330632327744851e-05,-0.6143827256888127,1.2973292484926542,-0.01856591369584621,-0.05716588299152852,-0.019600261133411786,0.00013908917754869586,2.1774308553748245,-8.267318047272042,-5.521073277810078,-1.2320876217409378,0.12851711431275703,-0.0003952491307672723,0.5993851964029778,-11.108046350007653,-1.647312231054514,-0.043980963639214,0.023097565867806313,-8.042639823242561e-05
0.56,-0.37917618880469556,2.718027121045335,-1.0432488598328673,0.11373435086344393,-0.02039710772193637,-1.0982476463715383e-05,-0.5926810191063294,1.214837415569687,-0.07350064948190654,-0.06946408619201225,-0.0184717654090939,0.00013481558640294691,2.2321263323532414,-8.294248589307333,-5.455300082446932,-1.2151426539235146,0.12642008208731603,-0.000524118495018211,0.6018846868954026,-11.092961174431561,-1.6311383161450224,-0.042558345864452174,0.021856430247045748,-0.00010118138030597437
0.5700000000000001,-0.38488053936653727,2.729347905793343,-1.0445267021916422,0.11291843766088684,-0.020570630063548995,-9.682858069609588e-06,-0.5704350561841736,1.1320784748008248,-0.12778423587748466,-0.08159132025570816,-0.017352234161262588,0.00012996183941057956,2.2849664679229535,-8.306443586090344,-5.385562651800024,-1.1980934858743453,0.12428722867890407,-0.0006446491955549583,0.6044902920972997,-11.081700043089613,-1.6181674313500352,-0.04173558187637849,0.020676051625179593,-0.00012102214405070591
0.58,-0.39035717205595855,2.7398398976557607,-1.0463404750215126,0.11198298055842815,-0.02073305094590375,-8.437325073267948e-06,-0.5476632689421257,1.0491991862417676,-0.18137728298704747,-0.09354571024587005,-0.016242088235475422,0.00012455329963416398,2.335977759686739,-8.303983717148002,-5.311876860346187,-1.1808670245531552,0.1221378446928334,-0.0007571733943616543,0.6074065727902322,-11.07431560178338,-1.6083112233372965,-0.041486316411949276,0.019571231612569972,-0.00013991587847150838
0.59,-0.3956010102220651,2.7495033527540755,-1.0486828802957198,0.11092973269663522,-0.020884466894780525,-7.251156888230913e-06,-0.5243838166106597,0.9663455098314836,-0.2342405274207171,-0.10532478617929157,-0.015141594887677303,0.00011861681850370351,2.3851560899518924,-8.286918902961867,-5.234196529715302,-1.1633755069199516,0.11999056253456253,-0.0008619570081851435,0.6108175544375585,-11.070793931271272,-1.60146168692038,-0.04178282550188822,0.01855538695821464,-0.00015782723400982013
0.6,-0.40060715913247563,2.7583399819036454,-1.0515462224537222,0.10976047936082522,-0.021024975667645395,-6.129347337454044e-06,-0.5006148910410495,0.8836629149569879,-0.28633421580023644,-0.11692533358099999,-0.014050877286487117,0.0001121809550776868,2.432466424327444,-8.255273092821673,-5.152419566787788,-1.1455185398129863,0.11786294980069556,-0.0009591709869882781,0.6148873403603998,-11.071056966247568,-1.5974930770423095,-0.04259632100229088,0.017640578349959853,-0.00017471680433865872
0.61,-0.40537090938498777,2.766352948325188,-1.0549223979497158,0.1084770467274732,-0.02115467493769894,-5.0765852528240225e-06,-0.4763750252512122,0.8012966421542563,-0.33761754959935597,-0.12834326333520263,-0.0129699270053546,0.0001052762084630022,2.4778428489821516,-8.20904963003516,-5.066394601144459,-1.1271851822162091,0.11577110656058309,-0.001048867961449762,0.6197605772223875,-11.074964713748365,-1.5962637902142147,-0.04389723967195003,0.01683752571306959,-0.00019054000643278912
0.62,-0.4098877434023864,2.773546867436983,-1.058802879912445,0.10708131171387243,-0.02127366113223951,-4.097232742660693e-06,-0.45168340173985966,0.7193919111795246,-0.3880481962729055,-0.13957350136007665,-0.011898619454057086,9.793525101633291e-05,2.5211889765243547,-8.148237155727408,-4.975928091904763,-1.1082560713958038,0.11372927611992445,-0.001130965317504451,0.6255627318738763,-11.08231735897045,-1.5976182240725103,-0.04565551779632976,0.01615560808319432,-0.00020524636914484058
0.63,-0.41415334497140877,2.779927808137675,-1.0631786986257605,0.10557521272745549,-0.021382028453434714,-3.1953012560565878e-06,-0.4265601569022374,0.6380940700691804,-0.43758187133155074,-0.15060989864169397,-0.010836732119520388,9.019314866041054e-05,2.5623787494486456,-8.072816001525977,-4.880791865931631,-1.0886055923804285,0.11174947956183345,-0.0012052355613325627,0.632400150828547,-11.092857352495608,-1.6013886234333843,-0.04784085202273969,0.015602847113727862,-0.00021877923754820488
0.64,-0.418163611747315,2.7855032949406686,-1.0680404185821748,0.10396076110594285,-0.02147986810744443,-2.3744257180218462e-06,-0.4010266775906233,0.5575486802993708,-0.486171995641435,-0.1614451621512636,-0.009783965400971685,8.208755380347414e-05,2.6012576673959154,-7.982765015279267,-4.7807310383693,-1.0681040873245458,0.10984118496175554,-0.001271304616921487,0.6403598853420398,-11.106271578737399,-1.6073969208034258,-0.05042294679023068,0.01518587425851096,-0.00023107589710464135
0.65,-0.42191467060330046,2.7902823102777767,-1.0733781128995787,0.10224005303463886,-0.02156726776479623,-1.6378371578428374e-06,-0.3751058855985471,0.47790153371080024,-0.5337694317403839,-0.17207080713039916,-0.008739965735179892,7.365885601790088e-05,2.6376444579405978,-7.8780687055419465,-4.675472262418825,-1.0466200989373178,0.10801102258068163,-0.0013286584164797777,0.6495092760512814,-11.122193692699216,-1.615456575029753,-0.05337174805675465,0.01490988263925243,-0.0002420681174277051
0.66,-0.4254028956597762,2.794275296257782,-1.0791813359238913,0.1004152817229125,-0.02164431127095682,-9.883343986066191e-07,-0.3488225056475747,0.399298598000559,-0.5803223024312686,-0.18247713117263606,-0.0077043506160588,6.495027592362183e-05,2.6713332085423143,-7.758724715493476,-4.5647322207700896,-1.0240226354319226,0.10626255726694289,-0.001376657815593152,0.6598953040771274,-11.140206755182607,-1.6253744191393054,-0.056657663896224675,0.014778565580341844,-0.0002516831113632297
0.67,-0.42862492878252784,2.7974941551325396,-1.0854390948643513,0.0984887496189808,-0.021711078621186344,-4.2825551150970003e-07,-0.32220331227516597,0.32188588747574515,-0.6257758940460054,-0.19265321039316982,-0.006676735022952634,5.6007888709691905e-05,2.702095960008141,-7.624751384627204,-4.448226294000872,-1.0001834446522402,0.10459612899953008,-0.0014145615280800605,0.6715437251329096,-11.159846217239757,-1.6369525102710565,-0.060251770252851555,0.01479404469488786,-0.00025984489697823866
0.68,-0.43157770229266024,2.799952247714238,-1.0921398213255533,0.09646288044026317,-0.02176764620805094,4.0550142624891795e-08,-0.2952773510132414,0.24580925816979482,-0.6700726461202039,-0.20258691787176217,-0.005656758686459545,4.688056541345918e-05,2.729685759598909,-7.47619538913398,-4.325677292705548,-0.9749792770110375,0.10300877129831143,-0.0014415563796215114,0.6844580181046203,-11.180603375907491,-1.649989988557736,-0.0641260020740601,0.01495679131341814,-0.0002664760438756787
0.6900000000000001,-0.43425846358525755,2.8016643889793724,-1.0992713436065047,0.09434023079684481,-0.021814087343511087,4.167483678352068e-07,-0.26807612925973173,0.17121412651344906,-0.7131522280951321,-0.2122649643418359,-0.004644113546014626,3.76198225210315e-05,2.753840154452464,-7.313139288255765,-4.1968241489086004,-0.9482941148478261,0.10149421565472139,-0.0014567938156344606,0.6986181911635096,-11.201929365241446,-1.6642849386313308,-0.06825332855025706,0.015265545828589695,-0.00027149977467806537
0.7000000000000001,-0.43666480130957436,2.8026468401041105,-1.1068208606326908,0.09212350118799872,-0.02185047305044702,6.995441034670322e-07,-0.24063377243168246,0.09824511247378558,-0.7549517026186033,-0.22167296088460817,-0.0036385706935931645,2.8279573563182543e-05,2.7742850944470177,-7.135708846705363,-4.061430444662205,-0.9200213416661285,0.1000429877285125,-0.001459431232045949,0.7139795024183646,-11.22323975018374,-1.6796362479522775,-0.07260791157632862,0.015717240225842928,-0.00027484238199220455
0.71,-0.43879467272247374,2.8029172961978195,-1.1147749183706723,0.08981554615673376,-0.021876873111036622,8.887019044146812e-07,-0.21298714128993682,0.027045609370888818,-0.7954057737981606,-0.23079550312649644,-0.0026400060589603365,1.8915780094764896e-05,2.790739199459651,-6.944079989056019,-3.91929264822887,-0.8900658217949129,0.09864259807195985,-0.0014486763806413894,0.7304711654888412,-11.243919772059494,-1.6958454525185442,-0.0771652464642861,0.01630692960981847,-0.00027643590909594767
0.72,-0.44064643179015867,2.8024948690380223,-1.1231193895453362,0.08741938339523989,-0.021893357351821324,9.845619405417005e-07,-0.18517590676849338,-0.04224271597973049,-0.8344471174663903,-0.23961627614938788,-0.0016484240784702172,9.586003612701939e-06,2.8029183320837583,-6.73848523909706,-3.7702479227139634,-0.8583458588868105,0.09727782658370998,-0.0014238328611619888,0.747995123274415,-11.263330275083632,-1.7127185574472015,-0.08190228398950106,0.01702773888811568,-0.00027622102992650566
0.73,-0.44221885758239854,2.801400064161199,-1.1318394574370312,0.08493820160511018,-0.0218999971378786,9.880505843471507e-07,-0.15724257922398743,-0.109480487682291,-0.8720067891695102,-0.24811817901297156,-0.0006639786057273385,3.488643805450294e-07,2.8105404036504087,-6.519219498364709,-3.614181370027767,-0.8247950005497167,0.0959310959560522,-0.0013843445494090556,0.7664249847825056,-11.280814321010915,-1.7300678170353898,-0.08679753297086698,0.017870830896829143,-0.0002741500512737005
0.74,-0.44351118247975935,2.799654751729606,-1.1409196044792527,0.0823753669304541,-0.021896867041588962,9.006847601543596e-07,-0.1292324897360803,-0.17453124315929858,-0.9080147042221487,-0.256283467465608,0.0003130096289635758,-8.73658241927912e-06,2.8133303295338044,-6.2866450237802445,-3.4510325750966917,-0.7893636564475592,0.0945829252519168,-0.0013298367774092767,0.7856052292536235,-11.295704474434034,-1.7477134563302499,-0.09183114276064064,0.018825402110524272,-0.0002701899481566512
0.75,-0.4445231196990066,2.7972821306740268,-1.1503436063074903,0.0797344277994938,-0.02188404664537291,7.245693743916065e-07,-0.10119372192472616,-0.23726210555791666,-0.9424001828237741,-0.2640939130960299,0.0012820396216051883,-1.7611538576275304e-05,2.8110250398778147,-6.041195474741716,-3.2808013216360408,-0.7520204984552308,0.09321245069984663,-0.00126015216219022,0.8053507879587308,-11.307330714858567,-1.765485314096522,-0.09698496524191186,0.01987871164501858,-0.0002643253330529709
0.76,-0.4452548896358612,2.7943066857051257,-1.1600945318269815,0.07701911803085353,-0.021861622432798097,4.623873299808299e-07,-0.07317699368545827,-0.2975444968901001,-0.9750925519491099,-0.27153097686402694,0.00224242125748137,-2.621820444107766e-05,2.8033784446667718,-5.783378915103884,-3.103552361635063,-0.7127536139913779,0.0917979971044911,-0.0011753791948312386,0.8254471158788736,-11.315028904366173,-1.7832243854891414,-0.10224259618763909,0.02101614851825348,-0.0002565612518643704
0.77,-0.44570724452839094,2.7907541368902886,-1.1701547497724873,0.07423335808428862,-0.021829689718903027,1.1738184091906655e-07,-0.045235489252973604,-0.355254881483693,-1.0060217945505892,-0.2785759946564909,0.003193271389507059,-3.4500548906176336e-05,2.7901662479912517,-5.513779674972676,-2.9194191359144384,-0.6715713873634854,0.09031768022278364,-0.0010758720338321925,0.8456508619937114,-11.31814971237546,-1.8007842418261903,-0.10758939611067972,0.022221341081623363,-0.0002469256951323231
0.78,-0.4458814909589423,2.786651381606621,-1.1805059421283788,0.07138125436171605,-0.021788354568676026,-3.066690037790448e-07,-0.017424643055135105,-0.4102755283667443,-1.0351192355891392,-0.2852103722572563,0.004133515022699998,-4.2405084469811135e-05,2.771190505801058,-5.2330590006485505,-2.7286063623473993,-0.628503088790838,0.08875001831333584,-0.0009622603898766791,0.8656912372425193,-11.316067872801147,-1.8180323047090088,-0.11301249101542223,0.02347631118828681,-0.00023547171285896268
0.79,-0.4457795097377318,2.7820264288017666,-1.1911291246641842,0.06846709649265549,-0.021737735652515366,-8.05485235783975e-07,0.010198122121052994,-0.46249528048543065,-1.0623182535805376,-0.2914157869060565,0.005061891616065863,-4.9881623200493014e-05,2.746283824599151,-4.941954447655702,-2.5313914310554795,-0.5835991565303633,0.08707453003113841,-0.0008354489041950686,0.885272162787712,-11.308191624942442,-1.8348509524212129,-0.1185007537362355,0.024761674062857494,-0.00022227902597120265
0.8,-0.44540377274672954,2.7769083256197735,-1.2020046747216147,0.06549535256802519,-0.021677965989233588,-1.3743251332617371e-06,0.03757369910022157,-0.5118103181992923,-1.0875550057430465,-0.29717439246303023,0.005976966328177826,-5.688398974777621e-05,2.7153131054300155,-4.641278000699763,-2.3281245713559935,-0.5369311639942396,0.08527229604712261,-0.0006966059830909588,0.9040752577985618,-11.293972168863814,-1.8511384381001,-0.1240447668068195,0.02605688303509421,-0.0002074550373782048
0.81,-0.4447573563676045,2.7713270765764815,-1.2131123662664685,0.06247066231704628,-0.021609194530710977,-2.008031824037915e-06,0.06464163791250377,-0.5581249043292209,-1.1107691544853733,-0.30246902509789086,0.006877145852261033,-6.337066907761776e-05,2.6781827479765816,-4.331912934556786,-2.1192277825423966,-0.4885914706826302,0.08332646324964088,-0.0005471426143969227,0.9217636958523108,-11.272912949967232,-1.866809601620207,-0.1296367680417977,0.02734051637405964,-0.00019113516080052287
0.8200000000000001,-0.44384395117122716,2.765313555594816,-1.224431412095473,0.0593978282531232,-0.021531587547503412,-2.7010855166358836e-06,0.0913405196377356,-0.6013520981665519,-1.1319045829004502,-0.30728340639230767,0.007760698320756556,-6.930536925979688e-05,2.634837243232545,-4.014809460184676,-1.905192548720363,-0.4386925628554934,0.08122267309100906,-0.00038868221895105304,0.9379869230391021,-11.244578576876057,-1.8817963604312316,-0.13527058022568833,0.028590601499501392,-0.00017348240583590934
0.8300000000000001,-0.4426678676071894,2.758899411331943,-1.235940512966856,0.05628180484529716,-0.021445329781327037,-3.447660348953382e-06,0.11760835640377706,-0.6414144262872497,-1.150910087138303,-0.3116023407826042,0.008625776617637615,-7.465748323174986e-05,2.5852630995244095,-3.690979229614555,-1.6865763858288618,-0.38736609684494283,0.07894939937915524,-0.00022302303392174316,0.9523861903459059,-11.20860317244043,-1.8960479686792835,-0.14094152649573563,0.029784969955486358,-0.00015468618245249817
0.84,-0.4412340374983699,2.7521169663445075,-1.2476179133070342,0.05312768580152548,-0.021350625338057788,-4.241684726547265e-06,0.1433830108819468,-0.6782444987435496,-1.1677400340178228,-0.31541190437716876,0.009470444326924893,-7.940243775938832e-05,2.5294900649382464,-3.3614888003048233,-1.4639982955742434,-0.33476166454115663,0.07649818537976927,-5.209488077362323e-05,0.9646008098172822,-11.164697960159087,-1.9095310386969615,-0.14664633317711132,0.030901634813716217,-0.00013496031629503215
0.85,-0.4395480112159235,2.744999110742454,-1.2594414630369277,0.049940689577962084,-0.021247698303319473,-5.0769039520923854e-06,0.16860262824464226,-0.7117855602053872,-1.1823549729893557,-0.31869962235633914,0.010292703473831674,-8.352192255451202e-05,2.46759162868308,-3.0274521836196064,-1.2381332253205795,-0.2810453065074512,0.07386377512308684,0.00012208762502174952,0.9742750007411298,-11.112657897817618,-1.922229324216445,-0.15238302198522807,0.03191918073401237,-0.0001145402965760658
0.86,-0.43761595048224766,2.737579191073811,-1.2713886849624738,0.04672614325400249,-0.021136793071482224,-5.946943925597809e-06,0.19320607336758305,-0.741991966864256,-1.1947221925546048,-0.32145463239595923,0.011090523183724818,-8.700399735054242e-05,2.399684803761323,-2.6900226220616625,-1.00970565410123,-0.22639780331064951,0.07104413901101658,0.00029747327147572333,0.981065151395011,-11.052367186553937,-1.9341432702431787,-0.15815079365237258,0.03281715584059644,-9.367980938795562e-05
0.87,-0.43544461682149,2.729890895260282,-1.2834368470870274,0.043489464935581264,-0.021018174387540133,-6.845374719846607e-06,0.217133366075766,-0.7688295813528976,-1.2048162124553536,-0.32366783184212256,0.011861868394208996,-8.984307942487979e-05,2.3259292126828415,-2.3503837551918454,-0.7794824421430158,-0.17101277973711593,0.06804039880317347,0.00047202177568983483,0.9846472865465119,-10.983803506423289,-1.9452893401964886,-0.16394990516370272,0.03357645395103703,-7.264663935941236e-05
0.88,-0.43304135574705266,2.721968134464993,-1.295563039130216,0.04023614486863908,-0.02089212710949327,-7.765772902573038e-06,0.24032610744373153,-0.7922760795289224,-1.2126192043188606,-0.3253320066942188,0.012604727804686244,-9.203981827264303e-05,2.246525516061358,-2.0097403443653286,-0.548265094104516,-0.11509465949974906,0.06485666152399006,0.000643748717709558,0.9847245036589098,-10.907040858062333,-1.9556991364260814,-0.16978154289578687,0.03417967557239619,-5.171805001479791e-05
0.89,-0.430414076841506,2.713844922818311,-1.3077442524797276,0.036971725460484314,-0.02075895570618331,-8.701781579772057e-06,0.26272789055466306,-0.8123211646681874,-1.218121334951154,-0.32644194081547645,0.013317140330995847,-9.360086771990188e-05,2.1617132400676162,-1.6693087313172112,-0.3168815942979144,-0.058856509842842186,0.06149977551593011,0.0008107662600206067,0.9810341239964415,-10.822250923168255,-1.9654183352901717,-0.17564769402970806,0.03461145648008065,-3.117577639372513e-05
0.9,-0.42757122994471003,2.7055552559546947,-1.3199574627602522,0.0337017804187466,-0.02061898351174763,-9.647167264805247e-06,0.284284689679598,-0.8289666863616167,-1.2213210280524476,-0.3269945041737711,0.01399721944356791,-9.453856850331896e-05,2.0717680723064347,-1.3303072052787956,-0.08617797543282535,-0.0025178160243246595,0.05797902456837356,0.0009713183720047869,0.9733543003638088,-10.729702892909128,-1.9745054623815266,-0.18155101864690432,0.03485875361200068,-1.1300781087673243e-05
0.91,-0.42452177771938826,2.697132989323148,-1.3321797141776865,0.030431893225659996,-0.020472551762768305,-1.0595872826799527e-05,0.30494522253217526,-0.8422266631546436,-1.2222251417434282,-0.3269887193086604,0.01464317489793268,-9.487055619942811e-05,1.976998706305502,-0.9939464479688643,0.14299021901039022,0.053697774869590154,0.05430577767530487,0.0011238096717567578,0.9615098320963871,-10.629761751597892,-1.9830305369847767,-0.18749472489298202,0.03491107940529052,7.6320641968503e-06
0.92,-0.4212751649088277,2.6886117172265314,-1.3443882047865896,0.02716763516953576,-0.02032001844769008,-1.1542065930153688e-05,0.3246612810560569,-0.8521272096616944,-1.2208490608903055,-0.32642580561242357,0.015253331507822411,-9.461931033541608e-05,1.877743322181739,-0.6614202159438524,0.36976642447302577,0.10956470287631376,0.05049311251829636,0.0012668274103294769,0.9453769602835131,-10.522885041461539,-1.9910736172597938,-0.1934824494963513,0.034760677507215766,2.53592057790918e-05
0.93,-0.4178412846380392,2.6800246535216927,-1.3565603718341555,0.0239145431556066,-0.02016175700013967,-1.2480182536071025e-05,0.34338802707884875,-0.8587063704838485,-1.2172167047565892,-0.32530920139291575,0.015826144755041203,-9.381166059173369e-05,1.7743657951186,-0.33389640603450027,0.5933013524260187,0.16485770144209289,0.046555430265605935,0.001399156497363635,0.9248869512563007,-10.4096181716074,-1.9987232788529212,-0.19951814574222348,0.03440263491391184,4.163338190939271e-05
0.9400000000000001,-0.41423044213719246,2.6714045148745234,-1.3686739763536768,0.020678097515157434,-0.01999815486845181,-1.3404965189619562e-05,0.3610842500846782,-0.8620138647169294,-1.2113604519521344,-0.3236445640449166,0.016360213168785675,-9.247826535485367e-05,1.6672517240671327,-0.012508632669850792,0.8127609632283235,0.21935392877810544,0.04250807790385913,0.0015197878209874671,0.900028322352628,-10.290588368902112,-2.0060750595737815,-0.20560598071667294,0.03383492791888404,5.62281925605257e-05
0.9500000000000001,-0.4104533162843479,2.6627834074132433,-1.380707186213296,0.017463700025289824,-0.019829611993115368,-1.4311495955639323e-05,0.37771258528445817,-0.8621107461280109,-1.2033209859619172,-0.3214397489867611,0.016854287533644208,-9.065307660197605e-05,1.5568043708240316,0.30165157338578685,1.0273339985946994,0.2728349958101104,0.038366992196653626,0.0016279203931698905,0.870847618354454,-10.166497399217326,-2.0132299014742374,-0.211750243252228,0.03305840166679651,6.894213181852875e-05
0.96,-0.4065209193736715,2.654192717561473,-1.3926386568702258,0.014276652342151457,-0.01965653922216875,-1.5195223989546196e-05,0.39323969106763446,-0.8590689851770236,-1.1931470656929795,-0.3187047683138367,0.017307277094661767,-8.837280339068726e-05,1.4434405946518165,0.6075418561474275,1.2362389749359712,0.325088866374335,0.03414837675623872,0.0017229580623550622,0.8374487066086014,-10.038113213355118,-2.020292619217331,-0.2179552635322811,0.03207668548292105,7.960197263619438e-05
0.97,-0.40244455551592784,2.6456630077619576,-1.40444760913482,0.011122135038393332,-0.019479356692006754,-1.6051987832039078e-05,0.40763638577437006,-0.8529709799515487,-1.1808952264594021,-0.3154517303758126,0.01771825301619964,-8.567638424928801e-05,1.327586860315775,0.9041753481296687,1.438730557338545,0.375911609685458,0.029868420794793238,0.0018045016944435166,0.7999906201623177,-9.906260692231843,-2.0273704201966383,-0.22422534476526448,0.030896048366797463,8.806542085164819e-05
0.98,-0.39823577807083343,2.6372239177243593,-1.4161139033110317,0.008005187421421119,-0.019298492197838645,-1.68780325984969e-05,0.4208777445094391,-0.8439090037598298,-1.166629417621168,-0.31169476169722127,0.018086449416810903,-8.260447664578214e-05,1.2096753883073903,1.1906261608346624,1.6341052528590903,0.4251089895394209,0.025543065109480345,0.0018723377653278583,0.7586840376514039,-9.77181168015763,-2.034571497684979,-0.23056470674850643,0.029525200995642705,9.422298504960485e-05
0.99,-0.39390634649673073,2.6289040717484573,-1.4276181091480262,0.004930688293121412,-0.019114379574392656,-1.7670022295182666e-05,0.4329431574102687,-0.8319845975902155,-1.1504205836994468,-0.3074499128299707,0.018411262344598788,-7.919896966857658e-05,1.0901405056177318,1.4660340268120962,1.8217063804808906,0.47249787904568485,0.02118781794014346,0.0019264243401835857,0.7137865427442585,-9.635674503180404,-2.0420037136191507,-0.23697744054052675,0.027975052193703193,9.799903942290511e-05
