tonegas/nnodely-applications/joint_friction_estimation/dataset/test/mpc_mujoco_episode_5.csv
time,q1,q2,q3,q4,q5,q6,dq1,dq2,dq3,dq4,dq5,dq6,ddq1,ddq2,ddq3,ddq4,ddq5,ddq6,tau1,tau2,tau3,tau4,tau5,tau6
0.0,0.0,1.57,-1.57,0.0,0.0,0.0,0.0,0.0,0.0,0.0,0.0,0.0,11.54216294919452,-3.6734604015706784,1.3459484499611447,0.7446884786756414,1.710403653813863,-5.0493956820218955e-06,1.6094927647062267,-6.170392596389915,-4.997224004824122,-1.1094076196905585,0.14534382606669016,0.00126043939240093
0.01,0.0011482939406377926,1.5696343496772742,-1.5698670206608987,6.87567844857222e-05,0.0001437369420509988,1.5076244759779422e-06,0.11482939406377925,-0.03656503227259397,0.013297933910146798,0.00687567844857222,0.014373694205099881,0.00015076244759779423,11.369691045353784,-3.436299460020827,1.3686240785287502,0.6913474975843528,1.4281319533805714,0.015094141036648523,1.5907852623326133,-6.050920585813263,-4.952419336317679,-1.099952785445733,0.14378599580063434,0.0012468622375779405
0.02,0.0034268258694033823,1.5689267249706407,-1.5695990552404355,0.00020211678469041027,0.00041351792196833584,4.580774307309099e-06,0.22785319287655897,-0.07076247066334644,0.026796542046321124,0.013336000020468804,0.026978097991733705,0.00030731498313311565,11.181701499578224,-3.187291384548753,1.3903762882425248,0.6497357422391472,1.2511062896098295,0.01572859721250275,1.566969433176377,-5.926446453610539,-4.905258047270481,-1.0898922651226695,0.1418957671667826,0.0012302931370643199
0.03,0.0068163590344673085,1.5679019743551406,-1.5691941048965448,0.0003968248367256778,0.0007979942057833348,9.115674602651591e-06,0.33895331650639265,-0.10247506155001565,0.04049503438907174,0.019470805203526752,0.0384476283814999,0.0004534900295342492,10.982010087085587,-2.927912636538583,1.4116567626881102,0.617020746364096,1.1381129867219215,0.014774894064986555,1.538652467033208,-5.797749330494614,-4.85613335681606,-1.0793181077926775,0.13970856092821105,0.0012109500748561314
0.04,0.011296712285585844,1.5665859737109948,-1.5686501536512256,0.0006503082192602708,0.0012896788097672023,1.5022179359931464e-05,0.4480353251118534,-0.13160006441457178,0.054395124531904315,0.025348338253459293,0.049168460398386744,0.0005906504757279873,10.772991001272171,-2.6596324682601304,1.4326884760054956,0.5910282156235844,1.0642314695220563,0.013978319331883426,1.5064609517353171,-5.6656215079546515,-4.805446504181454,-1.068324211815842,0.13726085966950874,0.0011890441914787662
0.05,0.016846910079581476,1.5650054813721122,-1.5679651613688215,0.0009605098294423646,0.0018834407243278613,2.223600778585777e-05,0.5550197793995633,-0.15804923388826797,0.06849922824042352,0.03102016101820939,0.0593761914560659,0.0007213828425926306,10.556153973804342,-2.383925323524969,1.4535137946264753,0.5700768627388406,1.0143056021065178,0.013453448198315954,1.4710294815839484,-5.530873387658015,-4.7536055059045195,-1.057005858730379,0.1345896744167517,0.001164782211727586
0.06,0.023445280726671326,1.5631879922592027,-1.5671370711674169,0.0013257585168490683,0.002575587599857111,3.071144889395314e-05,0.6598370647089851,-0.18174891129094228,0.08280902014045262,0.036524868740670374,0.06921468755292495,0.0008475441108095372,10.332489623495794,-2.1022764105180127,1.4740316613136044,0.5528584536232461,0.9790633873670558,0.013119370767814331,1.4329903156096528,-5.39433535484782,-4.701022913714134,-1.0454590367232208,0.1317320900146558,0.0011383673889209423
0.07,0.03106952358893285,1.5611615906366916,-1.5661638284121286,0.0017446675486421158,0.0033633036227222785,4.0414514980736226e-05,0.7624242862261521,-0.20264016225111703,0.09732427552882626,0.04189090317930474,0.07877160228651676,0.0009703066086783086,10.10267623211708,-1.8161827982550875,1.4940272961150391,0.5383475872547896,0.9527849605485059,0.012899508072472088,1.392963911119881,-5.256857433549404,-4.648112949635945,-1.033779639264307,0.12872485248255988,0.0011099995869070795
0.08,0.03969675760403632,1.5589548014540047,-1.565043408972139,0.002216054376653941,0.004244301958818725,5.131826945091107e-05,0.8627234015103471,-0.22067891826868247,0.11204194399896798,0.047138682801182524,0.08809983360964467,0.0010903754470174842,9.867203467027238,-1.5271514211680068,1.513196423241584,0.5257335503489651,0.9318968133058689,0.012738900724123425,1.351550288424224,-5.119307247362972,-4.595288264107883,-1.0220625961683318,0.1256039795556032,0.001079874808152165
0.09,0.0493035585087815,1.5565964405236836,-1.5637738548155173,0.002738876552930829,0.005216606918704304,6.339976756257536e-05,0.9606800904745183,-0.2358360930321121,0.12695541566217722,0.05228221762768883,0.09723049598855796,0.001208149811166428,9.626446271692828,-1.2366948635508472,1.5311654554209682,0.5143689751475136,0.9141237938758096,0.012598647823267584,1.3093212483363095,-4.982566613519033,-4.542956483857505,-1.0104009770382878,0.1224043861797124,0.0010481843491781913
0.1,0.05986598913967689,1.5541154639983175,-1.5623533153028344,0.0033121799223662586,0.006278414650796487,7.663802272627188e-05,1.056243063089539,-0.24809765253661217,0.14205395126829598,0.05733033694354295,0.10618077320921838,0.0013238255163696522,9.380708852006766,-0.9463255048985661,1.5475086976077352,0.5037313314244996,0.897977767100393,0.01245011333432089,1.2668134918957978,-4.847526987487425,-4.491516668223126,-0.9988850963375453,0.11915952297400238,0.001015113703819551
0.11,0.07135962539232503,1.551540817762828,-1.5607800927492004,0.003935056201238098,0.00742800149490646,9.101260602394328e-05,1.149363625264814,-0.2574646235489527,0.15732225536339264,0.062287627887184,0.1149586844109972,0.0014374583297671406,9.130250735585777,-0.6575484376504924,1.5617633542972436,0.49339421244078707,0.8824497150646735,0.012271114297379704,1.2245226970203247,-4.715083917583202,-4.441355763018555,-0.9876016425256491,0.11590102937418068,0.0009808413052500233
0.12,0.08375957934904188,1.5489012874742305,-1.559052690975729,0.0046066077986333664,0.008663661414891064,0.0001065026375842596,1.2399953956716852,-0.26395302885976213,0.17274017734713182,0.06715515973952683,0.12356599199846037,0.001549003156031632,8.875302115078231,-0.3718534685764763,1.5734429085666815,0.48300607962803177,0.8668248906487364,0.012043651024508328,1.1828985984746938,-4.586130643019728,-4.392845122506344,-0.9766328491791596,0.11265840532924312,0.0009455371841045626
0.13,0.09704052044771379,1.546225350067101,-1.5571698656821942,0.005325918307571496,0.009983661361767763,0.0001230860251861169,1.3280941098671906,-0.26759374071294245,0.18828252935348155,0.07193105089381295,0.13199999468766999,0.0016583387601857291,8.616072823642236,-0.09070645514108477,1.5820492718998467,0.47227467109456356,0.8505724652328084,0.011752634463393363,1.1423411011468905,-4.461550961889117,-4.346337158122431,-0.9660557228601158,0.10945870660794427,0.0009093616139848808
0.14,0.1111766951916464,1.5435410276051915,-1.555130675555901,0.006092027525251068,0.011386207918045533,0.00014073886505081208,1.4136174743932617,-0.2684322461909442,0.20391901262933723,0.07661092176795725,0.14025465562777703,0.0017652839864695168,8.35275756770374,0.18445980802012063,1.5870839720537995,0.4609556928596028,0.8332803039212422,0.011385234188563409,1.103197435750246,-4.342211499571256,-4.302162164634695,-0.9559413401334237,0.10632626930260093,0.0008724638124670292
0.15,0.1261419456859487,1.5408757444012846,-1.552934533097788,0.006903910188698459,0.012869421299041938,0.00015943495614497506,1.4965250494302285,-0.2665283203906846,0.21961424581129493,0.08118826634473902,0.14832133809964057,0.001869609109416299,8.085539002956708,0.45225495975022206,1.5880585441864663,0.4488447283794228,0.8146170781244777,0.010930607401506087,1.06576034326455,-4.2289535179421485,-4.260625368816837,-0.9463542242386497,0.1032824691809223,0.0008349807627295596
0.16,0.14190972716786487,1.5382561883504913,-1.550581254203476,0.007760457857226604,0.014431314436784625,0.0001791454014100906,1.5767781481916192,-0.2619556050793385,0.23532788943118452,0.0856547668528145,0.15618931377426867,0.001971044526511554,7.814589612077564,0.7113405219116321,1.5845042124233153,0.4357715441065011,0.7943109090357794,0.01037985695716781,1.0302672516726668,-4.122584418033543,-4.222004241477107,-0.9373518102894078,0.10034552124990345,0.0007970362166950839
0.17,0.15845312463828864,1.5357081774280363,-1.5480711055904388,0.008660463554887672,0.01606977586866421,0.00019983828265199464,1.6543397470423784,-0.25480109224548875,0.25101486130372175,0.09000056976610685,0.16384614318795854,0.0020692881241904048,7.540072962339359,0.9604392598859475,1.5759808904110773,0.421596154375413,0.7721379490044242,0.009726119792256682,0.9969003872384354,-4.023869101135473,-4.18654611016668,-0.9289840063824542,0.09753032432220246,0.00075873993426459
0.18,0.17574486867623584,1.5332565322920608,-1.5454048492172534,0.00960260891859856,0.017782555750949867,0.00022147840369165107,1.7291744037947208,-0.24516451359754798,0.26662563731853306,0.09421453637108884,0.1712779882285654,0.002164012103965641,7.2621446911935195,1.198344294562084,1.562085486696529,0.406206151444918,0.7479168509790526,0.008964719173475189,0.9657877440651613,-3.933521363943293,-4.154466106643308,-0.9212928565642777,0.09484835458466391,0.0007201872047665773
0.19,0.1937573505131943,1.5309249559058278,-1.5425837829002347,0.010585453691653772,0.01956725467034507,0.00024402710080626084,1.8012481836958447,-0.23315763862329775,0.2821066317018777,0.09828447730552119,0.17846989193952045,0.0022548697114609783,6.98095342873622,1.4239278144329313,1.5424594712035118,0.3895149165716756,0.7215066134999653,0.00809333379297783,0.9370048208803172,-3.8521955109215833,-4.125945479855662,-0.914312310170494,0.09230761120803031,0.0006814586862333341
0.2,0.2124626364514373,1.5287359210526972,-1.5396097763988534,0.011607427466288614,0.02142131512793119,0.0002674421216986113,1.8705285938242997,-0.21890348531305293,0.297400650138115,0.1021973774634842,0.1854060457586121,0.0023415020892350456,6.696641780633823,1.6361492450382562,1.516795640474554,0.37146041355491377,0.6928062217408701,0.007112149110194643,0.9105770233620982,-3.7804783706291123,-4.1011303015990075,-0.9080681005859145,0.08991261593505262,0.0006426205856834492
0.21,0.23183248172426213,1.526710566562126,-1.5364853023154688,0.012666823619351564,0.023342015675586705,0.00029167757497278873,1.9369845272824833,-0.20253544905712745,0.312447408338465,0.10593961530629495,0.19207005476555145,0.0024235453274177397,6.40934744342411,1.834062742839343,1.484844009965355,0.352004333339627,0.6617550763809454,0.006023964847984509,0.8864826243846405,-3.718881901546097,-4.080130587853495,-0.9025777349399409,0.0876644674039469,0.0006037251899666877
0.22,0.25183834391347876,1.5248686029967051,-1.5332134612375388,0.01376179540714723,0.025326467729885647,0.00031668395184048306,2.0005862189216623,-0.1841963565420791,0.3271841077930045,0.10949717877956654,0.19844520542989416,0.002500637686769432,6.119204491746504,2.0168238920127153,1.4464167600602913,0.3311314115893129,0.628333558071855,0.004834239232617499,0.8646561731919497,-3.667836566538825,-4.063019854014445,-0.8978505946391292,0.08556094973563869,0.0005648117423599198
0.23,0.2724513960582938,1.523228228469976,-1.5297980006414604,0.014890354193252521,0.02737161509415372,0.00034240822085075754,2.061305214481509,-0.16403745267290437,0.34154605960783696,0.11285587861052926,0.20451473642680754,0.0025724269010274454,5.826344856087749,2.1836954958077937,1.4013921673897678,0.30884878401831806,0.5925633038326019,0.0035510563735616785,0.8449922474805646,-3.627685643274467,-4.04983511665982,-0.893888144940835,0.0835966936812826,0.0005259076456975507
0.24,0.2936425396086861,1.5218060551737616,-1.5262433271757607,0.016050369779949083,0.029474236199662836,0.00036879399505276606,2.1191143550392244,-0.14221732962145806,0.35546734656996,0.11600155866965621,0.2102621105509114,0.0026385774202008524,5.530899995003486,2.334052369067006,1.3497174633457618,0.28518527924941495,0.5545069252544685,0.0021850088637727083,0.8273494491452771,-3.5986806207220914,-4.040577348138383,-0.8906842499964105,0.08176338743013252,0.00048702995905722474
0.25,0.3153824173945149,1.520617047093499,-1.522554512046309,0.0172395728026349,0.03163094904118968,0.00039578176934248306,2.1739877785828794,-0.11890080802625881,0.3688815129451598,0.11892030226858168,0.2156712841526847,0.002698777428971702,5.233002754526792,2.4673850551588425,1.2914105763800379,0.2601905778554663,0.5142670075981677,0.0007489932985107473,0.8115545542909661,-3.580977809664261,-4.035212383131952,-0.8882255879597953,0.08005003305395393,0.0004481871425703676
0.26,0.337641426798214,1.5196744692822184,-1.5187372893359277,0.01845555912951244,0.03383821873696568,0.00042330922395896874,2.225900940369911,-0.09425778112806389,0.3817222710381442,0.12159863268775378,0.2207269695775998,0.0027527454616485688,4.932789397933448,2.5833024087201517,1.2265607327311736,0.23393419036240104,0.4719843112327098,-0.0007420780528217819,0.7974067401596519,-3.5746362684620796,-4.0336722685425785,-0.8864921589006988,0.07844324354597638,0.000409380994394738
0.27,0.36038973333335755,1.5189898489501792,-1.514798047203337,0.019695796187985597,0.036092367593375606,0.00045131158831256737,2.274830653514351,-0.06846203320391948,0.39392421325905763,0.12402370584731591,0.22541488564099288,0.0028002364353598604,4.630401780273176,2.681533004926073,1.155327910696041,0.2065042272494253,0.42783516194293725,-0.0022716409310019614,0.7846818248949331,-3.5796171149562976,-4.03585703974336,-0.8854578764262613,0.07692757452704589,0.0003706087157655378
0.28,0.38359728484304473,1.5185729485097001,-1.5107438120196597,0.020957631116234807,0.038389587504529775,0.00047972205766115084,2.3207551509687194,-0.04169004404789961,0.4054235183677425,0.12618349282492114,0.22972199111541716,0.0028410469348583442,4.325989633390078,2.7619253561072203,1.0779411654810094,0.17800595102873018,0.38202806928990185,-0.0038219049553074314,0.7731364695467795,-3.5957842623255853,-4.041636897632938,-0.885091232156656,0.07548588395718354,0.00033186503465049285
0.29,0.40723382654030565,1.5184317505953844,-1.5065822256124703,0.022238300614840643,0.04072595446918222,0.0005084722536994906,2.3636541697260904,-0.014119791431588168,0.4161586407189421,0.12806694986058353,0.233636696465245,0.002875019603833976,4.019712917630733,2.8244469369359577,0.9946958641262915,0.14856011473362685,0.33479965462145245,-0.005374324699594979,0.7625123043790011,-3.6229065820789286,-4.050854752322328,-0.8853560205816462,0.07409971261291685,0.00029314431596905285
0.3,0.43126891711683873,1.5185724549607988,-1.5023215158953522,0.023534942350339497,0.04309744496490563,0.00053749271897082,2.403509057653309,0.014070436541452756,0.42607097171181585,0.12966417354988527,0.23714904957234106,0.0029020465271329377,3.711744184030874,2.8691820395842544,0.9059498921078815,0.11830110289928442,0.2864100033527759,-0.006910096323754278,0.7525399523031415,-3.660661462331016,-4.063329090968171,-0.8862121104138566,0.0727496776537674,0.0002544425863613668
0.31,0.4556719461452961,1.5189994870357304,-1.4979704612628426,0.024844607741272784,0.04549995388388911,0.0005667134342069489,2.4403029028457386,0.04270320749316398,0.4351054632509551,0.13096653909332862,0.24025089189834797,0.0029220715236128857,3.4022708794584537,2.8963284998615095,0.8121189141760441,0.08737490059222353,0.2371375798732629,-0.008410658712906471,0.7429429309264721,-3.7086396952123195,-4.078857119543327,-0.8876162474110976,0.07141587135137564,0.00021575940454024315
0.32,0.4804121529930377,1.519715517815351,-1.4935383492244318,0.026164275938501378,0.047929313707566465,0.0005960643472891254,2.4740206847741586,0.07160307796205448,0.44321120384106905,0.13196681972285954,0.2429359823677358,0.0029350913082176475,3.091497505151925,2.906193353632081,0.7136707910425972,0.05593692337526157,0.1872738582971465,-0.009858178043467447,0.7334414193342944,-3.7663515949959687,-4.097218121571896,-0.88952287283465,0.0700782568496712,0.00017709951246069
0.33,0.5054586474496889,1.5207214946458256,-1.489034929834992,0.02749086879598839,0.05038131457930617,0.0006254759025071266,2.5046494456651227,0.10059768304745458,0.4503419389439746,0.13265928574870126,0.24520008717397032,0.0029411555218001127,2.779647525900863,2.899187499931644,0.6111192700563572,0.024149746417617024,0.13711782800990058,-0.011235996056668807,0.7237558784079734,-3.8332342189912443,-4.118176971248181,-0.8918849412771166,0.068717052877994,0.00013847421020817278
0.34,0.5307804322456884,1.5220166823717753,-1.4844703645510045,0.028821266616421218,0.05285172492588421,0.0006548795591654983,2.5321784795999482,0.12951877259497319,0.4564565283987712,0.13303978204328268,0.24704103465780428,0.0029403656658371817,2.4669649285635025,2.875819462829342,0.5050170814464208,-0.007819225631472193,0.08697053065483473,-0.01252902475364559,0.7136105149189835,-3.9086595374486928,-4.141487734188965,-0.8946547215735758,0.06731309970668833,9.990240884858522e-05
0.35000000000000003,0.5563464276044359,1.5235987142211256,-1.479855171200875,0.03015232444829347,0.05533631227927942,0.0006842082893113421,2.556599535874749,0.15820318493502727,0.461519335012947,0.13310578318722513,0.2484587353395203,0.0029328730145843783,2.1537153412965733,2.8366883576823057,0.39594858162811697,-0.03980010474931994,0.037129776282011306,-0.013724073715285945,0.7027365797211012,-3.991943377650829,-4.166897286617835,-0.8977845649368494,0.06584819926679661,6.141132937300309e-05
0.36,0.5821254979278536,1.5254636517235782,-1.4752001658024925,0.031480888707582096,0.05783086395998871,0.0007133970453869229,2.5779070323417708,0.18649375024526182,0.4655005398382542,0.13285642592886285,0.2494551680709293,0.0029188756075580807,1.8401866691456346,2.7824761789374026,0.2845220911687658,-0.07162283839123873,-0.012114828074225592,-0.014810100276673621,0.6908754921896186,-4.082354951632657,-4.194148883194305,-0.901227625332276,0.06430542348011592,2.303683426391884e-05
0.37,0.6080864806684535,1.5276060528913862,-1.4705164019913695,0.03280381389796312,0.060331207300856234,0.0007423831898818604,2.5960982740599907,0.2142401167807912,0.46837638111231034,0.1322925190381025,0.25003433408675224,0.002898614449493756,1.5266892542281676,2.7139395351082056,0.17136207715581886,-0.10311945929696886,-0.06048642180429464,-0.0157783772265232,0.6777817846521027,-4.179126767580158,-4.222985605210961,-0.9049385184348524,0.06266938619057674,-1.5176602779675558e-05
0.38,0.6341982173954639,1.5300190478361175,-1.4658151088380145,0.03411797920850152,0.06283322911547651,0.000771106880504267,2.611173672701038,0.24129949447313115,0.47012931533550545,0.1314165310538403,0.25020218146202733,0.002872369062240653,1.2135556087539805,2.6319009614647326,0.05710132798331635,-0.13412622711120115,-0.10772491037048049,-0.016622577027723073,0.6632258601864182,-4.281464722271325,-4.253153624531606,-0.9088739072609501,0.06092647539814518,-5.31762670958102e-05
0.39,0.660429587022064,1.5326944209531563,-1.4611076278337718,0.03542030477669956,0.0653328941465171,0.000799511405937177,2.623136962660012,0.26753731170387146,0.4707481004242609,0.1302325568198037,0.2499665031040605,0.0028404525432910023,0.9011397741570072,2.537239942189435,-0.05762673677191099,-0.16448562630571928,-0.1535903869700772,-0.017338775666359663,0.6469965526464245,-4.388558175737296,-4.284405224305541,-0.9129930046779933,0.05906504348410475,-9.090188097884771e-05
0.4,0.6867495411257003,1.5356226987769133,-1.4564053498107725,0.03670776741736602,0.0678262622655208,0.0008275434688248088,2.6319954103636305,0.2928277823756985,0.4702278022999321,0.12874626406664594,0.24933681190036924,0.00280320628876317,0.5898163282286103,2.430883771813273,-0.1721954873217344,-0.19404818927205447,-0.19786590537652526,-0.017925382745802354,0.628903469191382,-4.499589818717203,-4.316501524855647,-0.9172579853815261,0.05707555372086903,-0.000128286552573784
0.41000000000000003,0.7131271412606011,1.5387932425939117,-1.451719652534721,0.037977415633571085,0.0703095042353532,0.0008551534141769321,2.6377600134900736,0.31705438169984324,0.4685697276051569,0.12696482162050637,0.24832419698324074,0.0027609945352123377,0.27997901814243786,2.3137983815444527,-0.28599211290810267,-0.22267411845499296,-0.2403595782281105,-0.0183830072541854,0.6087790860318485,-4.613745157238123,-4.349214871806795,-0.9216343024926184,0.05495068181026164,-0.0001652579576954708
0.42,0.7395315981265104,1.5421943448976405,-1.4470618396701447,0.03922638374450495,0.07277891588777435,0.0008822954028309719,2.6404456865909314,0.3401102303728894,0.465781286457615,0.12489681109338605,0.2469411652421147,0.002714198865403972,-0.027961026223974454,2.1869792503156265,-0.39842415067791936,-0.2502346868881964,-0.28090600064980276,-0.018714270402998875,0.58648056200947,-4.730221455774487,-4.382330853141188,-0.9260909065774714,0.05268537184469346,-0.00020173971414105823
0.43,0.7659323124179014,1.5458133287777545,-1.4424430817678393,0.040451904985837006,0.07523093060999053,0.0009089275309238996,2.6400714291391023,0.3618983880113896,0.4618757902305307,0.12255212413320604,0.24520147222161714,0.0026632128092927755,-0.3335775408857985,2.051442513095677,-0.508925421518724,-0.27661340225383224,-0.3193670228104626,-0.018923578069018565,0.5618912332927857,-4.848236000427011,-4.415649922175578,-0.9306003675442167,0.05027684699442949,-0.00023765290419074713
0.44,0.7922989171337461,1.5496366493561056,-1.4378743598651418,0.04165132346061684,0.07766213007405684,0.0009350118974655199,2.6366604715844746,0.38233205783510266,0.456872190269748,0.11994184747798334,0.2431199464066303,0.002608436654162026,-0.6364317577214206,1.9082163704909283,-0.6169612976259926,-0.30170692551504175,-0.35563191587165077,-0.019016865684424233,0.534921768896448,-4.967033565933066,-4.448988614131778,-0.9351389024328499,0.0477245774976415,-0.0002729176847716427
0.45,0.8186013210913979,1.5536499964123722,-1.433366412223101,0.042822104842286754,0.08006925318080156,0.0009605146230516322,2.63024039576518,0.40133470562665885,0.4507947642040908,0.11707813816699171,0.24071231067447157,0.0025502725586112247,-0.9360754871100456,1.7583328918931889,-0.7220332447773439,-0.3254257408037309,-0.3896169858370806,-0.01900132794132281,0.5055109493279354,-5.085892995971976,-4.482180355019967,-0.939686314537438,0.04503020748033884,-0.00030745494435168884
0.46,0.8448097533442431,1.5578383973815177,-1.4289296846523858,0.04396184575543181,0.08244920322435333,0.0009854058235021221,2.62084322528452,0.41884009691456064,0.443672757071503,0.11397409131450528,0.2379950043551763,0.0024891200450489915,-1.2320544073443942,1.6028202935640785,-0.8236826008910294,-0.3476945788169872,-0.4212647074505069,-0.018885144724185232,0.47362607720582706,-5.204132830777704,-4.515075871870817,-0.9442258514303682,0.04219744656126386,-0.0003411879302108679
0.47000000000000003,0.8708948081828556,1.5621863199528885,-1.4245742848037444,0.045068281783918133,0.08479905331436763,0.0010096595427564897,2.6085054838612414,0.4347922571370695,0.4355399848641399,0.11064360284863296,0.23498500900142985,0.002425371925436754,-1.5239115130428074,1.4426957583449365,-0.9214935705309439,-0.36845260084397546,-0.45054244688848044,-0.018677213208552867,0.43926301001158796,-5.321115944251996,-4.547543223542752,-0.9487439912795218,0.03923193045467045,-0.00037404379899819005
0.48,0.8968274903838948,1.5666777735549695,-1.4203099407207804,0.04613929407957522,0.08711605012010956,0.001033253649720424,2.593268220103922,0.4491453602081064,0.4264344082964045,0.10710122956570878,0.23169968057419266,0.002359410696393435,-1.8111906146512406,1.278958850118632,-1.01509543237921,-0.3876533550246995,-0.47744084849272994,-0.018386894313201063,0.402445820925518,-5.436253177765902,-4.579467480085326,-0.9532301682713296,0.036141055935384234,-0.0004059550422616494
0.49,0.9225792603658977,1.5712964090693142,-1.4161459638744995,0.04717291456710547,0.08939761602340722,0.0010561697039473158,2.5751769982002943,0.46186355143447283,0.4163976846280826,0.10336204875302508,0.22815659032976573,0.0022916054226891753,-2.0934397961808098,1.1125855621112168,-1.10416397280534,-0.4052645202830518,-0.5019719605186328,-0.018023779871336076,0.36322610050592175,-5.549005981845867,-4.610750086154473,-0.9576764489523942,0.03293379566774922,-0.0004368607474597747
0.5,0.9481220789149764,1.5760256161805315,-1.4120912168220725,0.04816732976206078,0.09164134978603973,0.0010783927950781212,2.554281854907873,0.47292071112172324,0.40547470524271334,0.09944151949553046,0.22437337626325146,0.0022223091130805315,-2.370214758845193,0.9445230244712284,-1.1884221732282705,-0.4212674565469883,-0.5241671726732839,-0.01759748503037084,0.32168191805431157,-5.658888098524715,-4.641307949935433,-0.9620771718670631,0.02962049832455349,-0.0004667076648093608
0.51,0.9734284511542709,1.5808486178351095,-1.4081540855580277,0.04912088323817948,0.09384502585136459,0.0010999113608745924,2.5306372239294546,0.4823001654578116,0.39371312640449085,0.09535534761187033,0.2203676065324853,0.002151856579647111,-2.641081991267625,0.7756848835705161,-1.2676401917232578,-0.43565658240320015,-0.5440750343886993,-0.017117468642700473,0.2779164681857653,-5.765466335827703,-4.671072303328511,-0.966428563008375,0.026212679293564932,-0.0004954510593524912
0.52,0.9984714694475736,1.5857485613489675,-1.4043424565558942,0.050032076797860446,0.09600659241005229,0.0011207169884881068,2.50430182933027,0.4899943513857947,0.38116290021334287,0.09111935596809681,0.21615665586876948,0.0020805627613514296,-2.905621717001432,0.6069473533276908,-1.3416346901212157,-0.44843860314470874,-0.5617590171808722,-0.016592882870794856,0.23205643444701146,-5.868360501447298,-4.699987381768604,-0.970728339340217,0.022722807045465022,-0.0005230553361199601
0.53,1.0232248549488905,1.5907086057707467,-1.400663698433225,0.05089957041486577,0.09812416836593953,0.0011408042033320472,2.475338550131683,0.4960044421779299,0.3678758122669095,0.08674936170053262,0.2117575955887246,0.002008721484394041,-3.1634305787511665,0.4391459277345809,-1.4102675665654347,-0.45963161333098945,-0.5772952774162903,-0.016032451896070832,0.18425010729456467,-5.967242575010771,-4.728008973019831,-0.9749753120289043,0.019164089914385885,-0.0005494944341573398
0.54,1.0476629975350238,1.5957120051738836,-1.3971246481138189,0.05172218103135694,0.10019603934059435,0.0011601702495919728,2.443814258613335,0.500339940313683,0.35390503194062184,0.08226106164911662,0.20718709746548253,0.001936604625992572,-3.41412402711262,0.27307273381844127,-1.4734441601170365,-0.4692640984842642,-0.59077046781346,-0.01544437855178149,0.13466529795647136,-6.061835207440714,-4.755102883707949,-0.9791690000935638,0.015550267623133107,-0.0005747519923868705
0.55,1.0717609938867554,1.6007421876144354,-1.393731601308481,0.05249888030201282,0.10222065285463731,0.001178814866034662,2.409799635173169,0.5030182440551829,0.3393046805337728,0.07766992706558828,0.20246135140429675,0.0018644616442689234,-3.6573383903697065,0.10947449561654998,-1.5311109985740246,-0.4773738604679094,-0.6022796375508825,-0.014836276924475644,0.08348709242044577,-6.15190964182588,-4.781243370373773,-0.983309264006238,0.011895411381956704,-0.0005988212966900033
0.56,1.0954946835150494,1.6057828295526198,-1.390490307090273,0.05322879138624203,0.10419661282065033,0.0011967400603815409,2.3733689628293972,0.5040641938184257,0.3241294218208124,0.07299110842292034,0.19759599660130128,0.0017925194346878816,-3.892732610827057,-0.05094892755621867,-1.5832531632935372,-0.484006890477656,-0.6119242523877908,-0.014215128383150866,0.030915490948198066,-6.237283153132119,-4.806411578641615,-0.9873959674091752,0.008213735822834575,-0.0006217050230821195
0.5700000000000001,1.1188406825610229,1.610817925593326,-1.3874059663021483,0.053911184895430765,0.10612267347710773,0.0012139498851092701,2.3345999045973365,0.5035096040706265,0.3084340788124761,0.0682393509188738,0.1926060656457392,0.0017209824727729209,-4.119989641981943,-0.20754547116465827,-1.6298913456259108,-0.48921621251299996,-0.6198103581000254,-0.013587258150415504,-0.022837021835566573,-6.317816104240911,-4.83059402991805,-0.9914286736342343,0.004519425424763544,-0.0006434147963111482
0.58,1.1417764152313987,1.615831853453901,-1.384483233504261,0.054545474105850617,0.10799773288565204,0.0012304502171425606,2.293573267037579,0.5013927860574872,0.2922732797887316,0.0634289210419852,0.18750594085443104,0.0016500332033290413,-4.3388175091633485,-0.3597113109649184,-1.6710786687680823,-0.49306071874006996,-0.6260469030736182,-0.012958329453010009,-0.07754793295140844,-6.393408713524194,-4.85378119010634,-0.995406382171892,0.0008264774638406039,-0.0006639705865900411
0.59,1.1642801427639426,1.6208094341158272,-1.3817262221449507,0.055131209549417394,0.10982082610564982,0.00124624854352,2.2503727532543976,0.4977580661926405,0.2757011359310366,0.0585735443566779,0.1823093219997781,0.0015798326377439505,-4.548950043777536,-0.5068908742658543,-1.7068973466191872,-0.49560401641552154,-0.6307442292436107,-0.01233335218877718,-0.13298714273791384,-6.463997624808683,-4.875966149382394,-0.9993273087040911,-0.0028514370926997004,-0.0006833999694731644
0.6,1.1863309898492633,1.625735987160213,-1.379138512623259,0.055668073094102606,0.11159111815070366,0.0012613537547515226,2.2050847085320755,0.4926553044385787,0.2587709521691775,0.053686354468521255,0.17702920450538484,0.001510521123152266,-4.750147307782249,-0.6485764691252616,-1.737455247795833,-0.4969133040670597,-0.6340127348398141,-0.011716703265919115,-0.18891935559911205,-6.529552364535698,-4.897143436363688,-1.003188710838135,-0.006501093917591676,-0.0007017372751568078
0.61,1.2079089684656792,1.63059738132508,-1.3767231629014594,0.05615587162363611,0.11330789682202119,0.0012757759472495946,2.157797861641586,0.4861394164866993,0.24153497217996125,0.048779852953350515,0.17167786713175284,0.0014422192498071936,-4.942195730352259,-0.7843075843716619,-1.762882428555739,-0.4970582925089726,-0.6359617076241513,-0.011112155959158265,-0.24510638778443866,-6.590071763572122,-4.917307984230279,-1.0069867603012965,-0.01010981659511452,-0.0007190226538192452
0.62,1.2289949991120954,1.6353800803552354,-1.374482721323049,0.05659453042240205,0.11497056550355611,0.0012895262359086616,2.1086030646416334,0.47826990301553646,0.22404415784103054,0.04386587987659377,0.16626686815349123,0.0013750288659067087,-5.124907982858152,-0.9136699129733004,-1.7833276931983941,-0.4961101840745643,-0.6366983234659251,-0.01052291582081688,-0.3013093651672333,-6.645580412853139,-4.936454260718661,-1.010716461111336,-0.01366555904060672,-0.0007353010831311114
0.63,1.2495709294495736,1.6400711842430504,-1.3724192412944418,0.05698408636632873,0.11657863599389653,0.0013026165776315911,2.0575930337478225,0.4691103887814917,0.2063480028607238,0.03895559439266816,0.1608070490340428,0.0013090341722929552,-5.298122621277965,-1.0362941499502665,-1.7989552347726587,-0.494140721228975,-0.6363268021554944,-0.00995166112368917,-0.3572907892222005,-6.696125213191471,-4.954575568567031,-1.0143716121505053,-0.01715696970497104,-0.0007506213429039669
0.64,1.2696195503852032,1.6446584659809003,-1.3705342974966441,0.05732468101431935,0.11813172144018726,0.00131505960635589,2.0048620935629557,0.45872817378498953,0.18849437977976272,0.034059464799061835,0.155308544629072,0.001244302872429884,-5.461703527059886,-1.151854613868672,-1.8099414027990264,-0.4912213135554584,-0.634947710211911,-0.009400585954122853,-0.41281645464875094,-6.74177207048983,-4.97166351807243,-1.0179448116539218,-0.020573438563080415,-0.0007650349801398984
0.65,1.2891246096518119,1.6491304039635526,-1.36882900330588,0.05761655368757368,0.1196295294300956,0.0013268684799183528,1.9505059266608544,0.4471937982652434,0.1705294190764054,0.029187267325433315,0.14978079899083405,0.001180887356246285,-5.615539178342423,-1.2600677380947398,-1.8164716383958335,-0.48742224998922623,-0.6326573990145477,-0.00887144449840438,-0.46765720715845743,-6.782602778523307,-4.98770766902188,-1.0214275003828766,-0.023905128176964316,-0.0007785952856465627
0.66,1.3080708229538685,1.65347621019171,-1.367304029118825,0.05786003461621668,0.1210718552890837,0.0013380567389112842,1.8946213302056605,0.4345806228157402,0.15249741870551436,0.02434809286429989,0.1442325858988091,0.0011188258992931386,-5.7595417834248055,-1.3606904745464437,-1.818737610810695,-0.48281200120006584,-0.6295475657694602,-0.008365595277858517,-0.5215905346851453,-6.818712122648543,-5.0026953354417945,-1.0248100396872832,-0.027142990347159286,-0.0007913563010158533
0.67,1.3264438827636402,1.6576858544365691,-1.365959621298181,0.05805553822417106,0.12245857562211339,0.0013486381775258684,1.8373059809771666,0.42096442448591465,0.13444078206440419,0.019550360795438277,0.13867203330297007,0.0010581438614584203,-5.893646307582619,-1.4535186487830782,-1.8169345830483996,-0.4774566151526809,-0.6257049245043724,-0.007884044371113674,-0.5744019895633665,-6.850205229437721,-5.01661154340538,-1.028081820260591,-0.030278770021223596,-0.0008033718722552964
0.68,1.3442304648623222,1.6617500845300375,-1.364795621477145,0.05820355661437129,0.12378964213143459,0.0013586267262461838,1.7786582098682058,0.40642300934683095,0.11639998210359062,0.014801839020023116,0.13310665093212004,0.000998854872031537,-6.017809422862769,-1.5383853010312833,-1.8112590281357464,-0.47141920718955,-0.6212109743830077,-0.007427486886365298,-0.6258864429669828,-6.87719517946757,-5.029439129550002,-1.0312313971412983,-0.033304998221446586,-0.0008146947638098031
0.6900000000000001,1.3614182327286135,1.665660442946572,-1.3638114859862747,0.05830465330738253,0.12506507573531545,0.0013680363461485926,1.718776786629133,0.3910358416534539,0.09841354908703638,0.010109669301123426,0.12754336038808597,0.0009409619902408893,-6.1320084084911315,-1.6151590432699963,-1.80190651167625,-0.4647595444272081,-0.6161418530286973,-0.006996346134524156,-0.6758491760484859,-6.899800893421237,-5.041158965969469,-1.0342466464010958,-0.03621497578975817,-0.0008253758442032373
0.7000000000000001,1.3779958398822376,1.669409279840928,-1.363006305192759,0.058359457277414525,0.12628496100646683,0.0013768809344736478,1.657760715362412,0.3748836894355946,0.08051807935156874,0.005480397003199517,0.121988527115139,0.0008844588325055268,-6.2362400271003136,-1.6837424578813553,-1.789069850767679,-0.4575337228987397,-0.6105682631846356,-0.006590810144442294,-0.7241068147451011,-6.918145295343708,-5.051750295723994,-1.0371149389613854,-0.03900274973316513,-0.0008354633521301376
0.71,1.3939529302924538,1.6729897627018804,-1.3623788225696016,0.05836865732074361,0.1274494409434778,0.0013851742410686018,1.595709041021616,0.3580482860952448,0.06274826231573832,0.0009200043329085361,0.11644799370109626,0.0008293306594953986,-6.330519399246713,-1.744070558712952,-1.7729375541423198,-0.44979393466156026,-0.6045554618284577,-0.006210865271190968,-0.7704881171194577,-6.932353751360372,-5.061191162305856,-1.0398233270779182,-0.04166308389457831,-0.0008450022495864163
0.72,1.4092801369619234,1.6763958827756826,-1.3619274533401933,0.058332996782798,0.12855871208378727,0.0013929297952463265,1.5327206669469713,0.340612007380215,0.04513692294084603,-0.0035660537945610294,0.11092711403094906,0.0007755554177724777,-6.414878895735663,-1.796109330767191,-1.7536925435668258,-0.4415883210476377,-0.5981633017567027,-0.005856326796360278,-0.8148346234019496,-6.942552777422792,-5.069458915955233,-1.0423587392079945,-0.04419142557866726,-0.0008540336665739962
0.73,1.423969078794685,1.679622458405107,-1.3616503025717204,0.058253268661729286,0.12961301996253316,0.0014001608425683067,1.4688941832761522,0.3226575629424383,0.027715076847291374,-0.007972812106871004,0.10543078787458753,0.0007231047321980311,-6.489367064205804,-1.8398543602096236,-1.7315111521315036,-0.43296090733406345,-0.5914463165946948,-0.005526866475330294,-0.85700117963834,-6.948869005663938,-5.076530779678012,-1.0447081792078612,-0.046583869637330806,-0.0008625944400651263
0.74,1.4380123558537414,1.6826651354208362,-1.361545182618384,0.05813031109827835,0.13061265491800053,0.0014068802910339059,1.404327705905639,0.30426770157293354,0.01051199533364245,-0.012295756345093601,0.09996349554673765,0.0006719448465599098,-6.554047603320963,-1.875329562033777,-1.7065623910709933,-0.423951613356893,-0.5844538411474396,-0.005222037081789921,-0.8968563460724841,-6.951428395686263,-5.082384458113961,-1.0468589260830035,-0.04883712137115005,-0.0008707167482706597
0.75,1.4514035431091918,1.6855203847121616,-1.3616096298420868,0.057965003254225544,0.13155794824129236,0.0014131006661431136,1.339118725545046,0.28552492913253485,-0.006444722370280563,-0.016530784405280528,0.09452933232918147,0.000622037510920772,-6.6089983948541144,-1.902586008592972,-1.6790074731966182,-0.41459633397346174,-0.5772301599531033,-0.00494129404193,-0.9342827011732692,-6.950355674517402,-5.086998772980817,-1.0487987308167661,-0.050948459438015424,-0.000878427839816714
0.76,1.464137182772233,1.6881854970938197,-1.361840920563744,0.05775826157475845,0.13244926866521764,0.0014188340742939563,1.2733639663041025,0.2665112381658199,-0.02312907216573317,-0.020674167946709482,0.08913204239252775,0.0005733408150842756,-6.654310600987421,-1.9217008583579813,-1.648999577882849,-0.4049270827656102,-0.5698146778012756,-0.0046840142807154095,-0.9691770516165996,-6.945773986988045,-5.090354309621687,-1.050516007121174,-0.052915699783710565,-0.0008857498561819305
0.77,1.4762087753040178,1.6906585755757442,-1.3622360862223615,0.05751103642374997,0.1332870191851907,0.0014240921739773111,1.2071592531784892,0.24730784819245127,-0.03951656586174833,-0.024722515100847806,0.0837750519973053,0.0005258099683354899,-6.690087831349348,-1.9327763807288045,-1.6166838398275356,-0.39497219198907985,-0.5622421068461847,-0.004449512448239545,-1.0014505576308876,-6.937804736848989,-5.092434060160981,-1.0520000132787233,-0.05473716142676456,-0.0008926997446645472
0.78,1.4876147691815678,1.692938525132866,-1.3627919277412384,0.05722430907525815,0.13407163420311008,0.0014288861542393588,1.1405993877550016,0.22799495571217934,-0.05558415188767871,-0.02867273484918175,0.07846150179193775,0.00047939802620475697,-6.716445381712965,-1.9359390695551106,-1.5821975414978389,-0.38475656147460313,-0.5545426657310344,-0.004237054691990316,-1.0310287819828419,-6.926567597981913,-5.093224049883804,-1.0532410225682116,-0.05641163474595469,-0.0008992892582133199
0.79,1.4983525494959329,1.6950250400632005,-1.3635050291208648,0.056899089039570014,0.1348035769836957,0.0014332267198944376,1.0737780314365226,0.20865149303347244,-0.07131013796263827,-0.0325220035688134,0.07319427805856213,0.0004340565655078898,-6.7335095439219765,-1.9313388352364695,-1.54567048726238,-0.37430194899063807,-0.546742286893867,-0.0040458701566263855,-1.0578516695933493,-6.912180674505954,-5.092713934659704,-1.0542304800867324,-0.0579383527375327,-0.0009055250376469063
0.8,1.50842042545084,1.696918589014573,-1.3643717702961002,0.056536411697838775,0.13548333741156285,0.0014371240829874421,1.0067875954907197,0.18935489513725212,-0.08667411752354391,-0.036267734173124025,0.06797604278671499,0.0003897363093004635,-6.741416984530243,-1.919148262904592,-1.5072255357034159,-0.3636272944607075,-0.5388628288811006,-0.0038751604027531528,-1.0818734634028448,-6.894760788376839,-5.090897558503254,-1.0549611440908493,-0.05931696553413063,-0.0009114087710821434
0.81,1.517817616823345,1.6986203977536967,-1.3653883393108919,0.056137336215821954,0.13611143003636378,0.0014405879600241148,0.9397191372505106,0.17018087391237172,-0.10165690147916114,-0.039907548201682394,0.06280926248009289,0.0003463877036672602,-6.740314187851109,-1.899561922258699,-1.4669792654747966,-0.3527490704048173,-0.5309222911223159,-0.003724106918787662,-1.1030625607195133,-6.874423873160811,-5.087773461677352,-1.0554272102814382,-0.0605475183114878,-0.000916937424774264
0.8200000000000001,1.526544239441708,1.700132429746136,-1.366550743877013,0.05570294370442373,0.13668839239259353,0.0014436275745090378,0.872662261836286,0.15120319924392397,-0.11624045661211456,-0.04343925113982224,0.057696235622976516,0.0003039614484923103,-6.730356957637603,-1.8727957131434154,-1.4250427493407805,-0.3416816510089191,-0.5229350291596475,-0.0035918769273513007,-1.1214013129451843,-6.851285452990848,-5.083345331081725,-1.0556244177486287,-0.0616304325553277,-0.0009221035390266943
0.8300000000000001,1.5346012897299735,1.701457364612083,-1.3678548223939946,0.055234335592677854,0.1372147835801028,0.0014462516643536463,0.8057050288265446,0.13249348659470545,-0.1304078516981656,-0.04686081117458759,0.05263911875092712,0.0002624089844608479,-6.711709970456389,-1.8390862299383903,-1.3815224106593997,-0.3304376923734047,-0.5149119688263184,-0.0034776276360393155,-1.1368857703397155,-6.825461186233173,-5.077622386013349,-1.0555501355762749,-0.06256649052122037,-0.0009268955823439416
0.84,1.5419906283636917,1.702598574520979,-1.3692962545155525,0.05473263217746701,0.13769118309095477,0.0014484684937402102,0.7389338633718199,0.11412099088960244,-0.14414321215579395,-0.05017034152108444,0.04763995108519728,0.00022168293865639562,-6.684546372982499,-1.7986901272704652,-1.336520936589058,-0.319028516678471,-0.5068608183124823,-0.003380509136675869,-1.1495253724053636,-6.797067454071684,-5.070619693726886,-1.0552034293805783,-0.06335682259707764,-0.0009312983565722443
0.85,1.5487149630769255,1.7035600985878558,-1.370870571353383,0.05419897131364525,0.13811818986797714,0.001450285869050998,0.6724334713233704,0.09615240668768177,-0.15743168378306763,-0.053366086382175965,0.04270067770223685,0.0001817375310787816,-6.649047414922331,-1.7518834694580347,-1.290138222668086,-0.3074644932826667,-0.498786277444097,-0.00329966609197907,-1.1593425835902962,-6.766221975025005,-5.062358410551204,-1.0545851073259092,-0.0640028971726842,-0.0009352934453971237
0.86,1.5547778306572246,1.704346615335884,-1.3725731654122482,0.05363450720828723,0.13849642158016742,0.001451711158495126,0.6062867580299075,0.07865167480280688,-0.1702594058865043,-0.05644641053580113,0.037823171219027237,0.000142528944412803,-6.605402109056514,-1.6989610464459388,-1.2424723241365285,-0.2957554101330908,-0.490690243859369,-0.0032342383865993085,-1.1663724733591223,-6.733044427322975,-5.052865945624968,-1.0536977454234564,-0.06450651253471631,-0.0009388596982475296
0.87,1.5601835781626208,1.7049634132929457,-1.374399300350864,0.05304040928349932,0.13882651409998634,0.0014527513150877954,0.5405747505396216,0.061679795706166864,-0.18261349386159542,-0.05940979247879142,0.033009251981890225,0.0001040156592669605,-6.553806909967965,-1.6402356397631395,-1.1936203904416414,-0.283910829273994,-0.48257201605942157,-0.0031833609008948827,-1.1706622392828232,-6.697657062067292,-5.042176045591887,-1.0525456921754939,-0.06486979024003445,-0.0009419737413989752
0.88,1.5649373433929012,1.7054163597950351,-1.3763441206613678,0.052417861073554825,0.1391091211674992,0.001453412902657536,0.47537652302804884,0.04529465020895283,-0.19448203105037204,-0.062254820994449116,0.028260706751287636,6.615875697406287e-05,-6.494465403356621,-1.5760372232159008,-1.1436795607537853,-0.2719404207400853,-0.4744284935870269,-0.003146162547919218,-1.172270671675926,-6.660185291173143,-5.030328799836258,-1.051135052879585,-0.06509516937534834,-0.000944610507882142
0.89,1.569045034646424,1.7057118680758,-1.3784026613561775,0.05176805912401303,0.13934491422627948,0.0014537021245765542,0.4107691253522755,0.029550828076487033,-0.20585406948097387,-0.06498019495417959,0.023579305878028253,2.892219190182227e-05,-6.427587998415836,-1.5067120845788218,-1.092747800015672,-0.2598542696750359,-0.46625437480125953,-0.003121764742903821,-1.1712675584602505,-6.620758235225825,-5.017370567033061,-1.0494736541520333,-0.06518540108793267,-0.0009467437777000868
0.9,1.5725133097934862,1.7058568627294273,-1.3805698577450847,0.05109221186289569,0.1395345824159558,0.0014536248549265325,0.34682751470622475,0.01449946536271312,-0.21671963889072482,-0.06758472611173347,0.018966818967631825,-7.72696500217945e-06,-6.353391616521818,-1.4326218564273583,-1.0409246570199442,-0.24766315213492796,-0.45804235290466977,-0.0031092794391227585,-1.1677330293570858,-6.5795092175842615,-5.003353824924278,-1.0475709894667016,-0.06514354276986298,-0.0009483467198485804
0.91,1.5753495546976692,1.7058587436431552,-1.3828405553775893,0.050391538416868234,0.1396788327062509,0.0014531866718274597,0.28362449041829474,0.00018809137277927754,-0.22706976325046738,-0.07006734460274548,0.014425029029511784,-4.381830990727758e-05,-6.272099370429976,-1.3541424464237606,-0.9883119282328274,-0.23537877569951338,-0.4497833110201874,-0.003107806891244902,-1.1617568391878286,-6.53657619231987,-4.988336946303512,-1.0454381467315694,-0.06497295129673777,-0.0009493924277325507
0.92,1.5775618610175666,1.7057253485057413,-1.3852095202160528,0.04966726734864094,0.13977839015731536,0.0014523928926696422,0.22123063198973705,-0.01333951374138245,-0.2368964838463507,-0.07242710682273008,0.009955745106445186,-7.937791578175096e-05,-6.183940229241826,-1.2716628597707622,-0.9350142135115802,-0.22301398174384612,-0.4414665172177692,-0.003116433288391729,-1.1534375909721422,-6.492102094893502,-4.972383905183112,-1.0430877191381625,-0.06467727476013961,-0.0009498544397878074
0.93,1.5791590034227527,1.7054649140089972,-1.3876714490944326,0.04892063529539953,0.13983399829109278,0.0014512486109990166,0.15971424051861877,-0.026043449674397843,-0.24619288783797388,-0.07466320532414061,0.005560813377742862,-0.00011442816706256804,-6.08914866556091,-1.1855839091299414,-0.8811393524757167,-0.21058290695034998,-0.4330798204474462,-0.0031342284038293755,-1.1428819006183737,-6.446235105846491,-4.9555639180202435,-1.0405337007149087,-0.0642604421897908,-0.0009497072374603159
0.9400000000000001,1.580150416259644,1.7050860358707547,-1.390220980505438,0.04815288549192364,0.13984641955836197,0.0014497587348130691,0.09914128368913688,-0.03788781382425067,-0.25495314110054274,-0.07677498034758898,0.0012421267269204827,-0.00014898761859474924,-5.987964282455719,-1.0963168100062481,-0.8267987330174862,-0.1981011024426298,-0.4246098483450602,-0.003160243422752451,-1.1302035062613698,-6.399128819213617,-4.9379510256790615,-1.0377913681908417,-0.06372665083465323,-0.0009489267131703957
0.9500000000000001,1.5805461697049341,1.7045976278190875,-1.3928527057461846,0.047365266166078536,0.13981643588598003,0.0014479280260287265,0.039575344529007864,-0.048840805166720264,-0.263172524074654,-0.07876193258451061,-0.002998367238193374,-0.0001830708784342661,-5.88063141904788,-1.0042816623637956,-0.7721074662565885,-0.1855856096809081,-0.4160422078449457,-0.0031935090720112136,-1.1155223266691545,-6.350942308856641,-4.919623622494736,-1.0348771509273462,-0.06308035065986616,-0.0009474906014984043
0.96,1.5803569454464204,1.7040088796889985,-1.3955611804390984,0.046559028798496965,0.1397448492887019,0.0014457611408850812,-0.018922425851377697,-0.058874813008897825,-0.270847469291369,-0.08062373675815729,-0.007158659727812178,-0.000216688514364537,-5.767398734708878,-0.9099058220038665,-0.7171844250767057,-0.17305499306631944,-0.40736168944590645,-0.003233034220562203,-1.0989634745586145,-6.301840087464788,-4.900663939372268,-1.0318084907992626,-0.06232622581575327,-0.0009453788675683602
0.97,1.5795940119331704,1.7033292147938173,-1.3983409364312236,0.04573542624242487,0.13963248252977833,0.00144326267104207,-0.07629335132500582,-0.06796648951813156,-0.2779755992125312,-0.08236025560721003,-0.011236675892356779,-0.00024984698430110646,-5.648518772939607,-0.8136221679380637,-0.6621521462052513,-0.160529329943631,-0.3985524758401269,-0.0032778050732935604,-1.080656232074671,-6.251991954568835,-4.881157488290989,-1.0286036939996483,-0.06146917294317662,-0.0009425740474688152
0.98,1.5782691992389901,1.7025682467439704,-1.4011864940614904,0.0448957107038146,0.13948017981434324,0.0014404371851320344,-0.13248126941801694,-0.07609680498468037,-0.28455576302668617,-0.08397155386102685,-0.015230271543509253,-0.00028254859100356085,-5.524247506992702,-0.7158672745779395,-0.6071365985261585,-0.14803015945799514,-0.3895983554335807,-0.0033267850918003994,-1.0607329970400008,-6.201572731563029,-4.861192475889961,-1.0252817768024398,-0.06051427629299745,-0.0009390615365230748
0.99,1.5763948735849589,1.7017357358953287,-1.4040923747721759,0.04404113158573744,0.13928880749940356,0.001437289270514394,-0.18743256540311481,-0.08325108486417265,-0.2905880710685509,-0.08545791180771592,-0.019137231493966716,-0.0003147914617640413,-5.394843870152709,-0.6170794999748568,-0.5522668229380225,-0.13558039238617026,-0.38048294104271463,-0.0033789157762336153,-1.0393282098172087,-6.150761883413301,-4.8408591939774235,-1.0218623073425332,-0.0594667797528785,-0.0009348298222855251
