tonegas/nnodely-applications/joint_friction_estimation/dataset/test/mpc_mujoco_episode_2.csv
time,q1,q2,q3,q4,q5,q6,dq1,dq2,dq3,dq4,dq5,dq6,ddq1,ddq2,ddq3,ddq4,ddq5,ddq6,tau1,tau2,tau3,tau4,tau5,tau6
0.0,0.0,1.57,-1.57,0.0,0.0,0.0,0.0,0.0,0.0,0.0,0.0,0.0,-4.078554787326472,-0.7882229603582908,5.035683389337787,2.095845200680534,-0.5970922545571291,-2.4888759906360747e-06,-0.568451762071975,-4.007715428217158,-3.915153269835564,-0.8564479167562522,-0.051367300645248706,-0.001024445031904277
0.01,-0.00040573486560272653,1.5699232197780093,-1.5694989510803539,0.00019542827435248126,-5.0371113753357654e-05,-4.0604735267549267e-07,-0.040573486560272654,-0.007678022199084012,0.05010489196462034,0.019542827435248124,-0.0050371113753357654,-4.0604735267549265e-05,-4.034588765510618,-0.7706619159142308,4.990854404760899,1.9470632701066908,-0.5008835886759009,-0.004054310517974891,-0.5652681472447634,-4.0137358672373615,-3.919115080430877,-0.8573231095799854,-0.05108133868461925,-0.001020588608669637
0.02,-0.0012125197376236581,1.5697714746518026,-1.5685021304234046,0.0005744205125776444,-0.0001451270204773138,-1.231758739900135e-06,-0.08067848720209317,-0.015174512620670905,0.09968206569491886,0.037899223822516315,-0.009475590672395616,-8.257113872246424e-05,-3.98585762887606,-0.7529115789872785,4.9362731076380175,1.8275365273641384,-0.4407755877566224,-0.004166812717325108,-0.5617991669412494,-4.021786784834055,-3.92388895961337,-0.8582558641701755,-0.05077041845707377,-0.0010152609265235346
0.03,-0.002415323019702307,1.5695465727496887,-1.5670155714546214,0.0011273240440922284,-0.00028045315550691486,-2.4485836732315027e-06,-0.1202803282078649,-0.02249019021138204,0.1486558968783241,0.0552903531514584,-0.013532613502960106,-0.00012168249333313674,-3.9336431891251196,-0.7352949242130575,4.874118165876323,1.7300805556784713,-0.4024067917696854,-0.003833907508890011,-0.5580427789451416,-4.03182905996915,-3.92947493288648,-0.8592478280962917,-0.05043435858351132,-0.0010085070408484035
0.04,-0.004008843631891398,1.569250288875642,-1.5650458985610851,0.0018461528802481701,-0.0004538418166858202,-4.032038182176673e-06,-0.15935206121890916,-0.02962838740465569,0.19696728935362826,0.07188288361559415,-0.017338866117890532,-0.000158345450894517,-3.8787192908914907,-0.7180655211673059,4.806041519569693,1.6492367485251638,-0.37712333971762746,-0.003515750993317468,-0.5539930465736544,-4.04381427634745,-3.9358678264173657,-0.8602990893754104,-0.050072703579382045,-0.0010003734661742374
0.05,-0.005987557634664186,1.5688843438498672,-1.5626002019521137,0.0027241738756873446,-0.0006635700417538643,-5.964140831729331e-06,-0.19787140027727876,-0.03659450257748091,0.244569660897136,0.08780209954391746,-0.020972822506804416,-0.00019321026495526582,-3.8215530203413373,-0.7014235252306987,4.7332925332805384,1.5808613413179184,-0.3597015703453508,-0.003236385111646367,-0.5496404449670459,-4.057685071886636,-3.9430575938495345,-0.861408288156785,-0.049684749220193676,-0.000990905791040427
0.06,-0.008345746352932315,1.5684503880799858,-1.5596859432079941,0.0037555926316653037,-0.000908384300165673,-8.23101741890978e-06,-0.23581887182681288,-0.04339557698814012,0.29142587441194695,0.10314187559779589,-0.024481425841180862,-0.00022668765871804495,-3.762426314632926,-0.6855274778643797,4.656813060260496,1.5218106226963197,-0.34698760474547186,-0.002972431173555279,-0.5449722135524016,-4.073375292624296,-3.9510295625727325,-0.8625727080966776,-0.04926957182051434,-0.0009801478823519747
0.07,-0.011077513339955408,1.5679499884509396,-1.5563108842879438,0.004935315218968449,-0.0011873101042631502,-1.0820919169543762e-05,-0.2731766987023093,-0.0500399629046187,0.33750589200502945,0.11797225873031453,-0.027892580409747722,-0.00025899017506339825,-3.7015095564665788,-0.6705030467325366,4.577310117636254,1.4697009995942292,-0.3370778878036944,-0.002705069793270898,-0.5399727407451823,-4.090810040757948,-3.9597646354628946,-0.8637883574442693,-0.04882605969788566,-0.0009681418776796211
0.08,-0.014176794629199387,1.5673846178622148,-1.5524830344689202,0.006258767508964354,-0.0014995371035041378,-1.3722993514129532e-05,-0.30992812892439786,-0.056537058872475884,0.38278498190237287,0.13234522899959048,-0.031222699924098762,-0.000290207434458577,-3.638906177995154,-0.6564495223825275,4.495311453813122,1.4227263811825992,-0.3288245147744533,-0.002423198941408522,-0.5346239730382178,-4.109905675646251,-3.969239470808266,-0.8650500459521658,-0.04835294598142699,-0.0009549285423891493
0.09,-0.017637364975914126,1.5667556469160608,-1.5482106109842957,0.0077217582593519804,-0.0018443498030294898,-1.692657790033833e-05,-0.3460570346714741,-0.06289709461540925,0.42724234846244424,0.14629907503876263,-0.034481269952535205,-0.0003203584386208796,-3.5746797563126265,-0.6434446624522947,4.411208065478087,1.3795192891827153,-0.32153644673762827,-0.0021210212324866973,-0.5289058437250913,-4.130569806915516,-3.9794266549167316,-0.8663514613192118,-0.04784884231604291,-0.0009405477762749755
0.1,-0.021452841735608436,1.5660643373885017,-1.5435020101207257,0.009320375422585528,-0.0022210858696643508,-2.0420813394517255e-05,-0.38154767596943073,-0.06913095275591169,0.47086008635698806,0.1598617163233548,-0.0376736066634861,-0.0003494235494178926,-3.508870533633691,-0.6315483148863933,4.325286764567639,1.339045284594338,-0.3147990088165926,-0.0017959511900280667,-0.5227967180347285,-4.152701306452591,-3.990294876834482,-0.8676852473977086,-0.047312273183731504,-0.0009250391636413168
0.11,-0.025616687389643414,1.565311837209003,-1.5383657862857059,0.01105090767454599,-0.002629111128860097,-2.4194447136674223e-05,-0.416384565403498,-0.0752500179498728,0.5136223835019845,0.17305322519604635,-0.04080252591957462,-0.0003773633742156967,-3.441505548285433,-0.6208051379364566,4.237755160741966,1.3005227622902602,-0.3083648292253365,-0.0014472736119941487,-0.5162738521024789,-4.176190358261137,-4.001809111449136,-0.8690430854826446,-0.0467417106284893,-0.0009084425166005
0.12,-0.030122211343304166,1.5644991767437526,-1.53281063713317,0.012909785086541154,-0.003067804669042623,-2.8235744568566914e-05,-0.45055239536607505,-0.08126604652502893,0.555514915253577,0.18588774119951634,-0.04386935401825258,-0.0004041297431892693,-3.372604903342256,-0.6112466526455258,4.148760862814914,1.263362051061442,-0.3020879286108382,-0.0010753340296405511,-0.5093138633425536,-4.200918560106794,-4.0139308152259385,-0.8704157794206211,-0.04613560918590594,-0.0008907983889353378
0.13,-0.034962571388943334,1.5636272662281878,-1.5268453932726804,0.014893534328664464,-0.003536550074856474,-3.2532464563748974e-05,-0.4840360045639169,-0.0871910515564804,0.5965243860489509,0.19837492421233094,-0.04687454058138513,-0.0004296719995182063,-3.302185697375085,-0.6028928035966676,4.058406273034366,1.22711919837411,-0.2958838712181482,-0.0006810577216338487,-0.5018932096287564,-4.226759087445267,-4.026618137464682,-0.8717933448940817,-0.04549244080994361,-0.0008721485508271688
0.14,-0.04013077508570754,1.5626968942313668,-1.5204790114219087,0.016998744906564917,-0.004034730384128521,-3.707186991985334e-05,-0.5168203696764203,-0.09303719968210236,0.6366381850771838,0.21052105779004526,-0.049818030927204646,-0.0004539405356104364,-3.2302645362713367,-0.5957531595536985,3.9667600200464124,1.1914609197747623,-0.28970565586697283,-0.0002656651226420337,-0.49398867435944344,-4.253576927622209,-4.039826148986301,-0.8731651029698146,-0.04481072957102197,-0.0008525364203413254
0.15,-0.045619681221465425,1.5617087270615366,-1.5137205701171017,0.01922204378043313,-0.004561725313532372,-4.184075714660828e-05,-0.5488906135757884,-0.09881671698301697,0.6758441304806875,0.22232988738682136,-0.05269949294038509,-0.0004768887226754941,-3.1568591793209646,-0.5898278528294559,3.873865825960335,1.1561380326200794,-0.28352911220438415,0.0001694964854523917,-0.48557785405562504,-4.281229190339992,-4.053507089397161,-0.8745197778009132,-0.044089085878050126,-0.0008320074496006456
0.16,-0.05142200146981169,1.5606633090413387,-1.5065792672910654,0.021560076358295793,-0.005116909871693528,-4.682549624953123e-05,-0.5802320248346267,-0.10454180201980694,0.7141302826036252,0.2338032577862663,-0.055518455816115655,-0.0004984739102922946,-3.0819896518701815,-0.5851083317005753,3.779749411915456,1.1209653340550325,-0.2773440368254736,0.0006230526937296421,-0.4766396446693356,-4.309565498658534,-4.067610633439896,-0.8758455982098274,-0.04332623995589232,-0.0008106094640328988
0.17,-0.057530302322114854,1.559561063594446,-1.499064419177358,0.024009492344160877,-0.005699653824906627,-5.201207517519421e-05,-0.6108300852303162,-0.11022454468927365,0.751484811370721,0.24494159858650852,-0.058274395321309895,-0.0005186578925662987,-3.0056790234925295,-0.5815779817565876,3.684423900957457,1.0858063710450594,-0.2711487953591032,0.0010936612973746485,-0.46715472229990357,-4.338428463198421,-4.082084176370248,-0.8771304027413145,-0.0425210742908337,-0.0007883929529372985
0.18,-0.06393700735347627,1.558402295094475,-1.4911854601139272,0.026566935292214898,-0.006309321689787515,-5.7386145891053364e-05,-0.6406705031361408,-0.11587684999710014,0.7878959063430899,0.2557442948054022,-0.06096678648808877,-0.0005374070715859152,-2.9279539701956345,-0.5792126581378798,3.587894066158334,1.0505619218626148,-0.264947017534503,0.0015800478169680776,-0.45710601355867775,-4.3676542406674,-4.096873137770472,-0.8783617476492569,-0.041672654741189814,-0.0007654113093551793
0.19,-0.0706343998673346,1.557187191432836,-1.4829519429077191,0.029229034999349465,-0.006945273053445461,-6.293307040235288e-05,-0.669739251385833,-0.1215103661639102,0.8233517206207992,0.26620997071345676,-0.06359513636579457,-0.0005546924511299511,-2.8488451907451386,-0.577981160036511,3.4901596875705523,1.015161291321233,-0.25874555641185104,0.0020810269154556416,-0.4464791504126599,-4.39707317630384,-4.111921282710526,-0.8795270171673792,-0.040780259999128814,-0.0007417210170613249
0.2,-0.0776146259533749,1.555915827265616,-1.4743735394902566,0.03199240208125739,-0.007606863097987325,-6.863796576555801e-05,-0.6980226086040301,-0.1271364167219989,0.8578403417462613,0.27633670819079265,-0.06615900445418639,-0.0005704895363205125,-2.768387718112445,-0.5778456707548159,3.391218217515371,0.9795557373516512,-0.2525532116134013,0.002595515325669373,-0.4352629039974523,-4.42651052831107,-4.127171058694103,-0.8806135353096869,-0.03984340908382567,-0.0007173817824968269
0.21,-0.08486969798564573,1.5545881679012479,-1.465460041647636,0.034853624238525956,-0.008293443252197488,-7.448574758270242e-05,-0.7255072032270833,-0.13276593643681234,0.8913497842620598,0.28612221572685625,-0.0686580154210163,-0.0005847781817144414,-2.6866211496984262,-0.5787621804188338,3.291066905086288,0.9437135102955976,-0.24637991487403177,0.003122539525514778,-0.423449591639801,-4.4557872708504584,-4.142563946380259,-0.8816086783530436,-0.03886188654582087,-0.0006924566096577678
0.22,-0.09239149858132217,1.553204073791092,-1.4562213616505468,0.037809263840992834,-0.009004361921057786,-8.046117169549598e-05,-0.7521800595676451,-0.13840941101559545,0.9238679997089077,0.2955639602466876,-0.07109186688602977,-0.0005975424112793561,-2.6035898097363788,-0.5806809036592899,3.189704493925041,0.9076161108609098,-0.24023619607158864,0.003661239981087805,-0.41103545118784746,-4.484720970682624,-4.158040821657544,-0.8824999870732445,-0.03783576506839698,-0.000667011816325001
0.23,-0.1001717850347778,1.5517633055845281,-1.4466675326435097,0.04085585655056917,-0.009738965260615942,-8.654887392547066e-05,-0.7780286453455632,-0.14407682065638547,0.9553829007037087,0.3046592709576336,-0.07346033395581564,-0.000608770222997468,-2.5193428513408,-0.5835467008605866,3.0871325794982623,0.8712554674128832,-0.2341328202426176,0.004210872986154746,-0.39802097672842274,-4.513126731117552,-4.1735423262740445,-0.8832752777395796,-0.03676542516425896,-0.000641116990545105
0.24,-0.1082021942362084,1.5502655297090087,-1.4368087086796852,0.04398991077196109,-0.010496597975947215,-9.273340777492533e-05,-0.8030409201430592,-0.14977758755194853,0.9858823963824337,0.3134054221391922,-0.0757632715331273,-0.0006184533849454667,-2.4339343023525597,-0.5872995086780597,2.983356691129896,0.834631805297553,-0.2280805297435311,0.004770810652339197,-0.38441120988768585,-4.540818195578049,-4.189009243900077,-0.8839227508232143,-0.03565157168499234,-0.000614844886923042
0.25,-0.1164742480788081,1.5487103244339928,-1.426655164309887,0.047207907772700085,-0.011276604126218344,-9.899928004092532e-05,-0.8272053842599694,-0.15552052750157802,1.0153544369798158,0.3217997000738992,-0.07800061502711292,-0.0006265872266000004,-2.3474230574081467,-0.5918747832449057,2.878387148282367,0.7977520356642964,-0.22208985203756626,0.005340539358286378,-0.37021598117278864,-4.567608601824521,-4.204382878229087,-0.8844310963439986,-0.03449524688667261,-0.0005882712630357542
0.26,-0.12497935935335551,1.547097186375956,-1.4162172936530144,0.0505063023527806,-0.012078327924745239,-0.0001053309843166027,-0.8505111274547409,-0.16131380580368196,1.0437870656872625,0.3298394580080513,-0.08017237985268941,-0.0006331704275677376,-2.2598728179076675,-0.5972039576926991,2.772239728798798,0.7606285328743638,-0.2161709494449191,0.005919656826606001,-0.35545009622324425,-4.5933118767573475,-4.21960542951238,-0.8847895947700267,-0.03329783982746787,-0.0005614746570938116
0.27,-0.1337088381240044,1.5454255373998809,-1.405505608890893,0.05388152397315923,-0.012901114524394412,-0.00011171303236909581,-0.8729478770648874,-0.16716489760751047,1.0711684762121312,0.3375221620378627,-0.08227865996491723,-0.0006382048052493124,-2.1713519813866955,-0.6032149141813351,2.664936178028129,0.7232782012841952,-0.21033349672430823,0.006507867936867973,-0.3401334624011259,-4.61774376073224,-4.234620365781638,-0.8849882123958599,-0.03206109191170819,-0.0005345361088397449
0.28,-0.1426538985741074,1.54369473187092,-1.3945307381441103,0.057329978273801534,-0.01374431078028933,-0.0001181299833960236,-0.8945060450103006,-0.1730805528960886,1.097487074678277,0.34484543006423046,-0.08431962558949196,-0.0006416951026927783,-2.0819334819763764,-0.6098324695048944,2.556504581266758,0.6857217562600999,-0.20458657806960545,0.007104979340244233,-0.32429115185511315,-4.640722949517008,-4.249372784943775,-0.8850176901593791,-0.030787098439164058,-0.0005075388265496424
0.29,-0.15180566630607062,1.5419040642083521,-1.38330342269734,0.06084804892769904,-0.014607265982892647,-0.0001245664711747701,-0.9151767731963217,-0.17906676625678594,1.1227315446770447,0.3518070653897502,-0.08629552026033155,-0.0006436487778746499,-1.9916945840143587,-0.6169788724447883,2.446979617169058,0.6479831626486128,-0.19893859851573303,0.0077108929475790955,-0.3079533980352323,-4.662072241404992,-4.263809763938488,-0.8848696249138072,-0.02947830606743156,-0.000480567803874747
0.3,-0.16115518607459034,1.5400527766926237,-1.3718345135532148,0.06443209978871692,-0.01548933255535051,-0.00013100722913169806,-0.9349519768519735,-0.18512875157284628,1.1468909144125237,0.3584050861017877,-0.08820665724578634,-0.0006440757956927948,-1.9007166313518067,-0.6245743103418445,2.3364027063071546,0.6100891878742507,-0.19339720676951977,0.0083255983480236,-0.29115552359880703,-4.68161967659786,-4.277880691231247,-0.8845365422499871,-0.028137506148467,-0.00045370939109778377
0.31,-0.17069342992821826,1.5381400674752217,-1.3601349673032666,0.06807847729933447,-0.016389866709628966,-0.0001374371133721499,-0.9538243853627917,-0.19127092174021268,1.1699546249948267,0.364637751061755,-0.09005341542784562,-0.0006429884240451846,-1.8090847554265406,-0.6325374218212222,2.2248220665469143,0.5720690375061785,-0.1879692276667555,0.008949164236134455,-0.27393779871478485,-4.699199655790674,-4.291537579072332,-0.8840119600632788,-0.02676782395640049,-0.0004270508261618784
0.32,-0.18041130573009226,1.536165098740417,-1.3482158413129908,0.07178351313011859,-0.017308229056516952,-0.00014384112372634408,-0.971787580187401,-0.1974968734804698,1.1919125990275719,0.37050358307841125,-0.09183623468879873,-0.000640401035419418,-1.716887545697636,-0.6407858122058776,2.1122926851216866,0.5339540492479271,-0.18266060314053156,0.009581728915487364,-0.2563452299202282,-4.714654024942115,-4.304735352183317,-0.8832904421775303,-0.025372703881625748,-0.0004006797315370911
0.33,-0.19029966602491413,1.5341270049675781,-1.33608828822583,0.07554352702674466,-0.01824378516505793,-0.00015020442288098777,-0.9888360294821883,-0.20380937728387544,1.2127553087160785,0.3760013896626075,-0.09355561085409805,-0.0006363299154643692,-1.6242166865335246,-0.6492365678769679,1.9988762160265272,0.4957774275074103,-0.17747634097125964,0.010223489957438159,-0.23842728088262047,-4.72783311349397,-4.317432109830957,-0.8823676414730252,-0.02395589072456529,-0.000374683583601724
0.34,-0.20034931721590152,1.5320249012428049,-1.3237635497978808,0.07935482984302385,-0.019195906067426396,-0.00015651235368118794,-1.0049651190987385,-0.21021037247732496,1.2324738427949282,0.3811302816279184,-0.09521209023684671,-0.0006307930800200162,-1.5311665650935793,-0.6578067656699296,1.8846408104750814,0.4575740054540631,-0.1724204707982402,0.010874693091033283,-0.22023752764528415,-4.738596713813579,-4.329589358608509,-0.8812403321131532,-0.02252140728015315,-0.00034914916171635037
0.35000000000000003,-0.21055102901253725,1.5298578915690884,-1.3112529500814787,0.08321372674007388,-0.020163968705699652,-0.00016275045470182564,-1.020171179663574,-0.21670096737164585,1.2510599716402173,0.38588968970500315,-0.09680626382732549,-0.0006238101020637694,-1.437833855127458,-0.6664139733219535,1.7696608875609021,0.4193800250795663,-0.16749600698089662,0.011535620416640247,-0.20183325214917147,-4.746814990360648,-4.341172213657445,-0.8799064306222979,-0.021073528459660634,-0.0003241619845432117
0.36,-0.22089554410752227,1.527625077125071,-1.2985678879815283,0.08711652053276021,-0.021147356317396178,-0.00016890447420144978,-1.0344515094985023,-0.22328144440173497,1.2685062099950408,0.3902793792686331,-0.09833876116965264,-0.0006154019499624127,-1.3443170819273418,-0.6749767370008665,1.6540168518438183,0.3812329285546783,-0.16270491794850273,0.012206577999946289,-0.18327497900027434,-4.752369308011982,-4.352149566518626,-0.8783650057313787,-0.019616752248737542,-0.0002998057414032916
0.37,-0.23137358803944003,1.5253255644237456,-1.2857198292135514,0.09105951516504775,-0.022145458757063006,-0.00017496038258526286,-1.0478043931917753,-0.22995127013253536,1.2848058767976966,0.3942994632287531,-0.09981024396668269,-0.0006055908383813091,-1.2507161738979122,-0.6834150520370352,1.5377947642820862,0.34317115630207917,-0.1580481017024704,0.012887882940233464,-0.16462596155583786,-4.755152970094358,-4.3624942182906326,-0.8766162770737069,-0.01815576784825517,-0.0002761617265591948
0.38,-0.24197587919628477,1.5229584733241013,-1.272720297696936,0.09503901929610516,-0.02315767275159722,-0.00018090438351611878,-1.0602291156844739,-0.23670910996442854,1.2999531516615446,0.397950413105741,-0.10122139945342146,-0.000594400093085593,-1.1571320063544301,-0.6916508131448329,1.4210859727163503,0.30523394879557486,-0.15352536714413745,0.013579849956557699,-0.14595162440375337,-4.755071857953357,-4.372182977281971,-0.874661602978209,-0.01669542138661587,-0.0002533082842628464
0.39,-0.25269313891420686,1.5205229448507613,-1.2595808664207973,0.09905134997901593,-0.02418340208738183,-0.0001867229238242155,-1.0717259717922107,-0.2435528473339843,1.3139431276138784,0.40123306829107763,-0.10257293357846098,-0.0005818540308096731,-1.0636659432176385,-0.6996082406451719,1.3039867079207264,0.2674611503458504,-0.14913542091190202,0.014282777582068307,-0.12731897017967458,-4.752044965296614,-4.3811967208615705,-0.8725034577657781,-0.01524067962768271,-0.00023132027221146493
0.4,-0.263516101625592,1.518018148779054,-1.2463131478232115,0.10309283641386895,-0.02522205772770395,-0.00019240270237645246,-1.0822962711385142,-0.2504796071707388,1.3267718597585831,0.4041486434853018,-0.10386556403221177,-0.0005679778552236951,-0.9704193822467656,-0.7072142794826016,1.1865976510696865,0.22989301404359175,-0.14487585942412462,0.014996933997361794,-0.10879595938084438,-4.746004822063827,-4.3895204217262735,-0.8701453991037575,-0.013796592126592276,-0.00021026855071901
0.41000000000000003,-0.27443552501091456,1.515443290945671,-1.232928783727374,0.10715982375689675,-0.026273057859304345,-0.00019793067807600466,-1.0919423385322558,-0.25748578333831024,1.3384364095837615,0.4066987343027813,-0.10510001316003988,-0.0005527975699552196,-0.8774933093401129,-0.7143989681584076,1.0690234782917936,0.19257000773174027,-0.1407431658437761,0.015722542564522213,-0.09045087237390137,-4.7368978041596534,-4.397143139302712,-0.8675920261098242,-0.012368252305843683,-0.0001902195044420178
0.42,-0.2854422001096784,1.5127976202480795,-1.2194394348804671,0.11124867696725516,-0.027335827867282593,-0.0002032940771709416,-1.100667509876384,-0.2645670697591515,1.3489348846906832,0.40888532103583974,-0.10627700079782486,-0.0005363399094936934,-0.7849878672402685,-0.7210957750692409,0.9513723877907327,0.15553262137951185,-0.13673271171274815,0.016459767103625123,-0.07235166314085129,-4.7246843270068055,-4.404057977473598,-0.8648489290169326,-0.010960757935817828,-0.00017123460290756185
0.43,-0.29652696134716044,1.5100804352991097,-1.2058567701427263,0.11535578467303091,-0.02840980023795274,-0.0002084804000578948,-1.1084761237482024,-0.27171849489697086,1.3582664737740728,0.41071077057757577,-0.1073972370670148,-0.000518632288695322,-0.693001943713474,-0.7272419001374996,0.8337556147941892,0.11882117660168756,-0.13283876304052944,0.017208696952636132,-0.054565314453318275,-4.709338922500498,-4.410262010254592,-0.8619226313128802,-0.009579171507095596,-0.00015337000539438308
0.44,-0.3076806964355779,1.5072910907066137,-1.1921924553753709,0.11947756303815354,-0.029494414389612575,-0.0002134774277727841,-1.1153735088417445,-0.27893445924959986,1.3664314767355363,0.4121778365122637,-0.10846141516598355,-0.0004997027714889293,-0.6016327839350241,-0.7327785400400549,0.7162869393457666,0.08247563931597734,-0.12905449068523156,0.017969331843176506,-0.03715720410649137,-4.690850200540261,-4.415756177439256,-0.8588205253496426,-0.00822848097665459,-0.0001366762149312397
0.45,-0.31889435611067546,1.5044290029517329,-1.178458142076756,0.12361045961208923,-0.03058911643155744,-0.0002182732283655228,-1.121365967509756,-0.2862087754880797,1.373431329861498,0.41328965739356854,-0.10947020419448626,-0.0004795800592738704,-0.5109756314129503,-0.7376511157762843,0.5990821916817173,0.04653543669033455,-0.12537198492189683,0.018741566644415036,-0.020190491583307768,-4.669220697848723,-4.420545152568554,-0.8555508024774923,-0.006913561356484844,-0.00012119778531765987
0.46,-0.33015896366753306,1.5014936558430818,-1.1646654558163154,0.12775095714452148,-0.03169335885204021,-0.00022285616335909094,-1.1264607556857578,-0.2935347108651083,1.3792686260440465,0.41404975324322335,-0.1104242420482767,-0.0004582934993568125,-0.4211234013267021,-0.7418094617550602,0.4822587596305523,0.01103927961857848,-0.12178227416427423,0.019525175990962956,-0.003725534064617314,-4.644466618231661,-4.42463718586317,-0.8521223787965563,-0.005639137591827973,-0.00010697308416466876
0.47000000000000003,-0.3414656242625841,1.498484605528004,-1.1508259845156432,0.1318955773476786,-0.032806600136255956,-0.000227214894495942,-1.1306660595051043,-0.30090503150777453,1.3839471300672181,0.4144620203157131,-0.111324128421575,-0.0004358731136851061,-0.33216638965480405,-0.7452079760186323,0.3659351021453302,-0.02397500799951409,-0.11827534788231908,0.02031979886266405,0.012180659933743426,-4.616617469763061,-4.428043924977253,-0.8485448176337346,-0.004409749147746427,-9.403411401395736e-05
0.48,-0.35280553395235786,1.4954014850459472,-1.1369512666254211,0.13604088458955355,-0.033928304315816706,-0.00023133839097559471,-1.1339909689773777,-0.308312048205698,1.3874717890222064,0.4145307241874957,-0.11217041795607514,-0.0004123496479652708,-0.24419202092250503,-0.7478057316495241,0.2502302727317812,-0.05847065192134698,-0.11484018384445727,0.021124923151967248,0.027474931812148884,-4.585715605572182,-4.430780216589856,-0.8448282498465197,-0.0032297166878615564,-8.240639264784657e-05
0.49,-0.3641699884432627,1.4922440084128854,-1.1230527792458955,0.14018348950197224,-0.035057940451582906,-0.00023521593738698524,-1.1364454490904867,-0.31574766330618353,1.3898487379525533,0.4142604912418679,-0.11296361357661971,-0.0003877546411390529,-0.15728463682543645,-0.7495665498187517,0.13526345616875723,-0.09241208095796266,-0.11146477990318004,0.021939870297552226,0.04210842247622759,-4.5518156759482435,-4.432863891944921,-0.8409832930283402,-0.0021031111887824545,-7.210889276730028e-05
0.5,-0.3755503915307542,1.489011974229559,-1.1091419262372522,0.1443200524882982,-0.03619498205213839,-0.0002388371425371062,-1.1380403087491489,-0.3232034183326271,1.3910853008643402,0.41365629863259773,-0.11370416005554856,-0.00036212051501209786,-0.07152532738522722,-0.7504590353242975,0.02115352154567618,-0.12576506998610804,-0.10813619063871216,0.02276378004083577,0.05603696475972031,-4.51498400034977,-4.434315539483877,-0.8370209706442984,-0.0010337257890012403,-6.315404031265412e-05
0.51,-0.3869382632104221,1.4857052688100496,-1.0952300263645856,0.14844728711650318,-0.03733890643063922,-0.00024219194937405477,-1.138787167966789,-0.33067054195095524,1.3911899872666647,0.41272346282049704,-0.1143924378500825,-0.00033548068369485586,0.013008194325145982,-0.7504565758307341,-0.09198140574517633,-0.15849687154124825,-0.10484056927345795,0.023595595429821245,0.06922141430686635,-4.475297868600633,-4.435158267690153,-0.832952632063693,-2.5050622942149672e-05,-5.5547769848525784e-05
0.52,-0.39832524744782316,1.482323868830839,-1.0813283015202444,0.15256196338437583,-0.03848919400323847,-0.0002452706461969049,-1.1386984237401065,-0.33813999792105165,1.3901724844341266,0.4114676267872648,-0.11502875725992559,-0.0003078696822850146,0.09624167347871043,-0.749537306352547,-0.2040243507983457,-0.19057633509566552,-0.10156321537145707,0.02443404816348228,0.08162791572318354,-4.43284478106929,-4.435417461186122,-0.828789874378883,0.0009197491594633463,-4.928963464601703e-05
0.53,-0.40970311959821865,1.4788678435039828,-1.0674478650641872,0.15666091084477338,-0.039645327532794226,-0.00024806387933742473,-1.1377872150395494,-0.34560253268561864,1.388043645605727,0.40989474603975484,-0.11561335295557564,-0.0002793233140519808,0.17810435104279138,-0.7476840408185993,-0.3148598728855022,-0.2219740132436181,-0.098288628932306,0.0252776444440651,0.09322810200977477,-4.387721637961808,-4.4351205329964705,-0.8245444668116134,0.001797852038722906,-4.437296838673377e-05
0.54,-0.421063793471685,1.4753373562813092,-1.0535997103206527,0.16074102158002818,-0.04080679132210981,-0.0002505626674885781,-1.136067387346634,-0.35304872226736583,1.3848154743534506,0.4080110735254788,-0.1161463789315588,-0.00024987881511533486,0.25852895844329915,-0.7448841728115662,-0.4243744245297484,-0.25266225415848376,-0.09500057158177733,0.026124651491149682,0.10399922649612663,-4.340033888016465,-4.4342966757232,-0.8202282784105211,0.002606795339738146,-4.078509479387907e-05
0.55,-0.4323993280432898,1.471732666099645,-1.0397946992669627,0.16479925301589265,-0.04197307036153905,-0.00025275841784237556,-1.1335534571604808,-0.36046901816642685,1.3805011053690095,0.40582314358644667,-0.11662790394292402,-0.00021957503537974765,0.33745167084421157,-0.7411295477941323,-0.5324566848016636,-0.2826152798331969,-0.09168213565350203,0.026973084949086266,0.11392422765175145,-4.289894646876539,-4.432976614174286,-0.8158532096401416,0.0033444869666813034,-3.850758097441791e-05
0.56,-0.4437019338121011,1.4680541281799142,-1.026043551447674,0.16883263056672626,-0.04314364943641718,-0.0002546429441839774,-1.130260576881133,-0.36785379197309054,1.3751147819288636,0.40333775508336095,-0.11705790748781304,-0.00018845263416018262,0.41481202116594995,-0.73641630930748,-0.6389978660133542,-0.31180924975771784,-0.08831582202480792,0.027820697417847037,0.12299172826236762,-4.237423795248217,-4.431192361757086,-0.8114311283550335,0.004009213660174843,-3.7516529837950015e-05
0.5700000000000001,-0.4549639788166643,1.4643021943955556,-1.0123568331446153,0.17283825010498371,-0.04431801220045319,-0.0002562084870702582,-1.126204500456317,-0.37519337843585404,1.368671830305866,0.40056195382574455,-0.1174362764036015,-0.00015655428862808068,0.4905527775809551,-0.7307447217630384,-0.7438919933010323,-0.3402223098380315,-0.08488362763352386,0.02866496838834346,0.13119597147906503,-4.182747066636724,-4.428976982696412,-0.8069738105452097,0.00459964582382032,-3.778290664569058e-05
0.58,-0.4661779943181783,1.460477413228045,-0.9987449468306059,0.1768132802494412,-0.04549564022194243,-0.00025744773619879475,-1.1214015501514039,-0.38247811675107163,1.3611886314009394,0.39750301444575026,-0.11776280214892346,-0.00012392491285365237,0.5646197878231918,-0.7241189725402585,-0.8470361568844107,-0.36783462650160237,-0.08136714364506181,0.029503095929393385,0.1385366971700544,-4.125995134010842,-4.426364361873238,-0.802492886133492,0.005114839009258266,-3.9272894535379824e-05
0.59,-0.47733668016587455,1.4565804293293685,-0.9852181209319035,0.18075496446798375,-0.04667601201042928,-0.00025835385504669784,-1.1158685847696252,-0.38969838986765415,1.3526825898702395,0.39416842185425377,-0.11803717884868511,-9.061188479030814e-05,0.6369617942277925,-0.7165469561578028,-0.9483307370584603,-0.3946284060806464,-0.07774766525320542,0.030331990467654894,0.14501896280907806,-4.067302704191462,-4.423388983809668,-0.7979997900036938,0.0055542321869548866,-4.194827376337705e-05
0.6,-0.48843290986198773,1.4526119827130886,-0.9717863999216775,0.1846606229921572,-0.04785860203226674,-0.00025892050782828327,-1.109622969611319,-0.3968446616279912,1.3431721010226019,0.39056585241734193,-0.11825900218374592,-5.666527815854044e-05,0.7075302239729618,-0.7080400432995739,-1.0476796022229184,-0.4205878996893939,-0.07400631408506397,0.031148271090391942,0.1506529138113698,-4.006807628111773,-4.420085722055905,-0.7935057183426767,0.005917642963343341,-4.576681939804419e-05
0.61,-0.49945973534616134,1.4485729075971474,-0.9584596347640887,0.18852765454205367,-0.04904287972437764,-0.00025914188878522316,-1.1026825484173604,-0.40390751159411864,1.3326765157588847,0.3867031549896487,-0.11842776921108994,-2.213809569399068e-05,0.7762789595244375,-0.6986128374588308,-1.1449902804690772,-0.4456993939557048,-0.07012417413037797,0.03194826481275203,0.15545350877035138,-3.9446500343738173,-4.416489639970757,-0.789021590290802,0.006205259933482041,-5.0682712282681425e-05
0.62,-0.5104103915210945,1.4444641309227892,-0.9452474737258942,0.19235353786143394,-0.050228308516415396,-0.00025901275378270973,-1.0950656174933149,-0.41087766743581117,1.321216103819449,0.3825883319380265,-0.11854287920377542,1.2913500251341344e-05,0.843164094776375,-0.688282921909864,-1.2401741054426143,-0.46995118807298475,-0.06608244202175184,0.032728009293135796,0.15944020545318235,-3.8809714927471424,-4.412635803633989,-0.7845580148153541,0.0064176323818460595,-5.6646958251139136e-05
0.63,-0.5212783005426701,1.4402866705749453,-0.9321593535699079,0.19613583306428473,-0.05141434487243979,-0.00025852845414000436,-1.0867909021575672,-0.41774603478439215,1.3088120155986402,0.3782295202850781,-0.11860363560243899,4.842996427053601e-05,0.9081436828356738,-0.6770705996360972,-1.3331463373666321,-0.49333355776180055,-0.06186259235110381,0.033483259509884414,0.1626366136818145,-3.8159142134382353,-4.408559107390622,-0.7801252626509909,0.006555657562194746,-6.360781081843543e-05
0.64,-0.532057075898662,1.4360416333301218,-0.9192044911421473,0.1998721827952546,-0.052600437364153055,-0.00025768497257344403,-1.0778775355991868,-0.4245037244823469,1.295486242776056,0.37363497309698745,-0.11860924917132673,8.43481566560349e-05,0.9711774817988901,-0.6649986287356162,-1.4238262602538971,-0.5158387068325823,-0.05744655850171165,0.034209498960755064,0.16507012136269988,-3.749620287121938,-4.404294112307252,-0.7757332430907343,0.006620565800731757,-7.151119286813763e-05
0.65,-0.542740526300363,1.4317302125582816,-0.9063918753621089,0.2035603132075951,-0.053786025788666175,-0.00025647896107412526,-1.0683450401700947,-0.43114207718403197,1.2812615780038503,0.36881304123405145,-0.11855884245131183,0.00012060114993187848,1.0322267052145824,-0.652091955695576,-1.5121372564595226,-0.5374607071316841,-0.0528169292201901,0.03490195588226318,0.16677149994014975,-3.6822309698838653,-4.39987489762141,-0.7713914853606731,0.006613903675179132,-8.030111320847832e-05
0.66,-0.553322659411081,1.4273536857054148,-0.8937302596233335,0.20719803476334933,-0.05497054034466456,-0.0002549077804824195,-1.0582133110718066,-0.43765268528667317,1.2661615738775331,0.3637721555754244,-0.11845145559983837,0.00015711805917057614,1.0912537841936867,-0.6383774487796399,-1.5980068598224435,-0.5581954277444998,-0.04795716081599544,0.03555562508532384,0.16777449544546938,-3.6138860163912767,-4.395334925088327,-0.767109124271374,0.006537515526212003,-8.992007425844814e-05
0.67,-0.5637976854343847,1.422913411583482,-0.8812281546092839,0.2107832428615678,-0.05615340088169145,-0.0002529695414559264,-1.0475026023303617,-0.444027412193263,1.250210501404953,0.35852080982184614,-0.11828605370268923,0.00019382390264931066,1.1482221483138784,-0.6238836336097271,-1.6813667887260384,-0.5780404543975601,-0.0428518044700299,0.03616529588608025,0.16811541110826375,-3.544723063801475,-4.390706915976263,-0.7628948898086755,0.006393523557309197,-0.00010030946754174652
0.68,-0.5741600205832335,1.4184108274941847,-0.8688938215275385,0.214313918301285,-0.05733401623803674,-0.00025066314645848844,-1.036233514884881,-0.45025840892974583,1.2334333081745448,0.35306754397171847,-0.11806153563452897,0.00023063949974379703,1.203096032544746,-0.608640432850905,-1.7621529604665043,-0.5969950000738535,-0.03748674765569593,0.03672558661622741,0.16783268720112046,-3.474877068143336,-4.386022740332075,-0.7587571003055904,0.006184306774906266,-0.00011140995409920736
0.6900000000000001,-0.5844042904486985,1.4138474462126054,-0.8567352657634411,0.217788127586853,-0.05851178368337574,-0.00024798833232552494,-1.0244269865465006,-0.45633812815792346,1.2158555764097374,0.3474209285568008,-0.11777674453390036,0.00026748141329634926,1.2558403173801838,-0.592678911728219,-1.8403054883652887,-0.6150598079031679,-0.03184946811639344,0.037230986114417525,0.16696648341848203,-3.4044797941785108,-4.381313318032607,-0.7547036588247774,0.005912479013274358,-0.00012316182736930287
0.7000000000000001,-0.5945253332838623,1.409224852856178,-0.8447602309526236,0.2212040230839951,-0.059686088482809034,-0.0002449457128865002,-1.0121042835163843,-0.46225933564274996,1.1975034810817424,0.341589549714209,-0.11743047994332946,0.0003042619439024741,1.3064204091841751,-0.5760310309204094,-1.9157686630901203,-0.6322370474423558,-0.025929298212519214,0.037675902486867585,0.16555826865965878,-3.3336593590716666,-4.376608531053802,-0.7507420523766943,0.005580866278311913,-0.00013550535652097047
0.71,-0.6045182032147166,1.4045447016636972,-0.8329761934702435,0.22455984303560791,-0.060856303599269676,-0.000241536821050465,-0.9992869930854374,-0.46801511924806793,1.1784037482380103,0.33558199516128356,-0.11702151164606411,0.0003408891836035206,1.3548021674168282,-0.5587294081918245,-1.98849091967032,-0.6485302054849482,-0.019717696752505454,0.0380547193220859,0.16365042260926804,-3.2625398295800645,-4.371937146327178,-0.746879353601189,0.005192483631963387,-0.00014838110864593042
0.72,-0.6143781733854741,1.3998087127082133,-0.8213903573333585,0.22785391144690267,-0.062021789551344,-0.00023776414968662235,-0.9859970170757473,-0.47359889554838214,1.1585836136885013,0.3294068411294755,-0.11654859520743206,0.000377267136384263,1.4009518848898104,-0.540807089943171,-2.0584247916951837,-0.66394397258337,-0.013208524672370103,0.03836185932504438,0.16128585300015036,-3.1912408719157095,-4.36732674851059,-0.7431222245490244,0.004750511824809544,-0.00016173024861937198
0.73,-0.624100739040737,1.3950186685666535,-0.8100096495115909,0.23108463784992797,-0.06318189444335094,-0.00023363119056169572,-0.9722565655262976,-0.47900441415598943,1.1380707821767642,0.3230726403025289,-0.11601048920069375,0.0004132959124926625,1.4448363264868802,-0.5222973336844102,-2.1255268541877164,-0.6784841264625605,-0.006398320138047531,0.03859185520869107,0.15850763191744052,-3.1198774529408566,-4.3628036819753895,-0.7394769222136901,0.004258273869033905,-0.00017549481581441255
0.74,-0.6336816205414869,1.3901764109679262,-0.7988407156401143,0.23425051695786106,-0.06433595418399586,-0.00022914247053080615,-0.9580881500749908,-0.4842257598727279,1.1168933871476716,0.31658791079330884,-0.1154059740644922,0.00044887200308895553,1.4864228308614262,-0.5032334022665323,-2.1897576566320374,-0.6921574135328505,0.0007134321610688943,0.03873942737013164,0.15535865397028945,-3.048559590930962,-4.358393001303276,-0.7359493054818955,0.003719211727959947,-0.0001896179771992853
0.75,-0.6431167663059606,1.3852838374400875,-0.7878899161280276,0.23735012821968474,-0.06548329290901278,-0.00022430358412247277,-0.9435145764473685,-0.48925735278387544,1.0950799512086657,0.3099611261823688,-0.11473387250169194,0.0004838886408333372,1.5256794784806402,-0.48364837054864396,-2.2510816476187676,-0.7049714296992136,0.008124043539770476,0.03879956766417192,0.15188131863080814,-2.977392153777721,-4.354118429591105,-0.7325448431924642,0.003136863282136019,-0.00020404425665581188
0.76,-0.6524023556602773,1.3803428979759036,-0.7771633226543618,0.2403821352859858,-0.0666232236218919,-0.00021912122161339234,-0.9285589354316676,-0.49409394641838567,1.0726593473665733,0.303200706630104,-0.11399307128791192,0.0005182362509080438,1.5625753280195929,-0.46357494502954455,-2.3094670925490006,-0.7169345016641175,0.01582738242269688,0.03876762826810637,0.14811723852768577,-2.9064747022073347,-4.350002323878822,-0.7292686230171024,0.002514839715930875,-0.00021871974062816
0.77,-0.6615348015772974,1.3753555917348554,-0.7666667150432867,0.2433452853966159,-0.0677550490650206,-0.0002136031916583303,-0.9132445917020082,-0.49873062410482494,1.0496607611075157,0.2963150110630118,-0.1131825443128701,0.0005518029955062037,1.597080721527455,-0.4430452968374856,-2.364885985809793,-0.7280555699074904,0.023813661417021237,0.03863941433563306,0.14410697499268715,-2.835901375353117,-4.346065647042551,-0.7261253609019206,0.001856803453147759,-0.00023359226044295496
0.78,-0.6705107532757826,1.3703239637982936,-0.7564055785095543,0.246238408700849,-0.06887806283131766,-0.00020775843752769685,-0.8975951698485194,-0.5031627936561889,1.0261136533732402,0.2893123304233099,-0.11230137662970648,0.000584475413063346,1.6291676570038696,-0.42209090834799057,-2.417313958799841,-0.7383440745088015,0.03206925825167417,0.03841127880711048,0.13988980169829993,-2.765760815843488,-4.342327945529663,-0.7231194108349797,0.0011664467555567554,-0.0002486115518350098
0.79,-0.6793270986456514,1.3652501019931,-0.7463851012648205,0.249060417520449,-0.06999155072369506,-0.0002015970460134223,-0.881634536986889,-0.5073861805193476,1.0020477244733799,0.28220088195999826,-0.11134878923774101,0.0006161391514274557,1.6588102250690748,-0.4007424335909602,-2.466730185145998,-0.7478098449506501,0.04057657877998011,0.038080217414958706,0.1355034967991043,-2.6961361314429695,-4.338807332353985,-0.7202547747318805,0.0004474710847002044,-0.00026372939236698394
0.8,-0.6879809664591683,1.3601361337978366,-0.7366101724752229,0.2518103055657337,-0.07109479236643705,-0.0001951302480956541,-0.865386781351684,-0.5113968195263481,0.9774928789597604,0.2749888045284694,-0.11032416427419908,0.000646679791776818,1.6859851043216565,-0.37902957251032093,-2.5131172844040397,-0.7564629950161468,0.04931397032308649,0.03764396167804962,0.13098416360140444,-2.6271048902097056,-4.335520474815213,-0.7175351122580408,-0.0002964326850091708,-0.0002788997175511116
0.81,-0.6964697283224583,1.3549842233439835,-0.7270853805604629,0.2544871471142839,-0.07218706306885543,-0.00018837041052022102,-0.8488761863290019,-0.5151910453853012,0.9524791914759982,0.2676841548550174,-0.10922707024183866,0.00067598375754331,1.7106721078139118,-0.3569809590570567,-2.5564612254877153,-0.7643138238493199,0.05825569339779246,0.037101067357593054,0.12636607943736328,-2.5587391461047817,-4.332482586456066,-0.7149637504323846,-0.0010616031249387795,-0.00029407871656680613
0.8200000000000001,-0.7047910003170105,1.349796568523501,-0.71781501182463,0.25709009616140605,-0.07326763593739793,-0.00018133101752260486,-0.8321271994552077,-0.5187654820482551,0.9270368735832883,0.260294904712214,-0.10805728685425083,0.0007039392997616159,1.732854770899172,-0.33462406302332975,-2.5967512310090366,-0.771372724211675,0.06737195931939066,0.03645099569599175,0.12168157211216146,-2.491105492000251,-4.32970742282232,-0.7125436928823949,-0.0018444261154634085,-0.0003092249085254752
0.8300000000000001,-0.7129426442770078,1.3445753982125768,-0.7088030494091142,0.25961838555081707,-0.07433578422780728,-0.00017402664204862906,-0.815164395999734,-0.5221170310924064,0.9011962415515856,0.2528289389411019,-0.10681482904093417,0.0007304375473975791,1.7525209686020458,-0.311985105465125,-2.633979683649046,-0.7776500989026331,0.07662904024337447,0.03569418462582952,0.1169609230253457,-2.4242651370802895,-4.32720728064359,-0.7102776286445902,-0.0026413516551865783,-0.0003242992002664967
0.84,-0.7209227686456123,1.3393229696200832,-0.7000531725581708,0.26207132609328465,-0.0753907839240313,-0.0001664729059654857,-0.7980124368604504,-0.5252428592493549,0.8749876850943421,0.24529405424675682,-0.10549996962240302,0.0007553736083143347,1.7696635487196066,-0.28908898751074036,-2.6681420355999768,-0.7831562862645658,0.08598945689684356,0.034832107104507126,0.11223229583945002,-2.358274005708226,-4.32499300010581,-0.7081679404273472,-0.0034489095650972667,-0.00033926492668099364
0.85,-0.7287297288518968,1.3340415657679334,-0.6915687561880236,0.2644483056801336,-0.07643191652547028,-0.00015868642892811628,-0.7806960206284489,-0.528140385214978,0.8484416370147214,0.23769795868489657,-0.10411326014389792,0.0007786477037369416,1.784280965176037,-0.26595923230899576,-2.6992367220389744,-0.7879014956041619,0.09541224754976074,0.03386731383445585,0.1075216893783906,-2.2931828549365725,-4.323073969938897,-0.7062167122744692,-0.004263724043250554,-0.00035408787455797254
0.86,-0.7363621271501252,1.3287334931092338,-0.6833528707508058,0.2667487883976259,-0.0774584720189398,-0.00015068476576274808,-0.7632398298228408,-0.5308072658699526,0.821588543721785,0.23004827174922726,-0.102655549346952,0.0008001663165368209,1.7963778948234692,-0.242617939838194,-2.727265079497938,-0.7918957532846056,0.1048533197061019,0.0328034578218408,0.10285291328277332,-2.2290374079639146,-4.321458135094539,-0.7044257365879512,-0.00508252703155768,-0.00036873629093511784
0.87,-0.7438188118646458,1.3234010792888526,-0.6754082823851392,0.2689723136472466,-0.07846975200657134,-0.00014248633244822074,-0.7456684714520625,-0.5332413820381079,0.7944588365666592,0.22235252496207164,-0.10112799876315523,0.0008198433314527342,1.8059658200005992,-0.21908575426637805,-2.7522312698932874,-0.7951488601339101,0.11426588360419476,0.03164529860676257,0.09824758482651046,-2.1658785009869224,-4.320152006838862,-0.7027965204870146,-0.005902170361871375,-0.00038318087691866203
0.88,-0.7510988759868671,1.318046671049786,-0.6677374533457272,0.2711184952758946,-0.07946507295592697,-0.00013411032101108618,-0.72800641222213,-0.5354408239066684,0.7670829039411992,0.21461816286480107,-0.09953209493556253,0.000837601143713457,1.813063558813719,-0.19538184353039773,-2.77414221086782,-0.7976703606965669,0.12360096396697706,0.03039868443649618,0.09372514520628301,-2.103742241054737,-4.319160675132415,-0.7013302914976677,-0.0067196366540185765,-0.0003973947679180703
0.89,-0.758201655075661,1.3126726322874946,-0.6603425427049746,0.27318702071889267,-0.0804437695340416,-0.00012557660389668875,-0.7102779088793911,-0.5374038762291369,0.7394910640752591,0.20685254429980515,-0.09786965781146317,0.0008533717114397431,1.8176977253555484,-0.17152389078010102,-2.7930075129768808,-0.7994695247162413,0.1328079836509417,0.029070511289808865,0.08930289354962699,-2.042660172702991,-4.318487823214917,-0.7000280025828118,-0.007532048944022806,-0.0004113535012242889
0.9,-0.7651267244190625,1.307281342253214,-0.6532254073203404,0.2751776501576163,-0.08140519798310185,-0.0001169056286276357,-0.692506934340149,-0.5391290034280826,0.7117135384634261,0.1990629438723657,-0.09614284490602511,0.0008670975269053055,1.8199031029747548,-0.14752809731489092,-2.80883942412638,-0.8005553410790949,0.14183540998552768,0.02766865834316201,0.08499603684612217,-1.982659451322998,-4.318135744354393,-0.6988903365373281,-0.00833667902670609,-0.00042503497184892254
0.91,-0.7718738954232243,1.301875193906099,-0.64638760306186,0.27709021569240655,-0.08234873949219668,-0.00010811830380547708,-0.6747171004161809,-0.5406148347114739,0.6837804258480323,0.19125655347902631,-0.09435415090948307,0.0008787324822158619,1.8197229152608931,-0.12340919662250532,-2.821652781538502,-0.8009365242649311,0.15063145186419025,0.026201900276361045,0.08081775398685337,-1.923763021405316,-4.318105360758851,-0.6979177097856051,-0.009130954503359025,-0.0004384193775368149
0.92,-0.778443211204101,1.2964565924129747,-0.6398303862950353,0.2789246205302972,-0.0832738035171934,-9.923587774203851e-05,-0.6569315780876683,-0.5418601493124453,0.6557216766824797,0.18344048378906724,-0.09250640249967235,0.0008882426063438569,1.817208981604612,-0.09918047911200192,-2.8314649713858304,-0.8006215331656232,0.1591447931347565,0.02467979762617445,0.07677927209780051,-1.8659897979840794,-4.318396244683489,-0.6971102756306728,-0.00991246453235958,-0.00045148915386775536
0.93,-0.7848349413680761,1.2910279537933897,-0.6335547156150609,0.28068083818597256,-0.08417983099944237,-9.027981121527111e-05,-0.63917301639751,-0.5428638619585027,0.6275670679974357,0.17562176556753487,-0.0906027482248965,0.0008956066526767395,1.8124217469750477,-0.07485382711551809,-2.8382958961003792,-0.7996186019115523,0.1673253457187549,0.023112567258431693,0.07288995337114992,-1.8093548497967147,-4.319006641796976,-0.6964679270144849,-0.010678964288582754,-0.00046422890037381605
0.9400000000000001,-0.7910495759794562,1.2855917037066682,-0.6275612538291381,0.28235891169329436,-0.08506629743380596,-8.12716460219152e-05,-0.6214634611380118,-0.5436250086721659,0.5993461785922808,0.1678073507321797,-0.08864664343635825,0.0009008165193355908,1.8054301788392029,-0.05043975971386022,-2.842167949229491,-0.7979357821280235,0.17512500429359346,0.021510935806185905,0.06915739063306996,-1.7538695828613269,-4.319933496896043,-0.6959902988578792,-0.01142837814617859,-0.00047662529861664
0.9500000000000001,-0.7970878187251352,1.2801502763766595,-0.6218503701843848,0.28395895282372025,-0.08593271573751574,-7.223287113845333e-05,-0.603824274567899,-0.5441427330008822,0.5710883644753243,0.16000411304258783,-0.08664183037097696,0.0009038774883461868,1.7963115278135053,-0.02594748692135546,-2.8431059975801487,-0.7955809958182423,0.18249838341619729,0.019885979640706708,0.06558750993583554,-1.6995419233592979,-4.321172482078477,-0.6956767700564085,-0.012158801608734775,-0.0004886670231913851
0.96,-0.8029505792994442,1.2747061136489624,-0.6164221428395977,0.2854811413069979,-0.08677863887361598,-6.318478839633935e-05,-0.5862760574308981,-0.5444162727697203,0.5428227344787144,0.15221884832776797,-0.08459231361002362,0.0009048082742113984,1.785150952540591,-0.0013849727437615835,-2.841137370269954,-0.7925620978386405,0.18940351774127784,0.018248955544376888,0.06218467852511065,-1.6463764988921312,-4.32271802749978,-0.6955264652144418,-0.012868502020838342,-0.0005003446466493642
0.97,-0.8086389650448892,1.269261664174504,-0.6112763615798216,0.2869257240486826,-0.08760366218623447,-5.414837962241373e-05,-0.5688385745444938,-0.5444449474458406,0.5145781259776105,0.1444582741684691,-0.08250233126184937,0.0009036408773925622,1.772041013262885,0.023240993399878354,-2.836291854187055,-0.788886946721183,0.1958025065348279,0.01661112665521547,0.05895181660860614,-1.5943748173573713,-4.324563354848328,-0.6955382562047311,-0.013555918105398728,-0.0005116505393558977
0.98,-0.8141542718967698,1.263819382712514,-0.6064125307733417,0.288293014338306,-0.08840742540956616,-4.514417718838749e-05,-0.5515306851880619,-0.5442281461990095,0.4863830806479906,0.13672902896233832,-0.08037632233316792,0.0009004202434026236,1.7570810424447216,0.0479247174246284,-2.828601695256272,-0.7845634823945433,0.20166208502369898,0.014983588490853461,0.05589051143918581,-1.5435354428575687,-4.326700513677389,-0.6957107636439329,-0.014219658381525472,-0.0005225787653210244
0.99,-0.8194979746912112,1.2583817295451394,-0.6018298725713082,0.28958339104144165,-0.08918961431814598,-3.619213985363672e-05,-0.5343702794441392,-0.5437653167374537,0.4582658202033479,0.12903767031356547,-0.078218890857982,0.0008952037334750771,1.7403764044090275,0.07266151405540755,-2.818101604814422,-0.7795998091870802,0.206954107199516,0.013377099900645617,0.053001132322736275,-1.4938541682168123,-4.329120420729823,-0.696042358376389,-0.014858498527964333,-0.0005331249750548508
