tonegas/nnodely-applications/joint_friction_estimation/dataset/test/mpc_mujoco_episode_9.csv
time,q1,q2,q3,q4,q5,q6,dq1,dq2,dq3,dq4,dq5,dq6,ddq1,ddq2,ddq3,ddq4,ddq5,ddq6,tau1,tau2,tau3,tau4,tau5,tau6
0.0,0.0,1.57,-1.57,0.0,0.0,0.0,0.0,0.0,0.0,0.0,0.0,0.0,-8.30585888416965,-5.333391298940944,0.6226320159812442,0.5430073794475163,-1.2396610924090936,-9.92073834638063e-07,-1.1581032982339423,-7.145489046140316,-5.401535337761727,-1.1976142652419777,-0.10477155598910683,-0.0018669411974416886
0.01,-0.0008263514239581714,1.5694686490413083,-1.5699394556695345,4.95672989225568e-05,-0.00010399843686206616,-1.0323991683337975e-06,-0.08263514239581714,-0.053135095869163526,0.0060544330465574885,0.00495672989225568,-0.010399843686206616,-0.00010323991683337974,-8.16985212472918,-5.134476131596111,0.6487840981387922,0.5037757854836151,-1.0350191640009427,-0.010347634560307739,-1.141897013192588,-7.043067547593023,-5.362587838647535,-1.189364189484469,-0.10344301168246836,-0.0018472908637486166
0.02,-0.002464875287217604,1.568425807201568,-1.5698159593982541,0.00014569200279866888,-0.00029913702779791544,-3.1348014960074e-06,-0.16385238632594323,-0.10428418397402761,0.012349627128029042,0.009612470387611207,-0.019513859093584926,-0.00021024023276736026,-8.02184962464418,-4.924633889192676,0.676025065908032,0.4743184521042263,-0.9069858999704579,-0.010799819189031723,-1.1202814914049015,-6.931827606864118,-5.3201821297470095,-1.1803518281643206,-0.10177050540313154,-0.0018245810464343807
0.03,-0.004900460462412868,1.5668924174331076,-1.5696269287758522,0.00028612473091232964,-0.0005771810220645652,-6.236059356438717e-06,-0.2435585175195264,-0.15333897684604342,0.018903062240190744,0.014043272811366076,-0.02780439942666497,-0.0003101257860431317,-7.86466055957819,-4.704794576516828,0.7048496026124296,0.4524539895401549,-0.825919293101208,-0.01021508415366501,-1.0937438012131835,-6.812270527461065,-5.274603822953635,-1.1706443823911952,-0.09978098417614689,-0.001799043310374794
0.04,-0.008117240134934013,1.564890414689684,-1.5693695731500286,0.0004692102235083725,-0.0009327335896254607,-1.027637979934377e-05,-0.3216779672521145,-0.20020027434236487,0.02573556258236594,0.018308549259604286,-0.035555256756089546,-0.0004040320442905054,-7.7000689916675364,-4.475881103345927,0.7355738284094677,0.4365077097706518,-0.7739071946842557,-0.009792051222677678,-1.0628001145875439,-6.684906601491118,-5.226147613539955,-1.1603113961993887,-0.09750237826428247,-0.001770899439736921
0.05,-0.012098707458511625,1.5624426352789536,-1.5690408742489728,0.0006937596688101695,-0.0013621533913913944,-1.521545399001185e-05,-0.3981467323577612,-0.24477794107304995,0.03286989010557699,0.022454944530179703,-0.04294198017659337,-0.000493907419066808,-7.529251123227198,-4.238818524367943,0.7683711403543017,0.42519239352777305,-0.7400681989491602,-0.009609054068432599,-1.027987009944676,-6.550259617259984,-5.175116768847629,-1.1494245109236765,-0.09496331068827431,-0.0017403668172836476
0.06,-0.01682779543391473,1.5595727256419183,-1.5686375781524038,0.0009589522978971014,-0.0018628958695796837,-2.1027303964149956e-05,-0.47290879754031057,-0.2869909637035159,0.04032960965690418,0.026519262908693192,-0.05007424781882893,-0.0005811849974138105,-7.353024219108995,-3.9945391852116066,0.8033000821221474,0.41751362736335373,-0.7177582914691456,-0.009611347633913248,-0.989853478182204,-6.408869845293797,-5.121822070642602,-1.1380570991055163,-0.09219287560890188,-0.0017076614131186752
0.07,-0.022286935923021958,1.556305050136126,-1.5681561965242878,0.001264259012467767,-0.0024331103406343376,-2.769553350167224e-05,-0.5459140489107228,-0.3267675505792406,0.04813816281159009,0.03053067145706656,-0.057021447105465375,-0.0006668229537522285,-7.171995180906353,-3.743985077380436,0.8403258513140468,0.4126974341421583,-0.7028918093076015,-0.00974810030449813,-0.9489534186618785,-6.261295932144547,-5.0665804067757225,-1.1262838225066223,-0.08922045037159804,-0.0016729994042083561
0.08,-0.028458106671864436,1.552664597653279,-1.5675930154910398,0.0016093825545414823,-0.003071391643776082,-3.521012904533178e-05,-0.6171170748842478,-0.36404524828470475,0.056318103324808196,0.03451235420737152,-0.06382813031417445,-0.0007514595543659541,-6.986649113215782,-3.4881082329163147,0.8793370461633945,0.41013541752263905,-0.6929286037794427,-0.00998385942854707,-0.9058385412923385,-6.1081159548864825,-5.009713140234738,-1.1141801442581882,-0.0860755212809737,-0.0016365979489538665
0.09,-0.035322871602076374,1.5486768870801995,-1.5669441108949589,0.001994210063410417,-0.0037766252082482646,-4.3565397599863387e-05,-0.6864764930211936,-0.39877105730794155,0.06489045960809631,0.03848275088689344,-0.07052335644721824,-0.0008355268554531602,-6.79740193413406,-3.2278696960909725,0.9201589100419287,0.4093433120794039,-0.6862621226095769,-0.010294363949932439,-0.8610516640651841,-5.949927783878307,-4.951544342625614,-1.1018218162480995,-0.08278751221002861,-0.0015986753975710559
0.1,-0.04286241746382137,1.5443678717417806,-1.5662053689042508,0.0024187748837573644,-0.00454788858915843,-5.2758619860573696e-05,-0.7539545861745,-0.4309015338418938,0.07387419907081409,0.04245648203469475,-0.0771263380910166,-0.0009193222260710309,-6.604631413251809,-2.9642374337344832,0.9625640223102954,0.4099297441851597,-0.6818493444558023,-0.01066224304765484,-0.8151204361373469,-5.787348840161782,-4.892398953816984,-1.0892843572778372,-0.07938561059047948,-0.0015594510916586203
0.11,-0.051057588643662125,1.539763843061568,-1.5653725111419874,0.002883225264814928,-0.0053843871248486575,-6.278913650962493e-05,-0.819517117984075,-0.4604028680212476,0.08328577622632868,0.046445038105756356,-0.08364985356902273,-0.0010030516649051234,-6.408695259373474,-2.698183440341346,1.0062811422976496,0.4115727652197867,-0.6789868118835187,-0.011074104792062833,-0.7685515379051393,-5.621015299615287,-4.83260091342334,-1.076642533902537,-0.07589858869504355,-0.0015191448402772471
0.12,-0.059888921141450245,1.5348913337494512,-1.5644411236249673,0.0033877981817473663,-0.006285410194542239,-7.365769270744077e-05,-0.8831332497788118,-0.48725093121169405,0.09313875170199559,0.050457291693243846,-0.09010230696935817,-0.0010868556197815835,-6.209941438093618,-2.4306802299097927,1.0510027286852308,0.41400230208957645,-0.6771750352134944,-0.011518700146162963,-0.7218254187105578,-5.45158077811916,-4.772471299154569,-1.0639698533783353,-0.07235462026749402,-0.0014779761273692957
0.13,-0.06933667626389943,1.5297770208823098,-1.5634066888935763,0.003932796961229028,-0.007250299895397088,-8.536593422617197e-05,-0.9447755122449186,-0.5114312867141391,0.10344347313910245,0.05449987794816621,-0.09648897008548488,-0.0011708241518731208,-6.008713837224327,-2.1626968666122446,1.0963915160471056,0.4169871136163188,-0.6760364388414359,-0.011985782405663947,-0.6753916338894457,-5.279714524108841,-4.712326499584068,-1.0513380763033442,-0.06878109396159904,-0.0014361630911304594
0.14,-0.07938087430479633,1.5244476292859053,-1.562264620776076,0.004518571736955608,-0.008278427194589398,-9.79159907837653e-05,-1.0044198040896901,-0.5329391596404559,0.11420681175001894,0.058577477572658035,-0.10281272991923099,-0.0012550056557593312,-5.805355158893853,-1.8951946608999626,1.1420864232560035,0.42032517763608745,-0.6752658283844966,-0.012465403694233324,-0.6296648381414174,-5.106099143114625,-4.652476443300273,-1.0388167550802088,-0.06520442598189398,-0.0013939213113872506
0.15,-0.09000132831801155,1.5189298356570085,-1.5610103012734273,0.005145502022935477,-0.00936917257813756,-0.00011131010790731255,-1.062045401321522,-0.5517793628896795,0.12543195026485632,0.06269302859798688,-0.10907453835481629,-0.0013394117123547253,-5.600208169712765,-1.6291226405849282,1.18770798697527,0.42383668847811173,-0.6746006874376889,-0.012947488986494449,-0.5850214831337062,-4.9314278808517775,-4.593222901988724,-1.026472803099532,-0.06164987492447345,-0.0013514624412544112
0.16,-0.10117767799437606,1.513250173885216,-1.5596391190800116,0.005813980892105788,-0.010521909416939177,-0.00012555030449884074,-1.1176349676364512,-0.5679661771792551,0.1371182193415676,0.06684788691703113,-0.1152736838801616,-0.0014240196591528195,-5.393615987438896,-1.3654128942642685,1.2328634516032617,0.4273590376836325,-0.6738036404187007,-0.013421591965443014,-0.5417972548966998,-4.756401495658353,-4.534857881354874,-1.0143700984663668,-0.05814136217595123,-0.0013089927215715203
0.17,-0.11288942359956379,1.50743494204514,-1.5581465092762026,0.006524400399692534,-0.0117359890056281,-0.00014063804313328465,-1.1711745605187727,-0.581523184007585,0.14926098038091154,0.07104195075867455,-0.12140795886889225,-0.0015087738634443912,-5.185921806438964,-1.1049758750183958,1.2771516003311612,0.4307432974032198,-0.6726524514639749,-0.013876776237487398,-0.5002852718114125,-4.581724756625898,-4.477662110743011,-1.0025691251302606,-0.05470130139001847,-0.0012667114192690704
0.18,-0.125115959900476,1.5015101115324936,-1.5565279937442296,0.007277138005861533,-0.013010726684613002,-0.0001565739063723674,-1.222653630091221,-0.5924830512646391,0.16185155319729283,0.07527376061689997,-0.1274737678984903,-0.0015935863239082745,-4.977468294834996,-0.8486957443436012,1.320167377029906,0.4338518372081708,-0.6709347573165303,-0.014301589023628658,-0.4607350476614783,-4.408102609971133,-4.421903639736919,-0.9911266534193962,-0.05135044055321969,-0.0012248092330031757
0.19,-0.13783660999178712,1.4955012388127118,-1.5547792218718375,0.00807254383900496,-0.014345388740454944,-0.00017335727646430445,-1.2720650091311119,-0.600887271978172,0.17487718723920595,0.0795405833143427,-0.13346620558419428,-0.0016783370091937053,-4.768596791614502,-0.5974258290253748,1.3615063228832816,0.43655678972304957,-0.6684458304312102,-0.014684108269436447,-0.42335220712253674,-4.236236062569351,-4.367836547898643,-0.9800954612190999,-0.04810771999442484,-0.001183466710607442
0.2,-0.15103065892572354,1.489433380238823,-1.5528960111208345,0.008910928705884858,-0.015739179960918163,-0.00019098601857260407,-1.3194048933936404,-0.606785857388871,0.18832107510028484,0.08383848668798978,-0.13937912204632208,-0.001762874210829961,-4.559646367677885,-0.3519842566845331,1.4007688330463333,0.43873914499306066,-0.6649883246290997,-0.01501205184006471,-0.3882989240310891,-4.066817837717939,-4.315699772083198,-0.9695240963754045,-0.04499014940868169,-0.0011428527229342727
0.21,-0.16467738704271162,1.483331010376928,-1.5508743870511326,0.00979255280270139,-0.01719123183822597,-0.00020945616963951558,-1.3646728116988092,-0.6102369861895168,0.20216240697020485,0.08816240968165312,-0.14520518773078048,-0.001847015106691151,-4.350952775684607,-0.11314982881693487,1.4375642255733048,0.440288302789809,-0.6603733435884038,-0.015272941313900557,-0.3556950365337511,-3.9005278637997365,-4.265716054435758,-0.9594566803471836,-0.0420127065699966,-0.0011031230373351525
0.22,-0.17875610289571295,1.4772179442535258,-1.5487106224062483,0.010717615115713569,-0.01870059149073833,-0.00022876163642690978,-1.4078715853001316,-0.6113066123402033,0.21637646448841108,0.09250623130121792,-0.15093596525123606,-0.0019305466787394208,-4.142847291263712,0.11834181680724447,1.4715146062130617,0.4411019498772708,-0.6544223979673696,-0.015454314207563158,-0.32561977850941337,-3.7380286612868043,-4.218091013197673,-0.9499327526737544,-0.03918825992292811,-0.001064419031410803
0.23,-0.19324617565541138,1.4711172639097028,-1.5464012748840683,0.011686243524194936,-0.02026621142312985,-0.0002488939073434953,-1.4490072759698442,-0.6100680343823138,0.23093475221801135,0.09686284084813675,-0.15656199323915193,-0.0020132270916585504,-3.9356554373337707,0.3418017095435719,1.50225850748052,0.44108615837918563,-0.6469699445914436,-0.015543978204955788,-0.29811405407291913,-3.579960697224997,-4.173012337772457,-0.9409871554635552,-0.036527516689322366,-0.0010268665838013122
0.24,-0.20812706687625268,1.4650512496135355,-1.5439432232372676,0.01269848563448275,-0.02188694027600684,-0.0002698417834370951,-1.4880891220841297,-0.6066014296167358,0.2458051646800634,0.10122421102878129,-0.1620728852876991,-0.002094787609359978,-3.7296955807732557,0.5565906773107948,1.5294542779040938,0.44015562400845276,-0.6378662707317506,-0.015530299698743644,-0.2731831720012763,-3.4269377787710864,-4.130649109075388,-0.9326499568345553,-0.034038997526885044,-0.0009905751738231532
0.25,-0.22337836149457435,1.4590413160446805,-1.541333701371251,0.01375430038341484,-0.023561514732119024,-0.00029159113443228535,-1.5251294618321682,-0.6009933568855004,0.2609521866016803,0.10558147489320897,-0.1674574456112184,-0.0021749350995190287,-3.5252773943627376,0.762122075396038,1.5527831969397625,0.4382339805911357,-0.6269805229458658,-0.015402517113516367,-0.25079994991565224,-3.2795425583627797,-4.0911512459436326,-0.9249464120361431,-0.031729038153230485,-0.0009556372158669522
0.26,-0.23897979792009014,1.4531079537246807,-1.5385703301337308,0.01485355045390937,-0.025288552750290128,-0.00031412468592932906,-1.5601436425515784,-0.5933362319999842,0.27633712375200553,0.10992500704945297,-0.17270380181711045,-0.0022533551497043703,-3.3227001851667235,0.9578640890092267,1.5719522922303677,0.43525414131296714,-0.614203699090961,-0.015151067546516739,-0.23090809419373265,-3.138322222586847,-4.0546490782476114,-0.9178969608409027,-0.0296018177249677,-0.0009221276478527634
0.27,-0.2549112970715568,1.4472706759237508,-1.5356511465189182,0.01599599554591893,-0.027066548291291452,-0.0003374218438427063,-1.5931499151466648,-0.5837277800930017,0.29191836148124795,0.11424450920095613,-0.1777995541001323,-0.0023297157913377215,-3.122251101914692,1.1433415929164417,1.586696838288164,0.43115862830498397,-0.5994514341888078,-0.014767913427637058,-0.2134257609096734,-3.0037844347228866,-4.021253047248093,-0.9115172596973804,-0.02765941315760407,-0.0008901037859257511
0.28,-0.27115299019757466,1.4415479712303785,-1.5325746300404228,0.01718128654335982,-0.028893867683079524,-0.0003614585618378402,-1.6241693126017867,-0.572270469337242,0.30765164784953614,0.11852909974408901,-0.18273193917880706,-0.0024036717995133913,-2.924203247093354,1.318137558259175,1.5967825189602092,0.4258998612585465,-0.5826664224286873,-0.01424685455083008,-0.19824920548476693,-2.87639359729007,-3.9910535336223383,-0.9058182470662134,-0.02590187800815195,-0.0008596054502026183
0.29,-0.28768524531534123,1.435957261924678,-1.5293397260600077,0.018408960612598488,-0.030768747747047593,-0.0003862072569212387,-1.6532255117766574,-0.5590709305700333,0.32349039804151813,0.12276740692386667,-0.18748800639680707,-0.0024748695083398526,-2.7288137329805306,1.4818940032060701,1.6020072399168663,0.41944038325845767,-0.5638203328575457,-0.01358381020117605,-0.1852564339275588,-2.7565674957750095,-3.9641208133800916,-0.9008062403075595,-0.024327344035504506,-0.0008306553589926442
0.3,-0.3044886920950305,1.4305148682507125,-1.5259458658938656,0.019678437261269253,-0.032689295773332655,-0.00041163677746268006,-1.6803446779689284,-0.5442393673965541,0.339386016614206,0.1269476648670764,-0.19205480262850627,-0.0025429520541441386,-2.536321733357748,1.6343124903102,1.6022025816797076,0.4117530082218721,-0.5429150974670982,-0.012777056291809474,-0.17431077618001378,-2.644674378190803,-3.9405051415629124,-0.8964830624354756,-0.022932143118195913,-0.0008032597817539231
0.31,-0.32154424501649015,1.4252359786375788,-1.52239298355364,0.02098901537810098,-0.03465349139322109,-0.00043771242680234237,-1.7055552921459651,-0.527888961313378,0.35528823402256543,0.13105781168317282,-0.19641956198884322,-0.002607564933966232,-2.346946592850767,1.775154179289127,1.5972348881573675,0.4028208795948842,-0.519983478150376,-0.011827403662560743,-0.16526431171099742,-2.5410305173761154,-3.920236963138465,-0.8928461969952131,-0.021710946856003832,-0.0007774094343336823
0.32,-0.33883312462914084,1.4201346258745244,-1.5186815290155307,0.022339871265474577,-0.03665919035209477,-0.00046439604426153395,-1.7288879612650672,-0.5101352763054356,0.3711454538109347,0.13508558873735965,-0.20056989588736815,-0.002668361745919157,-2.160886062673341,1.9042394493321242,1.5870059901524685,0.39263743436947074,-0.49508885282205384,-0.010738305899179235,-0.15796108859565283,-2.4458982941973364,-3.903327249850657,-0.8898889692459154,-0.020656920918270552,-0.0007530805939858332
0.33,-0.35633687675606396,1.4152236692022577,-1.5148124779470462,0.023730057666981903,-0.03870413013924238,-0.0004916461438878064,-1.7503752126923109,-0.4910956672266645,0.38690510684844964,0.13901864015073262,-0.20449397871476047,-0.0027250099626272427,-1.9783147341920808,2.021447109904373,1.5714535676875223,0.38120627024563447,-0.46832419927938673,-0.009515888088156288,-0.1522400893461548,-2.3594848303045755,-3.8897679609668074,-0.8876007517404745,-0.019761891031286866,-0.0007302364064394269
0.34,-0.37403738949966114,1.4105147822414268,-1.5107873378568277,0.025158503782624117,-0.04078593738351357,-0.0005194181096897793,-1.7700512743597165,-0.4708886960830887,0.402514009021846,0.14284461156422146,-0.20818072442711885,-0.002777196580197289,-1.799382739764983,2.1267132232970463,1.5505511591875707,0.3685409168829139,-0.4398102957577015,-0.00816889178112512,-0.14793790917319818,-2.281941189074657,-3.8795326248882738,-0.8859671922860395,-0.019016517419277897,-0.0007088283530523698
0.35000000000000003,-0.3919169079289474,1.4060184466403993,-1.506608150668057,0.02662401625473837,-0.04290213687856318,-0.0005476644445292881,-1.7879518429286283,-0.44963356010274813,0.41791871887707355,0.14655124721142532,-0.21161994950496085,-0.00282463348395088,-1.624214783722462,2.220029565819943,1.5243078294478765,0.354664514797312,-0.4096931967977069,-0.006708535658866199,-0.14489112464275966,-2.2133621531195526,-3.8725770374855375,-0.8849704621448831,-0.018410474524508294,-0.0006887978429313702
0.36,-0.40995804635707433,1.4017439512883372,-1.5022774917498678,0.028125281098501938,-0.04505016206056528,-0.0005763350683152017,-1.8041138428126915,-0.42744953520620804,0.43306589181892696,0.15012648437635678,-0.2148025182002098,-0.0028670623785913584,-1.4529095555635083,2.301441757510466,1.492767511867103,0.33960940753531865,-0.3781410790658146,-0.005148295756975396,-0.14293834238373526,-2.1537865765165805,-3.868840071816923,-0.8845895222005179,-0.017932632924593038,-0.0006700778928938947
0.37,-0.428143798151248,1.397699396906426,-1.49779846547355,0.029660866542116783,-0.04722736672675976,-0.0006053776597588324,-1.818575179417364,-0.40445543819111307,0.4479026276317917,0.15355854436148464,-0.2177204666194482,-0.002904259144363069,-1.2855395632013469,2.37104709252561,1.4560080435849612,0.323416654377608,-0.3453405814775161,-0.0035036133020164284,-0.1419219282019174,-2.1031982999824,-3.8682445926310742,-0.8848004046737957,-0.017571240529322952,-0.0006525948573079275
0.38,-0.4464575430546551,1.3938917058002127,-1.4931746973908444,0.03122922673367412,-0.04943103775660983,-0.000634738034771848,-1.8313744903407125,-0.38076911062133023,0.46237680827054306,0.15683601915573359,-0.22036710298500636,-0.002936037501301567,-1.1221514074604655,2.428992103993227,1.4141399149067695,0.3061354720320306,-0.3114927852590186,-0.0017915417617661022,-0.14168942634895831,-2.06152760780294,-3.870698467780546,-0.885576507835258,-0.017314100363185536,-0.0006362701701430158
0.39,-0.4648830520399227,1.3903266365294873,-1.4884103231600012,0.03282870626435436,-0.051658408579767605,-0.0006643605536660544,-1.8425508985267587,-0.35650692707254333,0.47643742308431253,0.15994795306802365,-0.22273708231577788,-0.0029622518894206478,-0.9627665012089661,2.475469898048106,1.367304756723878,0.2878226145729883,-0.2768089911135818,-3.034767587301035e-05,-0.1420946865549744,-2.0286531966532095,-3.8760956674311675,-0.8868889010305829,-0.017148742509952936,-0.0006210220629317054
0.4,-0.4834044897544457,1.387008803229104,-1.4835099743712719,0.03445754545111663,-0.053906673126961936,-0.000694188548689089,-1.8521437714523055,-0.33178333003834154,0.49003487887292846,0.16288391867622704,-0.2248264547194334,-0.002982799502303458,-0.8073822187496318,2.510717292110194,1.315673591537232,0.2685417013672673,-0.2415064520398862,0.0017609184611287465,-0.1429987226249051,-2.00440461866926,-3.8843174407819125,-0.8887066372230367,-0.017062588098369934,-0.0006067672246671737
0.41000000000000003,-0.5020064146580093,1.3839416992946034,-1.4784787614469526,0.03611388631643163,-0.05617300000124454,-0.0007241647631169548,-1.860192490356363,-0.30671039345005785,0.5031212924319233,0.16563408653150005,-0.22663268742826045,-0.0029976214427865837,-0.6559734445456408,2.53501179223263,1.2594448751838945,0.24836250291126483,-0.2058042120872443,0.0035628640307530657,-0.144270330874376,-1.9885651544066418,-3.8952335589521896,-0.8909970701674416,-0.017043103529500777,-0.0005934223728136782
0.42,-0.5206737769909491,1.381127725130449,-1.4733222538118236,0.03779577919794439,-0.05845454661711929,-0.0007542317931256688,-1.8667362332939739,-0.2813974164154348,0.5156507635128987,0.16818928815127648,-0.22815466158747483,-0.0030067030008713953,-0.5084944759909469,2.5486684436285287,1.1988423574589255,0.2273601944628183,-0.16991918477125245,0.0053561919360183285,-0.14578649947414213,-1.980875065736351,-3.9087036117828786,-0.8937261732706632,-0.017077943474044944,-0.0005809057084222586
0.43,-0.5393919147452377,1.3785682196460445,-1.4680464575477472,0.039501189917232074,-0.060748473072832036,-0.0007843325239611127,-1.8718137754288688,-0.25595054844045717,0.5275796264076362,0.17054107192876858,-0.22939264557127484,-0.0030100730835443804,-0.3648812234664788,2.5520365873538298,1.1341127905444282,0.20561458711648406,-0.13406258194538379,0.007122118295939719,-0.14743264098679537,-1.981035174352383,-3.9245783455632264,-0.8968588571693976,-0.017155081490782494,-0.0005691382326537405
0.44,-0.5581465478401871,1.37626349517535,-1.4626577907612188,0.041228007434039836,-0.06305195554506729,-0.0008144105524869914,-1.8754633094949442,-0.23047244706944633,0.5388666786528287,0.1726817516807761,-0.23034824722352484,-0.0030078028525878696,-0.22505364277651974,2.54549655466119,1.0655235145133206,0.18320934562095026,-0.09843677695085096,0.008842756385691736,-0.14910268017566214,-1.988710708422216,-3.942701028161305,-0.9003592830712547,-0.01726292742607679,-0.0005580449066387084
0.45,-0.5769237707280198,1.3742128754897103,-1.4571630569047787,0.042974051910517064,-0.06536219902382481,-0.0008444105889721205,-1.8777222887832696,-0.20506196856398926,0.5494733856440099,0.17460444764772265,-0.23102434787575296,-0.003000003648512916,-0.08891833037937275,2.529456328823589,0.9933599492008911,0.16023120177245787,-0.06323265722605009,0.010501455562179796,-0.15069902774644411,-2.0035353579975133,-3.9629088277176865,-0.9041911689627817,-0.017390431042023285,-0.0005475556413797507
0.46,-0.5957100436718207,1.372414736570271,-1.4515694163023902,0.04473708310900531,-0.06767644923660363,-0.000874278831929111,-1.878627294380088,-0.17981389194393488,0.5593640602388514,0.17630311984882452,-0.23142502127788117,-0.00298682429569905,0.043628789502776315,2.504348202330892,0.9179230214426868,0.1367691716956294,-0.02862749350452609,0.012083086759417494,-0.152132468277202,-2.0251154790821224,-3.9850341909703104,-0.9083180858895408,-0.017527171582569678,-0.0005376061091669907
0.47000000000000003,-0.6144921829490535,1.3708665498059185,-1.4458843561352073,0.04651480904680885,-0.06999200364352826,-0.0009039633108832953,-1.8782139277232839,-0.15481867643526157,0.5685060167182915,0.1777725937803546,-0.23155544069246237,-0.0029684478954184186,0.17269975510087857,2.4706254553508433,0.8395265560781562,0.11291378478097158,0.005216672878851636,0.013574269140135431,-0.15332198744493505,-2.0530343866700047,-4.008906207417067,-0.9127037416588457,-0.01766343322003132,-0.0005281383725924199
0.48,-0.6332573502379489,1.3695649272848063,-1.4401156591476474,0.04830489483206432,-0.0723062214172022,-0.0009334141930797192,-1.8765167288895408,-0.13016225211121468,0.5768696987559873,0.1790085785255471,-0.2314217773673933,-0.002945088219642398,0.2984118995640169,2.4287590792694242,0.7584946582519487,0.08875633145419304,0.0381541448054219,0.014963535381050719,-0.15419456001034076,-2.08685667853599,-4.034351945888285,-0.9173122495038214,-0.017790266528003754,-0.0005191013315941851
0.49,-0.6519930414419286,1.3685056688520527,-1.4342713713344506,0.050104971606265064,-0.07461653235159503,-0.0009625840512776211,-1.8735691203979619,-0.10592584327534929,0.5844287813196822,0.18000767742007429,-0.23103109343928355,-0.0029169858197901862,0.4208852842707041,2.379234567030178,0.6751591134029784,0.06438813637689478,0.07005622361008124,0.016241435783809988,-0.1546849161082206,-2.126132533991112,-4.061197750685865,-0.9221083794754188,-0.017899536301372473,-0.000510450992941859
0.5,-0.6706870751993282,1.367683810612871,-1.4283597688675542,0.05191264552113544,-0.07692044467218129,-0.000991428090891478,-1.8694033757399653,-0.08218582391816917,0.5911602466896352,0.1807673914870379,-0.23039123205862572,-0.002884403961385707,0.5402402837920898,2.322548789901711,0.5898568299575042,0.039899863072125896,0.10081145207909792,0.017400583675337478,-0.15473529942091055,-2.170401935092504,-4.089270485235452,-0.9270577905929303,-0.017983956191694496,-0.0005021505701173931
0.51,-0.6893275813126923,1.3670936745690423,-1.4223893245172843,0.053725506680331235,-0.07921555174417198,-0.0010199043357798324,-1.8640506113364121,-0.059013604382882126,0.5970444350269948,0.18128611591957972,-0.22951070719907002,-0.002847624488835433,0.6565953645960285,2.259206978245524,0.5029273481403438,0.015380855371113888,0.13032550272578947,0.01843564650770202,-0.15429522697033107,-2.2191987618054907,-4.118398712173661,-0.9321272420782245,-0.018037110749158043,-0.0004941704246035785
0.52,-0.707902989314619,1.3667289190870415,-1.4163686738157166,0.0555411379798048,-0.08149953769662972,-0.001047973772928873,-1.8575408001926659,-0.03647554820008113,0.6020650701567566,0.18156312994735627,-0.2283985952457746,-0.0028069437149040527,0.7700650904370973,2.1897198218373264,0.4147104365215206,-0.009081479537509374,0.1585207706634275,0.019343288498264388,-0.15332125670343344,-2.2720547172289116,-4.148413799932006,-0.9372847823183849,-0.018053465563469703,-0.00048648786213483376
0.53,-0.7264020173663913,1.366582589908086,-1.4103065812012785,0.05735712378455441,-0.08377018199741208,-0.001075600457107684,-1.8499028051772268,-0.014632917895555628,0.6062092614438142,0.18159858047496125,-0.2270644300782357,-0.0027626684178810954,0.8807583782269225,2.114600703326668,0.32554379594181837,-0.033402242295861306,0.18533572957965294,0.020122071659193108,-0.1517767658846302,-2.3285030440845853,-4.179150947155996,-0.9424999145388291,-0.018028366278275625,-0.0004790867994827314
0.54,-0.7448136616623107,1.3666471714236912,-1.4042119063729293,0.05917105838381159,-0.08602536302734039,-0.0011027515772741479,-1.8411644295919398,0.006458151560537903,0.6094674828349194,0.18139345992571804,-0.22551810299283065,-0.0027151120166463844,0.9887770193818747,2.034363076498975,0.23576088834199327,-0.05749956327564476,0.2107241057371816,0.020772322648331842,-0.14963174063004137,-2.3880819991106716,-4.210450117683891,-0.9477437385170203,-0.017958027319649537,-0.00047195731884465923
0.55,-0.7631271864876095,1.3669146379548083,-1.3980935710698024,0.06098055417144099,-0.08826306071200041,-0.001129397487079807,-1.831352482529885,0.02674665311170661,0.611833530312697,0.18094957876294032,-0.22376976846600174,-0.002664590980565895,1.0942144734304948,1.9495179991345062,0.1456889057823032,-0.08129507231013378,0.23465391947718217,0.02129597304668518,-0.14686257477524478,-2.450338057659279,-4.242156880273699,-0.9529890680179662,-0.01783951123139908,-0.00046509512789860496
0.56,-0.7813321150518753,1.3673765047880784,-1.3919605264782118,0.06278324950336686,-0.09048135827651689,-0.0011555117022601044,-1.8204928564265854,0.046186683327002646,0.6133044591590493,0.18026953319258693,-0.22182975645164854,-0.002611421518029754,1.1971549332704075,1.8605718284369328,0.05564689261368949,-0.1047143140363449,0.25710643719090687,0.021696380601999632,-0.1434518746762156,-2.514828826559925,-4.274123148778627,-0.9582105239792826,-0.017670699549825263,-0.00045850094410092735
0.5700000000000001,-0.7994182211938153,1.3680238787390109,-1.385821721452677,0.06457681618912851,-0.09267844319293729,-0.0011810708680084251,-1.8086106141940108,0.0647373950932478,0.6138805025534902,0.17935666857616586,-0.2197084916420406,-0.00255591657483208,1.2976726549759188,1.7680240852318374,-0.03405596861942639,-0.12768710728534804,0.27807506986032493,0.021978138540860614,-0.13938826549739533,-2.581125649055883,-4.306207819997857,-0.963384603808246,-0.017450256179827994,-0.0004521798218769814
0.58,-0.8173755220275827,1.3688475080287725,-1.3796860717213109,0.06635896658013572,-0.09485260739196039,-0.001206054699628608,-1.795730083376731,0.08236292897616924,0.6135649731366107,0.1782150391007213,-0.21741641990230906,-0.002498383162018289,1.3958315395658498,1.6723654914130264,-0.12312189936195983,-0.150147847636096,0.2975642475779807,0.02214687945812388,-0.13466619400787233,-2.648815891243101,-4.338277307941041,-0.9684897274691361,-0.017177584253516624,-0.00044614044102269605
0.59,-0.8351942715763425,1.3698378312786106,-1.3735624302288127,0.06812746022277262,-0.09700224681108997,-0.0012304458998533023,-1.78187495487598,0.09903232498381548,0.6123641492498151,0.17684936426368994,-0.2149639419129591,-0.0024391200224694377,1.4916849496630955,1.57407618344601,-0.21126588953147785,-0.17203575288970008,0.31558829333068417,0.02220907965629282,-0.1292857228364024,-2.7175049048442053,-4.370205974711644,-0.9735062613300047,-0.016852777462249585,-0.000440394373943314
0.6,-0.8528649554157467,1.3709850254435474,-1.367459558752616,0.06988011005011915,-0.09912586035028094,-0.00125423005621679,-1.767068383940422,0.11471941649368127,0.6102871476196916,0.17526498273465393,-0.21236135391909672,-0.0023784156363487728,1.5852757405022055,1.4736241031284585,-0.29821688085414344,-0.19329505189255092,0.3321703139931964,0.022171868837249198,-0.12325231146363577,-2.7868176662459088,-4.401876459608647,-0.9784165209984629,-0.01647656685340835,-0.0004349553483513474
0.61,-0.8703782863288677,1.3722790525247162,-1.3613861009097215,0.0716147880916533,-0.10122204830412135,-0.001277395521797235,-1.7513330913121037,0.12940270811688584,0.6073457842894379,0.17346780415341417,-0.20961879538404077,-0.002316546558044505,1.6766364822290165,1.3714635652656342,-0.38371876788534265,-0.2138751177377476,0.3473411220230096,0.022042849307169377,-0.1165765798812533,-2.856400096444314,-4.433179909344128,-0.9832047546017008,-0.016050264074137566,-0.0004298385207755776
0.62,-0.8877252009551956,1.373709704917408,-1.3553505566536093,0.07332943068580314,-0.10328951033685019,-0.0012999332825070296,-1.7346914626327827,0.14306523926920017,0.6035544256112277,0.17146425941498367,-0.20674620327288337,-0.0022537760709794557,1.7657898488242953,1.2680340004521256,-0.4675312177058666,-0.23373054698897566,0.36113819777452694,0.021829927925156145,-0.10927405174369513,-2.9259200708173636,-4.4640161134541065,-0.9878571081535403,-0.015575702025613633,-0.00042505977474950845
0.63,-0.9048968573996998,1.3752666492694128,-1.3493612583425747,0.07502204318557389,-0.10532704306327588,-0.0013218368139255364,-1.717165644450428,0.1556944352004703,0.5989298311034496,0.1692612499770743,-0.20375327264256973,-0.002190353141850674,1.852749148193874,1.1637588697712016,-0.5494303113235686,-0.252821187115916,0.3736046995813149,0.021541163166966415,-0.10136487489892677,-2.995068131431112,-4.49429355002494,-0.9923615747986748,-0.015055173863026435,-0.00042063505589726564
0.64,-0.9218846337537986,1.3769394687414318,-1.3434263484431093,0.07669070415262473,-0.10733353729511419,-0.0013431019304490236,-1.6987776354098796,0.16728194720190967,0.593490989946538,0.16686609670508468,-0.2006494231838304,-0.0021265116523487173,1.93751896791097,1.0590447469398596,-0.6292090116894049,-0.27111211483784475,0.3847885266637956,0.021184628915007497,-0.09287351833332445,-3.0635579178523673,-4.5239293477535005,-0.9967079298304116,-0.014491371238396639,-0.00041657975437057744
0.65,-0.9386801274683784,1.37871770357809,-1.3375537589146869,0.07833356904006387,-0.10930797500853634,-0.0013637266292889816,-1.679549371457979,0.17782348366581355,0.5872589528422492,0.1642864887439145,-0.19744377134221558,-0.002062469883995795,2.0200959116741903,0.9542805622509952,-0.7066774649428103,-0.28857356852655214,0.3947414383803878,0.02076829585191997,-0.0838284457312237,-3.1311263351664818,-4.55284917109802,-1.0008876534434892,-0.01388732263581598,-0.00041290814325632236
0.66,-0.9552751555097334,1.3805908899142456,-1.331751192305733,0.07994887336882087,-0.1112494260849038,-0.0013837109315926709,-1.6595028041355016,0.18731863361555748,0.5802566608953783,0.1615304328756989,-0.194145107636747,-0.001998430230368935,2.1004694026522714,0.8498370016045222,-0.7816631430171642,-0.30518083820458053,0.4035182322011881,0.02029993069866598,-0.07426176696981923,-3.197533480077533,-4.580987035852143,-1.0048938432089591,-0.013246332592204776,-0.000409632879719591
0.67,-0.9716617552223388,1.3825485967568103,-1.326026104574773,0.08153493540670542,-0.11315704487282847,-0.0014030567226974518,-1.6386599712605392,0.19577068425645786,0.5725087730959986,0.1586062037884559,-0.1907618787924664,-0.0019345791104780894,2.17862253143741,0.7460660529833614,-0.8540108370490362,-0.32091411700396977,0.4111759819302101,0.01978701300444019,-0.06420886989093935,-3.2625623476068504,-4.608285062887757,-1.0087211182462017,-0.012571922531793202,-0.0004067645738106086
0.68,-0.9878321858175998,1.3845804610970247,-1.32038568963591,0.08309015836313811,-0.11503006661588167,-0.0014217675932703643,-1.6170430595260967,0.20318643402144065,0.5640414938862857,0.155522295643269,-0.1873021743053196,-0.0018710870572912492,2.2545329281880466,0.6433006919268749,-0.9235825121422152,-0.33575831819398516,0.4177733370326475,0.01923666877217145,-0.05370803557452339,-3.3260183420201415,-4.634693178065044,-1.0123655170207166,-0.011867773870593285,-0.00040431142808852077
0.6900000000000001,-1.0037789304049538,1.386676221122033,-1.3148368656140004,0.08461303211601608,-0.11686780378651136,-0.0014398486828321655,-1.5946744587353954,0.20957600250081238,0.5548824021909666,0.15228737528779593,-0.18377371706296924,-0.0018081089561801274,2.328173640659163,0.5418546968851446,-0.9902570349276927,-0.34970286207609247,0.42336988335155823,0.018655619823551683,-0.04280004105089748,-3.3877286162319487,-4.660168766408513,-1.0158243906193436,-0.011137673968939159,-0.00040227894953184134
0.7000000000000001,-1.0194946984807447,1.388825747507574,-1.3093862627822352,0.08610213449023789,-0.11866964236303597,-0.0014573065269256765,-1.5715768075790855,0.21495263855410113,0.545060283176516,0.14891023742218182,-0.18018385765246017,-0.001745784409351111,2.399514002063789,0.4420225848068837,-1.0539297860439398,-0.36274143714781637,0.4280255649893725,0.018050147608586586,-0.03152775391535814,-3.4475412640934544,-4.684676288605367,-1.01909629325126,-0.010385465427550044,-0.0004006697336453308
0.71,-1.0349724287909232,1.3910190727856273,-1.3040402131434001,0.0875561321100446,-0.12043503808298242,-0.0014741489089643686,-1.5477730310178568,0.21933252780532264,0.5346049638835008,0.14539976198067067,-0.176539571994645,-0.0016842382038692136,2.468520475030229,0.34407965692063963,-1.1145121701365353,-0.3748717399815802,0.431800166630838,0.017426069954515455,-0.019935723639672692,-3.5053243897086586,-4.7081868677102605,-1.0221808715980256,-0.009614999136864073,-0.00039948331925895864
0.72,-1.0502052924856329,1.3932464187918523,-1.2988047416058899,0.08897378084953413,-0.12216351270254029,-0.0014903847175915677,-1.5232863694709726,0.22273460062250017,0.5235471537510155,0.14176487394895346,-0.17284746195578676,-0.0016235808627199175,2.535157460232703,0.24828214441113006,-1.1719310362508666,-0.3860951982334129,0.43475285510207584,0.016788729202094066,-0.008069774514150765,-3.5609650772913928,-4.730677853653108,-1.0250787544940305,-0.008830091402361859,-0.00039871611126683344
0.73,-1.0651866964868928,1.3954982222076442,-1.2936855586966505,0.09035392590747697,-0.1238546502885271,-0.001506023810194131,-1.498140400125999,0.22518034157918151,0.5119182909239451,0.13801450579428384,-0.16911375859868144,-0.0015639092602563135,2.5993880605216075,0.154867443566196,-1.2261280215816512,-0.3964166811137688,0.4369417784866805,0.0161429900978578,0.00402339488847768,-3.6143682841232785,-4.7521323727605855,-1.0277914442646061,-0.008034485381920755,-0.0003983613674813373
0.74,-1.0799102869946726,1.397765158220558,-1.2886880547456037,0.09169550153390844,-0.12550809356601714,-0.0015210768830483299,-1.4723590507779882,0.22669360129136526,0.49975039510468633,0.13415756264314724,-0.1653443277490045,-0.001505307285419898,2.6611747935168424,0.06405442996798975,-1.2770588314550924,-0.405844201500591,0.4384237206611541,0.015493245905713104,0.01629660104269473,-3.665455677951804,-4.772538869034054,-1.0303212108874904,-0.007231816986529567,-0.00039840924489125936
0.75,-1.0943699530614586,1.400038162334747,-1.2838172954697764,0.0929975304369128,-0.127123540341691,-0.0015355553484288555,-1.4459666066785943,0.22730041141891313,0.48707592758272683,0.13020289030043694,-0.16154467756738436,-0.001447846538052572,2.720480247614052,-0.02395615858314635,-1.3246924681751415,-0.414388613684912,0.4392538086870452,0.014843431208438895,0.028702549256674897,-3.7141644387325683,-4.791890643394842,-1.0326709899786362,-0.006425585314497901,-0.00039884689991037973
0.76,-1.1085598301707429,1.4023084503699206,-1.2790780188802795,0.09425912289856335,-0.12870074002002987,-0.0015494712188847163,-1.4189877109284368,0.22702880351735336,0.47392765894968475,0.12615924616505472,-0.15771996783388945,-0.0013915870455860886,2.777267678162185,-0.10898128050056691,-1.3690104209754823,-0.42206331049912205,0.4394852701160925,0.014197040013419482,0.04119418804246523,-3.7604460430201394,-4.810185396528544,-1.0348442854394022,-0.005619127612991258,-0.00039965863668357576
0.77,-1.1224743037605542,1.4045675366931711,-1.2744746334314245,0.09547947562916421,-0.13023949022672063,-0.0015628369987767472,-1.391447358981143,0.22590863232505162,0.4603385448854987,0.12203527306008681,-0.15387502066907496,-0.0013365779892031042,2.8315015421838488,-0.1908550999680117,-1.4100058288048818,-0.42888392330791447,0.43916923694054866,0.013557147888235477,0.053725040748012015,-3.8042650475990665,-4.827424780350371,-1.0368450774425388,-0.0048155986904993165,-0.00040082609717280687
0.78,-1.1361080126390215,1.4068072507329012,-1.2700112173285778,0.09665787038877928,-0.13173963355106366,-0.0015756655830794343,-1.3633708878467223,0.22397140397300316,0.446341610284671,0.1178394759615067,-0.15001433243430437,-0.0012828584302687059,2.8831479714171744,-0.26942845698351514,-1.4476826270552765,-0.43486802803245084,0.43835459266725785,0.012926436972570565,0.06624951174007063,-3.8455978871645495,-4.843613962488358,-1.0386777362819308,-0.0040179546406688554,-0.00040232848656334157
0.79,-1.1494558522448937,1.4090197518280099,-1.2656915189097693,0.0977936724045601,-0.13320105441679858,-0.0015879701633736477,-1.3347839605872185,0.221250109510852,0.43196984188085225,0.11358020157808243,-0.14614208657349223,-0.0012304580294213404,2.932175184658364,-0.3445683067726224,-1.4820546886288195,-0.4400348600642756,0.43708785880566836,0.012307222893159553,0.07872316507040669,-3.8844316990542023,-4.858761207554533,-1.0403469424681953,-0.00322894068253465,-0.00040414282749850984
0.8,-1.1625129777118028,1.411197542468549,-1.2615189580155237,0.09888632861162903,-0.1346236760885834,-0.0015997641408945977,-1.30571254669091,0.21777906405390882,0.417256089424547,0.10926562070689344,-0.1422621671784799,-0.0011793977520949976,2.9785538413792585,-0.4161571369092443,-1.5131449689583354,-0.4444050405897162,0.43541311696035656,0.011701482700424481,0.09110297420825886,-3.920763186234195,-4.872877478357931,-1.0418576133207826,-0.0024510828750447383,-0.0004062442367509054
0.81,-1.1752748067007495,1.4133334799862745,-1.2574966282617936,0.09993536574426694,-0.13600745781938925,-0.001611061046450134,-1.276182898894665,0.21359375177254958,0.4022329753730131,0.10490371326379068,-0.13837817308058606,-0.0011296905555536333,3.0222573393954555,-0.4840923698869277,-1.5409846637623432,-0.4480003164951407,0.4333719626778638,0.011110883140892813,0.10334754205730808,-3.9545975279876657,-4.885976059618297,-1.0432148361884142,-0.0016866834251560228,-0.00040860621815330396
0.8200000000000001,-1.1877370219707422,1.415420786754954,-1.2536273001321534,0.1009403883029308,-0.13735239214230172,-0.001621874466986026,-1.2462215269992671,0.20873067686794974,0.38693281296403537,0.10050225586638545,-0.1344934322912471,-0.0010813420535891777,3.063262059977392,-0.5482857582490225,-1.5656123874365373,-0.45084331568903924,0.43100348724069626,0.01053680865148765,0.11541729107621,-3.9859473460667916,-4.898072206173441,-1.0444238083242794,-0.0009378192786886376,-0.00041120096592303483
0.8300000000000001,-1.1998955736626562,1.4174530589610244,-1.249913424807487,0.10190107642121703,-0.13865850230864876,-0.0016322179785465177,-1.21585516919141,0.20322722060703163,0.3713875324666284,0.09606881182862262,-0.13061101663470442,-0.0010343511560491707,3.1015475642460117,-0.6086627787206195,-1.5870733790878973,-0.4529573193337777,0.4283442836945319,0.009980388643127558,0.127274623872452,-4.01483173247414,-4.909182817143703,-1.0454897833507146,-0.0002063436614021183,-0.00041399967290254105
0.84,-1.2117466812761586,1.4194242740052752,-1.2463571386541668,0.10281718365532434,-0.13992583987300075,-0.0016421050853579434,-1.1851107613502405,0.19712150442508689,0.35562861533203677,0.0916107234107318,-0.1267337564351988,-0.0009887106811425662,3.1370967449917297,-0.665162031103324,-1.6054187423043336,-0.45436605215534787,0.4254284735549767,0.00944252367697307,0.13888405512811297,-4.04127534355033,-4.9193261370281975,-1.0464180241698704,0.0005061097759741819,-0.0004169728386858561
0.85,-1.2232868353239317,1.4213287965957446,-1.2429602682950887,0.10368853471688654,-0.14115448242439857,-0.0016515491647503247,-1.154015404777314,0.19045225904694355,0.33968703590781446,0.08713510615621897,-0.12286425513978289,-0.0009444079392381329,3.169895938218456,-0.7177346469991438,-1.6207047238511545,-0.45509349167426194,0.42228775083070325,0.008923910309762695,0.15021231613470168,-4.0653075636752884,-4.928521484263037,-1.0472137621118405,0.0011981205612540992,-0.0004200905730904268
0.86,-1.2345127986514108,1.4231613835910137,-1.2397243361918269,0.10451502316827183,-0.14234453146215387,-0.0016605634176243196,-1.1225963327479236,0.1832586995269073,0.3235932103261849,0.08264884513852878,-0.11900490377553083,-0.0009014252873994793,3.199934998760699,-0.7663437127376753,-1.6329920355830778,-0.4551636969158315,0.41895144023837005,0.008425064387451053,0.16122843355799377,-4.086961740646892,-4.936789007372931,-1.047882162058927,0.001868473104716998,-0.00042332289094852634
0.87,-1.2454216074138125,1.4249171876516538,-1.2366505666704741,0.1052966090976094,-0.14349611041371763,-0.0016691608241687977,-1.0908808762401616,0.17558040606399167,0.30737695213528415,0.07815859293375825,-0.11515789515637725,-0.000859740654447813,3.227207344269173,-0.810963710193043,-1.64234522299423,-0.4546006568650949,0.4154465667373053,0.00794634270705652,0.17190378432091996,-4.1062744936871445,-4.944149468495114,-1.0484282932434186,0.0025161468485101098,-0.0004266399947187703
0.88,-1.2560105717053798,1.426591759755775,-1.2337398923283946,0.10603331678893298,-0.14460936279141753,-0.0016773541045356803,-1.0588964291567213,0.16745721041211895,0.29106743420794323,0.07367076913235772,-0.11132523776998965,-0.0008193280366882668,3.2517099717251363,-0.8515799785050006,-1.6488320829821086,-0.4534281586810236,0.41179793378738516,0.007487962964930928,0.18221212868421716,-4.123285094042106,-4.950624053747608,-1.0488571053851985,0.0031403051944212806,-0.0004300125419433922
0.89,-1.2662772758385221,1.4281810506325234,-1.230992960764023,0.10672523240095055,-0.1456844504843061,-0.0016851556841835848,-1.026670413314227,0.15892908767486208,0.27469315643714676,0.06919156120175765,-0.1075087692888561,-0.0007801579647904594,3.273443450442121,-0.8881881990664502,-1.6525231325954626,-0.45166967544415915,0.4080282080114497,0.007050021997975886,0.19212962372410006,-4.13803491728489,-4.95623420965055,-1.0491734098136043,0.003740283526140885,-0.00043341189508952195
0.9,-1.2762195782728865,1.4296814111650307,-1.2284101415769249,0.1073725016660826,-0.14672155218092747,-0.0016925776636089263,-0.9942302434364295,0.15003605325071315,0.2582819187098235,0.06472692651320447,-0.10371016966213736,-0.0007421979425341554,3.292411895260196,-0.9207939055133909,-1.6534911297720305,-0.44934827300265745,0.40415800822323966,0.006632512322152451,0.20163481945878825,-4.150566965696076,-4.961001504587999,-1.0493818652040514,0.004315576621574068,-0.0004368103518048534
0.91,-1.2858356111964013,1.431089591811806,-1.2259915335905174,0.10797532761957748,-0.1477208619184853,-0.001699631792192434,-0.9616032923514862,0.14081806467754243,0.24186079864075213,0.06028259534948766,-0.09993097375578164,-0.000705412858350781,3.3086229233455837,-0.9494120198572054,-1.651810646356355,-0.44648653528313176,0.40020599705728443,0.006235337054672385,0.21070863986798524,-4.160925458475646,-4.9649475141146295,-1.049486967552727,0.004865825727211306,-0.00044018135408209176
0.92,-1.2951237797620028,1.4324027410929416,-1.223736972255061,0.10853396836673328,-0.14868258775366466,-0.001706329445899205,-0.9288168565601488,0.13131492811355303,0.22545613354562716,0.05586407471557984,-0.09617258351793578,-0.0006697653706771039,3.322087597689909,-0.9740664153388733,-1.6475576930179991,-0.44310650727303713,0.3961889736950255,0.005858323250595987,0.2193343509887691,-4.169155487027158,-4.968093728764751,-1.049493044011175,0.0053908055407642375,-0.000443499675257988
0.93,-1.3040827609851158,1.4336184031848045,-1.2216460371936986,0.10904873489454481,-0.1496069505502138,-0.0017126816085821877,-0.8958981223113017,0.12156620918628289,0.20909350613625832,0.05147665278115258,-0.09243627965491544,-0.0006352162682982571,3.3328203600679633,-0.9947895060606365,-1.6408093950763254,-0.4392296547351924,0.3921219664346349,0.005501233774013459,0.2274975181659941,-4.175302732138201,-4.970461482905949,-1.0494042502056284,0.005890411320944828,-0.0004467415841674381
0.9400000000000001,-1.3127115023080569,1.4347345146642114,-1.2197180598593893,0.1095199889324681,-0.1504941828783129,-0.0017186988566508452,-0.8628741322941149,0.11161114794069396,0.19279773343092074,0.047125403792328865,-0.08872323280990896,-0.0006017248068657416,3.340838955871514,-1.0116218629687268,-1.6316437176788483,-0.43487683958963874,0.3880183240760129,0.00516377778164423,0.23518595439348802,-4.1794132395527495,-4.97207190309397,-1.0492245706727432,0.0063646463150460915,-0.0004498849861300174
0.9500000000000001,-1.3210092198383787,1.4357494004404283,-1.2179521312755044,0.10994814086546505,-0.15134452802073647,-0.0017243913468792003,-0.8297717530321719,0.10148857762169625,0.1765928583884808,0.042815193299694805,-0.08503451424235865,-0.0005692490228355149,3.34616435289576,-1.0246118553208545,-1.6201392382751205,-0.4300683097957254,0.3838898053073354,0.004845619918984578,0.24238966151233574,-4.181533250179575,-4.972945874324919,-1.0489578220528906,0.006813609666475696,-0.00045290954076383734
0.96,-1.328975396268822,1.43666176891078,-1.216347109837549,0.110333647701068,-0.15215823908084258,-0.001729768807139997,-0.7966176430443324,0.0912368470351621,0.16050214379555777,0.03855068356029558,-0.08137110601060958,-0.0005377460260796638,3.348820655822232,-1.033815316377576,-1.6063749638798333,-0.42482370248819823,0.3797466654673425,0.004546388338816376,0.24910076584232488,-4.181709080997721,-4.973104022543225,-1.048607658693915,0.007237484936106292,-0.0004557967569010381
0.97,-1.3366097784870192,1.4374707063732213,-1.2149016291579382,0.1106770110908968,-0.1529355781874835,-0.001734840529864014,-0.763438221819714,0.08089374624414106,0.14454806796106937,0.03433633898287904,-0.07773391066409052,-0.000507172272401715,3.348835017822768,-1.039295231707865,-1.590430190225726,-0.41916205906131054,0.3755977402279509,0.004265681626658191,0.25531344961971686,-4.179987052594969,-4.972566711745573,-1.0481775803314624,0.0076365293437082905,-0.0004585300651212548
0.98,-1.3439123748834185,1.4381756707269526,-1.2136141059399232,0.11097877540587513,-0.15367681579202425,-0.001739615368035858,-0.7302596396399204,0.07049643537312854,0.12875232180150167,0.030176431497832445,-0.0741237604540745,-0.0004774838171843965,3.346237550407694,-1.0411214481968702,-1.5723843995768918,-0.4131018508351234,0.3714505258917864,0.004003074737771506,0.2610238794057563,-4.176413459200156,-4.9713540540198595,-1.0476709415262822,0.008011063809195158,-0.00046109486862653593
0.99,-1.3508834523661217,1.4387764844900768,-1.212482747870598,0.11123952586333569,-0.15438223005276488,-0.00174410173354936,-0.6971077482703288,0.06008137631240866,0.11313580693252377,0.026075045746055736,-0.0705414260740644,-0.0004486365513501953,3.341061232362099,-1.039370401590409,-1.552317193687248,-0.40666101393047605,0.3673112561293159,0.0037581240363282475,0.26623013242197774,-4.171034577036335,-4.969485930871578,-1.0470909625539013,0.008361463848276612,-0.00046347857335556693
