tonegas/nnodely-applications/joint_friction_estimation/dataset/test/mpc_mujoco_episode_1.csv
time,q1,q2,q3,q4,q5,q6,dq1,dq2,dq3,dq4,dq5,dq6,ddq1,ddq2,ddq3,ddq4,ddq5,ddq6,tau1,tau2,tau3,tau4,tau5,tau6
0.0,0.0,1.57,-1.57,0.0,0.0,0.0,0.0,0.0,0.0,0.0,0.0,0.0,-11.029590879553473,-10.442213359811753,-0.15497464654585613,0.5191508401455636,-1.682968745632337,-9.708010573206138e-08,-1.5382830180897376,-9.869584313111957,-6.417491997434524,-1.4099697939119655,-0.1392962995774501,-0.002404660056659678
0.01,-0.0010974626448295457,1.5689591750136245,-1.5700181278898113,4.602008959973781e-05,-0.0001403410718721254,-1.4019923872787832e-06,-0.10974626448295456,-0.10408249863756387,-0.0018127889811334085,0.0046020089599737805,-0.014034107187212541,-0.00014019923872787832,-10.821033977695524,-10.096155351381817,-0.1271678458514387,0.4655354559994578,-1.4054540569096048,-0.014087802920659698,-1.5085527465822455,-9.694421575866667,-6.351871562652114,-1.3962266595059605,-0.1369748822372054,-0.0023722894542490356
0.02,-0.0032707606925756827,1.5669120559140022,-1.5700518175314158,0.00013384986880469365,-0.00040353212083600663,-4.257748420259588e-06,-0.2173298047746137,-0.20471190996223648,-0.0033689641604354036,0.008782977920495583,-0.026319104896388126,-0.0002855756032980805,-10.592592443140079,-9.727059116415038,-0.0937966244622892,0.42521731934733253,-1.2331146762311533,-0.014825178845272902,-1.4651224978515434,-9.50077420854855,-6.277195509141481,-1.3804458282869119,-0.13379551396696768,-0.0023333530000864554
0.03,-0.006496636737111484,1.5638954636144724,-1.5700978645504478,0.0002603347116680503,-0.0007784465503690001,-8.474224543520002e-06,-0.3225876044535801,-0.3016592299529687,-0.00460470190318972,0.012648484286335667,-0.03749144295329934,-0.00042164761232604147,-10.347778002229258,-9.335974688064804,-0.0536853401402837,0.3956907445437814,-1.1263813537781644,-0.014273708471813862,-1.4092795217016991,-9.288963723734522,-6.19391800881409,-1.3627442928819775,-0.12981978286368917,-0.0022882902699634918
0.04,-0.010750416093768457,1.5599484068918965,-1.570152328995139,0.00042318830055053207,-0.0012579352915401422,-1.3977483324424032e-05,-0.4253779356656972,-0.3947056722575887,-0.005446444469114322,0.016285358888248176,-0.04794887411711422,-0.000550325878090403,-10.088793065990592,-8.924021210949794,-0.005931422776217943,0.3750486207091548,-1.0612917495396843,-0.01407799027156642,-1.342437059754433,-9.059336636702238,-6.1025343457393895,-1.343250101362338,-0.12511188076165958,-0.0022375008087065764
0.05,-0.01600614470571779,1.5551119726994929,-1.5702104606666951,0.0006208506514604078,-0.0018373747454603333,-2.0724067176828773e-05,-0.5255728611949331,-0.4836434192403585,-0.0058131671556141025,0.01976623509098758,-0.05794394539201911,-0.0006746583852404741,-9.817094946965037,-8.492409762825822,0.05012690543564169,0.36183543570282595,-1.0232412736931735,-0.014357148073662174,-1.2661080655821717,-8.812283925699344,-6.003580828302825,-1.3221019086110486,-0.11973846901672967,-0.0021813679882895986
0.06,-0.022236685968937762,1.5494292068469695,-1.5702666449389149,0.0008523798540200555,-0.0025137785665258075,-2.8694146493012738e-05,-0.6230541263219973,-0.5682765852523376,-0.005618427221973565,0.023152920255964774,-0.0676403821065474,-0.0007970079316183964,-9.53372928405993,-8.042457562620337,0.11493466384288631,0.35492945841305357,-1.0032723473880836,-0.015049306170727306,-1.1818793471227358,-8.54825742683457,-5.89763312068148,-1.2994481472314208,-0.1137686506132814,-0.002120275373134756
0.07,-0.029413796469132992,1.5429449837403502,-1.57031436751109,0.0011173684507096117,-0.0032852503783802577,-3.788514604466482e-05,-0.717711050019523,-0.6484223106619303,-0.004772257217503277,0.026498859668955606,-0.077147181185445,-0.0009190999551652079,-9.239526829774213,-7.575595579615742,0.1887380137991599,0.35345226843790556,-0.995842207540818,-0.01609907403935118,-1.0913854164514813,-8.267783846434352,-5.785303394760613,-1.2754459113397638,-0.10727394305803634,-0.002054618511928446
0.08,-0.03750819235233845,1.5357058645004191,-1.570346196949934,0.00141587753610232,-0.004150642834730824,-4.8307456468173275e-05,-0.8094395883205461,-0.7239119239931108,-0.0031829438843963406,0.029850908539270835,-0.08653924563505658,-0.0010422310423508453,-8.935218841475997,-7.093370812749095,0.27159815180515245,0.3567000680213219,-0.9974722878312932,-0.017473555782030914,-0.9962817818430116,-7.971476744684866,-5.667236603408001,-1.25025962712654,-0.10032818721462283,-0.0019848136073369388
0.09,-0.04648961309954555,1.5277599432889015,-1.5703537841183177,0.001748383329944969,-0.005109341472574092,-5.998168840138243e-05,-0.8981420747207098,-0.7945921211517671,-0.0007587168383762586,0.0332505793842649,-0.0958698637843268,-0.0011674231933209156,-8.621503785833223,-6.597444093696033,0.36340285766971014,0.36409187399797105,-1.0059270298866565,-0.01915655749087186,-0.8982177415047995,-7.660046640422259,-5.544106117389035,-1.2240595731026631,-0.09300735304838897,-0.001911303761355585
0.1,-0.056326886498078294,1.51915668210327,-1.5703278777030978,0.0021157322718208756,-0.006161123744524169,-7.293689747742622e-05,-0.9837273398532743,-0.8603261185631559,0.0025906415220000594,0.036734894187590655,-0.10517822719500775,-0.0012955209076043793,-8.29908490818374,-6.08958405353383,0.46387692586191775,0.37513074554435555,-1.0197114763255044,-0.02114228127838924,-0.7988089842464176,-7.334309260684423,-5.416608930886882,-1.1970203061974014,-0.08538922079288959,-0.0018345631037859963
0.11,-0.06698799681156514,1.50994673467346,-1.5702583550758802,0.00251910168757642,-0.007306062881843294,-8.72093876570883e-05,-1.0661110313486855,-0.9209947429810044,0.006952262721761287,0.04033694157555445,-0.11449391373191248,-0.0014272490179662077,-7.968690500137323,-5.571657790629483,0.5725923551268011,0.38937509307296914,-1.0377610488067148,-0.02343061975544991,-0.6996104904973984,-6.995191881382831,-5.285460612688623,-1.1693190446989916,-0.07755292899911166,-0.0017550989227267007
0.12,-0.0784401570848327,1.5001817604155911,-1.5701342676771233,0.002959963856664658,-0.00854445787484571,-0.00010284183901252792,-1.1452160273267558,-0.9764974257868977,0.012408739875692217,0.04408621690882378,-0.12383949930024159,-0.0015632451355439623,-7.631084151082211,-5.045618733727905,0.6889788895537166,0.40641780043568687,-1.0592473145710457,-0.026023639718190772,-0.6020903644730682,-6.6437376606690055,-5.151390155047205,-1.141134053935231,-0.06957839120554261,-0.0016734518420758217
0.13,-0.09064988590846322,1.4899142296724972,-1.5699439000281648,0.003440051916648841,-0.009876777896905055,-0.00011988259405116154,-1.2209728823630508,-1.0267530743094035,0.019036764895845444,0.048008805998418294,-0.1332320022059346,-0.0017040755038633603,-7.287069570003683,-4.513492178021326,0.8123352800106227,0.4258714141048898,-1.0834539228603433,-0.02892273040230986,-0.5076053153816817,-6.281107845077675,-5.015134846836692,-1.1126430748362648,-0.06154559149472158,-0.0015901940824736198
0.14,-0.10358308864908747,1.4791972216994895,-1.5696748413658226,0.00396132651529886,-0.01130361377398342,-0.00013838498994739838,-1.293320274062425,-1.071700797300772,0.026905866234222958,0.052127459865001974,-0.14268358770783646,-0.0018502395896236856,-6.9374929348398755,-3.977358965310195,0.9418414576194971,0.4473580478868815,-1.1096952985812223,-0.03212605115226452,-0.41737854082259135,-5.9085817253572195,-4.877435270858204,-1.0840218288691776,-0.05353377635639067,-0.0015059258698482093
0.15,-0.11720514302811591,1.4680842170365636,-1.5693140687747358,0.004525942491462835,-0.012825631723749948,-0.00015840665589907788,-1.3622054379028443,-1.1113004662926027,0.03607725910868052,0.05646159761639746,-0.1522017949766528,-0.002002166595167949,-6.583244705100046,-3.4393377721278524,1.076571672793742,0.4705029511870542,-1.137261916701462,-0.03562605682670128,-0.33248074808881806,-5.527554231308936,-4.739030497386072,-1.0554426253928182,-0.045620566151808525,-0.0014212701021306677
0.16,-0.13148098894129004,1.4566288860456214,-1.5688480405750245,0.005136215155520028,-0.014443526234093243,-0.000180008714054508,-1.4275845913174134,-1.1455330990942256,0.04660281997112789,0.06102726640571929,-0.16178945103432957,-0.0021602058155430113,-6.225262141803736,-2.9015664567749297,1.2155085480803454,0.49493091660289945,-1.1653829191619032,-0.039406989057223285,-0.2538149803074622,-5.139531081230029,-4.60065351846352,-1.0270730895871163,-0.03788101403044001,-0.0013368654385325107
0.17,-0.1463752225103073,1.4448848754842694,-1.5682627986158524,0.005794585965691908,-0.016157970036630973,-0.00020325483477219965,-1.4894233569017254,-1.1744010561351883,0.05852419591720737,0.065837081017188,-0.17144438025377318,-0.002324612071769165,-5.864533250138446,-2.366182895795437,1.3575579154926642,0.5202648764541418,-1.1932011901721182,-0.04344231180452329,-0.18210579865326015,-4.746121440285001,-4.463026941682439,-0.9990750212297507,-0.030386643329124094,-0.0012533580297298466
0.18,-0.16185219451018437,1.4329055950381961,-1.567544078035444,0.006503587570781179,-0.017969559915590745,-0.00022821010617339298,-1.5476971999877078,-1.1979280446073324,0.07187205804085414,0.0709001605089271,-0.1811589878959771,-0.002495527140119332,-5.5021023925355275,-1.8353057127852184,1.5015642546238495,0.546126170845288,-1.2197587860496384,-0.04769215283861872,-0.11789321642423789,-4.349028091748852,-4.326858939900123,-0.9716033872330958,-0.023204496210993755,-0.0011713921559879897
0.19,-0.1778761134881955,1.4207440057446168,-1.5666774229793916,0.007265808322995352,-0.01987875773845097,-0.00025493968666822107,-1.6023918978011102,-1.2161589293579458,0.08666550560522629,0.07622207522141733,-0.19091978228602255,-0.0026729580494828094,-5.1390773620955805,-1.3110152694512174,1.6463265125651116,0.5721360715354069,-1.243992399070656,-0.0521008953387323,-0.06153159600513991,-3.950035183783222,-4.1928394360845855,-0.9448054445013724,-0.016396226611035812,-0.0010916000808034007
0.2,-0.19441115404731432,1.4084524122129278,-1.5656483067243885,0.008083856464083333,-0.02188582670276147,-0.00028350721929477045,-1.6535040559118832,-1.2291593531689053,0.1029116255003091,0.08180481410879807,-0.20070689643105002,-0.0028567532626549382,-4.7766372348920205,-0.7953352529172438,1.7906140667244075,0.5979182231967939,-1.2647396252984784,-0.05659514624603901,-0.013193517291727574,-3.550993679949205,-4.06163649135313,-0.9188199847152385,-0.010017269458075538,-0.0010145914573357895
0.21,-0.21142157087182387,1.396082260488954,-1.5644422546351766,0.008960324260008019,-0.023990763421992724,-0.0003139729996900848,-1.7010416824509553,-1.237015172397389,0.12060520892118684,0.08764677959246858,-0.21049367192312524,-0.0030465780395314375,-4.41603984811297,-0.2902151573218685,1.933182583843148,0.6231017215711212,-1.2807573349294152,-0.0610823844193602,0.02712158069788495,-3.1538047115059404,-3.933892859901245,-0.8937766893668453,-0.004116115771471432,-0.0009409426430629553
0.22,-0.2288718190867345,1.383683943319449,-1.5630449683888272,0.009897752408355148,-0.02619322714732291,-0.000346391906194313,-1.7450248214910653,-1.2398317169504955,0.13972862463494273,0.09374281483471293,-0.22024637253301863,-0.0032418906504228157,-4.058627317731993,0.20248607582008998,2.072789530045209,0.6473245906286271,-1.2907534362365496,-0.065450649848807,0.05957438170975532,-2.7604011007489806,-3.8102226769106236,-0.8697955818557791,0.0012662802901529102,-0.0008711862842391139
0.23,-0.24672668142928783,1.3713066144570396,-1.5614424499319477,0.010898595072120126,-0.02849246813749532,-0.00038081112126654856,-1.7854862342553317,-1.237732886240936,0.16025184568796175,0.10008426637649794,-0.2299240990172409,-0.0034419215072235597,-3.705827680666056,0.6810150234806334,2.2082090955993934,0.6702374513833931,-1.293432757269331,-0.06956965702128848,0.08446887232950734,-2.372727393995752,-3.691208254071532,-0.8469865636505487,0.006096940860448319,-0.0008058015261997893
0.24,-0.2649514024403472,1.3589980135054245,-1.5596211236919537,0.011965185906052991,-0.030887257911934633,-0.00041726769761195293,-1.8224721011059377,-1.2308600951615085,0.1821326239993974,0.1066590833932865,-0.2394789774439313,-0.0036456576345404355,-3.3591506066835346,1.1437371430258694,2.3382463128487596,0.6915071970514148,-1.2875566247803452,-0.07329367996992797,0.10223244245152274,-1.9927188068098491,-3.5773969708684223,-0.8254490231923068,0.010351134049310505,-0.0007452051888800471
0.25,-0.28351182943932246,1.3468043026427963,-1.5575679556415738,0.01309970543939496,-0.03337582479202169,-0.0004557860488313962,-1.8560426998975235,-1.2193710862628215,0.20531680503800212,0.11345195333419678,-0.24885668800870553,-0.0038518351219443245,-3.0201752627047664,1.5891483411416547,2.4617501658383607,0.7108205064214186,-1.2720140400187923,-0.0764664440252889,0.11339373768152533,-1.6222795388784907,-3.4692982665802465,-0.8052715089995701,0.014012463669807206,-0.000689744219629458
0.26,-0.3023745594319997,1.334769916380295,-1.5552705679142698,0.01430415016323745,-0.03595579866655523,-0.000496375470661351,-1.8862729992677223,-1.2034386262501098,0.2297387727304101,0.12044447238424894,-0.2579973874533542,-0.004058942182995482,-2.690528894848072,2.015884580726475,2.577625515434344,0.7278870437988925,-1.2459002904130472,-0.07892805969575178,0.11855916136119815,-1.2632609576168794,-3.367380756007244,-0.7865314618581354,0.017072775347150376,-0.0006396896978090147
0.27,-0.32150709034584474,1.3229374253139703,-1.5527173477848495,0.01558030364336674,-0.03862416920938254,-0.0005390278217050885,-1.9132530913845043,-1.1832491066324757,0.25532201294202994,0.12761534801292915,-0.2668370542827306,-0.004265235104373749,-2.371855541497371,2.4227293793000673,2.684843694304303,0.7424422138466085,-1.2085966917362558,-0.08052375497062125,0.11838894457152699,-0.9174401740428682,-3.272069509055629,-0.7692950045372299,0.019531882265608848,-0.0005952326177198493
0.28,-0.34087797415062376,1.3113474146157256,-1.549897549961305,0.01692970994192547,-0.04137726172876011,-0.0005837155080793955,-1.9370883804779038,-1.159001069824464,0.28197978235444,0.13494062985587277,-0.27530925193775774,-0.004468768637430691,-2.065775449046518,2.808619082203359,2.7824516619863857,0.7542493666320702,-1.1598433577695086,-0.08111383558584295,0.11357367792453255,-0.5864995380458695,-3.183743548353363,-0.7536167906662361,0.021397120890352644,-0.0005564816179454328
0.29,-0.36045696858923415,1.3000383777843703,-1.5468013912774263,0.018353649585458105,-0.04421073435758784,-0.0006303899206777008,-1.957899443861038,-1.1309036831355315,0.309615868387861,0.14239396435326374,-0.2833472628827731,-0.004667441259830536,-1.7738370885215782,3.1726458349503135,2.8695796508546927,0.7631013840690635,-1.099795943270749,-0.08058398599646122,0.10481213179260135,-0.27200756002807713,-3.1027336282108875,-0.7395399168218192,0.022682753970141294,-0.0005234627562301502
0.3,-0.38021518351909644,1.2890466259466655,-1.543420137027058,0.019853118265312643,-0.04711959936188879,-0.000678980463589661,-1.9758214929862281,-1.0991751837704624,0.33812542503683485,0.14994686798545379,-0.29088650043009445,-0.004859054291196024,-1.497465256818134,3.5140582516819325,2.945447283740384,0.7688216243478294,-1.0290576478769649,-0.07885479181247368,0.09279106907090534,0.024598288768955978,-3.0293203574073817,-0.7270959024239372,0.023409242117785375,-0.0004961213940521893
0.31,-0.4001252173877368,1.2784062127677438,-1.5397461783349873,0.021428808401948905,-0.05009826997644021,-0.0007293942860947914,-1.9910033868640362,-1.06404131789217,0.3673958692070613,0.15756901366362622,-0.29786706145514197,-0.0050413822505130336,-1.2379075604559988,3.8322597286302598,3.009368147560753,0.7712642414466409,-0.948679679277542,-0.07588929184406612,0.07816774093896783,0.302026448979289,-2.963732750912032,-0.7163047478196107,0.023602428298627014,-0.00047432586507770467
0.32,-0.42016127902252676,1.2681488747958858,-1.5357731001158348,0.023081093649869575,-0.053140632457073136,-0.0007815167890202093,-2.0036061634789966,-1.025733797185805,0.39730782191524405,0.16522852479206704,-0.3042362480632929,-0.005212250292541798,-0.9961884653741874,4.1268047705687385,3.0607529708319614,0.7703139687998863,-0.8601265711380301,-0.07169749936791381,0.06155522875160596,0.5591436530255645,-2.9061472081882918,-0.7071750636497648,0.02329263125297526,-0.0004578734211944798
0.33,-0.4402992903939551,1.2583039868702772,-1.531495739314316,0.024810016370270294,-0.0562401411634585,-0.0008352129234498259,-2.013801137142835,-0.9844887925608592,0.42773608015188486,0.17289227204007185,-0.3099508706385363,-0.005369613442961664,-0.7730691791969969,4.397393239456086,3.099111395883842,0.7658854539464564,-0.7652074304408125,-0.06633718819852191,0.0435112375053299,0.7949844358882459,-2.856687027713044,-0.6997042896540265,0.022513733391197284,-0.00044649735800595655
0.34,-0.4605169662885383,1.24889853201593,-1.5269102332630493,0.0266152780530971,-0.05938993263069709,-0.0008903292402890181,-2.021767589458318,-0.9405454854347147,0.4585506051266668,0.18052616828268056,-0.3149791467238596,-0.005511631683919221,-0.5690213921491181,4.643863033187666,3.1240525555027947,0.7579222933046807,-0.6659782573772919,-0.05991072739430533,0.024530158262325408,1.0087578202741398,-2.815422424693132,-0.6938789926637565,0.0213022614883083,-0.0004398756447625044
0.35000000000000003,-0.48079386789701434,1.2399570850968842,-1.5220140581153945,0.028496232634884176,-0.06258295301563671,-0.0009466965915985934,-2.027690160847606,-0.894144691904585,0.48961751476547904,0.1880954581787076,-0.31930203849396177,-0.005636735130957526,-0.3842151732305278,4.866181465447929,3.1352845738034336,0.746395895483861,-0.564624734704009,-0.052558323064288315,0.005038421262442638,1.199851145517194,-2.7823710731753324,-0.689675246538135,0.019696508340932062,-0.00043764043467758656
0.36,-0.5011114284800984,1.231501809372839,-1.5168060574191498,0.030451882632268935,-0.06581209220581466,-0.0010041333358386077,-2.0317560583084058,-0.8455275724045173,0.5208000696244682,0.19556499973847585,-0.32291391901779454,-0.005743674424001428,-0.21852180305085464,5.064435750009384,3.132613155448592,0.7313042925016298,-0.4633371553680623,-0.044448518833687056,-0.014607105819699706,1.3678311650055108,-2.7574991519871515,-0.6870590896621476,0.017735721602378636,-0.0004393880965181912
0.37,-0.5214529505985653,1.223552465018166,-1.5112864609876566,0.03248087799391767,-0.06907031739681413,-0.0010624488656069545,-2.034152211846691,-0.7949344354672909,0.5519596431493236,0.20289953616487372,-0.32582251909994764,-0.005831552976834674,-0.0715304602209908,5.23882298647468,3.115939420671813,0.7126709852370787,-0.3641897499836473,-0.03576714279024801,-0.03411801858584901,1.5124426057361837,-2.7407228624098705,-0.6859870546068079,0.015459382158093404,-0.0004446893646656788
0.38,-0.541803575720381,1.2161264286147195,-1.5054568942985764,0.034581517564272635,-0.07235079912673537,-0.00112144726187952,-2.035062512181566,-0.742603640344648,0.5829566689080178,0.21006395703549666,-0.3280481729921237,-0.005899839627256548,0.05742358045773913,5.389640020016336,3.0852571324882696,0.6905438694178265,-0.26903537599223126,-0.02670599988559863,-0.05327100194433046,1.6336044377496517,-2.731910374658634,-0.6864067633726662,0.012906586988850367,-0.0004530992320947839
0.39,-0.5621502282164138,1.209238722618271,-1.499320378708609,0.036751753048880585,-0.07564702355749707,-0.0011809308838444611,-2.034665249603284,-0.6887705996448491,0.6136515589967471,0.217023548460795,-0.3296224430761706,-0.005948362196494108,0.16922237688526776,5.5172734963364025,3.040649444280227,0.6649942484052502,-0.17942377785004826,-0.017452496744191914,-0.07190265415135236,1.731404131462365,-2.7308841538280664,-0.6882575809780018,0.010115543741223101,-0.0004641662631528747
0.4,-0.5824815367268246,1.2029020538175679,-1.4928813228168663,0.03898919537055755,-0.07895288608325433,-0.0012407037258901547,-2.0331308510410793,-0.6336668800703118,0.6439055891742708,0.22374423216769612,-0.330586252575727,-0.005977284204569358,0.26492381065457815,5.62219036278418,2.9822852732162257,0.6361159059153643,-0.09654808195668796,-0.00818110153764251,-0.08990299352297393,1.8060901894414876,-2.737423613640855,-0.6914713199109361,0.0071231769388684675,-0.0004774410736401059
0.41000000000000003,-0.6027877365603521,1.197126859848078,-1.486145505343207,0.0412911233058595,-0.08226276294523288,-0.0013005744086182235,-2.0306199833527603,-0.5775193969489882,0.6735817473659196,0.23019279353019534,-0.33098768619785424,-0.005987068272806887,0.34571874013938997,5.704928973393575,2.910415375572512,0.604024189301974,-0.021220563747022414,0.0009528336205150145,-0.10720810054329627,1.858063223373657,-2.7512680501071833,-0.6959729885752548,0.003964841682943962,-0.0004924837655797114
0.42,-0.6230605571277988,1.191921362880422,-1.4791200499139123,0.043654494290249354,-0.08557155923967771,-0.0013603587131490547,-2.0272820567446677,-0.5205496967656037,0.7025455429294835,0.23633709843898507,-0.33087962944448324,-0.0059784304530831126,0.4128877517282879,5.766090971596608,2.8253682098477224,0.568855049187416,0.046124428260357675,0.00981674294979673,-0.12379240615537021,1.8878658750583903,-2.7721197907680812,-0.7016815729411939,0.0006741208511505913,-0.0005088704676044787
0.43,-0.6432930986385378,1.1872916296782854,-1.4718133921650398,0.04607595727714155,-0.08887473334952498,-0.0014198816120888878,-2.0232541510738935,-0.46297332021365256,0.730665774887248,0.24214629868921955,-0.33031741098472617,-0.005952289893983311,0.4677644579081917,5.806333776159592,2.7275455521035923,0.5307639700958084,0.10540460495971171,0.018302184060246862,-0.13966078036332588,1.8961717074980944,-2.7996475586669027,-0.7085108529810171,-0.002717275631308611,-0.0005261983470465628
0.44,-0.6634797018038613,1.183241637277763,-1.4642352395959146,0.04855186752889222,-0.09216829923807368,-0.0014789787903482067,-2.0186603165323542,-0.4049992400522408,0.7578152569125242,0.24759102517506754,-0.3293565888548701,-0.005909717825931883,0.5117003627731838,5.826363893928833,2.617417976391671,0.4899247603912471,0.1568467827000335,0.026324250468989785,-0.1548410137610061,1.8837734073420607,-2.8334899560856073,-0.7163702352067576,-0.006179569146138056,-0.0005440899620923921
0.45,-0.6836158142398706,1.1797733436197901,-1.4563965246169033,0.05107830320909149,-0.09544880916442298,-0.001537497682794587,-2.0136112436009377,-0.346829365797291,0.7838714979011348,0.2526435680199271,-0.3280509926349309,-0.005851889244638035,0.5460369952489399,5.826930800428062,2.4955201373032807,0.44652816261063677,0.2009325272767679,0.03381956942301356,-0.16937670977575783,1.8515703717016807,-2.873259076155307,-0.7251656029447378,-0.00968491065191647,-0.0005621964099286779
0.46,-0.7036978566136253,1.176886762521455,-1.4483093512543113,0.0536510836337477,-0.09871332014178026,-0.0015952980799907193,-2.008204237375471,-0.2886581098335158,0.8087173362591956,0.25727804246562086,-0.32645109773572784,-0.005780039719613225,0.5720835564599469,5.808821366594453,2.362445881773148,0.40078027749606093,0.23833814917252205,0.04074343277996584,-0.18332084855608452,1.8005558771514611,-2.918544194295289,-0.7348001736875753,-0.013207347070561669,-0.0005801996352706055
0.47000000000000003,-0.7237230910567451,1.1745800424244695,-1.4399869359919246,0.0562657890264126,-0.10195934787968534,-0.0016522523684277923,-2.0025234443119846,-0.23067200969855023,0.8322415262386663,0.2614705392664895,-0.3246027737905081,-0.005695428843707299,0.5911002013093098,5.772854717894735,2.2188431831941458,0.35290080710979765,0.26987381253576626,0.04706655248360403,-0.19673012252176442,1.7318039652798305,-2.9689155135598915,-0.7451753567579041,-0.016722766411312772,-0.0005978139788243252
0.48,-0.7436894938097675,1.1728495484007349,-1.4314435432466426,0.05891778160963578,-0.10518481206385447,-0.0017082454781894687,-1.9966402753022277,-0.17304940237345673,0.8543392745282108,0.26519925832231867,-0.3225464184169125,-0.005599310976167635,0.6042864182182047,5.719877427791289,2.0654088973729117,0.3031211375610141,0.296425529407097,0.0527718433060087,-0.20966010904630974,1.6464561764645922,-3.0239279364448644,-0.7561916037706402,-0.020208832311207625,-0.000614787087223877
0.49,-0.7635956335318983,1.171689946927337,-1.4226944159940225,0.06160222785345377,-0.10838797668788105,-0.0017631746103250962,-1.9906139722130878,-0.11596014733979884,0.8749127252620132,0.26844462438179884,-0.32031646240265826,-0.005492913213562742,0.6127737667568743,5.650758959808355,1.9028833450013796,0.25168229264417974,0.318902754493152,0.057851525306058194,-0.2221613051037365,1.5457082584291815,-3.0831248362303967,-0.7677492442564169,-0.023644916293623936,-0.0006309002961363282
0.5,-0.7834405562429934,1.171094292967622,-1.4137557020777223,0.06431412169177488,-0.11156738882192165,-0.0018169488101823829,-1.98449227110951,-0.05956539597149696,0.8938713916300098,0.2711893838321108,-0.31794121340405856,-0.005377419985728664,0.6176221283904039,5.56638728968685,1.7320447325506159,0.19883279656859187,0.3381933329276894,0.06230472798517972,-0.23427601653137434,1.4307969740874864,-3.146041800937847,-0.7797492987753871,-0.027012033728649035,-0.000645968582661831
0.51,-0.8032236774744903,1.1710541189129002,-1.404644376753938,0.0670483085101453,-0.11472181874571422,-0.0018694884434176337,-1.9783121231496943,-0.004017405472184418,0.9111325323784188,0.2734186818370422,-0.3154429923792569,-0.005253963323525088,0.6198186024002957,5.46766465843664,1.5537034317628517,0.14482648709710233,0.35512674846175507,0.06613567893795103,-0.2460360699374713,1.3029871326521183,-3.2122103227316776,-0.7920942619430508,-0.030292787369837273,-0.0006598401648732601
0.52,-0.8229446819003021,1.171559524952645,-1.3953781620370658,0.06979950970384878,-0.11785020384088837,-0.0019207246200833837,-1.9721004425811783,0.05054060397446054,0.9266214716872267,0.2751201193703485,-0.31283850951741515,-0.005123617666575001,0.6202782197183483,5.355503426239873,1.3686961462670535,0.08992032028833385,0.3704459896952601,0.06935247843345638,-0.2574612970434248,1.163558967486753,-3.281161405366386,-0.8046888480297695,-0.03347132052859304,-0.0006723958077737989
0.53,-0.8426034304959753,1.1725992704516597,-1.3859754434250704,0.07256234760373578,-0.12095159807522135,-0.001970598600525025,-1.9658748595673208,0.10397454990146704,0.940271861199546,0.2762837899886999,-0.3101394234332978,-0.00498739804416416,0.6198457361398592,5.230822014509812,1.1778800014857023,0.03437220532640595,0.38478788334967184,0.07196640018216816,-0.26855872817252724,1.013795982479726,-3.3524290622715256,-0.8174406921908319,-0.03653328046631753,-0.0006835478778791264
0.54,-0.8621998751273036,1.1741608659222307,-1.3764551845916,0.07533137056852732,-0.12402512835425894,-0.0020190612058964873,-1.9596444631328283,0.15615954705710627,0.9520258833470358,0.2769022964791537,-0.30735302790375907,-0.0048462605371462,0.6192978889978956,5.094540937960759,0.9821266003736309,-0.02156109670234052,0.39867140629569864,0.07399161740728433,-0.2793224225561942,0.8549733848811862,-3.4255536782339373,-0.8302610009288851,-0.03946579143382779,-0.0006932391742252718
0.55,-0.8817339803865544,1.1762306651891752,-1.3668368406360871,0.07810107804636458,-0.1270699584898096,-0.002066072246679387,-1.9534105259250811,0.2069799266944421,0.9618343955512904,0.2769707477837267,-0.30448301355506513,-0.004701104078289958,0.6193456448311917,4.947578939793097,0.782316092269105,-0.07762598198090132,0.4124932485859567,0.0754452307303487,-0.28973385718322964,0.688347216014439,-3.500085208457267,-0.8430651460692271,-0.04225743594053177,-0.000701441552510961
0.56,-0.9012056524616499,1.178793957357007,-1.3571402704824318,0.08086594541474737,-0.13008526105924437,-0.002111599975086676,-1.9471672075095494,0.25632921678317944,0.969657015365543,0.2764867368382792,-0.3015302569434774,-0.004552772840728904,0.6206361175429285,4.790849250959634,0.5793313051040272,-0.1335738991916866,0.4265297293325192,0.0763474681680183,-0.29976279234035835,0.5151442818362839,-3.5755861900753243,-0.8557731973168268,-0.04489824225199112,-0.0007081543515470394
0.5700000000000001,-0.9206146748263382,1.1818350582019188,-1.3473856490110763,0.08362044841634414,-0.13307019701753237,-0.0021556205617964015,-1.9409022364688284,0.3041100844911858,0.9754621471355602,0.27545030015967664,-0.298493595828801,-0.004402058670972545,0.6237539853399501,4.625255999154831,0.3740519924404886,-0.18916311494676918,0.4409440463204737,0.07672193485289314,-0.3093685302661423,0.3365529730842469,-3.651634542941986,-0.8683103893340011,-0.04737967574938134,-0.0007134026271355372
0.58,-0.9399606505633523,1.185337400627334,-1.3375933794982247,0.08635908701808545,-0.13602390258410993,-0.0021981175940169245,-1.9345975737014158,0.35023424254151864,0.9792269512851721,0.273863860174131,-0.295370556657755,-0.0042497032220523015,0.6292223696619449,4.451690795062397,0.16734924643780857,-0.2441603389063438,0.4557977591469653,0.07659580811846955,-0.31850148313295834,0.1537150500698501,-3.727826138657857,-0.8806075202004533,-0.049694631596381024,-0.0007172351976523675
0.59,-0.9592429511650447,1.1892836238405728,-1.3277840069196816,0.08907640853213102,-0.13894548266369108,-0.002239081590189324,-1.9282300601692344,0.394622321323871,0.980937257854303,0.2717321514045558,-0.29215800795811553,-0.004096399617239965,0.6375032513025147,4.271029523012984,-0.039919873863255795,-0.2983422023458111,0.47106536305312297,0.07599989902434356,-0.32710496769761044,-0.03228154940867989,-3.80377711925152,-0.892601279066255,-0.051837426113759556,-0.0007197225075114416
0.6,-0.9784606716865625,1.193655660929617,-1.3179781326554634,0.09176702984945334,-0.14183400987507352,-0.0022785095263385567,-1.9217720521517876,0.437203708904403,0.9805874264218094,0.2690621317322332,-0.28885272113824306,-0.003942793614923278,0.6489975813795336,4.084129361082887,-0.2469174523414308,-0.35149658697601716,0.4866508099112634,0.0749685308066006,-0.33511714634058354,-0.2204088384130718,-3.879125949639203,-0.9042345017608417,-0.053803784333722765,-0.0007209543187873797
0.61,-0.9976125921476509,1.1984348245427956,-1.3081963311052538,0.09442565864970776,-0.14468852815256822,-0.002316404369797328,-1.9151920461088325,0.477916361317871,0.978180155020952,0.26586288002544134,-0.285451827749469,-0.003789484345877138,0.6640452942448131,3.8918260523247814,-0.45282952070640725,-0.4034238025865218,0.502404878380168,0.0735392148453502,-0.3424730378315084,-0.4097038232986552,-3.953535190882459,-0.9154563540601721,-0.055590821377497546,-0.0007210372469306245
0.62,-1.0166971450859532,1.2036018904000874,-1.2984590686943205,0.09704711346463081,-0.14750805984534565,-0.0023527746173508334,-1.90845529383023,0.5167065857291699,0.9737262410933246,0.26214548149230577,-0.2819531692777446,-0.0036370247553505534,0.6829254458192892,3.6949314447183137,-0.6568705197646771,-0.45393761278513,0.5181423888156322,0.07175213229517108,-0.34910652602432335,-0.599272456461261,-4.026692984305287,-0.9262224432277496,-0.057197015559268025,-0.0007200921630488916
0.63,-1.0357123891554285,1.2091371783921983,-1.288786625715107,0.09962634248635592,-0.15029161526230178,-0.0023876338364340077,-1.9015244069475412,0.5535287992110804,0.9672442979213501,0.25792290217251157,-0.2783555416956133,-0.003485921908317418,0.7058566875002193,3.494231312945742,-0.8582873829571014,-0.5028661079902017,0.5336583970522382,0.06964945223608343,-0.3549523008031846,-0.7882925133928356,-4.098314239693231,-0.9364948593251561,-0.058622171459132816,-0.0007182514919698948
0.64,-1.0546559886388929,1.2150206310521827,-1.2791990214118545,0.10215844102671856,-0.15303820368322094,-0.0024210002095691415,-1.8943599483464333,0.5883452659984498,0.958760430325263,0.2532098540362638,-0.2746588420919168,-0.0033366373135133675,0.7329982488349459,3.2904834705178017,-1.056363213085938,-0.5500524243071618,0.5487426760661931,0.06727453318720067,-0.3599476729304845,-0.9760154246956216,-4.16814152406105,-0.9462421486282586,-0.059867371617942984,-0.0007156564415879198
0.65,-1.0735251987063401,1.2212318892136476,-1.26971594267481,0.10463866754881575,-0.15574684496871866,-0.0024528960835573225,-1.8869210067447268,0.6211258161464803,0.9483078737044629,0.24802265220971928,-0.27086412854977193,-0.0031895873988181138,0.7644515492242563,3.0844161763184164,-1.2504205284123828,-0.5953553063739268,0.5631919924693527,0.06467106351000418,-0.36403421290690563,-1.1617671088538593,-4.2359456508274205,-0.9554392222805415,-0.060934915977284794,-0.000712454204275769
0.66,-1.0923168562045,1.2277503646990946,-1.2603566766673842,0.10706245820773841,-0.15841658103874628,-0.0024833475259112585,-1.8791657498160008,0.6518475485446995,0.9359266007425794,0.24237906589226657,-0.26697360700276335,-0.0030451442353936,0.8002624985448424,2.8767268354314797,-1.4398240597939496,-0.6386495119904573,0.5768198896687675,0.06188219775471149,-0.3671591733673156,-1.344947864922105,-4.301525972656122,-0.9640672040583578,-0.06182824870121632,-0.0007087951749339597
0.67,-1.1110273757125202,1.2345553099113158,-1.2511400476645997,0.10942543985342966,-0.16104648663976515,-0.0025123838915941553,-1.8710519508020236,0.6804945212221184,0.9216629002784498,0.2362981645691252,-0.262990560101885,-0.002903636568289693,0.8404244864366249,2.6680809902467946,-1.6239830861890083,-0.6798260566610879,0.5894638849830631,0.058949741405399325,-0.36927666467515985,-1.5250313956580577,-4.3647103846789115,-0.9721132218048836,-0.06255187255300187,-0.0007048302322468672
0.68,-1.1296527505482077,1.2416258842295882,-1.2420843583348997,0.11172344146490767,-0.16363567897272402,-0.0025400374033238806,-1.8625374835687398,0.7070574318272301,0.9055689329700036,0.22980016114780158,-0.258919233295887,-0.0027653511729725413,0.884882006509328,2.4591115943571107,-1.802353301642502,-0.7187922971569902,0.6009901597012535,0.055913427409961525,-0.3703485639352928,-1.7015630408833613,-4.425355048256058,-0.9795701476984863,-0.0631112515353796,-0.0007007081297506751
0.6900000000000001,-1.1481885583629237,1.2489412171404195,-1.2332073356504614,0.11395250400144863,-0.16618332589829318,-0.002566342748568156,-1.853580781471595,0.7315332910831323,0.8877022684438429,0.22290625365409572,-0.25476469255691614,-0.002630534524427535,0.9335348192729378,2.250418558666968,-1.9744382127105415,-0.7554718548654265,0.611295958612387,0.0528103158940606,-0.37034514826617126,-1.874157307940414,-4.4833438487885,-0.9864362930434475,-0.06351270301073898,-0.0006965730413819143
0.7000000000000001,-1.1666299709241823,1.2564804680594917,-1.224526081564162,0.11610888867253112,-0.16868865256532625,-0.0025913366959752055,-1.8441412561258692,0.7539250919072111,0.8681254086299222,0.21563846710824905,-0.2505326667033075,-0.002499394740704938,0.9862425284447299,2.042568556438712,-2.1397900710817193,-0.7898043819495628,0.6203100132686306,0.04967433566626411,-0.369245453476211,-2.042494791021695,-4.538587604288909,-0.992715063692153,-0.06376328097258706,-0.0006925623024039412
0.71,-1.184971767655477,1.2642228828269941,-1.2160570285448722,0.11818908364414263,-0.17115094641858758,-0.00261505773343983,-1.8341796731294675,0.7742414767502388,0.846905301928995,0.2080194971611502,-0.24622938532613156,-0.0023721037464624847,1.0428294298107128,1.836095071693399,-2.2980103518112225,-0.8217451759794039,0.6279913603881475,0.04653597378956653,-0.36703736889071,-2.2063185739253557,-4.591023044357389,-0.9984145825145202,-0.06387065251876162,-0.0006888043812502012
0.72,-1.2032083524840715,1.2721478468825422,-1.2078159000173505,0.12018980921417194,-0.17356956063005521,-0.0026375457293783405,-1.8236584828594518,0.792496405554819,0.824112852752172,0.2000725570029306,-0.2418614211467621,-0.0022487995938510336,1.103089488824147,1.6314986734486259,-2.448749792966889,-0.8512646515275337,0.6343269466494146,0.043422108727824926,-0.36371748762096134,-2.3654302115242944,-4.64061158180071,-1.0035472855118284,-0.0638429698621902,-0.0006854171112123579
0.73,-1.2213337735397518,1.280234935148152,-1.1998176757092498,0.12210802150379099,-0.17594391606424425,-0.00265884161814708,-1.812542105568034,0.8087088265609662,0.7998224308100628,0.19182122896190548,-0.23743554341890455,-0.0021295888768739267,1.166791310286242,1.429247496710142,-2.591708017482463,-0.8783476799995533,0.6393283998769883,0.04035597437181093,-0.35929073876436396,-2.5196853840509097,-4.687337901298145,-1.0081294982212166,-0.06368874039604136,-0.0006825062034369756
0.74,-1.23934174525039,1.288463958668154,-1.1920765618660736,0.12394091472471745,-0.17827350193321426,-0.002678987109938541,-1.8007971710638186,0.8229023520002311,0.7741113843176163,0.18328932209264537,-0.2329585868970001,-0.0020145491791461424,1.2336829782737413,1.2297779099159538,-2.7266327625090243,-0.9029928114840917,0.6430283120787328,0.03735723635892774,-0.35376983363665365,-2.668989315364728,-4.73120839118429,-1.0121809989724047,-0.06341669740059021,-0.0006801640547631025
0.75,-1.2572256723926063,1.2968150080733742,-1.184605966255823,0.12568592209383167,-0.1805578753235478,-0.002698024424963915,-1.7883927142216196,0.8351049405220083,0.7470595610250453,0.1745007369114209,-0.2284373390333545,-0.0019037315025373972,1.3034966640513015,1.0334953476557267,-2.8533187454538282,-0.9252113945163778,0.6454763300738158,0.03444215902703207,-0.3471745620390163,-2.8132920418813563,-4.772249445541146,-1.0157245753433883,-0.06303567394242747,-0.0006784688559408976
0.76,-1.2749786756764236,1.3052684939532673,-1.1774184778489116,0.127340715476628,-0.18279665978858378,-0.002715996051299034,-1.775300328381743,0.8453485879893035,0.7187488406911311,0.1654793382796341,-0.22387844650359892,-0.0017971626335119015,1.3759529215845947,0.8407752869409653,-2.9716061991360356,-0.9450266112085668,0.6467352921006269,0.03162384025198317,-0.3395309767103668,-2.9525836130260448,-4.8105056643436175,-1.0187855798264154,-0.06255448238069469,-0.0006774839980686725
0.77,-1.2925936184699929,1.3138051842339586,-1.1705258510260184,0.1289032038492913,-0.18498954319778294,-0.0027329445254406937,-1.7614942793569124,0.853669028069135,0.6892626822893221,0.15624883726632915,-0.21928834091991595,-0.0016948474141659498,1.4507646124070808,0.6519643450661827,-3.0813791110200346,-0.9624724461803771,0.6468775900155475,0.028912492277364255,-0.33087050456095,-3.08688929718234,-4.846037979385129,-1.021391490273974,-0.06198180167319263,-0.0006772577679793199
0.78,-1.3100631343025575,1.3224062386722355,-1.1639389941371543,0.13037153067573773,-0.18713627502447674,-0.0027489122343884623,-1.7469515832564582,0.8601054438276816,0.6586856888863983,0.1468326826446426,-0.21467318266938182,-0.0015967708947768335,1.5276404224834657,0.46738147716156364,-3.182563203300268,-0.9775926080994815,0.6459818812276339,0.026315748654972326,-0.3212290221608404,-3.2162648593965804,-4.878921733147602,-1.0235714801653584,-0.061326074384150026,-0.0006778233170328733
0.79,-1.3273796548192434,1.3310532405854856,-1.1576679622095025,0.1317440703007308,-0.18923666323632235,-0.0027639412379249872,-1.7316520516685903,0.8647001913250184,0.6271031927651735,0.1372539624993053,-0.21003882118456,-0.0015029003536524907,1.6062879523556208,0.2873192518715204,-3.275123691713373,-0.9904394224412219,0.6441302254458758,0.023838980322769765,-0.31064593046802197,-3.3407919688376957,-4.909244736718303,-1.0253560031390658,-0.060595414954029245,-0.0006791988825065268
0.8,-1.3445354378985028,1.3397282259454002,-1.1517219535796646,0.1330194234632096,-0.19129057093208174,-0.002778073109701722,-1.7155783079259541,0.867498535991469,0.5946008629837946,0.12753531624788067,-0.20539076957593996,-0.0014131871776734617,1.6864163777054877,0.11204518417640218,-3.3590628613753633,-1.0010727133837616,0.6414056803688677,0.021485607056999867,-0.2991632601758574,-3.4605737854580263,-4.937105331358146,-1.0267763955978102,-0.05979753041934397,-0.000681388236618004
0.81,-1.3615225956808572,1.3484137099689975,-1.1461093102078506,0.13419641203532345,-0.19329791284593692,-0.002791348795732746,-1.698715778235438,0.8685484023597231,0.5612643371813971,0.11769885721138511,-0.20073419138551898,-0.0013275686031024158,1.7677386903410874,-0.058196894821217954,-3.4344174977349047,-1.0095586916136643,0.6378903581616617,0.019257393858906013,-0.2868248346180064,-3.575730766700145,-4.96261047646743,-1.0278645005344278,-0.05893965438576861,-0.0006843813352172809
0.8200000000000001,-1.378333122294865,1.3570927113442597,-1.1408375214172566,0.1352740730924627,-0.19525865181805366,-0.002803808488941713,-1.6810526614007792,0.8679001375262246,0.5271788790594075,0.10776610571392545,-0.1960738972116725,-0.0012459693208967037,1.8499735395763273,-0.2231854503286857,-3.5012562099579814,-1.0159688633584132,0.6336639206706707,0.017154724935885657,-0.2736755121784825,-3.6863967266696585,-4.985873884558588,-1.0286523150705293,-0.05802849467782785,-0.0006881551363197872
0.8300000000000001,-1.394958921102132,1.3657487742294991,-1.1359132307913036,0.13625165241794834,-0.19717279530869594,-0.002815491518482176,-1.6625798807267165,0.865606288523939,0.4924290625953047,0.09775793254856434,-0.1914143490642281,-0.0011683029540462803,1.9328467012723867,-0.3827198565433255,-3.559676682788114,-1.0203789742432754,0.6288024749914705,0.015176850713075396,-0.25976052489521256,-3.792715172140286,-5.007014221517141,-1.0291716635653674,-0.057070194727786384,-0.0006926745578699054
0.84,-1.4113918313169933,1.374365988165581,-1.1313422459544429,0.13712859754314705,-0.199040392013669,-0.002826436252647175,-1.6432910214861305,0.8617213936081793,0.4570984836860725,0.08769451251987134,-0.18675967049730605,-0.001094473416499929,2.0160922067724445,-0.5366190263283606,-3.6098028912328144,-1.0228679997067278,0.6233778211001111,0.013322105624353098,-0.24512492467308156,-3.894835932236996,-5.026153387994716,-1.029453897557133,-0.056070308436726175,-0.0006978935443195586
0.85,-1.4276236538877425,1.3829290060384722,-1.1271295509586818,0.13790455041978353,-0.20086152862171094,-0.002836680014289974,-1.6231822570749141,0.8563017872891268,0.4212694995761003,0.07759528766364852,-0.18211366080419408,-0.0010243761642798688,2.099453166957863,-0.6847200732568933,-3.6517823103894305,-1.023517191767068,0.617456998557735,0.011588096320076069,-0.22981314345865209,-3.9929120917842527,-5.04341489531006,-1.0295296232564226,-0.05503378795090679,-0.0007037562126552101
0.86,-1.443646176554634,1.391423060226373,-1.1232793209976584,0.138579339816301,-0.20263632673988935,-0.0028462590077856244,-1.6022522666891497,0.8494054187900879,0.3850229961023404,0.06747893965174731,-0.17747981181784137,-0.0009578993495650604,2.182682328050756,-0.8268770199540135,-3.6857831504171856,-1.0224091899921195,0.611102078587451,0.009971861333907706,-0.2138686690530726,-4.087097232201098,-5.0589223468042945,-1.0294284568318657,-0.05396498355199016,-0.0007101980502664812
0.87,-1.4594511980251255,1.3998339770610748,-1.1197949391727506,0.13915297352444742,-0.2043649400011207,-0.0028552082566665766,-1.5805021470491372,0.8410916834701854,0.34843818249078257,0.057363370814642156,-0.17286132612313612,-0.0008949248880952294,2.2655423959189482,-0.9629595651876193,-3.711991644158345,-1.0196272026347692,0.6043701500159697,0.008470004247894458,-0.1973338340867497,-4.177542978531034,-5.072798033263884,-1.0291788073171053,-0.052867654663418584,-0.0007171471393664307
0.88,-1.4750305512288877,1.40814818972732,-1.1166790150411032,0.13962563045600776,-0.2060475513585101,-0.0028635615511604213,-1.5579353203762165,0.8314212666245316,0.31159241316473085,0.0472656931560336,-0.16826113573893872,-0.0008353294493844838,2.3478061648037802,-1.092851920663833,-3.730609412269211,-1.0152542621235838,0.5973134517253724,0.0070788030415498415,-0.18024971213825447,-4.264396846737949,-5.0851616488356,-1.0288076866291749,-0.051744990827471735,-0.0007245253853959475
0.89,-1.490376125633991,1.4163527497169626,-1.11393340468332,0.13999765270291994,-0.20768437056410402,-0.0028713514049412176,-1.5345574405103173,0.8204559989642447,0.2745610357783214,0.03720222469121861,-0.1636819205593921,-0.0007789853780796181,2.4292564848376945,-1.2164517269940622,-3.7418509280112495,-1.0093725574581498,0.5899796096070533,0.0057942986397310214,-0.16265611209750028,-4.347800381776177,-5.096129131846648,-1.0283405459203228,-0.050599641406531164,-0.0007322497298246689
0.9,-1.5054798886214513,1.4244353369467917,-1.1115592320386312,0.14026953762705124,-0.20927563182459905,-0.002878609020476388,-1.5103762987460363,0.8082587229829105,0.2374172644688789,0.027188492413128845,-0.15912612604950127,-0.0007257615535170222,2.5096861006546343,-1.333669056833062,-3.7459411011081127,-1.0020628445905615,0.5824119419420146,0.004612365774113725,-0.14459165965847826,-4.427887574125238,-5.1058116331327765,-1.02780113728529,-0.0494337527044167,-0.0007402333308611658
0.91,-1.520333905928135,1.432384268640143,-1.1095569112673374,0.1404419300388046,-0.2108215916232634,-0.002885364262408573,-1.4854017306683698,0.7948931693351287,0.2002320771293914,0.01723924117533421,-0.15459597986643497,-0.0006755241932184904,2.5888973909863195,-1.4444255117533038,-3.7431129973557136,-0.9934039345812717,0.5746498032024894,0.0035287691915464325,-0.12609395325738287,-4.504783540419017,-5.114314612878969,-1.027211399708493,-0.04824901118470224,-0.0007483866986854644
0.92,-1.5349303611780374,1.4401885070630056,-1.1079261699139642,0.14051561451658892,-0.2123225266955098,-0.0028916456384566404,-1.4596455249902331,0.7804238422862794,0.16307413533730988,0.007368447778432149,-0.15009350722464243,-0.000628137604806738,2.6667020365112135,-1.5486534180272464,-3.733605707994447,-0.9834722582328457,0.5667289421425767,0.002539208017753314,-0.10719978080097972,-4.578603452430097,-5.121737065593163,-1.0265913680534808,-0.04704669147727893,-0.0007566187748110893
0.93,-1.5492615745293934,1.447837666195408,-1.106666072659588,0.14049150791212212,-0.2137787321449151,-0.0028974802873536435,-1.4331213351355998,0.7649159132402366,0.12600972543760555,-0.0024106604466818237,-0.14562054494053064,-0.0005834648897002916,2.7429206404811377,-1.6462951251413385,-3.717662380265427,-0.972341504971693,0.5586818555080164,0.0016393508062080286,-0.08794538309310981,-4.649451697917128,-5.1281708716566445,-1.0259591038621612,-0.045827707906337695,-0.0007648379479872732
0.9400000000000001,-1.563320020470159,1.4553220174085377,-1.1057750454679318,0.14037065207962743,-0.21519051968674474,-0.002902893973363256,-1.405844594076547,0.7484351213129681,0.08910271916563382,-0.012085583249469817,-0.1411787541829635,-0.0005413686009612389,2.8173823238684066,-1.7373024095654275,-3.6955284180676555,-0.9600823330469375,0.5505381236005054,0.0008248634312926217,-0.0683667498892779,-4.717421256621812,-5.133700272912005,-1.025330646734914,-0.04459266833658711,-0.0007729530015969449
0.9500000000000001,-1.5770983447973685,1.462632494207481,-1.1052508999468522,0.1401542068602996,-0.2165582160069632,-0.0029079110869323515,-1.3778324327209632,0.7310476798943375,0.052414552107970296,-0.021644521932782053,-0.1367696320218469,-0.0005017113569095349,2.889924314010897,-1.8216359850459973,-3.6674498592572395,-0.9467621475235628,0.5423247182162623,9.143165877967263e-05,-0.048499934910506526,-4.782593274925748,-5.138401468942747,-1.0247199850957898,-0.04334192921433878,-0.0007808739897454755
0.96,-1.5905893808169764,1.469760696088756,-1.1050908577644951,0.1398434433470128,-0.2178821612260783,-0.002912554651047346,-1.3491036019607958,0.7128201881274805,0.016004218235720145,-0.031076351328682913,-0.13239452191151124,-0.00046435641149948214,2.9603915430261023,-1.8992651194803507,-3.633671933859943,-0.9324449421570478,0.534066277106044,-0.000565220156385271,-0.028381376848687023,-4.845036823256738,-5.142342330045589,-1.0241390452008206,-0.042075650770967754,-0.0007885130411380298
0.97,-1.6037861648002625,1.4766988915511003,-1.1052915749774577,0.13943973744815777,-0.21916270745879535,-0.002916846332868035,-1.319678398328596,0.6938195462344368,-0.020071721296263396,-0.040370589885500956,-0.1280546232717037,-0.0004291681820689085,3.028636269648031,-1.970167357258093,-3.59443780533075,-0.9171912009507022,0.5257853420925453,-0.0011493131231794518,-0.00804821432161923,-4.90480882118467,-5.1455822223743946,-1.0235976973138599,-0.04079385145368731,-0.0007957850913952656
0.98,-1.6166819507309875,1.4834400202873788,-1.1058491661465637,0.1389445637637627,-0.22040021746219446,-0.0029208064602165977,-1.2895785930724948,0.6741128736278418,-0.05575911691061123,-0.04951736843950688,-0.12375100033991218,-0.0003960127348562716,3.09451773563531,-2.03432834482066,-3.5499874949812553,-0.9010578550360187,0.5175025603575012,-0.0016649997574544884,0.012461416180597734,-4.961954116185757,-5.148171940318277,-1.0231037780457588,-0.039496460748758754,-0.0008026085456588989
0.99,-1.6292702243744472,1.4899776945750893,-1.1067592281341165,0.13835948978168625,-0.22159506336686993,-0.0029244540425022217,-1.258827364345976,0.6537674287710552,-0.0910061987552853,-0.058507398207646985,-0.11948459046754603,-0.00036475822856239863,3.1579018655194946,-2.091741756086642,-3.500556987805484,-0.8840982904361425,0.5092368502347515,-0.0021163512702466747,0.03310810913307166,-5.016505703205544,-5.150153740843081,-1.0226631279226466,-0.038183369662133496,-0.0008089058742010637
