tonegas/nnodely-applications/joint_friction_estimation/dataset/test/mpc_mujoco_episode_6.csv
time,q1,q2,q3,q4,q5,q6,dq1,dq2,dq3,dq4,dq5,dq6,ddq1,ddq2,ddq3,ddq4,ddq5,ddq6,tau1,tau2,tau3,tau4,tau5,tau6
0.0,0.0,1.57,-1.57,0.0,0.0,0.0,0.0,0.0,0.0,0.0,0.0,0.0,6.868635908277098,-4.754479142670107,3.4140373183367236,1.6611755715882093,1.022253426468314,-4.265753985599474e-06,0.9579727252875699,-6.318102769540087,-4.8627600266518725,-1.0629558847144658,0.08645925136367513,0.0005622870864509558
0.01,0.00068335626119127,1.5695273281949371,-1.5696613577334373,0.00015383624886329623,8.578871410149774e-05,9.635458756998784e-07,0.068335626119127,-0.04726718050629713,0.033864226656271236,0.015383624886329623,0.008578871410149774,9.635458756998783e-05,6.77825209696282,-4.622694053681481,3.403375959010524,1.5411520291504632,0.8562012747751417,0.009645350569457811,0.9481474613626091,-6.258475049046161,-4.841186507717348,-1.058395628595583,0.08566840889571754,0.0005549026668487389
0.02,0.002040542211693719,1.5685951830753555,-1.5689857852871119,0.00045202599800530047,0.0002469997085217308,2.9314186812625657e-06,0.13571859505024494,-0.09321451195816653,0.06755724463253403,0.029818974914200422,0.016121099442023307,0.00019678728055626873,6.679015991401817,-4.483838920445465,3.387200323840048,1.446223734978277,0.753016314766711,0.010080854787371862,0.934672850878897,-6.192030298006741,-4.817450480928429,-1.0533247295346324,0.08464698248634518,0.0005448534041530764
0.03,0.004061365677507752,1.567217447653856,-1.5679753639726042,0.0008869981924303052,0.00047706100861897693,5.840089536592885e-06,0.20208234658140334,-0.13777354214994708,0.10104213145076212,0.04349721944250047,0.023006130009724613,0.000290867085533032,6.573125338742957,-4.338577944956797,3.3672231604326086,1.3703842150090602,0.6882963320756623,0.009483761304692528,0.9178087104029831,-6.119145055002466,-4.79173643914818,-1.047787233057569,0.08340932179318006,0.0005322824600443881
0.04,0.006735102616004572,1.5654086281325048,-1.5666324167616896,0.0014526378443378337,0.0007717257298596549,9.633872676201406e-06,0.26737369384968196,-0.18088195213512104,0.13429472109146218,0.05656396519075284,0.029466472124067805,0.000379378313960852,6.4619254773899835,-4.187527263785861,3.3447122109084138,1.3090623705892175,0.6473103523038581,0.008971378403851205,0.8978344162680902,-6.040202575402981,-4.764233860136314,-1.0418282659328821,0.08197049922398052,0.0005173322401963165
0.05,0.01005057991955272,1.5631837961879624,-1.564959414783634,0.002143938864473119,0.001128182108101433,1.4273283511192669e-05,0.33154773035481466,-0.2224831944542358,0.16730019780554536,0.06913010201352855,0.03564563782417778,0.00046394108349912645,6.346253485456181,-4.031270163975886,3.3205931708205743,1.2587750281447323,0.6211225255485928,0.00862415002098249,0.8750443529003271,-5.955594031644608,-4.735136945696196,-1.035493956452851,0.08034611925095361,0.0005001445237135079
0.06,0.013996227996623848,1.5605585336432748,-1.5629589101136836,0.00295673931907357,0.001544512715043846,1.9730791856427853e-05,0.3945648077071129,-0.26252625446875855,0.2000504669950596,0.0812800454600451,0.04163306069424131,0.0005457508345235184,6.226644313377733,-3.8703676264151254,3.2955279324921642,1.2168656525182693,0.604290077297243,0.008396873901576285,0.8497437333693277,-5.865718934043896,-4.704644051388642,-1.028831276505501,0.07855217188938571,0.0004808606763763303
0.07,0.018560115537874254,1.557548878686535,-1.5606334889128646,0.003887519318313705,0.002019364507385113,2.598673345220511e-05,0.45638875412504076,-0.3009654956739833,0.23254212008190545,0.0930779999240135,0.047485179234126706,0.0006255941595777259,6.103454448192493,-3.7053656145570657,3.2699744007838203,1.1813057562117768,0.5934795264621258,0.008246037972992504,0.8222446629685272,-5.7709850351495655,-4.672956920275977,-1.0218878333632346,0.07660491000404648,0.00045962182734490104
0.08,0.02372997390652306,1.5541712730695865,-1.5579857403699646,0.004933246464049505,0.0025517462677063767,3.302652814514701e-05,0.5169858368648805,-0.33776056169485374,0.2647748542900026,0.10457271457358,0.053238176032126355,0.0007039794692941903,5.976936162323163,-3.5368000200463756,3.2442323170998213,1.1505437400481915,0.5866318723326813,0.008141159795028052,0.7928623917858948,-5.671807872114666,-4.64027979097035,-1.0147116290413476,0.074520739161675,0.00043656894594217683
0.09,0.02949321561342052,1.5504425099154155,-1.5550182379556656,0.0060912573847389795,0.0031409030452714225,4.083887994650331e-05,0.5763241706897461,-0.37287631541709937,0.29675024142990014,0.11580109206894743,0.05891567775650458,0.0007812351801356299,5.847282102143724,-3.36519988424087,3.2184784334747443,1.123389881238313,0.5824582692623146,0.008061463950116199,0.7619117434103003,-5.56861003656339,-4.606818424488684,-1.0073507989760389,0.07231611393108703,0.0004118428013924714
0.1,0.03583694954871909,1.5463796819059714,-1.5517335303045763,0.007359166632324449,0.003786237142919125,4.941460360262639e-05,0.6343733935298574,-0.4062828009444171,0.3284707651089288,0.12679092475854697,0.06453340976477023,0.000857572365612308,5.714652051179785,-3.191089329419199,3.1927935876609568,1.098928893255123,0.5801351170097959,0.00799228943164021,0.7297037289442564,-5.461820223545975,-4.5727790791685194,-0.9998533381025275,0.07000743752034704,0.00038558381098220153
0.11,0.04274799456720406,1.5420001297288966,-1.5481341396528132,0.00873479631103033,0.004487257236420071,5.8745837278079335e-05,0.6911045018484966,-0.4379552177074957,0.35993906517631624,0.1375629678705881,0.07010200935009459,0.0009331233675452944,5.579188969759849,-3.0149885112078363,3.167183629435191,1.0764535097865195,0.5791196089221984,0.007922667434150377,0.6965423666025972,-5.351872089855314,-4.538367453943013,-0.9922668202075913,0.06761096338043857,0.00035793179112321156
0.12,0.05021289237790072,1.5373213907425365,-1.5442225662224711,0.010216121405328979,0.005243544488743693,6.882549135997294e-05,0.7464897810696662,-0.4678738986360101,0.39115734303421673,0.14813250942986497,0.07562872523236223,0.0010079654081893608,5.4410285786712835,-2.837413820998121,3.1415956876893114,1.0554140925456146,0.579038104092529,0.007843816977703533,0.6627217319575874,-5.239202940644089,-4.503787615052288,-0.984638115100323,0.06514269843245284,0.0003290256284862907
0.13,0.058217920299656604,1.5323611478806423,-1.5400012972948802,0.011801226991547944,0.0060547289218364905,7.964684151498817e-05,0.8005027921755883,-0.49602428618941996,0.4221268927590883,0.15851055862189656,0.0811184433092797,0.0010821350155015242,5.300305054104457,-2.658877510050884,3.1159309141324454,1.0353804467188805,0.5796185668683123,0.007748232315062609,0.6285232648919332,-5.124252257919387,-4.469240918247461,-0.9770131073366523,0.06261830819188308,0.0002990028884664207
0.14,0.06674910421042732,1.5271371788661232,-1.5354728199789185,0.013488274444845624,0.0069204719717821045,9.12032100157385e-05,0.8531183910770709,-0.5223969014519005,0.4528477315961658,0.16870474532976795,0.08657430499456137,0.0011556368500750325,5.1571543793801355,-2.4798868670428864,3.090054567934965,1.0160129330662402,0.5806497063077565,0.007629138372477584,0.5942133579603199,-5.007460082678484,-4.434924936804479,-0.9694364197333439,0.060053024437751706,0.0002679993774573593
0.15,0.07579223187729897,1.5216673058403292,-1.5306396368795279,0.015275474459419373,0.007840452767183969,0.00010348770135101517,0.9043127666871656,-0.5469873025793955,0.48331830993905894,0.1787200014573749,0.09199807954018635,0.0012284491335276672,5.011716283755983,-2.3009430524965118,3.063804097377778,0.9970406572016306,0.5819563241886492,0.007480174821403729,0.5600412479425927,-4.889265262725848,-4.4010324046599365,-0.9619511445858245,0.05746155629969723,0.0002361486744602068
0.16,0.08533286676969881,1.5159693455429113,-1.5255042840208461,0.017161065237392168,0.008814356650539963,0.00011649297164663547,0.9540634892399846,-0.5697960297417796,0.5135352858681752,0.18855907779727943,0.09739038833559939,0.0013005270295620309,4.864135327426565,-2.1225396732350905,3.0369957149320497,0.9782450442650652,0.5833845331678731,0.007295223799046013,0.5262372283778468,-4.770103579694262,-4.367750183384788,-0.954598585282168,0.054858005764493095,0.00020358164666314077
0.17,0.09535636240733497,1.5100610601989355,-1.5200693504901865,0.01914329461093717,0.009841865059131125,0.0001302110197736218,1.0023495637636162,-0.5908285343975805,0.5434933530659519,0.19822293735450017,0.10275084085911625,0.0013718048126986305,4.714561467331958,-1.9451611652776877,3.009429839881732,0.9594475096103752,0.584793015463493,0.007068329622242686,0.4930111961147452,-4.650405770938697,-4.335258261330485,-0.947418010834391,0.052255788663258355,0.00017042596283364656
0.18,0.10584787726356927,1.5039601092857513,-1.5143374993528071,0.021220405173398706,0.010922646247082866,0.00014463299322819062,1.04915148562343,-0.6100950913184165,0.573185113737948,0.20771105624615366,0.10807811879517401,0.0014421973454568815,4.5631503022321604,-1.769281042756648,2.9808956889462483,0.9405002427800646,0.586048007656359,0.0067936789727509606,0.4605515396367886,-4.530595464436208,-4.3037287930011585,-0.940446425698321,0.04966756220773769,0.00013680561760521213
0.19,0.1167923902258955,1.4976840023629852,-1.5083114894501581,0.02339062173172635,0.012056346555312842,0.00015974900515744814,1.0944512962326234,-0.6276106922766103,0.6026009902648992,0.21702165583276442,0.11337003082299754,0.0015116011929257522,4.410063112699399,-1.5953600623391726,2.9511752237002242,0.9212793555698822,0.5870206116163921,0.006465622099705026,0.42902437132510574,-4.411087047377766,-4.2733251864558115,-0.9337183571063975,0.04710516010779017,0.00010284047894250944
0.2,0.1281747166029225,1.491250053155547,-1.5019941977415638,0.025652140572173122,0.013242582076286556,0.00017554796101609143,1.1382326377027017,-0.6433949207438021,0.6317291708594303,0.22615188404467718,0.11862355209737152,0.0015798955858643282,4.255466761249824,-1.4238443464312143,2.920046608790185,0.9016798227983367,0.5875855823695986,0.0060787227025151935,0.3985731000952538,-4.292283491613458,-4.2442012462842245,-0.9272656619827068,0.04457953622882906,6.864587016558487e-05
0.21,0.1399795246586583,1.4846753350821942,-1.4953886418852558,0.028003120167404607,0.014480930649122271,0.00019201739471885661,1.180480805573577,-0.657471807335288,0.6605555856307991,0.23509795952314838,0.12383485728357141,0.0016469433702765168,4.099533487163822,-1.25516350354967,2.887287293113075,0.8816117796947873,0.5876210743027883,0.005627828292965376,0.36931833516566803,-4.174574161384611,-4.216500379403788,-0.9211173553397096,0.04210071764169485,3.433219684901721e-05
0.22,0.1521913526480688,1.4779766384213548,-1.4884980027825483,0.030441673056181163,0.015770924177580768,0.00020914331506866144,1.2211827989410518,-0.6698696660839243,0.6890639102707514,0.2438552888776555,0.12899935284584976,0.0017125920349804825,3.942440612159617,-1.0897287802410474,2.85267679424659,0.8609978427767171,0.5870090242186237,0.005108155103709322,0.34135810626509117,-4.05833263073926,-4.190354870573074,-0.9152994618671847,0.03967776778340529,4.62766680639666e-09
0.23,0.1647946263217105,1.4711704293019052,-1.4813256468311538,0.032965858704414784,0.017112041300747404,0.0002269100638499158,1.2603273673641693,-0.6806209119449695,0.7172355951394546,0.2524185648233621,0.13411171231666352,0.0017766748781254333,3.7843701624134765,-0.9279312754926163,2.8159992422067144,0.8397711994591024,0.5856359659767119,0.00451538282861863,0.31476838051943634,-3.94391453959171,-4.165885234100159,-0.9098348922139157,0.03731876028911998,-3.423716318963976e-05
0.24,0.1777736768610532,1.4642728106996763,-1.473875147652041,0.03557367721460563,0.018503700470793055,0.0002453001873738772,1.297905053934269,-0.6897618602228929,0.7450499179112763,0.2607818510190843,0.13916591700456507,0.001839012352396141,3.6255084067767482,-0.7701402455076178,2.7770457203147774,0.8178742712759979,0.5833941387355477,0.003845754959828085,0.28960385172378583,-3.831655518476303,-4.143199647730641,-0.9047433452307515,0.035030763878487935,-6.829918602108283e-05
0.25,0.19111275919959134,1.4572994856109265,-1.4661503070702269,0.03826306379395097,0.019945253508174925,0.00026429432350078084,1.3339082338538137,-0.697332508874991,0.7724840581814206,0.2689386579345335,0.144155303738187,0.0018994136126903637,3.466045308792234,-0.6167015238422398,2.735616427242779,0.7952578010559979,0.580182788655824,0.003096180696108508,0.2658989738278722,-3.7218692125937296,-4.122393474124578,-0.9000412371898213,0.032819838488531344,-0.0001020932538435377
0.26,0.20479607067787908,1.4502657225620723,-1.4581551751445117,0.041031883923237866,0.021435979714333756,0.00028387110627234844,1.368331147828776,-0.7033763048854236,0.7995131925715148,0.2768820129286898,0.149072620615883,0.001957678277156763,3.3061738902136795,-0.46793607911729795,2.691522674144128,0.7718802490844245,0.5759095843343385,0.002264334336333995,0.24366920733899994,-3.614845435703185,-4.103548874669534,-0.8957416587201079,0.030691042645493605,-0.0001355370265180443
0.27,0.218807769973278,1.4431863236009026,-1.449894069055184,0.043877929191611514,0.022975080626650542,0.0003040070902839031,1.401169929539893,-0.7079398961169721,0.826110608932763,0.28460452683736465,0.1539100912316787,0.0020135984011554627,3.146089505512746,-0.3241387297527625,2.644588723399337,0.7477074097920848,0.5704920766856088,0.0013487480807232721,0.22291244504472424,-3.510848483738368,-4.086734519626194,-0.8918543599060591,0.028648451865349044,-0.00016855398045984493
0.28,0.23313199623765507,1.4360755948985433,-1.4413715906726738,0.046798913778465984,0.024561675500846144,0.00032467669681822474,1.4324226264377076,-0.7110728702359347,0.8522478382510206,0.2920984586854471,0.15865948741956,0.002066960653432165,2.985989029811592,-0.18557703238146744,2.5946534702908703,0.7227121808698751,0.563859139181595,0.00034889413542105174,0.20361058201458093,-3.4101156366986984,-4.0720053977648805,-0.8883857636862978,0.02669518767239317,-0.00020107330559864087
0.29,0.24775288836878495,1.4289473200738705,-1.4325926426444122,0.04979247157458133,0.026194797602538653,0.0003458521835598904,1.4620892131129875,-0.7128274824672834,0.8778948028261567,0.29935577961153503,0.16331221016925096,0.002117548674166566,2.8260699663998468,-0.05249035775972543,2.5415719654247644,0.6968744323648268,0.5559523273369926,-0.0007347478342349945,0.18573119426150853,-3.3128558753860986,-4.059402727729121,-0.8853390073671817,0.024833456633014298,-0.0002330297332216024
0.3,0.2626546043341253,1.4218147363331541,-1.4235624428519917,0.05285615394142265,0.027873391382587154,0.0003675036394163761,1.4901715965340334,-0.7132583740716311,0.9030199792420543,0.30636823668413216,0.16785937800485007,0.0021651455856485716,2.666529484112293,0.07491083489833177,2.4852167735591273,0.6701809354549368,0.5467270990330118,-0.0019006415408622246,0.1692292907039045,-3.219248836939688,-4.048953972364169,-0.8827140117355068,0.023064598622524243,-0.0002643633001936474
0.31,0.2778213404593156,1.4146905134977354,-1.4142865371062487,0.05598742811115112,0.029596310600402798,0.00038959900559952835,1.5166736125190294,-0.712422283541862,0.9275905745743035,0.3131274169728472,0.17229192178156427,0.0022095366183152235,2.5075633990057975,0.19644551716649206,2.425479163415075,0.6426253200416676,0.5361538409607771,-0.0031461663570997445,0.15404910411538442,-3.129444029901117,-4.040672956184336,-0.8805075769210164,0.021389143381506135,-0.0002950190567578175
0.32,0.29323735058857214,1.4075867359717873,-1.4047708099641607,0.05918367623109843,0.031362317445910656,0.00041210412367927016,1.54160101292565,-0.7103777525948229,0.9515727142088034,0.31962481199473086,0.17660068455078579,0.0022505118079741825,2.349365118645266,0.311962399187585,2.3622701227913834,0.6142080377300854,0.5242186518738929,-0.004467613521934144,0.14012588850406787,-3.0435603257778596,-4.034560085037726,-0.8787135038283533,0.01980687427865597,-0.0003249467266190643
0.33,0.3088869650204686,1.4005148876809685,-1.3950214935684317,0.06244219505579771,0.033170082694702854,0.00043498281082465713,1.5649614431896446,-0.7071848290818731,0.9749316395729053,0.32585188246992824,0.18077652487921947,0.002287868714538695,2.192124570580197,0.4213400238843495,2.295521193712946,0.5849363126374394,0.5109238408099799,-0.005860207847524279,0.127387692729925,-2.9616857398344885,-4.030602665877881,-0.8773227396359258,0.01831689808296042,-0.0003541003292600839
0.34,0.3247546091207133,1.393485839991355,-1.3850451744282628,0.06576019628760275,0.03501818691264767,0.00045819696191335313,1.5867644100244702,-0.7029047689613601,0.9976319140168889,0.3318001231805047,0.184810421794482,0.002321415108869601,2.0360271389960647,0.524486648386256,2.225185123259613,0.5548240671478277,0.4962881080088115,-0.00731815555420523,0.11575708303644336,-2.883877509222372,-4.028775323389065,-0.8763235455523393,0.016917719461876347,-0.00038243777538830577
0.35000000000000003,0.3408248215136969,1.3865098425966889,-1.374848798077946,0.06913480756382963,0.036905122706428456,0.00048170667763784995,1.6070212392983625,-0.6975997394666079,1.0196376350316871,0.3374611276226878,0.18869357937807843,0.0023509715724496804,1.881252634850402,0.621339916262485,2.151236327018475,0.523891813513278,0.4803463876670717,-0.008834717728471109,0.10515279042203379,-2.810162471660322,-4.029040509057883,-0.8757016847361996,0.015607318865671713,-0.00040992044703735985
0.36,0.35708227175694374,1.3795965173410327,-1.364439671568426,0.07256307408452155,0.0388292979958847,0.0005054704171869009,1.6257450243246843,-0.6913325255656035,1.0409126509520177,0.3428266520691919,0.1924175289456245,0.0023763739549050858,1.7279743249186441,0.7118663268240814,2.07367116368511,0.4921665052366606,0.4631493444646875,-0.010402307804859401,0.09549126228447408,-2.740537742817141,-4.031349097162259,-0.8754406280286949,0.014383232432054933,-0.00043651277412529567
0.37,0.3735117774072027,1.3727548549235873,-1.353825463765678,0.07604196087061335,0.040789040263378755,0.0005294451735547573,1.6429505650258986,-0.6841662417445492,1.0614207802747968,0.34788867860918077,0.1959742267494056,0.002397475636785641,1.576358044032101,0.7960605102603704,1.9925080211079473,0.4596813446558672,0.44476252934074534,-0.012012610398208334,0.08668810141764971,-2.674971685442629,-4.035641061083874,-0.8755217749264987,0.013242632549529232,-0.0004621818191958459
0.38,0.3900983203937056,1.3659932144130023,-1.343014203448454,0.0795683556376602,0.04278260171549791,0.0005535866690496616,1.658654298650291,-0.6761640510584983,1.0811260317223996,0.35263947670468393,0.19935614521191536,0.0024141495494904345,1.4265614124341748,0.8739443196651147,1.9077872159533857,0.4264755451648492,0.42526521354845137,-0.013656717840999644,0.07865937911019988,-2.613405158271413,-4.041846222365797,-0.8759246870406063,0.012182407751539677,-0.00048689688164184884
0.39,0.40682706262293544,1.3593193254801967,-1.3320142752164557,0.0831390722655645,0.04480816527398603,0.0005778495681557442,1.6728742229229838,-0.667388893280553,1.0999928231998253,0.3570716627904298,0.2025563558488124,0.00242628991060826,1.2787331767418184,0.9455657530533206,1.8195707111005037,0.3925940481415484,0.40474893280390134,-0.015325280023120724,0.07132281268756457,-2.5557530279073526,-4.049885064056074,-0.8766273311494264,0.011199240674592714,-0.0005106291319463393
0.4,0.4236833607498257,1.3527402932417065,-1.3208344132381118,0.08675085484002694,0.046863851296580925,0.0006021877045645587,1.6856298126890292,-0.6579032238490304,1.1179861978343828,0.3611782574462445,0.20556860225948956,0.0024338136408814577,1.1330126886833074,1.0109977202406761,1.7279416567900827,0.3580871959892269,0.3833157846154194,-0.017008662537831176,0.0645988012635218,-2.501905922403488,-4.059669599120986,-0.8776063288652456,0.010289682899549145,-0.000533351285403382
0.41000000000000003,0.4406527800623068,1.3462626055900828,-1.309483692884654,0.09040038223687832,0.04894772491501081,0.000626554318946676,1.696941931248107,-0.6477687651623663,1.1350720353457844,0.3649527396851379,0.20838736184298814,0.0024366614382117253,0.9895295308534536,1.0703366709317974,1.633003763410835,0.32301036375531567,0.3610765310030484,-0.018697107874338315,0.058411316651982514,-2.451732201193953,-4.071104284096736,-0.8788372098946359,0.009450225603061285,-0.0005550373234361175
0.42,0.4577211074391199,1.3398921428740098,-1.2979715203139264,0.09408427321611665,0.0510578038672403,0.0006509023038872245,1.7068327376813155,-0.6370462716073053,1.151217257072778,0.36838909792383234,0.2110078952229494,0.00243479849405485,0.8484032934814089,1.1237011015272316,1.534880515555305,0.28742355264109243,0.33814856529059645,-0.02038089436323809,0.052688649279288985,-2.4050801125068038,-4.084086967689571,-0.8802946658864353,0.008677365072022068,-0.0005756622690578224
0.43,0.47487436335438804,1.3336341897787074,-1.2863076200831418,0.0977990919884581,0.05319206669445975,0.0006751844523651401,1.7153255915268124,-0.6257953095302518,1.1663900230784627,0.37148187723414533,0.21342628272194522,0.0024282148477915624,0.7097435009487034,1.1712299590051385,1.4337142385848662,0.2513909493779902,0.3146538051900669,-0.0220504878205231,0.04736401149374597,-2.3617801064728425,-4.09850986374277,-0.8819528019255305,0.007967662273992999,-0.000595202021280649
0.44,0.49209881291610114,1.3274934492469306,-1.274502020884455,0.10154135421357632,0.05534846117041969,0.0006993537062124515,1.7224449561713073,-0.614074053177686,1.1805599198686707,0.37422622251182297,0.21563944759599357,0.0024169253847311292,0.5736496818183427,1.213080960762,1.3296650303802389,0.21498045594329618,0.290716574900336,-0.023696681356868865,0.04237600287167609,-2.3216472699098016,-4.114260537870638,-0.8837853828451715,0.00731779582681687,-0.0006136332514228333
0.45,0.509380975938999,1.3214740582725057,-1.2625650395106103,0.1053075333860037,0.057524912831492685,0.00072336340114044,1.7282163022897912,-0.6019390974424925,1.1936981373844817,0.3766179172427372,0.2176451661072996,0.0024009694927988492,0.4402115716911051,1.2494288495177608,1.2229095721884304,0.1782631944650932,0.26646153654204574,-0.025310719479529564,0.03766894396221407,-2.28448384724844,-4.131222897116685,-0.8857660716921156,0.006724607866913791,-0.0006309333623622942
0.46,0.526707636064898,1.3155796053918865,-1.2505072631699206,0.10909406756194132,0.059719333480106024,0.0007471675051543527,1.7326660125898963,-0.5894452880619301,1.205777634068964,0.3786534175937621,0.21944206486133355,0.0023804104013912747,0.30950943449446683,1.2804636023168567,1.113639833496627,0.14131299242322637,0.24201172624701484,-0.026884403517274502,0.03319308640395882,-2.2500818113016656,-4.149278172222795,-0.8878686578834778,0.006185142474167134,-0.0006470805098966171
0.47000000000000003,0.5440658489549511,1.3098131496946588,-1.2383395302803464,0.11289736637800145,0.06192962954159838,0.0007707208474833813,1.7358212890053177,-0.5766455697227596,1.2167732889574154,0.3803298816060131,0.22102960614923506,0.0023553342329028673,0.18161448496790417,1.3063886123082016,1.0020616866550336,0.10420585340738153,0.21748674307767618,-0.02841017626683151,0.02890470850368637,-2.2182254475637575,-4.16830588249195,-0.8900672728365971,0.005696676468112071,-0.0006620536835544828
0.48,0.5614429495883675,1.3041772411712345,-1.2260729098813725,0.11671381831120635,0.06415371016466807,0.0007939793355135419,1.7377100633416382,-0.5635908523424303,1.2266620398973802,0.3816451933204901,0.22240806230696933,0.0023258488030160527,0.05658939320640578,1.3274188613903435,0.8883934475129063,0.06701941879845208,0.19300113022187163,-0.029881184808926986,0.024766106216906197,-2.188693916446236,-4.18818477377739,-0.8923365911274174,0.0052567425419578935,-0.000675832842521745
0.49,0.5788265587105221,1.2986739422150875,-1.213718679809702,0.12053979812840535,0.06638949496787355,0.000816900157610063,1.7383609122154682,-0.5503298956146887,1.2354230071670624,0.3825979817198996,0.22357848032054828,0.002292082209652109,-0.06551114883427393,1.3437791009866742,0.7728643586486643,0.029832425713232524,0.1686629782057837,-0.03129132130673412,0.020745490043576426,-2.1612637592745294,-4.208793720821913,-0.8946520155320883,0.004863144844811585,-0.0006883991008423877
0.5,0.5962045884800437,1.2933048500977304,-1.2012883037904407,0.12437167447264845,0.06863492134854676,0.0008394419701373255,1.7378029769521524,-0.5369092117357143,1.243037601926131,0.3831876344243109,0.22454263806732042,0.002254181252726259,-0.18463981903614404,1.3557020572038294,0.6557130318305162,-0.0072758334633609145,0.14457276978995925,-0.032635242543192736,0.016816798683735923,-2.1357113159302674,-4.230012585983989,-0.8969898446233351,0.004513967255718324,-0.0006997349547757523
0.51,0.6135652473693075,1.2880711202370825,-1.188793407599453,0.12820581753397006,0.0708879512854012,0.0008615650674109545,1.7360658889263816,-0.5233729860647929,1.2494896190987745,0.3834143061321622,0.22530299368544288,0.0022123097273629,-0.3007560344574831,1.3634266754507554,0.5371858661858735,-0.04422604478006331,0.12082247632666565,-0.03390836962153214,0.012959440422282614,-2.1118150246582825,-4.251723027302333,-0.8993274219200982,0.00420757471375433,-0.0007098245441651018
0.52,0.6308970443758206,1.2829734900838503,-1.1762457544549227,0.1320386067524776,0.0731465775814901,0.0008832315337348797,1.7331797006513154,-0.5097630153232129,1.2547653144530393,0.3832789218507547,0.22586262960889048,0.0021666466323925176,-0.41382531636264414,1.367196418290682,0.41753545816037185,-0.080939394626379,0.09749490613374734,-0.03510686993485994,0.009157973161703165,-2.0893575776827364,-4.273809249844991,-0.9016432659183472,0.003942608074604946,-0.0007186539389234487
0.53,0.6481887926033375,1.2780123034558724,-1.1636572197969164,0.13586643850259258,0.07540882950946964,0.0009044053770721215,1.7291748227516908,-0.4961186627977939,1.2588534658006387,0.38278317501149806,0.22622519279795436,0.0021173843337241776,-0.5238186670946525,1.367257628890961,0.29701901875470615,-0.11733807505019112,0.07466329726078902,-0.036227623904634076,0.005401733827121974,-2.0681279098000216,-4.296158695339268,-0.9039171806554215,0.0037179730547072694,-0.000726211441278975
0.54,0.6654296122713393,1.2731875351569502,-1.1510397656129603,0.13968573370873225,0.07767277783588364,0.0009250526442621305,1.7240819668001823,-0.4824768298922265,1.261745418395604,0.3819295206139652,0.22639483264140017,0.002064726719000896,-0.6307119726878451,1.3638579709595502,0.17589681273473867,-0.15334576795676802,0.052391140137116654,-0.037268179322066886,0.0016844275554062371,-2.047923000938332,-4.3186626661607885,-0.9061303467726756,0.0035328238982667327,-0.0007324878942465914
0.55,0.6826089332099194,1.268498815724341,-1.1384054144653963,0.1434929453446207,0.07993653921502199,0.0009451415180210872,1.7179320938580078,-0.4688719432608969,1.2634351147563998,0.38072116358884533,0.2263761379138353,0.0020088873758956705,-0.7344854426617444,1.35724495453425,0.05443063356072231,-0.1888881039925434,0.030732210156017015,-0.03822669621542385,-0.0019963133286666074,-2.0285494776920157,-4.341216880849764,-0.9082653933352661,0.0033865424598693537,-0.0007374769868939914
0.56,0.6997164968943503,1.2639454561576757,-1.1257662233726675,0.1472845657707457,0.08219827995550937,0.0009646423962399893,1.7107563684430922,-0.45533595666653803,1.2639191092728905,0.37916204261249936,0.22617407404873766,0.0019500878218902133,-0.8351230959156908,1.3476645554539184,-0.0671176733232075,-0.22389309227288656,0.009730786293213889,-0.03910188522529709,-0.005639391033305144,-2.009825002950108,-4.363721959397237,-0.9103064509379655,0.0032787134359594447,-0.0007411755473327357
0.5700000000000001,0.716742358069885,1.2595264724914252,-1.1131342576918144,0.15105713386719277,0.08445621917393398,0.0009835279543246977,1.7025861175534642,-0.4418983666250393,1.2631965680853035,0.37725680964470754,0.22579392184246186,0.0018885558084708438,-0.9326122991765172,1.3353599348080631,-0.18848762741105896,-0.2582915175363464,-0.01057797066358157,-0.03989294228649004,-0.009240715753527806,-1.9915794468427421,-4.386083837582131,-0.9122391868672735,0.003209096502419448,-0.0007435838149610508
0.58,0.733676886012887,1.2552406100830453,-1.1005215651434543,0.15480724192215034,0.08670863135938928,0.0010017731915025832,1.6934527943002136,-0.42858624083800045,1.2612692548360058,0.3750108054957557,0.22524121854552953,0.0018245237177885465,-1.0269433621336481,1.3205702631577285,-0.30942146015176886,-0.29201730174943796,-0.030167507902552515,-0.04059948226924881,-0.01279368249960286,-1.9736558362323158,-4.408214110622261,-0.9140508232991847,0.00317759612347482,-0.0007447056842850322
0.59,0.7505107654694132,1.2510863674993866,-1.0879401501134989,0.15853154223974047,0.0889538483807101,0.0010193554621520614,1.683387945652613,-0.4154242583658599,1.2581415029955363,0.37243003175901307,0.22452170213208297,0.0017582270649478136,-1.1181091912982208,1.3035296528645588,-0.4296653833196955,-0.32500782766192426,-0.049019266082795276,-0.04122147386439745,-0.01628964359373032,-1.9559110837922522,-4.430030307312344,-0.9157301396862443,0.0031842297900107515,-0.0007445489136115694
0.6,0.7672349973070776,1.2470620198947748,-1.0754019483579862,0.16222675343444365,0.09119026097444037,0.0010362544932980805,1.672423183766436,-0.4024347604611718,1.2538201755512697,0.3695211194703187,0.22364125937302728,0.0016899031146019043,-1.2061050027921785,1.2844662004726057,-0.5489707714078362,-0.35720422232222326,-0.0671219873353115,-0.0417591777733729,-0.01971836982026756,-1.9382165012694317,-4.451456096645539,-0.9172674606255411,0.0032290954242447335,-0.0007431252930025233
0.61,0.783840898910608,1.2431656417851524,-1.0629188022287863,0.165889666383199,0.09341631975622527,0.001052452389460706,1.6605901603530469,-0.38963781096223743,1.2483146129199933,0.36629129487553336,0.2226058781784902,0.0016197896162625598,-1.2909280927347955,1.2636011397748532,-0.6670952521397571,-0.38855159908257986,-0.0844709709388578,-0.04221308978712507,-0.02306849394072602,-1.920458104753041,-4.4724214296419715,-0.9186546306008139,0.0033123386538545744,-0.0007404507670643499
0.62,0.8003201043460993,1.2393951291337424,-1.0505024365287425,0.1695171498102236,0.09563053580147535,0.001067933626051885,1.64792054354913,-0.37705126514100357,1.2416365700043737,0.3627483427024588,0.22142160452500703,0.0015481236591179033,-1.3725776626532749,1.2411481049756485,-0.7838037006128006,-0.418999257139244,-0.10106729966905093,-0.04258389005889979,-0.026327931039468844,-1.902536722622222,-4.492862619730243,-0.9198849770574774,0.0034341206136093046,-0.000736545509382083
0.63,0.8166645643137229,1.2357482206746921,-1.0381644350951635,0.17310615548365396,0.0978314808429289,0.0010826850324911642,1.6344459967623595,-0.36469084590503026,1.2338001433578902,0.35890056734303827,0.22009450414535522,0.001475140643927902,-1.4510546963931752,1.2173125022388307,-0.8988691339607005,-0.4485008382007998,-0.11691705729333535,-0.042872399476219014,-0.029484270943578764,-1.8843679192801368,-4.512722365542374,-0.9209532633009258,0.003594586877903618,-0.0007314339466531589
0.64,0.8328665459036659,1.2322225184119882,-1.0259162182006265,0.17665372300721519,0.10001778713329158,0.0010966957661607208,1.6201981589943,-0.35257022627039847,1.224821689453704,0.35475675235612286,0.2186306290362679,0.001401073366955653,-1.5263618843188151,1.1922909869014178,-1.0120735047549794,-0.47701444037738727,-0.13203055498157035,-0.0430795436961926,-0.03252513875383377,-1.8658817497796836,-4.531949720387795,-0.9218556327082458,0.0037938380650787886,-0.0007251447317993328
0.65,0.8489186321654247,1.2288155072414924,-1.013769020849921,0.18015698419422072,0.10218814702061536,0.0011099572782490759,1.6052086261758793,-0.3407011170495755,1.2147197350705474,0.35032611870055397,0.21703598873237842,0.0013261512088355066,-1.5985035901485576,1.166271042734762,-1.1232083926173757,-0.5045026898979756,-0.1464215816375578,-0.04320632511336853,-0.035438520325083996,-1.8470223619955755,-4.550500012969723,-0.9225895457147422,0.0040319025857938305,-0.0007177106665033046
0.66,0.8648137214963304,1.2255245736541487,-1.0017338720417825,0.1836131670152489,0.104341312282656,0.0011224632724463693,1.589508933090564,-0.32909335873436424,1.2035148808138523,0.34561828210281986,0.21531652620406377,0.0012505994197293444,-1.6674858555259673,1.139430658856202,-1.2320755946851796,-0.530932771734328,-0.1601066904607027,-0.04325380271127999,-0.038213050334351094,-1.8277474641015787,-4.568334724102142,-0.9231537109829759,0.004308711934786811,-0.000709168574702781
0.67,0.8805450268513693,1.2223470234881693,-0.9898215750539447,0.18701959911478405,0.10647609326427612,0.0011342096573577192,1.573130535503889,-0.3177550165979429,1.1912296987837798,0.3406432099535158,0.21347809816201252,0.001174638491134992,-1.7333164373516523,1.1119380992330843,-1.3384876166427873,-0.5562764206583415,-0.17310453148755833,-0.04322307955296878,-0.040838261363418935,-1.8080276757831906,-4.585421324283937,-0.9235480120873742,0.004624078849902394,-0.0006995591295560446
0.68,0.8961060747730043,1.2192800987072645,-0.978042688800099,0.19037371089590932,0.10859135785919193,0.0011451944933988233,1.5561047921635016,-0.30669247809048517,1.1778886253845655,0.33541117811252674,0.21152645949158005,0.0010984836041104133,-1.796004872953861,1.0839517591779542,-1.4422680669957375,-0.580509874670895,-0.18543523749997703,-0.0431152974111455,-0.043304793188591345,-1.7878457818793052,-4.6017330769971965,-0.9237734309560224,0.004977678585971196,-0.000688926637252828
0.6900000000000001,0.9114907042368042,1.2163209931906769,-0.9664075102976719,0.19367303817575576,0.11068603037413424,0.0011554179348344594,1.5384629463799877,-0.2959105516587554,1.163517850242709,0.3299327279846438,0.20946725149423143,0.0010223441435635965,-1.8555625683250538,1.055620102806289,-1.5432519581149995,-0.603613793103924,-0.19711986855043495,-0.04293163789757137,-0.045604562202336746,-1.7671959070322134,-4.617248812528683,-0.9238319692071542,0.005369033475617186,-0.0006773187817690683
0.7000000000000001,0.9266930653062477,1.2134668675288744,-0.9549260582760105,0.19691522441781256,0.11275909030993747,0.0011648821675190604,1.5202361069443506,-0.2854125661802489,1.1481452021661451,0.32421862420568004,0.20730599358032267,0.0009464232684600926,-1.9120029048648592,1.0270816751111789,-1.6412859183116169,-0.6255731420248125,-0.20817991846430317,-0.04267332930050671,-0.04773089157857387,-1.7460826294726042,-4.631952676977615,-0.923726568405185,0.005797500875827325,-0.0006647863352478718
0.71,0.9417076175880712,1.2107148628262165,-0.9436080579456726,0.20009802255035697,0.11480957109029512,0.001173591342802394,1.5014552281823477,-0.2752004702657879,1.1318000330337916,0.3182798132544409,0.2050480780357653,0.0008709175283333703,-1.9653413603196321,0.9984651820987488,-1.7362283198191273,-0.6463770498393835,-0.21863688503629142,-0.04234165825827185,-0.04967860342480273,-1.7245200513176724,-4.645833860920343,-0.9234610301437108,0.006262264529468635,-0.000651382839127135
0.72,0.9565291284779553,1.2080621135187173,-0.9324629269411131,0.2032192963831439,0.1168365587650285,0.0011815515079747704,1.4821510889884166,-0.2652749307499342,1.114513100455954,0.31212738327869255,0.20269876747333906,0.000796016517237636,-2.0155956398756296,0.9698896323148283,-1.8279493280571555,-0.6660186362214793,-0.22851190421793,-0.04193798530357984,-0.0514440747306907,-1.7025308417624185,-4.658886311963974,-0.9230399367441599,0.006762329306033118,-0.0006371642614300541
0.73,0.9711526711851788,1.2055057592211658,-0.9214997624411915,0.2062770216370832,0.11883919071079167,0.0011887705335475185,1.4623542707223451,-0.2556354297551603,1.0963164499921616,0.30577252539392985,0.20026319457631636,0.0007219025572748002,-2.0627858136257426,0.9414645330728046,-1.916330877936947,-0.6844948176627179,-0.23782544740639988,-0.04146376330336354,-0.053025259416101346,-1.680145268343659,-4.671108435147733,-0.9224685732418708,0.007296519226684609,-0.0006221886357917393
0.74,0.9855736225240792,1.2030429556233406,-0.9107273294646393,0.2092692866039119,0.12081665434825462,0.0011952580375967333,1.4420951338900465,-0.24628035978251858,1.0772432976552178,0.29922649668286816,0.19774636374629354,0.0006487504049214746,-2.106934456880392,0.9132901347524675,-2.001266583245294,-0.7018060930632934,-0.24659707994132507,-0.040920557763433285,-0.054421679195750014,-1.6574002301014064,-4.682502784852663,-0.9217528512188433,0.00786347862593107,-0.0006065156878233372
0.75,0.9997876604597372,1.2006708844598633,-0.9001540503309425,0.21219429245482752,0.12276818589103117,0.0012010253073431675,1.421403793565803,-0.2372071163477485,1.0573279133696771,0.29250058509156307,0.1951531542776557,0.0005767269746434127,-2.1480667900221304,0.8854577166738703,-2.082661585317245,-0.7179563128522073,-0.2548452780937289,-0.04031006805512072,-0.055634386308601846,-1.6343383049980973,-4.693075751566926,-0.9208992349363935,0.008461676256496804,-0.0005902064543233879
0.76,1.0137907613952097,1.198386762582397,-0.8897879952710362,0.2150503532186819,0.12469306913799992,0.001206085218098016,1.4003100935472432,-0.22841218774663524,1.0366055059906296,0.28560607638543944,0.19248832469687524,0.0005059910754848438,-2.186210814807753,0.8580499082479222,-2.1604323472884013,-0.7329524351527725,-0.2625873011608073,-0.039634148552667336,-0.05666590140589277,-1.61100682242675,-4.702837246533718,-0.9199146701231298,0.009089412105569227,-0.0005733229006498987
0.77,1.0275791971878725,1.1961878501664336,-0.879636874166781,0.2178358954516387,0.1265906343172499,0.0012104521496749537,1.378843579266272,-0.21989124159633971,1.015112110425523,0.278554223295679,0.18975651792499695,0.0004366931576937716,-2.2213974442034865,0.831141039356891,-2.2345064002118518,-0.7468042724788466,-0.2698391147346628,-0.03889482881447215,-0.05752013005257996,-1.58745697008415,-4.711800386989106,-0.9188065156851167,0.009744826659699567,-0.000555927541277491
0.78,1.041149531882966,1.1940714580878353,-0.8697080293933945,0.2205494576211776,0.12846025698670438,0.0012141419003515144,1.357033469509344,-0.21163920785982807,0.9928844773386477,0.27135621695389156,0.1869622669454485,0.000368975067656068,-2.253660622998579,0.8047975142148612,-2.3048220472394476,-0.7595242323886451,-0.27661536079193816,-0.03809433196738854,-0.058202261375581564,-1.563742942940353,-4.71998118438424,-0.9175824785266203,0.01042591233221503,-0.0005380830681997416
0.79,1.0544986181532559,1.1920349545066555,-0.8600084297348382,0.22318968922798824,0.1303013569935644,0.0012171715984578772,1.3349086270289958,-0.20365035811798554,0.9699599658556373,0.26402316068106274,0.18411000068600197,0.0003029698106362759,-2.283037436590215,0.7790782032902424,-2.371328031920044,-0.771127055397999,-0.28292936991569206,-0.03723509053294094,-0.058718652392766114,-1.5399211405325166,-4.72739823768521,-0.9162505516016461,0.011130526750867726,-0.000519851991410125
0.8,1.0676235934348113,1.190075770697574,-0.8505446653385927,0.2257553496896484,0.13211339749209228,0.0012195596116776192,1.3124975281555396,-0.19591838090815628,0.9463764396245411,0.25656604616601486,0.18120404985278696,0.00023880132197420995,-2.3095682054715216,0.7540348482312549,-2.4339831764531015,-0.7816295533255779,-0.28879321072225306,-0.03631975906206086,-0.05907670148547395,-1.516049417375444,-4.734072433558591,-0.9148189552586151,0.011856407594266217,-0.0005012962952236518
0.81,1.0805218757502442,1.1881914061675896,-0.8413229436732792,0.22824530701003948,0.13389588401694338,0.0012213254541614297,1.2898282315432927,-0.1884364529984389,0.9221721665313586,0.2489957320391093,0.17824865248510952,0.00017658424838104552,-2.3332965630953195,0.7297124751136804,-2.492755995483495,-0.7910503510384137,-0.2942177714009748,-0.03535122302379812,-0.059284714341970864,-1.492186389934875,-4.7400266549838905,-0.9132960818925384,0.012601188662962498,-0.00048247711369761554
0.8200000000000001,1.0931911592123407,1.1863794331024506,-0.8323490864501613,0.23065853625823246,0.13564836360726343,0.0012224896915803154,1.2669283462096605,-0.18119730651389715,0.8973857223117927,0.24132292481929932,0.17524795903200427,0.00011642374188856735,-2.354269514937788,0.7061498117181808,-2.547624290721906,-0.7994096343669428,-0.2992128681794153,-0.03433260352770806,-0.05935176550835048,-1.4683908023687926,-4.745285499588036,-0.9116904438804767,0.013362416874344427,-0.00046345442788939587
0.8300000000000001,1.1056294092028174,1.1846375001837124,-0.8236285274676826,0.2329941178801015,0.13737042397510824,0.0012230738442776965,1.243824999047666,-0.1741932918738156,0.872055898247867,0.23355816218690392,0.17220603678448063,5.8415269738107144e-05,-2.37253747675325,0.6833797049387684,-2.59857473134733,-0.8067289067089112,-0.30378737550569124,-0.03326725757665494,-0.059287558446385585,-1.4447209521187796,-4.749875008772177,-0.9100106247459894,0.014137569879099207,-0.00044428678716358075
0.84,1.1178348572229473,1.1829633358183305,-0.8151663113368003,0.2352512358652119,0.13906169271041643,0.0012231002887184298,1.2205448020129872,-0.16741643653818278,0.8462216130882296,0.22571179851104203,0.1691268735308198,2.6444440733396277e-06,-2.3881542902051196,0.6614295348152078,-2.645602424797029,-0.8130307565784527,-0.3079493727776246,-0.03215877365803249,-0.05910228672455173,-1.4212341754356215,-4.753822408498321,-0.9082652334759563,0.014924074010283514,-0.0004250310562412897
0.85,1.1298059954149968,1.181354750822363,-0.8069670930439535,0.23742917579060863,0.14072183651377282,0.0012225921574757065,1.1971138192049442,-0.16085849959674717,0.8199218292846797,0.21779399253967333,0.16601438033563748,-5.081312427233501e-05,-2.401177214280431,0.6403216220678228,-2.6887104821810937,-0.8183386380699202,-0.3117063025598421,-0.031010962642084694,-0.05880649866873932,-1.3979863920539504,-4.757155862421751,-0.9064628618974719,0.01571932229326014,-0.00040574218918163613
0.86,1.141541570755766,1.1798096405997098,-0.7990351383080049,0.23952732276202693,0.14235056044753508,0.0012215732380416123,1.1735575340769036,-0.15451102226531963,0.7931954735948687,0.20981469714183107,0.16287239337622586,-0.0001018919434094209,-2.4116668911518713,0.6200736263871729,-2.727909582180909,-0.8226766659154272,-0.3150651353941356,-0.029827844024445938,-0.05841096748259269,-1.3750317074908724,-4.759904237894341,-0.9046120450125987,0.016520692265234744,-0.000386473031006536
0.87,1.153040578926015,1.1783259868558937,-0.7913743246873813,0.24154515927178646,0.1439476071955507,0.0012200678707929833,1.1499008170249105,-0.1483653743816024,0.7660813620623533,0.20178365097595385,0.15970467480156048,-0.00015053672486289345,-2.4196872854424827,0.600698933090926,-2.7632175369128147,-0.826069426498667,-0.3180325365500689,-0.028613627722685553,-0.057926568523154226,-1.352422070829559,-4.7620968852223635,-0.9027212241835368,0.01732556337612751,-0.00036727414723315195
0.88,1.1643022578621518,1.1769018588857252,-0.7839881433938791,0.24348226299124065,0.14551275632164812,0.0012181008464884214,1.1261678936136876,-0.14241279701685172,0.738618129350221,0.19371037194541826,0.15651491260974332,-0.0001967024304561901,-2.4253055961742893,0.5822070261032535,-2.794658862859176,-0.8285418058835159,-0.32061503035114125,-0.027372691703291485,-0.05736416509380164,-1.3302069853563523,-4.763763430438828,-0.900798713059344,0.0181313337673742,-0.0003481936811672534
0.89,1.175326080999213,1.1755354144723222,-0.7768797017701453,0.2453383045141642,0.14704582351733023,0.0012156973037139704,1.1023823137061257,-0.13664444134029027,0.7108441623733797,0.18560415229235433,0.15330671956821165,-0.00024035427744509755,-2.428592141039025,0.5646038455352324,-2.822264359597983,-0.8301188356006648,-0.3228191580716153,-0.026109555843182974,-0.05673450380084378,-1.3084332690412734,-4.764933581743,-0.898852666136798,0.018935436251310264,-0.00032927723844151913
0.9,1.1861117502168705,1.1742249004334164,-0.770051726388673,0.24711304506590084,0.1485466598296028,0.0012128826267320079,1.0785669217657476,-0.13105140389057485,0.6827975381472331,0.17747405517366405,0.15008363122725718,-0.00028146769819625784,-2.429620213013472,0.5478921284483074,-2.846070698701266,-0.8308255566310194,-0.3246516258009535,-0.024828852488512743,-0.0560481202189656,-1.2871448615786543,-4.765636949666995,-0.8968910498515765,0.019735353340453322,-0.0003105677979554359
0.91,1.1966591885028817,1.1729686528491865,-0.7635065667312055,0.2488063341914884,0.15001515086061235,0.0012096823442194397,1.0547438286011077,-0.12562475842298335,0.6545159657467464,0.16932891255875554,0.14684910310095584,-0.00032002825125681254,-2.4284659097447503,0.5320717316644299,-2.8661200248244585,-0.8306869017275069,-0.32611943913411157,-0.023535294281794017,-0.055315255329310996,-1.2663826745270996,-4.765902880949316,-0.8949216161008903,0.02052863120270576,-0.0002921056480920405
0.92,1.2069685323510468,1.1717650970040612,-0.7572461994087083,0.2504181074343562,0.15145121593171307,0.0012061220294055611,1.0309343848165262,-0.12035558451253156,0.6260367322497236,0.16117732428678402,0.14360650711007117,-0.0003560314813878627,-2.4252079365464065,0.5171399357474886,-2.882459570676702,-0.8297275959347683,-0.32723002203622276,-0.02223363984182264,-0.05454578293653893,-1.2461844809957077,-4.765760306026423,-0.8929518781045108,0.02131289244476227,-0.0002739283468491797
0.93,1.2170401239132955,1.1706127470730396,-0.7512722328834952,0.25194838401557623,0.15285480720569952,0.0012022272021366726,1.0071591562248579,-0.11523499310216367,0.5973966525213102,0.1530276581220033,0.14035912739864437,-0.00038948272688886325,-2.4199273842625253,0.5030917295193652,-2.8951412872468327,-0.8279720749036148,-0.3279913177586513,-0.02092865795538984,-0.05374914804075152,-1.226584841305901,-4.765237599994103,-0.8909890885172116,0.02208584765139256,-0.00025607070433071735
0.9400000000000001,1.226874502927947,1.1695102055811226,-0.745585912656664,0.2533972645220663,0.15422590876219486,0.0011980232334024717,0.9834379014651552,-0.11025414919170055,0.5686320226831271,0.14488805064900537,0.13711015564953277,-0.00042039687342008015,-2.412707483665345,0.48992007469330995,-2.904221490363469,-0.8254444203530618,-0.3284118702274883,-0.019625090941603585,-0.05293431593878421,-1.2076150611044354,-4.764362456839315,-0.8890402197116785,0.02284530563240935,-0.0002385647858931552
0.9500000000000001,1.2364723984484596,1.168456162662447,-0.7401881268856655,0.25476492861061606,0.15556453562253472,0.001193535252858239,0.9597895520512383,-0.10540429186756635,0.5397785770998524,0.1367664088549767,0.13386268603398666,-0.00044879805442326617,-2.40363333844138,0.47761615040573163,-2.9097605243929747,-0.8221683118156191,-0.3285008848791975,-0.018327617857540057,-0.052109731657985006,-1.1893031785029151,-4.763161776698934,-0.8871119461565857,0.023589182351721666,-0.00022143993413466012
0.96,1.2458347203990245,1.1674493951436904,-0.7350794123985828,0.25605163273314996,0.15687073272189853,0.0011887880598666668,0.9362321950564995,-0.10067675187565264,0.5108714487082766,0.12867041225339226,0.13061970993638086,-0.00047471929915721204,-2.3927916391811013,0.46616957760740835,-2.9118224436180684,-0.8181669936186653,-0.32826826846423707,-0.01704081820167519,-0.05128328918441262,-1.1716739769622164,-4.761661565863198,-0.8852106288195786,0.02431550853366986,-0.0002047228078430591
0.97,1.2549625509851854,1.1664887654742884,-0.7302599610734957,0.25725770788727487,0.15814457382787336,0.0011838060385639376,0.9127830586160938,-0.09606296694020083,0.4819451325087117,0.12060751541249146,0.1273841105974835,-0.0004982021302729313,-2.38027036110857,0.455568623437316,-2.910474711609291,-0.8134632558868278,-0.3277246478724303,-0.015769136749006485,-0.050462309835716784,-1.1547490208173685,-4.7598868492079704,-0.8833423015292481,0.025022435960661806,-0.00018843743598453972
0.98,1.2638571359891893,1.1655732205239837,-0.7257296265531371,0.25838355739489777,0.15938616040605574,0.0011786130774265747,0.8894585004003767,-0.0915544950304645,0.4530334520358518,0.11258495076228736,0.12415865781823801,-0.0005192961137362785,-2.366158448561071,0.44580038584835974,-2.905787918680364,-0.808079428230549,-0.3268813685335088,-0.014516850089785205,-0.0496535290455055,-1.138546710540671,-4.757861594709981,-0.8815126592336974,0.02570824249284674,-0.0001726052848119971
0.99,1.2725198759810248,1.1647017902662407,-0.7214879312668808,0.2594296547105512,0.16059562043466763,0.0011732324937795558,0.866273999183544,-0.08714302577431117,0.42416952862563256,0.10460973156533965,0.12094600286118724,-0.0005380583647018892,-2.3505454894485096,0.4368509588836499,-2.897835517325106,-0.8020373846897275,-0.3257504734049155,-0.013288035418261013,-0.04886309076892704,-1.123082355060639,-4.7556086496728005,-0.8797270480960493,0.026371335855111235,-0.0001572453361978607
